%
(1001)
(T1  D=0.125 CR=0 - ZMIN=-0.49 - flat end mill)
G90 G94
G17
G20

(2D Contour1)
M9
T1 M6
S11028 M3
G54
M8
G0 X1.3489 Y1.6594
Z0.6
Z0.2
G1 Z0.0894 F35
Z-0.0375
X1.3492 Z-0.0403
X1.3501 Z-0.0429
X1.3516 Z-0.0453
X1.3536 Z-0.0473
X1.356 Z-0.0488
X1.3586 Z-0.0497
X1.3614 Z-0.05
X1.3739 Y1.6593
G2 X1.3863 Y1.6467 I-0.0001 J-0.0125
G3 X1.3905 Y1.2859 I8.8465 J-0.0786
G1 X0.8382 Y1.7984
X1.3881 Y1.8061
G3 X1.3863 Y1.6467 I22.1326 J-0.3339
G2 X1.3737 Y1.6343 I-0.0125 J0.0001
G1 X1.3612 Y1.6344
X1.3585 Z-0.0497
X1.3558 Z-0.0488
X1.3534 Z-0.0473
X1.3515 Z-0.0453
X1.35 Z-0.0429
X1.3491 Z-0.0403
X1.3487 Z-0.0375
X1.3489 Y1.6594
Z-0.0875
X1.3492 Z-0.0903
X1.3501 Z-0.0929
X1.3516 Z-0.0953
X1.3536 Z-0.0973
X1.356 Z-0.0988
X1.3586 Z-0.0997
X1.3614 Z-0.1
X1.3739 Y1.6593
G2 X1.3863 Y1.6467 I-0.0001 J-0.0125
G3 X1.3905 Y1.2859 I8.8465 J-0.0786
G1 X0.8382 Y1.7984
X1.3881 Y1.8061
G3 X1.3863 Y1.6467 I22.1326 J-0.3339
G2 X1.3737 Y1.6343 I-0.0125 J0.0001
G1 X1.3612 Y1.6344
X1.3585 Z-0.0997
X1.3558 Z-0.0988
X1.3534 Z-0.0973
X1.3515 Z-0.0953
X1.35 Z-0.0929
X1.3491 Z-0.0903
X1.3487 Z-0.0875
X1.3489 Y1.6594
Z-0.1375
X1.3492 Z-0.1403
X1.3501 Z-0.1429
X1.3516 Z-0.1453
X1.3536 Z-0.1473
X1.356 Z-0.1488
X1.3586 Z-0.1497
X1.3614 Z-0.15
X1.3739 Y1.6593
G2 X1.3863 Y1.6467 I-0.0001 J-0.0125
G3 X1.3905 Y1.2859 I8.8465 J-0.0786
G1 X0.8382 Y1.7984
X1.3881 Y1.8061
G3 X1.3863 Y1.6467 I22.1326 J-0.3339
G2 X1.3737 Y1.6343 I-0.0125 J0.0001
G1 X1.3612 Y1.6344
X1.3585 Z-0.1497
X1.3558 Z-0.1488
X1.3534 Z-0.1473
X1.3515 Z-0.1453
X1.35 Z-0.1429
X1.3491 Z-0.1403
X1.3487 Z-0.1375
X1.3489 Y1.6594
Z-0.1875
X1.3492 Z-0.1903
X1.3501 Z-0.1929
X1.3516 Z-0.1953
X1.3536 Z-0.1973
X1.356 Z-0.1988
X1.3586 Z-0.1997
X1.3614 Z-0.2
X1.3739 Y1.6593
G2 X1.3863 Y1.6467 I-0.0001 J-0.0125
G3 X1.3905 Y1.2859 I8.8465 J-0.0786
G1 X0.8382 Y1.7984
X1.3881 Y1.8061
G3 X1.3863 Y1.6467 I22.1326 J-0.3339
G2 X1.3737 Y1.6343 I-0.0125 J0.0001
G1 X1.3612 Y1.6344
X1.3585 Z-0.1997
X1.3558 Z-0.1988
X1.3534 Z-0.1973
X1.3515 Z-0.1953
X1.35 Z-0.1929
X1.3491 Z-0.1903
X1.3487 Z-0.1875
X1.3489 Y1.6594
Z-0.2375
X1.3492 Z-0.2403
X1.3501 Z-0.2429
X1.3516 Z-0.2453
X1.3536 Z-0.2473
X1.356 Z-0.2488
X1.3586 Z-0.2497
X1.3614 Z-0.25
X1.3739 Y1.6593
G2 X1.3863 Y1.6467 I-0.0001 J-0.0125
G3 X1.3905 Y1.2859 I8.8465 J-0.0786
G1 X0.8382 Y1.7984
X1.3881 Y1.8061
G3 X1.3863 Y1.6467 I22.1326 J-0.3339
G2 X1.3737 Y1.6343 I-0.0125 J0.0001
G1 X1.3612 Y1.6344
X1.3585 Z-0.2497
X1.3558 Z-0.2488
X1.3534 Z-0.2473
X1.3515 Z-0.2453
X1.35 Z-0.2429
X1.3491 Z-0.2403
X1.3487 Z-0.2375
X1.3489 Y1.6594
Z-0.2875
X1.3492 Z-0.2903
X1.3501 Z-0.2929
X1.3516 Z-0.2953
X1.3536 Z-0.2973
X1.356 Z-0.2988
X1.3586 Z-0.2997
X1.3614 Z-0.3
X1.3739 Y1.6593
G2 X1.3863 Y1.6467 I-0.0001 J-0.0125
G3 X1.3905 Y1.2859 I8.8465 J-0.0786
G1 X0.8382 Y1.7984
X1.3881 Y1.8061
G3 X1.3863 Y1.6467 I22.1326 J-0.3339
G2 X1.3737 Y1.6343 I-0.0125 J0.0001
G1 X1.3612 Y1.6344
X1.3585 Z-0.2997
X1.3558 Z-0.2988
X1.3534 Z-0.2973
X1.3515 Z-0.2953
X1.35 Z-0.2929
X1.3491 Z-0.2903
X1.3487 Z-0.2875
X1.3489 Y1.6594
Z-0.3375
X1.3492 Z-0.3403
X1.3501 Z-0.3429
X1.3516 Z-0.3453
X1.3536 Z-0.3473
X1.356 Z-0.3488
X1.3586 Z-0.3497
X1.3614 Z-0.35
X1.3739 Y1.6593
G2 X1.3863 Y1.6467 I-0.0001 J-0.0125
G3 X1.3905 Y1.2859 I8.8465 J-0.0786
G1 X0.8382 Y1.7984
X1.3881 Y1.8061
G3 X1.3863 Y1.6467 I22.1326 J-0.3339
G2 X1.3737 Y1.6343 I-0.0125 J0.0001
G1 X1.3612 Y1.6344
X1.3585 Z-0.3497
X1.3558 Z-0.3488
X1.3534 Z-0.3473
X1.3515 Z-0.3453
X1.35 Z-0.3429
X1.3491 Z-0.3403
X1.3487 Z-0.3375
X1.3489 Y1.6594
Z-0.3875
X1.3492 Z-0.3903
X1.3501 Z-0.3929
X1.3516 Z-0.3953
X1.3536 Z-0.3973
X1.356 Z-0.3988
X1.3586 Z-0.3997
X1.3614 Z-0.4
X1.3739 Y1.6593
G2 X1.3863 Y1.6467 I-0.0001 J-0.0125
G3 X1.3905 Y1.2859 I8.8465 J-0.0786
G1 X0.8382 Y1.7984
X1.3881 Y1.8061
G3 X1.3863 Y1.6467 I22.1326 J-0.3339
G2 X1.3737 Y1.6343 I-0.0125 J0.0001
G1 X1.3612 Y1.6344
X1.3585 Z-0.3997
X1.3558 Z-0.3988
X1.3534 Z-0.3973
X1.3515 Z-0.3953
X1.35 Z-0.3929
X1.3491 Z-0.3903
X1.3487 Z-0.3875
X1.3489 Y1.6594
Z-0.4375
X1.3492 Z-0.4403
X1.3501 Z-0.4429
X1.3516 Z-0.4453
X1.3536 Z-0.4473
X1.356 Z-0.4488
X1.3586 Z-0.4497
X1.3614 Z-0.45
X1.3739 Y1.6593
G2 X1.3863 Y1.6467 I-0.0001 J-0.0125
G3 X1.3905 Y1.2859 I8.8265 J-0.0787
G1 X1.2856 Y1.3832
Z-0.44
X1.1024 Y1.5533
Z-0.45
X0.8382 Y1.7984
X1.0146 Y1.8009
Z-0.44
X1.2646 Y1.8044
Z-0.45
X1.3881 Y1.8061
G3 X1.3863 Y1.6467 I22.1326 J-0.3339
G2 X1.3737 Y1.6343 I-0.0125 J0.0001
G1 X1.3612 Y1.6344
X1.3585 Z-0.4497
X1.3558 Z-0.4488
X1.3534 Z-0.4473
X1.3515 Z-0.4453
X1.35 Z-0.4429
X1.3491 Z-0.4403
X1.3487 Z-0.4375
X1.3489 Y1.6594
Z-0.4775
X1.3492 Z-0.4803
X1.3501 Z-0.4829
X1.3516 Z-0.4853
X1.3536 Z-0.4873
X1.356 Z-0.4888
X1.3586 Z-0.4897
X1.3614 Z-0.49
X1.3739 Y1.6593
G2 X1.3863 Y1.6467 I-0.0001 J-0.0125
G3 X1.3905 Y1.2859 I8.8265 J-0.0787
G1 X1.2856 Y1.3832
Z-0.44
X1.1024 Y1.5533
Z-0.49
X0.8382 Y1.7984
X1.0146 Y1.8009
Z-0.44
X1.2646 Y1.8044
Z-0.49
X1.3881 Y1.8061
G3 X1.3863 Y1.6467 I22.1326 J-0.3339
G2 X1.3737 Y1.6343 I-0.0125 J0.0001
G1 X1.3612 Y1.6344
X1.3585 Z-0.4897
X1.3558 Z-0.4888
X1.3534 Z-0.4873
X1.3515 Z-0.4853
X1.35 Z-0.4829
X1.3491 Z-0.4803
X1.3487 Z-0.4775
G0 Z0.2
X-0.0998 Y2.0755
G1 Z0.0894 F35
Z-0.0375
X-0.0995 Y2.0756 Z-0.0403
X-0.0986 Y2.0759 Z-0.0429
X-0.0972 Y2.0762 Z-0.0453
X-0.0953 Y2.0768 Z-0.0473
X-0.093 Y2.0774 Z-0.0488
X-0.0905 Y2.078 Z-0.0497
X-0.0878 Y2.0788 Z-0.05
X-0.0757 Y2.082
G2 X-0.0604 Y2.0731 I0.0032 J-0.0121
G3 X-0.0542 Y2.0582 I0.0604 J0.0161
X0.0706 Y1.8515 I2.9389 J1.6347
X0.307 Y1.5748 I1.4369 J0.9881
X0.5151 Y1.3864 I2.6774 J2.7477
G2 X0.6417 Y1.273 I-1.9868 J-2.3453
G3 X1.3924 Y0.614 I10.7494 J11.4892
X1.4155 Y0.5065 I0.4302 J0.0364
G1 X1.4204 Y0.4955
G3 X1.4223 Y0.4914 I0.0576 J0.0242
G1 X1.4277 Y0.4809
G3 X1.4302 Y0.4765 I0.0557 J0.0283
G1 X1.4363 Y0.4665
G3 X1.4395 Y0.4618 I0.0532 J0.0328
G1 X1.4464 Y0.4525
G3 X1.4502 Y0.448 I0.05 J0.0374
G1 X1.4581 Y0.4393
G3 X1.4619 Y0.4355 I0.0463 J0.042
G1 X1.4705 Y0.4274
G3 X1.4741 Y0.4244 I0.0425 J0.0459
X1.565 Y0.3723 I0.2163 J0.2721
G1 X1.5771 Y0.3667
X1.5775 Y0.3666
X1.5898 Y0.3614
G3 X1.6058 Y0.357 I0.0244 J0.0576
X1.7028 Y0.3553 I0.0537 J0.2968
G2 X1.723 Y0.36 I0.0835 J-0.3126
G3 X2.0386 Y0.1287 I3.659 J4.6627
X2.3208 Y-0.0366 I1.8005 J2.7503
G1 X2.3491 Y-0.0521
G3 X2.3726 Y-0.0592 I0.0296 J0.0551
X2.463 Y-0.0596 I0.0466 J0.3376
X2.5545 Y-0.0204 I-0.0572 J0.2598
G1 X2.5605 Y-0.0173
G3 X2.5693 Y-0.0109 I-0.032 J0.0537
X2.6353 Y0.0583 I-0.2133 J0.2696
X2.6703 Y0.1447 I-0.2747 J0.1616
G1 X2.6718 Y0.1498
X2.6728 Y0.1551
X2.6733 Y0.1603
G3 X2.6691 Y0.2566 I-0.4122 J0.0303
X2.6635 Y0.2767 I-0.4075 J-0.1022
X2.6621 Y0.2809 I-0.0599 J-0.0177
G1 X2.6592 Y0.2887
G3 X2.6576 Y0.2927 I-0.0586 J-0.0219
X2.6001 Y0.3736 I-0.2398 J-0.1094
X2.5806 Y0.3943 I-0.3518 J-0.3128
G1 X2.5771 Y0.3975
X2.5734 Y0.4005
G3 X2.1285 Y0.7221 I-8.3247 J-11.0478
X1.928 Y0.8554 I-18.6582 J-27.8426
G1 X1.9225 Y1.3527
G2 X1.9241 Y1.8187 I7.3709 J0.2068
G3 X2.4949 Y1.827 I0.1906 J6.543
X2.7048 Y1.8435 I-0.0236 J1.6448
X2.8337 Y1.8804 I-0.0989 J0.5879
X2.9665 Y1.9725 I-0.1715 J0.3894
X3.052 Y2.0674 I-0.7805 J0.7888
G1 X3.0553 Y2.0716
X3.0583 Y2.0762
X3.0609 Y2.081
X3.063 Y2.0859
X3.0647 Y2.0911
X3.066 Y2.0964
X3.0667 Y2.1018
G3 X3.0658 Y2.1977 I-0.3258 J0.0449
X3.0306 Y2.2833 I-0.3164 J-0.0802
G1 X3.028 Y2.2881
X3.025 Y2.2927
G3 X2.9636 Y2.3587 I-0.2783 J-0.1977
X2.8731 Y2.3986 I-0.1522 J-0.2221
G1 X2.8667 Y2.4009
G3 X2.8515 Y2.4034 I-0.0176 J-0.06
X2.6394 Y2.3901 I-0.0531 J-0.8515
G1 X2.6303 Y2.3889
X2.6214 Y2.3875
X2.3016 Y2.3381
X0.9186 Y2.3126
X0.2517 Y2.3176
G3 X0.2448 Y2.3173 I-0.0005 J-0.0625
X0.1212 Y2.297 I0.0527 J-0.7093
X0.0778 Y2.2801 I0.1022 J-0.3255
G1 X0.0737 Y2.2779
X0.0627 Y2.2718
G3 X0.0583 Y2.2691 I0.0303 J-0.0547
G1 X0.0478 Y2.2622
G3 X0.0433 Y2.2589 I0.0346 J-0.052
G1 X0.0336 Y2.251
G3 X0.0294 Y2.2474 I0.0391 J-0.0487
G1 X0.0203 Y2.2387
G3 X0.017 Y2.2352 I0.0432 J-0.0451
X-0.0433 Y2.1422 I0.2662 J-0.2385
G1 X-0.0499 Y2.1297
X-0.0501 Y2.1293
X-0.0563 Y2.1165
G3 X-0.0604 Y2.0731 I0.0563 J-0.0272
G2 X-0.0692 Y2.0578 I-0.0121 J-0.0032
G1 X-0.0813 Y2.0546
X-0.084 Y2.0539 Z-0.0497
X-0.0866 Y2.0532 Z-0.0488
X-0.0888 Y2.0526 Z-0.0473
X-0.0908 Y2.0521 Z-0.0453
X-0.0922 Y2.0517 Z-0.0429
X-0.0931 Y2.0515 Z-0.0403
X-0.0934 Y2.0514 Z-0.0375
X-0.0998 Y2.0755
Z-0.0875
X-0.0995 Y2.0756 Z-0.0903
X-0.0986 Y2.0759 Z-0.0929
X-0.0972 Y2.0762 Z-0.0953
X-0.0953 Y2.0768 Z-0.0973
X-0.093 Y2.0774 Z-0.0988
X-0.0905 Y2.078 Z-0.0997
X-0.0878 Y2.0788 Z-0.1
X-0.0757 Y2.082
G2 X-0.0604 Y2.0731 I0.0032 J-0.0121
G3 X-0.0542 Y2.0582 I0.0604 J0.0161
X0.0706 Y1.8515 I2.9389 J1.6347
X0.307 Y1.5748 I1.4369 J0.9881
X0.5151 Y1.3864 I2.6774 J2.7477
G2 X0.6417 Y1.273 I-1.9868 J-2.3453
G3 X1.3924 Y0.614 I10.7494 J11.4892
X1.4155 Y0.5065 I0.4302 J0.0364
G1 X1.4204 Y0.4955
G3 X1.4223 Y0.4914 I0.0576 J0.0242
G1 X1.4277 Y0.4809
G3 X1.4302 Y0.4765 I0.0557 J0.0283
G1 X1.4363 Y0.4665
G3 X1.4395 Y0.4618 I0.0532 J0.0328
G1 X1.4464 Y0.4525
G3 X1.4502 Y0.448 I0.05 J0.0374
G1 X1.4581 Y0.4393
G3 X1.4619 Y0.4355 I0.0463 J0.042
G1 X1.4705 Y0.4274
G3 X1.4741 Y0.4244 I0.0425 J0.0459
X1.565 Y0.3723 I0.2163 J0.2721
G1 X1.5771 Y0.3667
X1.5775 Y0.3666
X1.5898 Y0.3614
G3 X1.6058 Y0.357 I0.0244 J0.0576
X1.7028 Y0.3553 I0.0537 J0.2968
G2 X1.723 Y0.36 I0.0835 J-0.3126
G3 X2.0386 Y0.1287 I3.659 J4.6627
X2.3208 Y-0.0366 I1.8005 J2.7503
G1 X2.3491 Y-0.0521
G3 X2.3726 Y-0.0592 I0.0296 J0.0551
X2.463 Y-0.0596 I0.0466 J0.3376
X2.5545 Y-0.0204 I-0.0572 J0.2598
G1 X2.5605 Y-0.0173
G3 X2.5693 Y-0.0109 I-0.032 J0.0537
X2.6353 Y0.0583 I-0.2133 J0.2696
X2.6703 Y0.1447 I-0.2747 J0.1616
G1 X2.6718 Y0.1498
X2.6728 Y0.1551
X2.6733 Y0.1603
G3 X2.6691 Y0.2566 I-0.4122 J0.0303
X2.6635 Y0.2767 I-0.4075 J-0.1022
X2.6621 Y0.2809 I-0.0599 J-0.0177
G1 X2.6592 Y0.2887
G3 X2.6576 Y0.2927 I-0.0586 J-0.0219
X2.6001 Y0.3736 I-0.2398 J-0.1094
X2.5806 Y0.3943 I-0.3518 J-0.3128
G1 X2.5771 Y0.3975
X2.5734 Y0.4005
G3 X2.1285 Y0.7221 I-8.3247 J-11.0478
X1.928 Y0.8554 I-18.6582 J-27.8426
G1 X1.9225 Y1.3527
G2 X1.9241 Y1.8187 I7.3709 J0.2068
G3 X2.4949 Y1.827 I0.1906 J6.543
X2.7048 Y1.8435 I-0.0236 J1.6448
X2.8337 Y1.8804 I-0.0989 J0.5879
X2.9665 Y1.9725 I-0.1715 J0.3894
X3.052 Y2.0674 I-0.7805 J0.7888
G1 X3.0553 Y2.0716
X3.0583 Y2.0762
X3.0609 Y2.081
X3.063 Y2.0859
X3.0647 Y2.0911
X3.066 Y2.0964
X3.0667 Y2.1018
G3 X3.0658 Y2.1977 I-0.3258 J0.0449
X3.0306 Y2.2833 I-0.3164 J-0.0802
G1 X3.028 Y2.2881
X3.025 Y2.2927
G3 X2.9636 Y2.3587 I-0.2783 J-0.1977
X2.8731 Y2.3986 I-0.1522 J-0.2221
G1 X2.8667 Y2.4009
G3 X2.8515 Y2.4034 I-0.0176 J-0.06
X2.6394 Y2.3901 I-0.0531 J-0.8515
G1 X2.6303 Y2.3889
X2.6214 Y2.3875
X2.3016 Y2.3381
X0.9186 Y2.3126
X0.2517 Y2.3176
G3 X0.2448 Y2.3173 I-0.0005 J-0.0625
X0.1212 Y2.297 I0.0527 J-0.7093
X0.0778 Y2.2801 I0.1022 J-0.3255
G1 X0.0737 Y2.2779
X0.0627 Y2.2718
G3 X0.0583 Y2.2691 I0.0303 J-0.0547
G1 X0.0478 Y2.2622
G3 X0.0433 Y2.2589 I0.0346 J-0.052
G1 X0.0336 Y2.251
G3 X0.0294 Y2.2474 I0.0391 J-0.0487
G1 X0.0203 Y2.2387
G3 X0.017 Y2.2352 I0.0432 J-0.0451
X-0.0433 Y2.1422 I0.2662 J-0.2385
G1 X-0.0499 Y2.1297
X-0.0501 Y2.1293
X-0.0563 Y2.1165
G3 X-0.0604 Y2.0731 I0.0563 J-0.0272
G2 X-0.0692 Y2.0578 I-0.0121 J-0.0032
G1 X-0.0813 Y2.0546
X-0.084 Y2.0539 Z-0.0997
X-0.0866 Y2.0532 Z-0.0988
X-0.0888 Y2.0526 Z-0.0973
X-0.0908 Y2.0521 Z-0.0953
X-0.0922 Y2.0517 Z-0.0929
X-0.0931 Y2.0515 Z-0.0903
X-0.0934 Y2.0514 Z-0.0875
X-0.0998 Y2.0755
Z-0.1375
X-0.0995 Y2.0756 Z-0.1403
X-0.0986 Y2.0759 Z-0.1429
X-0.0972 Y2.0762 Z-0.1453
X-0.0953 Y2.0768 Z-0.1473
X-0.093 Y2.0774 Z-0.1488
X-0.0905 Y2.078 Z-0.1497
X-0.0878 Y2.0788 Z-0.15
X-0.0757 Y2.082
G2 X-0.0604 Y2.0731 I0.0032 J-0.0121
G3 X-0.0542 Y2.0582 I0.0604 J0.0161
X0.0706 Y1.8515 I2.9389 J1.6347
X0.307 Y1.5748 I1.4369 J0.9881
X0.5151 Y1.3864 I2.6774 J2.7477
G2 X0.6417 Y1.273 I-1.9868 J-2.3453
G3 X1.3924 Y0.614 I10.7494 J11.4892
X1.4155 Y0.5065 I0.4302 J0.0364
G1 X1.4204 Y0.4955
G3 X1.4223 Y0.4914 I0.0576 J0.0242
G1 X1.4277 Y0.4809
G3 X1.4302 Y0.4765 I0.0557 J0.0283
G1 X1.4363 Y0.4665
G3 X1.4395 Y0.4618 I0.0532 J0.0328
G1 X1.4464 Y0.4525
G3 X1.4502 Y0.448 I0.05 J0.0374
G1 X1.4581 Y0.4393
G3 X1.4619 Y0.4355 I0.0463 J0.042
G1 X1.4705 Y0.4274
G3 X1.4741 Y0.4244 I0.0425 J0.0459
X1.565 Y0.3723 I0.2163 J0.2721
G1 X1.5771 Y0.3667
X1.5775 Y0.3666
X1.5898 Y0.3614
G3 X1.6058 Y0.357 I0.0244 J0.0576
X1.7028 Y0.3553 I0.0537 J0.2968
G2 X1.723 Y0.36 I0.0835 J-0.3126
G3 X2.0386 Y0.1287 I3.659 J4.6627
X2.3208 Y-0.0366 I1.8005 J2.7503
G1 X2.3491 Y-0.0521
G3 X2.3726 Y-0.0592 I0.0296 J0.0551
X2.463 Y-0.0596 I0.0466 J0.3376
X2.5545 Y-0.0204 I-0.0572 J0.2598
G1 X2.5605 Y-0.0173
G3 X2.5693 Y-0.0109 I-0.032 J0.0537
X2.6353 Y0.0583 I-0.2133 J0.2696
X2.6703 Y0.1447 I-0.2747 J0.1616
G1 X2.6718 Y0.1498
X2.6728 Y0.1551
X2.6733 Y0.1603
G3 X2.6691 Y0.2566 I-0.4122 J0.0303
X2.6635 Y0.2767 I-0.4075 J-0.1022
X2.6621 Y0.2809 I-0.0599 J-0.0177
G1 X2.6592 Y0.2887
G3 X2.6576 Y0.2927 I-0.0586 J-0.0219
X2.6001 Y0.3736 I-0.2398 J-0.1094
X2.5806 Y0.3943 I-0.3518 J-0.3128
G1 X2.5771 Y0.3975
X2.5734 Y0.4005
G3 X2.1285 Y0.7221 I-8.3247 J-11.0478
X1.928 Y0.8554 I-18.6582 J-27.8426
G1 X1.9225 Y1.3527
G2 X1.9241 Y1.8187 I7.3709 J0.2068
G3 X2.4949 Y1.827 I0.1906 J6.543
X2.7048 Y1.8435 I-0.0236 J1.6448
X2.8337 Y1.8804 I-0.0989 J0.5879
X2.9665 Y1.9725 I-0.1715 J0.3894
X3.052 Y2.0674 I-0.7805 J0.7888
G1 X3.0553 Y2.0716
X3.0583 Y2.0762
X3.0609 Y2.081
X3.063 Y2.0859
X3.0647 Y2.0911
X3.066 Y2.0964
X3.0667 Y2.1018
G3 X3.0658 Y2.1977 I-0.3258 J0.0449
X3.0306 Y2.2833 I-0.3164 J-0.0802
G1 X3.028 Y2.2881
X3.025 Y2.2927
G3 X2.9636 Y2.3587 I-0.2783 J-0.1977
X2.8731 Y2.3986 I-0.1522 J-0.2221
G1 X2.8667 Y2.4009
G3 X2.8515 Y2.4034 I-0.0176 J-0.06
X2.6394 Y2.3901 I-0.0531 J-0.8515
G1 X2.6303 Y2.3889
X2.6214 Y2.3875
X2.3016 Y2.3381
X0.9186 Y2.3126
X0.2517 Y2.3176
G3 X0.2448 Y2.3173 I-0.0005 J-0.0625
X0.1212 Y2.297 I0.0527 J-0.7093
X0.0778 Y2.2801 I0.1022 J-0.3255
G1 X0.0737 Y2.2779
X0.0627 Y2.2718
G3 X0.0583 Y2.2691 I0.0303 J-0.0547
G1 X0.0478 Y2.2622
G3 X0.0433 Y2.2589 I0.0346 J-0.052
G1 X0.0336 Y2.251
G3 X0.0294 Y2.2474 I0.0391 J-0.0487
G1 X0.0203 Y2.2387
G3 X0.017 Y2.2352 I0.0432 J-0.0451
X-0.0433 Y2.1422 I0.2662 J-0.2385
G1 X-0.0499 Y2.1297
X-0.0501 Y2.1293
X-0.0563 Y2.1165
G3 X-0.0604 Y2.0731 I0.0563 J-0.0272
G2 X-0.0692 Y2.0578 I-0.0121 J-0.0032
G1 X-0.0813 Y2.0546
X-0.084 Y2.0539 Z-0.1497
X-0.0866 Y2.0532 Z-0.1488
X-0.0888 Y2.0526 Z-0.1473
X-0.0908 Y2.0521 Z-0.1453
X-0.0922 Y2.0517 Z-0.1429
X-0.0931 Y2.0515 Z-0.1403
X-0.0934 Y2.0514 Z-0.1375
X-0.0998 Y2.0755
Z-0.1875
X-0.0995 Y2.0756 Z-0.1903
X-0.0986 Y2.0759 Z-0.1929
X-0.0972 Y2.0762 Z-0.1953
X-0.0953 Y2.0768 Z-0.1973
X-0.093 Y2.0774 Z-0.1988
X-0.0905 Y2.078 Z-0.1997
X-0.0878 Y2.0788 Z-0.2
X-0.0757 Y2.082
G2 X-0.0604 Y2.0731 I0.0032 J-0.0121
G3 X-0.0542 Y2.0582 I0.0604 J0.0161
X0.0706 Y1.8515 I2.9389 J1.6347
X0.307 Y1.5748 I1.4369 J0.9881
X0.5151 Y1.3864 I2.6774 J2.7477
G2 X0.6417 Y1.273 I-1.9868 J-2.3453
G3 X1.3924 Y0.614 I10.7494 J11.4892
X1.4155 Y0.5065 I0.4302 J0.0364
G1 X1.4204 Y0.4955
G3 X1.4223 Y0.4914 I0.0576 J0.0242
G1 X1.4277 Y0.4809
G3 X1.4302 Y0.4765 I0.0557 J0.0283
G1 X1.4363 Y0.4665
G3 X1.4395 Y0.4618 I0.0532 J0.0328
G1 X1.4464 Y0.4525
G3 X1.4502 Y0.448 I0.05 J0.0374
G1 X1.4581 Y0.4393
G3 X1.4619 Y0.4355 I0.0463 J0.042
G1 X1.4705 Y0.4274
G3 X1.4741 Y0.4244 I0.0425 J0.0459
X1.565 Y0.3723 I0.2163 J0.2721
G1 X1.5771 Y0.3667
X1.5775 Y0.3666
X1.5898 Y0.3614
G3 X1.6058 Y0.357 I0.0244 J0.0576
X1.7028 Y0.3553 I0.0537 J0.2968
G2 X1.723 Y0.36 I0.0835 J-0.3126
G3 X2.0386 Y0.1287 I3.659 J4.6627
X2.3208 Y-0.0366 I1.8005 J2.7503
G1 X2.3491 Y-0.0521
G3 X2.3726 Y-0.0592 I0.0296 J0.0551
X2.463 Y-0.0596 I0.0466 J0.3376
X2.5545 Y-0.0204 I-0.0572 J0.2598
G1 X2.5605 Y-0.0173
G3 X2.5693 Y-0.0109 I-0.032 J0.0537
X2.6353 Y0.0583 I-0.2133 J0.2696
X2.6703 Y0.1447 I-0.2747 J0.1616
G1 X2.6718 Y0.1498
X2.6728 Y0.1551
X2.6733 Y0.1603
G3 X2.6691 Y0.2566 I-0.4122 J0.0303
X2.6635 Y0.2767 I-0.4075 J-0.1022
X2.6621 Y0.2809 I-0.0599 J-0.0177
G1 X2.6592 Y0.2887
G3 X2.6576 Y0.2927 I-0.0586 J-0.0219
X2.6001 Y0.3736 I-0.2398 J-0.1094
X2.5806 Y0.3943 I-0.3518 J-0.3128
G1 X2.5771 Y0.3975
X2.5734 Y0.4005
G3 X2.1285 Y0.7221 I-8.3247 J-11.0478
X1.928 Y0.8554 I-18.6582 J-27.8426
G1 X1.9225 Y1.3527
G2 X1.9241 Y1.8187 I7.3709 J0.2068
G3 X2.4949 Y1.827 I0.1906 J6.543
X2.7048 Y1.8435 I-0.0236 J1.6448
X2.8337 Y1.8804 I-0.0989 J0.5879
X2.9665 Y1.9725 I-0.1715 J0.3894
X3.052 Y2.0674 I-0.7805 J0.7888
G1 X3.0553 Y2.0716
X3.0583 Y2.0762
X3.0609 Y2.081
X3.063 Y2.0859
X3.0647 Y2.0911
X3.066 Y2.0964
X3.0667 Y2.1018
G3 X3.0658 Y2.1977 I-0.3258 J0.0449
X3.0306 Y2.2833 I-0.3164 J-0.0802
G1 X3.028 Y2.2881
X3.025 Y2.2927
G3 X2.9636 Y2.3587 I-0.2783 J-0.1977
X2.8731 Y2.3986 I-0.1522 J-0.2221
G1 X2.8667 Y2.4009
G3 X2.8515 Y2.4034 I-0.0176 J-0.06
X2.6394 Y2.3901 I-0.0531 J-0.8515
G1 X2.6303 Y2.3889
X2.6214 Y2.3875
X2.3016 Y2.3381
X0.9186 Y2.3126
X0.2517 Y2.3176
G3 X0.2448 Y2.3173 I-0.0005 J-0.0625
X0.1212 Y2.297 I0.0527 J-0.7093
X0.0778 Y2.2801 I0.1022 J-0.3255
G1 X0.0737 Y2.2779
X0.0627 Y2.2718
G3 X0.0583 Y2.2691 I0.0303 J-0.0547
G1 X0.0478 Y2.2622
G3 X0.0433 Y2.2589 I0.0346 J-0.052
G1 X0.0336 Y2.251
G3 X0.0294 Y2.2474 I0.0391 J-0.0487
G1 X0.0203 Y2.2387
G3 X0.017 Y2.2352 I0.0432 J-0.0451
X-0.0433 Y2.1422 I0.2662 J-0.2385
G1 X-0.0499 Y2.1297
X-0.0501 Y2.1293
X-0.0563 Y2.1165
G3 X-0.0604 Y2.0731 I0.0563 J-0.0272
G2 X-0.0692 Y2.0578 I-0.0121 J-0.0032
G1 X-0.0813 Y2.0546
X-0.084 Y2.0539 Z-0.1997
X-0.0866 Y2.0532 Z-0.1988
X-0.0888 Y2.0526 Z-0.1973
X-0.0908 Y2.0521 Z-0.1953
X-0.0922 Y2.0517 Z-0.1929
X-0.0931 Y2.0515 Z-0.1903
X-0.0934 Y2.0514 Z-0.1875
X-0.0998 Y2.0755
Z-0.2375
X-0.0995 Y2.0756 Z-0.2403
X-0.0986 Y2.0759 Z-0.2429
X-0.0972 Y2.0762 Z-0.2453
X-0.0953 Y2.0768 Z-0.2473
X-0.093 Y2.0774 Z-0.2488
X-0.0905 Y2.078 Z-0.2497
X-0.0878 Y2.0788 Z-0.25
X-0.0757 Y2.082
G2 X-0.0604 Y2.0731 I0.0032 J-0.0121
G3 X-0.0542 Y2.0582 I0.0604 J0.0161
X0.0706 Y1.8515 I2.9389 J1.6347
X0.307 Y1.5748 I1.4369 J0.9881
X0.5151 Y1.3864 I2.6774 J2.7477
G2 X0.6417 Y1.273 I-1.9868 J-2.3453
G3 X1.3924 Y0.614 I10.7494 J11.4892
X1.4155 Y0.5065 I0.4302 J0.0364
G1 X1.4204 Y0.4955
G3 X1.4223 Y0.4914 I0.0576 J0.0242
G1 X1.4277 Y0.4809
G3 X1.4302 Y0.4765 I0.0557 J0.0283
G1 X1.4363 Y0.4665
G3 X1.4395 Y0.4618 I0.0532 J0.0328
G1 X1.4464 Y0.4525
G3 X1.4502 Y0.448 I0.05 J0.0374
G1 X1.4581 Y0.4393
G3 X1.4619 Y0.4355 I0.0463 J0.042
G1 X1.4705 Y0.4274
G3 X1.4741 Y0.4244 I0.0425 J0.0459
X1.565 Y0.3723 I0.2163 J0.2721
G1 X1.5771 Y0.3667
X1.5775 Y0.3666
X1.5898 Y0.3614
G3 X1.6058 Y0.357 I0.0244 J0.0576
X1.7028 Y0.3553 I0.0537 J0.2968
G2 X1.723 Y0.36 I0.0835 J-0.3126
G3 X2.0386 Y0.1287 I3.659 J4.6627
X2.3208 Y-0.0366 I1.8005 J2.7503
G1 X2.3491 Y-0.0521
G3 X2.3726 Y-0.0592 I0.0296 J0.0551
X2.463 Y-0.0596 I0.0466 J0.3376
X2.5545 Y-0.0204 I-0.0572 J0.2598
G1 X2.5605 Y-0.0173
G3 X2.5693 Y-0.0109 I-0.032 J0.0537
X2.6353 Y0.0583 I-0.2133 J0.2696
X2.6703 Y0.1447 I-0.2747 J0.1616
G1 X2.6718 Y0.1498
X2.6728 Y0.1551
X2.6733 Y0.1603
G3 X2.6691 Y0.2566 I-0.4122 J0.0303
X2.6635 Y0.2767 I-0.4075 J-0.1022
X2.6621 Y0.2809 I-0.0599 J-0.0177
G1 X2.6592 Y0.2887
G3 X2.6576 Y0.2927 I-0.0586 J-0.0219
X2.6001 Y0.3736 I-0.2398 J-0.1094
X2.5806 Y0.3943 I-0.3518 J-0.3128
G1 X2.5771 Y0.3975
X2.5734 Y0.4005
G3 X2.1285 Y0.7221 I-8.3247 J-11.0478
X1.928 Y0.8554 I-18.6582 J-27.8426
G1 X1.9225 Y1.3527
G2 X1.9241 Y1.8187 I7.3709 J0.2068
G3 X2.4949 Y1.827 I0.1906 J6.543
X2.7048 Y1.8435 I-0.0236 J1.6448
X2.8337 Y1.8804 I-0.0989 J0.5879
X2.9665 Y1.9725 I-0.1715 J0.3894
X3.052 Y2.0674 I-0.7805 J0.7888
G1 X3.0553 Y2.0716
X3.0583 Y2.0762
X3.0609 Y2.081
X3.063 Y2.0859
X3.0647 Y2.0911
X3.066 Y2.0964
X3.0667 Y2.1018
G3 X3.0658 Y2.1977 I-0.3258 J0.0449
X3.0306 Y2.2833 I-0.3164 J-0.0802
G1 X3.028 Y2.2881
X3.025 Y2.2927
G3 X2.9636 Y2.3587 I-0.2783 J-0.1977
X2.8731 Y2.3986 I-0.1522 J-0.2221
G1 X2.8667 Y2.4009
G3 X2.8515 Y2.4034 I-0.0176 J-0.06
X2.6394 Y2.3901 I-0.0531 J-0.8515
G1 X2.6303 Y2.3889
X2.6214 Y2.3875
X2.3016 Y2.3381
X0.9186 Y2.3126
X0.2517 Y2.3176
G3 X0.2448 Y2.3173 I-0.0005 J-0.0625
X0.1212 Y2.297 I0.0527 J-0.7093
X0.0778 Y2.2801 I0.1022 J-0.3255
G1 X0.0737 Y2.2779
X0.0627 Y2.2718
G3 X0.0583 Y2.2691 I0.0303 J-0.0547
G1 X0.0478 Y2.2622
G3 X0.0433 Y2.2589 I0.0346 J-0.052
G1 X0.0336 Y2.251
G3 X0.0294 Y2.2474 I0.0391 J-0.0487
G1 X0.0203 Y2.2387
G3 X0.017 Y2.2352 I0.0432 J-0.0451
X-0.0433 Y2.1422 I0.2662 J-0.2385
G1 X-0.0499 Y2.1297
X-0.0501 Y2.1293
X-0.0563 Y2.1165
G3 X-0.0604 Y2.0731 I0.0563 J-0.0272
G2 X-0.0692 Y2.0578 I-0.0121 J-0.0032
G1 X-0.0813 Y2.0546
X-0.084 Y2.0539 Z-0.2497
X-0.0866 Y2.0532 Z-0.2488
X-0.0888 Y2.0526 Z-0.2473
X-0.0908 Y2.0521 Z-0.2453
X-0.0922 Y2.0517 Z-0.2429
X-0.0931 Y2.0515 Z-0.2403
X-0.0934 Y2.0514 Z-0.2375
X-0.0998 Y2.0755
Z-0.2875
X-0.0995 Y2.0756 Z-0.2903
X-0.0986 Y2.0759 Z-0.2929
X-0.0972 Y2.0762 Z-0.2953
X-0.0953 Y2.0768 Z-0.2973
X-0.093 Y2.0774 Z-0.2988
X-0.0905 Y2.078 Z-0.2997
X-0.0878 Y2.0788 Z-0.3
X-0.0757 Y2.082
G2 X-0.0604 Y2.0731 I0.0032 J-0.0121
G3 X-0.0542 Y2.0582 I0.0604 J0.0161
X0.0706 Y1.8515 I2.9389 J1.6347
X0.307 Y1.5748 I1.4369 J0.9881
X0.5151 Y1.3864 I2.6774 J2.7477
G2 X0.6417 Y1.273 I-1.9868 J-2.3453
G3 X1.3924 Y0.614 I10.7494 J11.4892
X1.4155 Y0.5065 I0.4302 J0.0364
G1 X1.4204 Y0.4955
G3 X1.4223 Y0.4914 I0.0576 J0.0242
G1 X1.4277 Y0.4809
G3 X1.4302 Y0.4765 I0.0557 J0.0283
G1 X1.4363 Y0.4665
G3 X1.4395 Y0.4618 I0.0532 J0.0328
G1 X1.4464 Y0.4525
G3 X1.4502 Y0.448 I0.05 J0.0374
G1 X1.4581 Y0.4393
G3 X1.4619 Y0.4355 I0.0463 J0.042
G1 X1.4705 Y0.4274
G3 X1.4741 Y0.4244 I0.0425 J0.0459
X1.565 Y0.3723 I0.2163 J0.2721
G1 X1.5771 Y0.3667
X1.5775 Y0.3666
X1.5898 Y0.3614
G3 X1.6058 Y0.357 I0.0244 J0.0576
X1.7028 Y0.3553 I0.0537 J0.2968
G2 X1.723 Y0.36 I0.0835 J-0.3126
G3 X2.0386 Y0.1287 I3.659 J4.6627
X2.3208 Y-0.0366 I1.8005 J2.7503
G1 X2.3491 Y-0.0521
G3 X2.3726 Y-0.0592 I0.0296 J0.0551
X2.463 Y-0.0596 I0.0466 J0.3376
X2.5545 Y-0.0204 I-0.0572 J0.2598
G1 X2.5605 Y-0.0173
G3 X2.5693 Y-0.0109 I-0.032 J0.0537
X2.6353 Y0.0583 I-0.2133 J0.2696
X2.6703 Y0.1447 I-0.2747 J0.1616
G1 X2.6718 Y0.1498
X2.6728 Y0.1551
X2.6733 Y0.1603
G3 X2.6691 Y0.2566 I-0.4122 J0.0303
X2.6635 Y0.2767 I-0.4075 J-0.1022
X2.6621 Y0.2809 I-0.0599 J-0.0177
G1 X2.6592 Y0.2887
G3 X2.6576 Y0.2927 I-0.0586 J-0.0219
X2.6001 Y0.3736 I-0.2398 J-0.1094
X2.5806 Y0.3943 I-0.3518 J-0.3128
G1 X2.5771 Y0.3975
X2.5734 Y0.4005
G3 X2.1285 Y0.7221 I-8.3247 J-11.0478
X1.928 Y0.8554 I-18.6582 J-27.8426
G1 X1.9225 Y1.3527
G2 X1.9241 Y1.8187 I7.3709 J0.2068
G3 X2.4949 Y1.827 I0.1906 J6.543
X2.7048 Y1.8435 I-0.0236 J1.6448
X2.8337 Y1.8804 I-0.0989 J0.5879
X2.9665 Y1.9725 I-0.1715 J0.3894
X3.052 Y2.0674 I-0.7805 J0.7888
G1 X3.0553 Y2.0716
X3.0583 Y2.0762
X3.0609 Y2.081
X3.063 Y2.0859
X3.0647 Y2.0911
X3.066 Y2.0964
X3.0667 Y2.1018
G3 X3.0658 Y2.1977 I-0.3258 J0.0449
X3.0306 Y2.2833 I-0.3164 J-0.0802
G1 X3.028 Y2.2881
X3.025 Y2.2927
G3 X2.9636 Y2.3587 I-0.2783 J-0.1977
X2.8731 Y2.3986 I-0.1522 J-0.2221
G1 X2.8667 Y2.4009
G3 X2.8515 Y2.4034 I-0.0176 J-0.06
X2.6394 Y2.3901 I-0.0531 J-0.8515
G1 X2.6303 Y2.3889
X2.6214 Y2.3875
X2.3016 Y2.3381
X0.9186 Y2.3126
X0.2517 Y2.3176
G3 X0.2448 Y2.3173 I-0.0005 J-0.0625
X0.1212 Y2.297 I0.0527 J-0.7093
X0.0778 Y2.2801 I0.1022 J-0.3255
G1 X0.0737 Y2.2779
X0.0627 Y2.2718
G3 X0.0583 Y2.2691 I0.0303 J-0.0547
G1 X0.0478 Y2.2622
G3 X0.0433 Y2.2589 I0.0346 J-0.052
G1 X0.0336 Y2.251
G3 X0.0294 Y2.2474 I0.0391 J-0.0487
G1 X0.0203 Y2.2387
G3 X0.017 Y2.2352 I0.0432 J-0.0451
X-0.0433 Y2.1422 I0.2662 J-0.2385
G1 X-0.0499 Y2.1297
X-0.0501 Y2.1293
X-0.0563 Y2.1165
G3 X-0.0604 Y2.0731 I0.0563 J-0.0272
G2 X-0.0692 Y2.0578 I-0.0121 J-0.0032
G1 X-0.0813 Y2.0546
X-0.084 Y2.0539 Z-0.2997
X-0.0866 Y2.0532 Z-0.2988
X-0.0888 Y2.0526 Z-0.2973
X-0.0908 Y2.0521 Z-0.2953
X-0.0922 Y2.0517 Z-0.2929
X-0.0931 Y2.0515 Z-0.2903
X-0.0934 Y2.0514 Z-0.2875
X-0.0998 Y2.0755
Z-0.3375
X-0.0995 Y2.0756 Z-0.3403
X-0.0986 Y2.0759 Z-0.3429
X-0.0972 Y2.0762 Z-0.3453
X-0.0953 Y2.0768 Z-0.3473
X-0.093 Y2.0774 Z-0.3488
X-0.0905 Y2.078 Z-0.3497
X-0.0878 Y2.0788 Z-0.35
X-0.0757 Y2.082
G2 X-0.0604 Y2.0731 I0.0032 J-0.0121
G3 X-0.0542 Y2.0582 I0.0604 J0.0161
X0.0706 Y1.8515 I2.9389 J1.6347
X0.307 Y1.5748 I1.4369 J0.9881
X0.5151 Y1.3864 I2.6774 J2.7477
G2 X0.6417 Y1.273 I-1.9868 J-2.3453
G3 X1.3924 Y0.614 I10.7494 J11.4892
X1.4155 Y0.5065 I0.4302 J0.0364
G1 X1.4204 Y0.4955
G3 X1.4223 Y0.4914 I0.0576 J0.0242
G1 X1.4277 Y0.4809
G3 X1.4302 Y0.4765 I0.0557 J0.0283
G1 X1.4363 Y0.4665
G3 X1.4395 Y0.4618 I0.0532 J0.0328
G1 X1.4464 Y0.4525
G3 X1.4502 Y0.448 I0.05 J0.0374
G1 X1.4581 Y0.4393
G3 X1.4619 Y0.4355 I0.0463 J0.042
G1 X1.4705 Y0.4274
G3 X1.4741 Y0.4244 I0.0425 J0.0459
X1.565 Y0.3723 I0.2163 J0.2721
G1 X1.5771 Y0.3667
X1.5775 Y0.3666
X1.5898 Y0.3614
G3 X1.6058 Y0.357 I0.0244 J0.0576
X1.7028 Y0.3553 I0.0537 J0.2968
G2 X1.723 Y0.36 I0.0835 J-0.3126
G3 X2.0386 Y0.1287 I3.659 J4.6627
X2.3208 Y-0.0366 I1.8005 J2.7503
G1 X2.3491 Y-0.0521
G3 X2.3726 Y-0.0592 I0.0296 J0.0551
X2.463 Y-0.0596 I0.0466 J0.3376
X2.5545 Y-0.0204 I-0.0572 J0.2598
G1 X2.5605 Y-0.0173
G3 X2.5693 Y-0.0109 I-0.032 J0.0537
X2.6353 Y0.0583 I-0.2133 J0.2696
X2.6703 Y0.1447 I-0.2747 J0.1616
G1 X2.6718 Y0.1498
X2.6728 Y0.1551
X2.6733 Y0.1603
G3 X2.6691 Y0.2566 I-0.4122 J0.0303
X2.6635 Y0.2767 I-0.4075 J-0.1022
X2.6621 Y0.2809 I-0.0599 J-0.0177
G1 X2.6592 Y0.2887
G3 X2.6576 Y0.2927 I-0.0586 J-0.0219
X2.6001 Y0.3736 I-0.2398 J-0.1094
X2.5806 Y0.3943 I-0.3518 J-0.3128
G1 X2.5771 Y0.3975
X2.5734 Y0.4005
G3 X2.1285 Y0.7221 I-8.3247 J-11.0478
X1.928 Y0.8554 I-18.6582 J-27.8426
G1 X1.9225 Y1.3527
G2 X1.9241 Y1.8187 I7.3709 J0.2068
G3 X2.4949 Y1.827 I0.1906 J6.543
X2.7048 Y1.8435 I-0.0236 J1.6448
X2.8337 Y1.8804 I-0.0989 J0.5879
X2.9665 Y1.9725 I-0.1715 J0.3894
X3.052 Y2.0674 I-0.7805 J0.7888
G1 X3.0553 Y2.0716
X3.0583 Y2.0762
X3.0609 Y2.081
X3.063 Y2.0859
X3.0647 Y2.0911
X3.066 Y2.0964
X3.0667 Y2.1018
G3 X3.0658 Y2.1977 I-0.3258 J0.0449
X3.0306 Y2.2833 I-0.3164 J-0.0802
G1 X3.028 Y2.2881
X3.025 Y2.2927
G3 X2.9636 Y2.3587 I-0.2783 J-0.1977
X2.8731 Y2.3986 I-0.1522 J-0.2221
G1 X2.8667 Y2.4009
G3 X2.8515 Y2.4034 I-0.0176 J-0.06
X2.6394 Y2.3901 I-0.0531 J-0.8515
G1 X2.6303 Y2.3889
X2.6214 Y2.3875
X2.3016 Y2.3381
X0.9186 Y2.3126
X0.2517 Y2.3176
G3 X0.2448 Y2.3173 I-0.0005 J-0.0625
X0.1212 Y2.297 I0.0527 J-0.7093
X0.0778 Y2.2801 I0.1022 J-0.3255
G1 X0.0737 Y2.2779
X0.0627 Y2.2718
G3 X0.0583 Y2.2691 I0.0303 J-0.0547
G1 X0.0478 Y2.2622
G3 X0.0433 Y2.2589 I0.0346 J-0.052
G1 X0.0336 Y2.251
G3 X0.0294 Y2.2474 I0.0391 J-0.0487
G1 X0.0203 Y2.2387
G3 X0.017 Y2.2352 I0.0432 J-0.0451
X-0.0433 Y2.1422 I0.2662 J-0.2385
G1 X-0.0499 Y2.1297
X-0.0501 Y2.1293
X-0.0563 Y2.1165
G3 X-0.0604 Y2.0731 I0.0563 J-0.0272
G2 X-0.0692 Y2.0578 I-0.0121 J-0.0032
G1 X-0.0813 Y2.0546
X-0.084 Y2.0539 Z-0.3497
X-0.0866 Y2.0532 Z-0.3488
X-0.0888 Y2.0526 Z-0.3473
X-0.0908 Y2.0521 Z-0.3453
X-0.0922 Y2.0517 Z-0.3429
X-0.0931 Y2.0515 Z-0.3403
X-0.0934 Y2.0514 Z-0.3375
X-0.0998 Y2.0755
Z-0.3875
X-0.0995 Y2.0756 Z-0.3903
X-0.0986 Y2.0759 Z-0.3929
X-0.0972 Y2.0762 Z-0.3953
X-0.0953 Y2.0768 Z-0.3973
X-0.093 Y2.0774 Z-0.3988
X-0.0905 Y2.078 Z-0.3997
X-0.0878 Y2.0788 Z-0.4
X-0.0757 Y2.082
G2 X-0.0604 Y2.0731 I0.0032 J-0.0121
G3 X-0.0542 Y2.0582 I0.0604 J0.0161
X0.0706 Y1.8515 I2.9389 J1.6347
X0.307 Y1.5748 I1.4369 J0.9881
X0.5151 Y1.3864 I2.6774 J2.7477
G2 X0.6417 Y1.273 I-1.9868 J-2.3453
G3 X1.3924 Y0.614 I10.7494 J11.4892
X1.4155 Y0.5065 I0.4302 J0.0364
G1 X1.4204 Y0.4955
G3 X1.4223 Y0.4914 I0.0576 J0.0242
G1 X1.4277 Y0.4809
G3 X1.4302 Y0.4765 I0.0557 J0.0283
G1 X1.4363 Y0.4665
G3 X1.4395 Y0.4618 I0.0532 J0.0328
G1 X1.4464 Y0.4525
G3 X1.4502 Y0.448 I0.05 J0.0374
G1 X1.4581 Y0.4393
G3 X1.4619 Y0.4355 I0.0463 J0.042
G1 X1.4705 Y0.4274
G3 X1.4741 Y0.4244 I0.0425 J0.0459
X1.565 Y0.3723 I0.2163 J0.2721
G1 X1.5771 Y0.3667
X1.5775 Y0.3666
X1.5898 Y0.3614
G3 X1.6058 Y0.357 I0.0244 J0.0576
X1.7028 Y0.3553 I0.0537 J0.2968
G2 X1.723 Y0.36 I0.0835 J-0.3126
G3 X2.0386 Y0.1287 I3.659 J4.6627
X2.3208 Y-0.0366 I1.8005 J2.7503
G1 X2.3491 Y-0.0521
G3 X2.3726 Y-0.0592 I0.0296 J0.0551
X2.463 Y-0.0596 I0.0466 J0.3376
X2.5545 Y-0.0204 I-0.0572 J0.2598
G1 X2.5605 Y-0.0173
G3 X2.5693 Y-0.0109 I-0.032 J0.0537
X2.6353 Y0.0583 I-0.2133 J0.2696
X2.6703 Y0.1447 I-0.2747 J0.1616
G1 X2.6718 Y0.1498
X2.6728 Y0.1551
X2.6733 Y0.1603
G3 X2.6691 Y0.2566 I-0.4122 J0.0303
X2.6635 Y0.2767 I-0.4075 J-0.1022
X2.6621 Y0.2809 I-0.0599 J-0.0177
G1 X2.6592 Y0.2887
G3 X2.6576 Y0.2927 I-0.0586 J-0.0219
X2.6001 Y0.3736 I-0.2398 J-0.1094
X2.5806 Y0.3943 I-0.3518 J-0.3128
G1 X2.5771 Y0.3975
X2.5734 Y0.4005
G3 X2.1285 Y0.7221 I-8.3247 J-11.0478
X1.928 Y0.8554 I-18.6582 J-27.8426
G1 X1.9225 Y1.3527
G2 X1.9241 Y1.8187 I7.3709 J0.2068
G3 X2.4949 Y1.827 I0.1906 J6.543
X2.7048 Y1.8435 I-0.0236 J1.6448
X2.8337 Y1.8804 I-0.0989 J0.5879
X2.9665 Y1.9725 I-0.1715 J0.3894
X3.052 Y2.0674 I-0.7805 J0.7888
G1 X3.0553 Y2.0716
X3.0583 Y2.0762
X3.0609 Y2.081
X3.063 Y2.0859
X3.0647 Y2.0911
X3.066 Y2.0964
X3.0667 Y2.1018
G3 X3.0658 Y2.1977 I-0.3258 J0.0449
X3.0306 Y2.2833 I-0.3164 J-0.0802
G1 X3.028 Y2.2881
X3.025 Y2.2927
G3 X2.9636 Y2.3587 I-0.2783 J-0.1977
X2.8731 Y2.3986 I-0.1522 J-0.2221
G1 X2.8667 Y2.4009
G3 X2.8515 Y2.4034 I-0.0176 J-0.06
X2.6394 Y2.3901 I-0.0531 J-0.8515
G1 X2.6303 Y2.3889
X2.6214 Y2.3875
X2.3016 Y2.3381
X0.9186 Y2.3126
X0.2517 Y2.3176
G3 X0.2448 Y2.3173 I-0.0005 J-0.0625
X0.1212 Y2.297 I0.0527 J-0.7093
X0.0778 Y2.2801 I0.1022 J-0.3255
G1 X0.0737 Y2.2779
X0.0627 Y2.2718
G3 X0.0583 Y2.2691 I0.0303 J-0.0547
G1 X0.0478 Y2.2622
G3 X0.0433 Y2.2589 I0.0346 J-0.052
G1 X0.0336 Y2.251
G3 X0.0294 Y2.2474 I0.0391 J-0.0487
G1 X0.0203 Y2.2387
G3 X0.017 Y2.2352 I0.0432 J-0.0451
X-0.0433 Y2.1422 I0.2662 J-0.2385
G1 X-0.0499 Y2.1297
X-0.0501 Y2.1293
X-0.0563 Y2.1165
G3 X-0.0604 Y2.0731 I0.0563 J-0.0272
G2 X-0.0692 Y2.0578 I-0.0121 J-0.0032
G1 X-0.0813 Y2.0546
X-0.084 Y2.0539 Z-0.3997
X-0.0866 Y2.0532 Z-0.3988
X-0.0888 Y2.0526 Z-0.3973
X-0.0908 Y2.0521 Z-0.3953
X-0.0922 Y2.0517 Z-0.3929
X-0.0931 Y2.0515 Z-0.3903
X-0.0934 Y2.0514 Z-0.3875
X-0.0998 Y2.0755
Z-0.4375
X-0.0995 Y2.0756 Z-0.4403
X-0.0986 Y2.0759 Z-0.4429
X-0.0972 Y2.0762 Z-0.4453
X-0.0953 Y2.0768 Z-0.4473
X-0.093 Y2.0774 Z-0.4488
X-0.0905 Y2.078 Z-0.4497
X-0.0878 Y2.0788 Z-0.45
X-0.0757 Y2.082
G2 X-0.0604 Y2.0731 I0.0032 J-0.0121
G3 X-0.0542 Y2.0582 I0.0604 J0.0161
X0.0706 Y1.8515 I2.9389 J1.6347
X0.307 Y1.5748 I1.4369 J0.9881
X0.4808 Y1.416 I2.344 J2.391
G1 X0.4807 Y1.4159 Z-0.44
G3 X0.5746 Y1.3352 I9.0504 J10.4403
G1 X0.6077 Y1.3045
X0.6417 Y1.273
X0.6673 Y1.2494
Z-0.45
G3 X1.376 Y0.6278 I10.4174 J11.1626
G1 X1.3922 Y0.6138
G3 X1.4155 Y0.5065 I0.4509 J0.0419
G1 X1.4204 Y0.4955
G3 X1.4223 Y0.4914 I0.0576 J0.0242
G1 X1.4277 Y0.4809
G3 X1.4302 Y0.4765 I0.0557 J0.0283
G1 X1.4363 Y0.4665
G3 X1.4395 Y0.4618 I0.0532 J0.0328
G1 X1.4464 Y0.4525
G3 X1.4502 Y0.448 I0.05 J0.0374
G1 X1.4581 Y0.4393
G3 X1.4619 Y0.4355 I0.0463 J0.042
G1 X1.4705 Y0.4274
G3 X1.4741 Y0.4244 I0.0425 J0.0459
X1.565 Y0.3723 I0.2163 J0.2721
G1 X1.5771 Y0.3667
X1.5775 Y0.3666
X1.5898 Y0.3614
G3 X1.6058 Y0.357 I0.0244 J0.0576
X1.7028 Y0.3553 I0.0537 J0.2968
G2 X1.723 Y0.36 I0.0835 J-0.3126
G3 X2.0386 Y0.1287 I3.659 J4.6627
X2.3208 Y-0.0366 I1.8005 J2.7503
G1 X2.3491 Y-0.0521
G3 X2.3726 Y-0.0592 I0.0296 J0.0551
X2.463 Y-0.0596 I0.0466 J0.3376
X2.5545 Y-0.0204 I-0.0572 J0.2598
G1 X2.5605 Y-0.0173
G3 X2.5693 Y-0.0109 I-0.032 J0.0537
X2.6353 Y0.0583 I-0.2133 J0.2696
X2.6703 Y0.1447 I-0.2747 J0.1616
G1 X2.6718 Y0.1498
X2.6728 Y0.1551
X2.6733 Y0.1603
G3 X2.6691 Y0.2566 I-0.4122 J0.0303
X2.6635 Y0.2767 I-0.4075 J-0.1022
X2.6621 Y0.2809 I-0.0599 J-0.0177
G1 X2.6592 Y0.2887
G3 X2.6576 Y0.2927 I-0.0586 J-0.0219
G1 X2.6543 Y0.2999
Z-0.44
G3 X2.5934 Y0.3806 I-0.259 J-0.1321
G1 X2.5872 Y0.3875
X2.587 Y0.3877
X2.5806 Y0.3943
G3 X2.5734 Y0.4005 I-0.0445 J-0.0439
G1 X2.473 Y0.475
Z-0.45
G3 X1.928 Y0.8554 I-6.1432 J-8.2219
G1 X1.9225 Y1.3527
G2 X1.9241 Y1.8187 I7.3709 J0.2068
G3 X2.3698 Y1.8208 I0.1917 J6.6959
G1 Y1.821 Z-0.44
X2.4845 Y1.8263
X2.5992 Y1.8318
X2.6195 Y1.8334
Z-0.45
G3 X2.783 Y1.8618 I-0.0535 J0.7922
X2.9665 Y1.9724 I-0.1219 J0.41
X3.052 Y2.0674 I-0.797 J0.8033
G1 X3.0554 Y2.0716
X3.0583 Y2.0762
X3.0609 Y2.081
X3.063 Y2.0859
X3.0647 Y2.0911
X3.066 Y2.0964
X3.0667 Y2.1018
G3 X3.0658 Y2.1977 I-0.3258 J0.0449
X3.0306 Y2.2833 I-0.3164 J-0.0802
G1 X3.028 Y2.2881
X3.025 Y2.2927
G3 X2.9636 Y2.3587 I-0.2783 J-0.1977
X2.8731 Y2.3986 I-0.1522 J-0.2221
G1 X2.8667 Y2.4009
G3 X2.8515 Y2.4034 I-0.0176 J-0.06
X2.6394 Y2.3901 I-0.0531 J-0.8515
G1 X2.6303 Y2.3889
X2.6214 Y2.3875
X2.3016 Y2.3381
X1.0444 Y2.3149
Z-0.44
X0.9186 Y2.3126
X0.7944 Y2.3136
Z-0.45
X0.2517 Y2.3176
G3 X0.2448 Y2.3173 I-0.0005 J-0.0625
X0.1212 Y2.297 I0.0527 J-0.7093
X0.0778 Y2.2801 I0.1022 J-0.3255
G1 X0.0737 Y2.2779
X0.0627 Y2.2718
G3 X0.0583 Y2.2691 I0.0303 J-0.0547
G1 X0.0478 Y2.2622
G3 X0.0433 Y2.2589 I0.0346 J-0.052
G1 X0.0336 Y2.251
G3 X0.0294 Y2.2474 I0.0391 J-0.0487
G1 X0.0203 Y2.2387
G3 X0.017 Y2.2352 I0.0432 J-0.0451
X-0.0433 Y2.1422 I0.2662 J-0.2385
G1 X-0.0499 Y2.1297
X-0.0501 Y2.1293
X-0.0563 Y2.1165
G3 X-0.0604 Y2.0731 I0.0563 J-0.0272
G2 X-0.0692 Y2.0578 I-0.0121 J-0.0032
G1 X-0.0813 Y2.0546
X-0.084 Y2.0539 Z-0.4497
X-0.0866 Y2.0532 Z-0.4488
X-0.0888 Y2.0526 Z-0.4473
X-0.0908 Y2.0521 Z-0.4453
X-0.0922 Y2.0517 Z-0.4429
X-0.0931 Y2.0515 Z-0.4403
X-0.0934 Y2.0514 Z-0.4375
X-0.0998 Y2.0755
Z-0.4775
X-0.0995 Y2.0756 Z-0.4803
X-0.0986 Y2.0759 Z-0.4829
X-0.0972 Y2.0762 Z-0.4853
X-0.0953 Y2.0768 Z-0.4873
X-0.093 Y2.0774 Z-0.4888
X-0.0905 Y2.078 Z-0.4897
X-0.0878 Y2.0788 Z-0.49
X-0.0757 Y2.082
G2 X-0.0604 Y2.0731 I0.0032 J-0.0121
G3 X-0.0542 Y2.0582 I0.0604 J0.0161
X0.0706 Y1.8515 I2.9389 J1.6347
X0.307 Y1.5748 I1.4369 J0.9881
X0.4808 Y1.416 I2.344 J2.391
G1 X0.4807 Y1.4159 Z-0.44
G3 X0.5746 Y1.3352 I9.0504 J10.4403
G1 X0.6077 Y1.3045
X0.6417 Y1.273
X0.6673 Y1.2494
Z-0.49
G3 X1.376 Y0.6278 I10.4174 J11.1626
G1 X1.3922 Y0.6138
G3 X1.4155 Y0.5065 I0.4509 J0.0419
G1 X1.4204 Y0.4955
G3 X1.4223 Y0.4914 I0.0576 J0.0242
G1 X1.4277 Y0.4809
G3 X1.4302 Y0.4765 I0.0557 J0.0283
G1 X1.4363 Y0.4665
G3 X1.4395 Y0.4618 I0.0532 J0.0328
G1 X1.4464 Y0.4525
G3 X1.4502 Y0.448 I0.05 J0.0374
G1 X1.4581 Y0.4393
G3 X1.4619 Y0.4355 I0.0463 J0.042
G1 X1.4705 Y0.4274
G3 X1.4741 Y0.4244 I0.0425 J0.0459
X1.565 Y0.3723 I0.2163 J0.2721
G1 X1.5771 Y0.3667
X1.5775 Y0.3666
X1.5898 Y0.3614
G3 X1.6058 Y0.357 I0.0244 J0.0576
X1.7028 Y0.3553 I0.0537 J0.2968
G2 X1.723 Y0.36 I0.0835 J-0.3126
G3 X2.0386 Y0.1287 I3.659 J4.6627
X2.3208 Y-0.0366 I1.8005 J2.7503
G1 X2.3491 Y-0.0521
G3 X2.3726 Y-0.0592 I0.0296 J0.0551
X2.463 Y-0.0596 I0.0466 J0.3376
X2.5545 Y-0.0204 I-0.0572 J0.2598
G1 X2.5605 Y-0.0173
G3 X2.5693 Y-0.0109 I-0.032 J0.0537
X2.6353 Y0.0583 I-0.2133 J0.2696
X2.6703 Y0.1447 I-0.2747 J0.1616
G1 X2.6718 Y0.1498
X2.6728 Y0.1551
X2.6733 Y0.1603
G3 X2.6691 Y0.2566 I-0.4122 J0.0303
X2.6635 Y0.2767 I-0.4075 J-0.1022
X2.6621 Y0.2809 I-0.0599 J-0.0177
G1 X2.6592 Y0.2887
G3 X2.6576 Y0.2927 I-0.0586 J-0.0219
G1 X2.6543 Y0.2999
Z-0.44
G3 X2.5934 Y0.3806 I-0.259 J-0.1321
G1 X2.5872 Y0.3875
X2.587 Y0.3877
X2.5806 Y0.3943
G3 X2.5734 Y0.4005 I-0.0445 J-0.0439
G1 X2.473 Y0.475
Z-0.49
G3 X1.928 Y0.8554 I-6.1432 J-8.2219
G1 X1.9225 Y1.3527
G2 X1.9241 Y1.8187 I7.3709 J0.2068
G3 X2.3698 Y1.8208 I0.1917 J6.6959
G1 Y1.821 Z-0.44
X2.4845 Y1.8263
X2.5992 Y1.8318
X2.6195 Y1.8334
Z-0.49
G3 X2.783 Y1.8618 I-0.0535 J0.7922
X2.9665 Y1.9724 I-0.1219 J0.41
X3.052 Y2.0674 I-0.797 J0.8033
G1 X3.0554 Y2.0716
X3.0583 Y2.0762
X3.0609 Y2.081
X3.063 Y2.0859
X3.0647 Y2.0911
X3.066 Y2.0964
X3.0667 Y2.1018
G3 X3.0658 Y2.1977 I-0.3258 J0.0449
X3.0306 Y2.2833 I-0.3164 J-0.0802
G1 X3.028 Y2.2881
X3.025 Y2.2927
G3 X2.9636 Y2.3587 I-0.2783 J-0.1977
X2.8731 Y2.3986 I-0.1522 J-0.2221
G1 X2.8667 Y2.4009
G3 X2.8515 Y2.4034 I-0.0176 J-0.06
X2.6394 Y2.3901 I-0.0531 J-0.8515
G1 X2.6303 Y2.3889
X2.6214 Y2.3875
X2.3016 Y2.3381
X1.0444 Y2.3149
Z-0.44
X0.9186 Y2.3126
X0.7944 Y2.3136
Z-0.49
X0.2517 Y2.3176
G3 X0.2448 Y2.3173 I-0.0005 J-0.0625
X0.1212 Y2.297 I0.0527 J-0.7093
X0.0778 Y2.2801 I0.1022 J-0.3255
G1 X0.0737 Y2.2779
X0.0627 Y2.2718
G3 X0.0583 Y2.2691 I0.0303 J-0.0547
G1 X0.0478 Y2.2622
G3 X0.0433 Y2.2589 I0.0346 J-0.052
G1 X0.0336 Y2.251
G3 X0.0294 Y2.2474 I0.0391 J-0.0487
G1 X0.0203 Y2.2387
G3 X0.017 Y2.2352 I0.0432 J-0.0451
X-0.0433 Y2.1422 I0.2662 J-0.2385
G1 X-0.0499 Y2.1297
X-0.0501 Y2.1293
X-0.0563 Y2.1165
G3 X-0.0604 Y2.0731 I0.0563 J-0.0272
G2 X-0.0692 Y2.0578 I-0.0121 J-0.0032
G1 X-0.0813 Y2.0546
X-0.084 Y2.0539 Z-0.4897
X-0.0866 Y2.0532 Z-0.4888
X-0.0888 Y2.0526 Z-0.4873
X-0.0908 Y2.0521 Z-0.4853
X-0.0922 Y2.0517 Z-0.4829
X-0.0931 Y2.0515 Z-0.4803
X-0.0934 Y2.0514 Z-0.4775
G0 Z0.6
M9
M30
%
