%
(1001)
(T6  D=0.25 CR=0 - ZMIN=-0.49 - flat end mill)
G90 G94
G17
G20

(2D Contour1)
M9
T6 M6
S5514 M3
G54
M8
G0 X1.5041 Y1.9002
Z0.6
Z0.2
G1 Z0.0894 F21.36
Z-0.025
Y1.9005 Z-0.0289
X1.5043 Y1.9014 Z-0.0327
X1.5046 Y1.9029 Z-0.0363
X1.505 Y1.9049 Z-0.0397
X1.5055 Y1.9074 Z-0.0427
X1.5061 Y1.9103 Z-0.0452
X1.5067 Y1.9136 Z-0.0473
X1.5074 Y1.9171 Z-0.0488
X1.5082 Y1.9209 Z-0.0497
X1.5089 Y1.9247 Z-0.05
X1.5138 Y1.9492
G2 X1.5431 Y1.9689 I0.0245 J-0.0048
X1.8985 Y1.8768 I-0.4585 J-2.5004
X2.1279 Y1.7731 I-0.4692 J-1.343
X2.3806 Y1.56 I-0.448 J-0.7877
X2.5294 Y1.3259 I-1.1226 J-0.8779
X2.6108 Y1.1575 I-2.5316 J-1.3281
G1 X2.6503 Y1.0683
X2.6657 Y1.0323
G2 X2.5416 Y0.813 I-2.8078 J1.4449
X2.4351 Y0.6705 I-0.9325 J0.5861
X2.3224 Y0.5762 I-0.3817 J0.3412
X2.1632 Y0.5205 I-0.2354 J0.4181
X1.9594 Y0.5085 I-0.1562 J0.9155
X1.7224 Y0.5306 I0.0807 J2.1518
G1 X1.6507 Y0.5409
X1.5778 Y0.5523
X1.5058 Y0.564
X0.384 Y0.783
G3 X0.2378 Y0.8085 I-0.2653 J-1.0887
G1 X0.2203 Y0.8094
G3 X0.2142 Y0.8096 I-0.0079 J-0.1248
G1 X0.1971 Y0.8099
G3 X0.1898 Y0.8097 I-0.0017 J-0.125
G1 X0.1732 Y0.809
G3 X0.1647 Y0.8083 I0.0056 J-0.1249
G1 X0.1485 Y0.8065
G3 X0.1389 Y0.805 I0.0141 J-0.1242
G1 X0.1232 Y0.802
G3 X0.1125 Y0.7994 I0.0237 J-0.1227
G1 X0.0974 Y0.7951
G3 X0.0858 Y0.7912 I0.0344 J-0.1202
G1 X0.0713 Y0.7854
G3 X0.0623 Y0.7814 I0.046 J-0.1162
G1 X0.0553 Y0.778
G3 X0.0492 Y0.7748 I0.055 J-0.1122
G1 X0.0424 Y0.771
G3 X0.0341 Y0.7659 I0.0611 J-0.1091
G1 X0.0209 Y0.7571
G3 X0.0117 Y0.7503 I0.0694 J-0.104
G1 X-0.0009 Y0.7401
G3 X-0.0081 Y0.7338 I0.0786 J-0.0972
G1 X-0.0202 Y0.7224
G3 X-0.0257 Y0.7169 I0.0859 J-0.0908
G1 X-0.0373 Y0.7045
G3 X-0.0414 Y0.6998 I0.0914 J-0.0853
X-0.1022 Y0.6189 I0.6281 J-0.5351
G1 X-0.1067 Y0.612
X-0.1108 Y0.6048
X-0.1143 Y0.5973
X-0.1174 Y0.5896
X-0.12 Y0.5817
X-0.122 Y0.5737
X-0.1235 Y0.5655
X-0.1244 Y0.5572
X-0.1248 Y0.549
G3 X-0.1212 Y0.4592 I0.6156 J-0.0204
G1 X-0.1201 Y0.4531
X-0.1183 Y0.4434
G3 X-0.1168 Y0.4362 I0.1231 J0.0219
G1 X-0.1146 Y0.4268
G3 X-0.1124 Y0.4187 I0.1216 J0.029
G1 X-0.1095 Y0.4095
G3 X-0.1063 Y0.4005 I0.1193 J0.0372
G1 X-0.1028 Y0.3917
G3 X-0.0984 Y0.382 I0.1161 J0.0463
G1 X-0.0942 Y0.3735
G3 X-0.0891 Y0.3644 I0.1118 J0.056
G1 X-0.0842 Y0.3563
G3 X-0.079 Y0.3484 I0.1067 J0.0651
G1 X-0.0734 Y0.3407
G3 X-0.0683 Y0.334 I0.1015 J0.073
G1 X-0.0621 Y0.3266
G3 X-0.0572 Y0.321 I0.0963 J0.0797
G1 X-0.0505 Y0.3138
G3 X-0.0461 Y0.3093 I0.0915 J0.0852
X0.0354 Y0.2453 I0.3572 J0.3706
G1 X0.0417 Y0.241
X0.0483 Y0.2371
X0.0552 Y0.2337
G3 X0.3014 Y0.1477 I0.5294 J1.1211
X0.7499 Y0.0473 I1.5906 J6.0538
X1.3648 Y-0.0659 I2.8428 J13.714
X1.7361 Y-0.1154 I2.3542 J16.2422
G1 X1.7405 Y-0.1159
X1.745 Y-0.1163
G3 X2.0183 Y-0.125 I0.2737 J4.2814
X2.2616 Y-0.1032 I-0.0128 J1.5096
X2.5311 Y-0.0239 I-0.2997 J1.5158
X2.6737 Y0.0325 I-1.3293 J3.5732
G1 X2.6802 Y0.0353
X2.6866 Y0.0386
X2.6928 Y0.0422
X2.6988 Y0.0461
X2.7045 Y0.0504
G3 X2.9079 Y0.2219 I-1.9478 J2.5169
X3.0574 Y0.3932 I-0.7822 J0.8336
X3.1807 Y0.6448 I-0.8968 J0.5955
X3.2541 Y0.8989 I-2.3323 J0.8108
G1 X3.2647 Y0.9404
G3 X3.2645 Y1.0017 I-0.1213 J0.0302
X3.1677 Y1.3617 I-9.0748 J-2.2462
X3.0546 Y1.6794 I-2.8684 J-0.8426
X2.9108 Y1.9434 I-1.4806 J-0.6355
X2.5704 Y2.2683 I-0.9716 J-0.677
X2.2781 Y2.4177 I-0.8883 J-1.3776
X1.9258 Y2.531 I-0.9987 J-2.5004
X1.5507 Y2.6115 I-1.2619 J-4.9658
X1.1697 Y2.6753 I-2.8735 J-15.9789
G1 X0.934 Y2.7214
G2 X0.6907 Y2.7668 I4.4182 J24.3175
G3 X0.5739 Y2.78 I-0.1792 J-1.0661
G1 X0.5581 Y2.7801
G3 X0.5519 I-0.0023 J-0.125
G1 X0.5365 Y2.7796
G3 X0.5291 Y2.7792 I0.0038 J-0.1249
G1 X0.5142 Y2.7778
G3 X0.5055 Y2.7767 I0.0112 J-0.1245
G1 X0.4911 Y2.7744
G3 X0.481 Y2.7724 I0.0198 J-0.1234
G1 X0.4672 Y2.769
G3 X0.4558 Y2.7656 I0.0299 J-0.1214
G1 X0.4427 Y2.761
G3 X0.4304 Y2.7559 I0.0413 J-0.118
G1 X0.4179 Y2.75
G3 X0.4083 Y2.7449 I0.0536 J-0.1129
G1 X0.4023 Y2.7414
G3 X0.3961 Y2.7375 I0.0632 J-0.1078
G1 X0.3903 Y2.7337
G3 X0.3819 Y2.7275 I0.0694 J-0.1039
G1 X0.3709 Y2.7188
G3 X0.3617 Y2.7107 I0.0779 J-0.0978
G1 X0.3514 Y2.7007
G3 X0.3443 Y2.6931 I0.0871 J-0.0896
G1 X0.3346 Y2.682
G3 X0.3292 Y2.6753 I0.0943 J-0.0821
G1 X0.3201 Y2.6632
G3 X0.316 Y2.6575 I0.0997 J-0.0754
X0.2605 Y2.5587 I0.5767 J-0.3886
G1 X0.2571 Y2.5515
X0.2542 Y2.5441
X0.2518 Y2.5365
X0.2498 Y2.5288
X0.2484 Y2.521
X0.2474 Y2.5131
X0.247 Y2.5052
G3 X0.2512 Y2.4121 I0.5196 J-0.0231
G1 X0.2527 Y2.4057
X0.2544 Y2.3973
G3 X0.2562 Y2.3899 I0.1224 J0.0256
G1 X0.2584 Y2.3818
G3 X0.261 Y2.3736 I0.1206 J0.033
G1 X0.2637 Y2.3657
G3 X0.2672 Y2.3569 I0.118 J0.0412
G1 X0.2705 Y2.3492
G3 X0.2746 Y2.3408 I0.1145 J0.05
G1 X0.2785 Y2.3335
G3 X0.2827 Y2.3261 I0.1105 J0.0584
G1 X0.2871 Y2.319
G3 X0.2913 Y2.3127 I0.1063 J0.0657
G1 X0.2962 Y2.3057
G3 X0.3001 Y2.3004 I0.1022 J0.072
X0.3678 Y2.2323 I0.3329 J0.2634
G1 X0.3747 Y2.2261
G3 X0.3897 Y2.2152 I0.0812 J0.095
X0.517 Y2.1476 I0.4035 J0.6064
X0.6918 Y2.1048 I0.3261 J0.9543
X0.7875 Y2.0874 I0.6089 J3.075
G1 X0.8909 Y2.0671
X0.9743 Y2.0508
G3 X0.9831 Y2.0494 I0.024 J0.1227
G2 X1.4417 Y1.9873 I-1.2289 J-10.8007
G1 X1.4905 Y1.9787
X1.5388 Y1.9698
X1.5431 Y1.9689
G2 X1.5628 Y1.9396 I-0.0048 J-0.0245
G1 X1.558 Y1.915
X1.5572 Y1.9112 Z-0.0497
X1.5565 Y1.9075 Z-0.0488
X1.5558 Y1.9039 Z-0.0473
X1.5551 Y1.9006 Z-0.0452
X1.5545 Y1.8977 Z-0.0427
X1.5541 Y1.8952 Z-0.0397
X1.5537 Y1.8932 Z-0.0363
X1.5534 Y1.8917 Z-0.0327
X1.5532 Y1.8908 Z-0.0289
X1.5531 Y1.8905 Z-0.025
X1.5041 Y1.9002
Z-0.075
Y1.9005 Z-0.0789
X1.5043 Y1.9014 Z-0.0827
X1.5046 Y1.9029 Z-0.0863
X1.505 Y1.9049 Z-0.0897
X1.5055 Y1.9074 Z-0.0927
X1.5061 Y1.9103 Z-0.0952
X1.5067 Y1.9136 Z-0.0973
X1.5074 Y1.9171 Z-0.0988
X1.5082 Y1.9209 Z-0.0997
X1.5089 Y1.9247 Z-0.1
X1.5138 Y1.9492
G2 X1.5431 Y1.9689 I0.0245 J-0.0048
X1.8985 Y1.8768 I-0.4585 J-2.5004
X2.1279 Y1.7731 I-0.4692 J-1.343
X2.3806 Y1.56 I-0.448 J-0.7877
X2.5294 Y1.3259 I-1.1226 J-0.8779
X2.6108 Y1.1575 I-2.5316 J-1.3281
G1 X2.6503 Y1.0683
X2.6657 Y1.0323
G2 X2.5416 Y0.813 I-2.8078 J1.4449
X2.4351 Y0.6705 I-0.9325 J0.5861
X2.3224 Y0.5762 I-0.3817 J0.3412
X2.1632 Y0.5205 I-0.2354 J0.4181
X1.9594 Y0.5085 I-0.1562 J0.9155
X1.7224 Y0.5306 I0.0807 J2.1518
G1 X1.6507 Y0.5409
X1.5778 Y0.5523
X1.5058 Y0.564
X0.384 Y0.783
G3 X0.2378 Y0.8085 I-0.2653 J-1.0887
G1 X0.2203 Y0.8094
G3 X0.2142 Y0.8096 I-0.0079 J-0.1248
G1 X0.1971 Y0.8099
G3 X0.1898 Y0.8097 I-0.0017 J-0.125
G1 X0.1732 Y0.809
G3 X0.1647 Y0.8083 I0.0056 J-0.1249
G1 X0.1485 Y0.8065
G3 X0.1389 Y0.805 I0.0141 J-0.1242
G1 X0.1232 Y0.802
G3 X0.1125 Y0.7994 I0.0237 J-0.1227
G1 X0.0974 Y0.7951
G3 X0.0858 Y0.7912 I0.0344 J-0.1202
G1 X0.0713 Y0.7854
G3 X0.0623 Y0.7814 I0.046 J-0.1162
G1 X0.0553 Y0.778
G3 X0.0492 Y0.7748 I0.055 J-0.1122
G1 X0.0424 Y0.771
G3 X0.0341 Y0.7659 I0.0611 J-0.1091
G1 X0.0209 Y0.7571
G3 X0.0117 Y0.7503 I0.0694 J-0.104
G1 X-0.0009 Y0.7401
G3 X-0.0081 Y0.7338 I0.0786 J-0.0972
G1 X-0.0202 Y0.7224
G3 X-0.0257 Y0.7169 I0.0859 J-0.0908
G1 X-0.0373 Y0.7045
G3 X-0.0414 Y0.6998 I0.0914 J-0.0853
X-0.1022 Y0.6189 I0.6281 J-0.5351
G1 X-0.1067 Y0.612
X-0.1108 Y0.6048
X-0.1143 Y0.5973
X-0.1174 Y0.5896
X-0.12 Y0.5817
X-0.122 Y0.5737
X-0.1235 Y0.5655
X-0.1244 Y0.5572
X-0.1248 Y0.549
G3 X-0.1212 Y0.4592 I0.6156 J-0.0204
G1 X-0.1201 Y0.4531
X-0.1183 Y0.4434
G3 X-0.1168 Y0.4362 I0.1231 J0.0219
G1 X-0.1146 Y0.4268
G3 X-0.1124 Y0.4187 I0.1216 J0.029
G1 X-0.1095 Y0.4095
G3 X-0.1063 Y0.4005 I0.1193 J0.0372
G1 X-0.1028 Y0.3917
G3 X-0.0984 Y0.382 I0.1161 J0.0463
G1 X-0.0942 Y0.3735
G3 X-0.0891 Y0.3644 I0.1118 J0.056
G1 X-0.0842 Y0.3563
G3 X-0.079 Y0.3484 I0.1067 J0.0651
G1 X-0.0734 Y0.3407
G3 X-0.0683 Y0.334 I0.1015 J0.073
G1 X-0.0621 Y0.3266
G3 X-0.0572 Y0.321 I0.0963 J0.0797
G1 X-0.0505 Y0.3138
G3 X-0.0461 Y0.3093 I0.0915 J0.0852
X0.0354 Y0.2453 I0.3572 J0.3706
G1 X0.0417 Y0.241
X0.0483 Y0.2371
X0.0552 Y0.2337
G3 X0.3014 Y0.1477 I0.5294 J1.1211
X0.7499 Y0.0473 I1.5906 J6.0538
X1.3648 Y-0.0659 I2.8428 J13.714
X1.7361 Y-0.1154 I2.3542 J16.2422
G1 X1.7405 Y-0.1159
X1.745 Y-0.1163
G3 X2.0183 Y-0.125 I0.2737 J4.2814
X2.2616 Y-0.1032 I-0.0128 J1.5096
X2.5311 Y-0.0239 I-0.2997 J1.5158
X2.6737 Y0.0325 I-1.3293 J3.5732
G1 X2.6802 Y0.0353
X2.6866 Y0.0386
X2.6928 Y0.0422
X2.6988 Y0.0461
X2.7045 Y0.0504
G3 X2.9079 Y0.2219 I-1.9478 J2.5169
X3.0574 Y0.3932 I-0.7822 J0.8336
X3.1807 Y0.6448 I-0.8968 J0.5955
X3.2541 Y0.8989 I-2.3323 J0.8108
G1 X3.2647 Y0.9404
G3 X3.2645 Y1.0017 I-0.1213 J0.0302
X3.1677 Y1.3617 I-9.0748 J-2.2462
X3.0546 Y1.6794 I-2.8684 J-0.8426
X2.9108 Y1.9434 I-1.4806 J-0.6355
X2.5704 Y2.2683 I-0.9716 J-0.677
X2.2781 Y2.4177 I-0.8883 J-1.3776
X1.9258 Y2.531 I-0.9987 J-2.5004
X1.5507 Y2.6115 I-1.2619 J-4.9658
X1.1697 Y2.6753 I-2.8735 J-15.9789
G1 X0.934 Y2.7214
G2 X0.6907 Y2.7668 I4.4182 J24.3175
G3 X0.5739 Y2.78 I-0.1792 J-1.0661
G1 X0.5581 Y2.7801
G3 X0.5519 I-0.0023 J-0.125
G1 X0.5365 Y2.7796
G3 X0.5291 Y2.7792 I0.0038 J-0.1249
G1 X0.5142 Y2.7778
G3 X0.5055 Y2.7767 I0.0112 J-0.1245
G1 X0.4911 Y2.7744
G3 X0.481 Y2.7724 I0.0198 J-0.1234
G1 X0.4672 Y2.769
G3 X0.4558 Y2.7656 I0.0299 J-0.1214
G1 X0.4427 Y2.761
G3 X0.4304 Y2.7559 I0.0413 J-0.118
G1 X0.4179 Y2.75
G3 X0.4083 Y2.7449 I0.0536 J-0.1129
G1 X0.4023 Y2.7414
G3 X0.3961 Y2.7375 I0.0632 J-0.1078
G1 X0.3903 Y2.7337
G3 X0.3819 Y2.7275 I0.0694 J-0.1039
G1 X0.3709 Y2.7188
G3 X0.3617 Y2.7107 I0.0779 J-0.0978
G1 X0.3514 Y2.7007
G3 X0.3443 Y2.6931 I0.0871 J-0.0896
G1 X0.3346 Y2.682
G3 X0.3292 Y2.6753 I0.0943 J-0.0821
G1 X0.3201 Y2.6632
G3 X0.316 Y2.6575 I0.0997 J-0.0754
X0.2605 Y2.5587 I0.5767 J-0.3886
G1 X0.2571 Y2.5515
X0.2542 Y2.5441
X0.2518 Y2.5365
X0.2498 Y2.5288
X0.2484 Y2.521
X0.2474 Y2.5131
X0.247 Y2.5052
G3 X0.2512 Y2.4121 I0.5196 J-0.0231
G1 X0.2527 Y2.4057
X0.2544 Y2.3973
G3 X0.2562 Y2.3899 I0.1224 J0.0256
G1 X0.2584 Y2.3818
G3 X0.261 Y2.3736 I0.1206 J0.033
G1 X0.2637 Y2.3657
G3 X0.2672 Y2.3569 I0.118 J0.0412
G1 X0.2705 Y2.3492
G3 X0.2746 Y2.3408 I0.1145 J0.05
G1 X0.2785 Y2.3335
G3 X0.2827 Y2.3261 I0.1105 J0.0584
G1 X0.2871 Y2.319
G3 X0.2913 Y2.3127 I0.1063 J0.0657
G1 X0.2962 Y2.3057
G3 X0.3001 Y2.3004 I0.1022 J0.072
X0.3678 Y2.2323 I0.3329 J0.2634
G1 X0.3747 Y2.2261
G3 X0.3897 Y2.2152 I0.0812 J0.095
X0.517 Y2.1476 I0.4035 J0.6064
X0.6918 Y2.1048 I0.3261 J0.9543
X0.7875 Y2.0874 I0.6089 J3.075
G1 X0.8909 Y2.0671
X0.9743 Y2.0508
G3 X0.9831 Y2.0494 I0.024 J0.1227
G2 X1.4417 Y1.9873 I-1.2289 J-10.8007
G1 X1.4905 Y1.9787
X1.5388 Y1.9698
X1.5431 Y1.9689
G2 X1.5628 Y1.9396 I-0.0048 J-0.0245
G1 X1.558 Y1.915
X1.5572 Y1.9112 Z-0.0997
X1.5565 Y1.9075 Z-0.0988
X1.5558 Y1.9039 Z-0.0973
X1.5551 Y1.9006 Z-0.0952
X1.5545 Y1.8977 Z-0.0927
X1.5541 Y1.8952 Z-0.0897
X1.5537 Y1.8932 Z-0.0863
X1.5534 Y1.8917 Z-0.0827
X1.5532 Y1.8908 Z-0.0789
X1.5531 Y1.8905 Z-0.075
X1.5041 Y1.9002
Z-0.125
Y1.9005 Z-0.1289
X1.5043 Y1.9014 Z-0.1327
X1.5046 Y1.9029 Z-0.1363
X1.505 Y1.9049 Z-0.1397
X1.5055 Y1.9074 Z-0.1427
X1.5061 Y1.9103 Z-0.1452
X1.5067 Y1.9136 Z-0.1473
X1.5074 Y1.9171 Z-0.1488
X1.5082 Y1.9209 Z-0.1497
X1.5089 Y1.9247 Z-0.15
X1.5138 Y1.9492
G2 X1.5431 Y1.9689 I0.0245 J-0.0048
X1.8985 Y1.8768 I-0.4585 J-2.5004
X2.1279 Y1.7731 I-0.4692 J-1.343
X2.3806 Y1.56 I-0.448 J-0.7877
X2.5294 Y1.3259 I-1.1226 J-0.8779
X2.6108 Y1.1575 I-2.5316 J-1.3281
G1 X2.6503 Y1.0683
X2.6657 Y1.0323
G2 X2.5416 Y0.813 I-2.8078 J1.4449
X2.4351 Y0.6705 I-0.9325 J0.5861
X2.3224 Y0.5762 I-0.3817 J0.3412
X2.1632 Y0.5205 I-0.2354 J0.4181
X1.9594 Y0.5085 I-0.1562 J0.9155
X1.7224 Y0.5306 I0.0807 J2.1518
G1 X1.6507 Y0.5409
X1.5778 Y0.5523
X1.5058 Y0.564
X0.384 Y0.783
G3 X0.2378 Y0.8085 I-0.2653 J-1.0887
G1 X0.2203 Y0.8094
G3 X0.2142 Y0.8096 I-0.0079 J-0.1248
G1 X0.1971 Y0.8099
G3 X0.1898 Y0.8097 I-0.0017 J-0.125
G1 X0.1732 Y0.809
G3 X0.1647 Y0.8083 I0.0056 J-0.1249
G1 X0.1485 Y0.8065
G3 X0.1389 Y0.805 I0.0141 J-0.1242
G1 X0.1232 Y0.802
G3 X0.1125 Y0.7994 I0.0237 J-0.1227
G1 X0.0974 Y0.7951
G3 X0.0858 Y0.7912 I0.0344 J-0.1202
G1 X0.0713 Y0.7854
G3 X0.0623 Y0.7814 I0.046 J-0.1162
G1 X0.0553 Y0.778
G3 X0.0492 Y0.7748 I0.055 J-0.1122
G1 X0.0424 Y0.771
G3 X0.0341 Y0.7659 I0.0611 J-0.1091
G1 X0.0209 Y0.7571
G3 X0.0117 Y0.7503 I0.0694 J-0.104
G1 X-0.0009 Y0.7401
G3 X-0.0081 Y0.7338 I0.0786 J-0.0972
G1 X-0.0202 Y0.7224
G3 X-0.0257 Y0.7169 I0.0859 J-0.0908
G1 X-0.0373 Y0.7045
G3 X-0.0414 Y0.6998 I0.0914 J-0.0853
X-0.1022 Y0.6189 I0.6281 J-0.5351
G1 X-0.1067 Y0.612
X-0.1108 Y0.6048
X-0.1143 Y0.5973
X-0.1174 Y0.5896
X-0.12 Y0.5817
X-0.122 Y0.5737
X-0.1235 Y0.5655
X-0.1244 Y0.5572
X-0.1248 Y0.549
G3 X-0.1212 Y0.4592 I0.6156 J-0.0204
G1 X-0.1201 Y0.4531
X-0.1183 Y0.4434
G3 X-0.1168 Y0.4362 I0.1231 J0.0219
G1 X-0.1146 Y0.4268
G3 X-0.1124 Y0.4187 I0.1216 J0.029
G1 X-0.1095 Y0.4095
G3 X-0.1063 Y0.4005 I0.1193 J0.0372
G1 X-0.1028 Y0.3917
G3 X-0.0984 Y0.382 I0.1161 J0.0463
G1 X-0.0942 Y0.3735
G3 X-0.0891 Y0.3644 I0.1118 J0.056
G1 X-0.0842 Y0.3563
G3 X-0.079 Y0.3484 I0.1067 J0.0651
G1 X-0.0734 Y0.3407
G3 X-0.0683 Y0.334 I0.1015 J0.073
G1 X-0.0621 Y0.3266
G3 X-0.0572 Y0.321 I0.0963 J0.0797
G1 X-0.0505 Y0.3138
G3 X-0.0461 Y0.3093 I0.0915 J0.0852
X0.0354 Y0.2453 I0.3572 J0.3706
G1 X0.0417 Y0.241
X0.0483 Y0.2371
X0.0552 Y0.2337
G3 X0.3014 Y0.1477 I0.5294 J1.1211
X0.7499 Y0.0473 I1.5906 J6.0538
X1.3648 Y-0.0659 I2.8428 J13.714
X1.7361 Y-0.1154 I2.3542 J16.2422
G1 X1.7405 Y-0.1159
X1.745 Y-0.1163
G3 X2.0183 Y-0.125 I0.2737 J4.2814
X2.2616 Y-0.1032 I-0.0128 J1.5096
X2.5311 Y-0.0239 I-0.2997 J1.5158
X2.6737 Y0.0325 I-1.3293 J3.5732
G1 X2.6802 Y0.0353
X2.6866 Y0.0386
X2.6928 Y0.0422
X2.6988 Y0.0461
X2.7045 Y0.0504
G3 X2.9079 Y0.2219 I-1.9478 J2.5169
X3.0574 Y0.3932 I-0.7822 J0.8336
X3.1807 Y0.6448 I-0.8968 J0.5955
X3.2541 Y0.8989 I-2.3323 J0.8108
G1 X3.2647 Y0.9404
G3 X3.2645 Y1.0017 I-0.1213 J0.0302
X3.1677 Y1.3617 I-9.0748 J-2.2462
X3.0546 Y1.6794 I-2.8684 J-0.8426
X2.9108 Y1.9434 I-1.4806 J-0.6355
X2.5704 Y2.2683 I-0.9716 J-0.677
X2.2781 Y2.4177 I-0.8883 J-1.3776
X1.9258 Y2.531 I-0.9987 J-2.5004
X1.5507 Y2.6115 I-1.2619 J-4.9658
X1.1697 Y2.6753 I-2.8735 J-15.9789
G1 X0.934 Y2.7214
G2 X0.6907 Y2.7668 I4.4182 J24.3175
G3 X0.5739 Y2.78 I-0.1792 J-1.0661
G1 X0.5581 Y2.7801
G3 X0.5519 I-0.0023 J-0.125
G1 X0.5365 Y2.7796
G3 X0.5291 Y2.7792 I0.0038 J-0.1249
G1 X0.5142 Y2.7778
G3 X0.5055 Y2.7767 I0.0112 J-0.1245
G1 X0.4911 Y2.7744
G3 X0.481 Y2.7724 I0.0198 J-0.1234
G1 X0.4672 Y2.769
G3 X0.4558 Y2.7656 I0.0299 J-0.1214
G1 X0.4427 Y2.761
G3 X0.4304 Y2.7559 I0.0413 J-0.118
G1 X0.4179 Y2.75
G3 X0.4083 Y2.7449 I0.0536 J-0.1129
G1 X0.4023 Y2.7414
G3 X0.3961 Y2.7375 I0.0632 J-0.1078
G1 X0.3903 Y2.7337
G3 X0.3819 Y2.7275 I0.0694 J-0.1039
G1 X0.3709 Y2.7188
G3 X0.3617 Y2.7107 I0.0779 J-0.0978
G1 X0.3514 Y2.7007
G3 X0.3443 Y2.6931 I0.0871 J-0.0896
G1 X0.3346 Y2.682
G3 X0.3292 Y2.6753 I0.0943 J-0.0821
G1 X0.3201 Y2.6632
G3 X0.316 Y2.6575 I0.0997 J-0.0754
X0.2605 Y2.5587 I0.5767 J-0.3886
G1 X0.2571 Y2.5515
X0.2542 Y2.5441
X0.2518 Y2.5365
X0.2498 Y2.5288
X0.2484 Y2.521
X0.2474 Y2.5131
X0.247 Y2.5052
G3 X0.2512 Y2.4121 I0.5196 J-0.0231
G1 X0.2527 Y2.4057
X0.2544 Y2.3973
G3 X0.2562 Y2.3899 I0.1224 J0.0256
G1 X0.2584 Y2.3818
G3 X0.261 Y2.3736 I0.1206 J0.033
G1 X0.2637 Y2.3657
G3 X0.2672 Y2.3569 I0.118 J0.0412
G1 X0.2705 Y2.3492
G3 X0.2746 Y2.3408 I0.1145 J0.05
G1 X0.2785 Y2.3335
G3 X0.2827 Y2.3261 I0.1105 J0.0584
G1 X0.2871 Y2.319
G3 X0.2913 Y2.3127 I0.1063 J0.0657
G1 X0.2962 Y2.3057
G3 X0.3001 Y2.3004 I0.1022 J0.072
X0.3678 Y2.2323 I0.3329 J0.2634
G1 X0.3747 Y2.2261
G3 X0.3897 Y2.2152 I0.0812 J0.095
X0.517 Y2.1476 I0.4035 J0.6064
X0.6918 Y2.1048 I0.3261 J0.9543
X0.7875 Y2.0874 I0.6089 J3.075
G1 X0.8909 Y2.0671
X0.9743 Y2.0508
G3 X0.9831 Y2.0494 I0.024 J0.1227
G2 X1.4417 Y1.9873 I-1.2289 J-10.8007
G1 X1.4905 Y1.9787
X1.5388 Y1.9698
X1.5431 Y1.9689
G2 X1.5628 Y1.9396 I-0.0048 J-0.0245
G1 X1.558 Y1.915
X1.5572 Y1.9112 Z-0.1497
X1.5565 Y1.9075 Z-0.1488
X1.5558 Y1.9039 Z-0.1473
X1.5551 Y1.9006 Z-0.1452
X1.5545 Y1.8977 Z-0.1427
X1.5541 Y1.8952 Z-0.1397
X1.5537 Y1.8932 Z-0.1363
X1.5534 Y1.8917 Z-0.1327
X1.5532 Y1.8908 Z-0.1289
X1.5531 Y1.8905 Z-0.125
X1.5041 Y1.9002
Z-0.175
Y1.9005 Z-0.1789
X1.5043 Y1.9014 Z-0.1827
X1.5046 Y1.9029 Z-0.1863
X1.505 Y1.9049 Z-0.1897
X1.5055 Y1.9074 Z-0.1927
X1.5061 Y1.9103 Z-0.1952
X1.5067 Y1.9136 Z-0.1973
X1.5074 Y1.9171 Z-0.1988
X1.5082 Y1.9209 Z-0.1997
X1.5089 Y1.9247 Z-0.2
X1.5138 Y1.9492
G2 X1.5431 Y1.9689 I0.0245 J-0.0048
X1.8985 Y1.8768 I-0.4585 J-2.5004
X2.1279 Y1.7731 I-0.4692 J-1.343
X2.3806 Y1.56 I-0.448 J-0.7877
X2.5294 Y1.3259 I-1.1226 J-0.8779
X2.6108 Y1.1575 I-2.5316 J-1.3281
G1 X2.6503 Y1.0683
X2.6657 Y1.0323
G2 X2.5416 Y0.813 I-2.8078 J1.4449
X2.4351 Y0.6705 I-0.9325 J0.5861
X2.3224 Y0.5762 I-0.3817 J0.3412
X2.1632 Y0.5205 I-0.2354 J0.4181
X1.9594 Y0.5085 I-0.1562 J0.9155
X1.7224 Y0.5306 I0.0807 J2.1518
G1 X1.6507 Y0.5409
X1.5778 Y0.5523
X1.5058 Y0.564
X0.384 Y0.783
G3 X0.2378 Y0.8085 I-0.2653 J-1.0887
G1 X0.2203 Y0.8094
G3 X0.2142 Y0.8096 I-0.0079 J-0.1248
G1 X0.1971 Y0.8099
G3 X0.1898 Y0.8097 I-0.0017 J-0.125
G1 X0.1732 Y0.809
G3 X0.1647 Y0.8083 I0.0056 J-0.1249
G1 X0.1485 Y0.8065
G3 X0.1389 Y0.805 I0.0141 J-0.1242
G1 X0.1232 Y0.802
G3 X0.1125 Y0.7994 I0.0237 J-0.1227
G1 X0.0974 Y0.7951
G3 X0.0858 Y0.7912 I0.0344 J-0.1202
G1 X0.0713 Y0.7854
G3 X0.0623 Y0.7814 I0.046 J-0.1162
G1 X0.0553 Y0.778
G3 X0.0492 Y0.7748 I0.055 J-0.1122
G1 X0.0424 Y0.771
G3 X0.0341 Y0.7659 I0.0611 J-0.1091
G1 X0.0209 Y0.7571
G3 X0.0117 Y0.7503 I0.0694 J-0.104
G1 X-0.0009 Y0.7401
G3 X-0.0081 Y0.7338 I0.0786 J-0.0972
G1 X-0.0202 Y0.7224
G3 X-0.0257 Y0.7169 I0.0859 J-0.0908
G1 X-0.0373 Y0.7045
G3 X-0.0414 Y0.6998 I0.0914 J-0.0853
X-0.1022 Y0.6189 I0.6281 J-0.5351
G1 X-0.1067 Y0.612
X-0.1108 Y0.6048
X-0.1143 Y0.5973
X-0.1174 Y0.5896
X-0.12 Y0.5817
X-0.122 Y0.5737
X-0.1235 Y0.5655
X-0.1244 Y0.5572
X-0.1248 Y0.549
G3 X-0.1212 Y0.4592 I0.6156 J-0.0204
G1 X-0.1201 Y0.4531
X-0.1183 Y0.4434
G3 X-0.1168 Y0.4362 I0.1231 J0.0219
G1 X-0.1146 Y0.4268
G3 X-0.1124 Y0.4187 I0.1216 J0.029
G1 X-0.1095 Y0.4095
G3 X-0.1063 Y0.4005 I0.1193 J0.0372
G1 X-0.1028 Y0.3917
G3 X-0.0984 Y0.382 I0.1161 J0.0463
G1 X-0.0942 Y0.3735
G3 X-0.0891 Y0.3644 I0.1118 J0.056
G1 X-0.0842 Y0.3563
G3 X-0.079 Y0.3484 I0.1067 J0.0651
G1 X-0.0734 Y0.3407
G3 X-0.0683 Y0.334 I0.1015 J0.073
G1 X-0.0621 Y0.3266
G3 X-0.0572 Y0.321 I0.0963 J0.0797
G1 X-0.0505 Y0.3138
G3 X-0.0461 Y0.3093 I0.0915 J0.0852
X0.0354 Y0.2453 I0.3572 J0.3706
G1 X0.0417 Y0.241
X0.0483 Y0.2371
X0.0552 Y0.2337
G3 X0.3014 Y0.1477 I0.5294 J1.1211
X0.7499 Y0.0473 I1.5906 J6.0538
X1.3648 Y-0.0659 I2.8428 J13.714
X1.7361 Y-0.1154 I2.3542 J16.2422
G1 X1.7405 Y-0.1159
X1.745 Y-0.1163
G3 X2.0183 Y-0.125 I0.2737 J4.2814
X2.2616 Y-0.1032 I-0.0128 J1.5096
X2.5311 Y-0.0239 I-0.2997 J1.5158
X2.6737 Y0.0325 I-1.3293 J3.5732
G1 X2.6802 Y0.0353
X2.6866 Y0.0386
X2.6928 Y0.0422
X2.6988 Y0.0461
X2.7045 Y0.0504
G3 X2.9079 Y0.2219 I-1.9478 J2.5169
X3.0574 Y0.3932 I-0.7822 J0.8336
X3.1807 Y0.6448 I-0.8968 J0.5955
X3.2541 Y0.8989 I-2.3323 J0.8108
G1 X3.2647 Y0.9404
G3 X3.2645 Y1.0017 I-0.1213 J0.0302
X3.1677 Y1.3617 I-9.0748 J-2.2462
X3.0546 Y1.6794 I-2.8684 J-0.8426
X2.9108 Y1.9434 I-1.4806 J-0.6355
X2.5704 Y2.2683 I-0.9716 J-0.677
X2.2781 Y2.4177 I-0.8883 J-1.3776
X1.9258 Y2.531 I-0.9987 J-2.5004
X1.5507 Y2.6115 I-1.2619 J-4.9658
X1.1697 Y2.6753 I-2.8735 J-15.9789
G1 X0.934 Y2.7214
G2 X0.6907 Y2.7668 I4.4182 J24.3175
G3 X0.5739 Y2.78 I-0.1792 J-1.0661
G1 X0.5581 Y2.7801
G3 X0.5519 I-0.0023 J-0.125
G1 X0.5365 Y2.7796
G3 X0.5291 Y2.7792 I0.0038 J-0.1249
G1 X0.5142 Y2.7778
G3 X0.5055 Y2.7767 I0.0112 J-0.1245
G1 X0.4911 Y2.7744
G3 X0.481 Y2.7724 I0.0198 J-0.1234
G1 X0.4672 Y2.769
G3 X0.4558 Y2.7656 I0.0299 J-0.1214
G1 X0.4427 Y2.761
G3 X0.4304 Y2.7559 I0.0413 J-0.118
G1 X0.4179 Y2.75
G3 X0.4083 Y2.7449 I0.0536 J-0.1129
G1 X0.4023 Y2.7414
G3 X0.3961 Y2.7375 I0.0632 J-0.1078
G1 X0.3903 Y2.7337
G3 X0.3819 Y2.7275 I0.0694 J-0.1039
G1 X0.3709 Y2.7188
G3 X0.3617 Y2.7107 I0.0779 J-0.0978
G1 X0.3514 Y2.7007
G3 X0.3443 Y2.6931 I0.0871 J-0.0896
G1 X0.3346 Y2.682
G3 X0.3292 Y2.6753 I0.0943 J-0.0821
G1 X0.3201 Y2.6632
G3 X0.316 Y2.6575 I0.0997 J-0.0754
X0.2605 Y2.5587 I0.5767 J-0.3886
G1 X0.2571 Y2.5515
X0.2542 Y2.5441
X0.2518 Y2.5365
X0.2498 Y2.5288
X0.2484 Y2.521
X0.2474 Y2.5131
X0.247 Y2.5052
G3 X0.2512 Y2.4121 I0.5196 J-0.0231
G1 X0.2527 Y2.4057
X0.2544 Y2.3973
G3 X0.2562 Y2.3899 I0.1224 J0.0256
G1 X0.2584 Y2.3818
G3 X0.261 Y2.3736 I0.1206 J0.033
G1 X0.2637 Y2.3657
G3 X0.2672 Y2.3569 I0.118 J0.0412
G1 X0.2705 Y2.3492
G3 X0.2746 Y2.3408 I0.1145 J0.05
G1 X0.2785 Y2.3335
G3 X0.2827 Y2.3261 I0.1105 J0.0584
G1 X0.2871 Y2.319
G3 X0.2913 Y2.3127 I0.1063 J0.0657
G1 X0.2962 Y2.3057
G3 X0.3001 Y2.3004 I0.1022 J0.072
X0.3678 Y2.2323 I0.3329 J0.2634
G1 X0.3747 Y2.2261
G3 X0.3897 Y2.2152 I0.0812 J0.095
X0.517 Y2.1476 I0.4035 J0.6064
X0.6918 Y2.1048 I0.3261 J0.9543
X0.7875 Y2.0874 I0.6089 J3.075
G1 X0.8909 Y2.0671
X0.9743 Y2.0508
G3 X0.9831 Y2.0494 I0.024 J0.1227
G2 X1.4417 Y1.9873 I-1.2289 J-10.8007
G1 X1.4905 Y1.9787
X1.5388 Y1.9698
X1.5431 Y1.9689
G2 X1.5628 Y1.9396 I-0.0048 J-0.0245
G1 X1.558 Y1.915
X1.5572 Y1.9112 Z-0.1997
X1.5565 Y1.9075 Z-0.1988
X1.5558 Y1.9039 Z-0.1973
X1.5551 Y1.9006 Z-0.1952
X1.5545 Y1.8977 Z-0.1927
X1.5541 Y1.8952 Z-0.1897
X1.5537 Y1.8932 Z-0.1863
X1.5534 Y1.8917 Z-0.1827
X1.5532 Y1.8908 Z-0.1789
X1.5531 Y1.8905 Z-0.175
X1.5041 Y1.9002
Z-0.225
Y1.9005 Z-0.2289
X1.5043 Y1.9014 Z-0.2327
X1.5046 Y1.9029 Z-0.2363
X1.505 Y1.9049 Z-0.2397
X1.5055 Y1.9074 Z-0.2427
X1.5061 Y1.9103 Z-0.2452
X1.5067 Y1.9136 Z-0.2473
X1.5074 Y1.9171 Z-0.2488
X1.5082 Y1.9209 Z-0.2497
X1.5089 Y1.9247 Z-0.25
X1.5138 Y1.9492
G2 X1.5431 Y1.9689 I0.0245 J-0.0048
X1.8985 Y1.8768 I-0.4585 J-2.5004
X2.1279 Y1.7731 I-0.4692 J-1.343
X2.3806 Y1.56 I-0.448 J-0.7877
X2.5294 Y1.3259 I-1.1226 J-0.8779
X2.6108 Y1.1575 I-2.5316 J-1.3281
G1 X2.6503 Y1.0683
X2.6657 Y1.0323
G2 X2.5416 Y0.813 I-2.8078 J1.4449
X2.4351 Y0.6705 I-0.9325 J0.5861
X2.3224 Y0.5762 I-0.3817 J0.3412
X2.1632 Y0.5205 I-0.2354 J0.4181
X1.9594 Y0.5085 I-0.1562 J0.9155
X1.7224 Y0.5306 I0.0807 J2.1518
G1 X1.6507 Y0.5409
X1.5778 Y0.5523
X1.5058 Y0.564
X0.384 Y0.783
G3 X0.2378 Y0.8085 I-0.2653 J-1.0887
G1 X0.2203 Y0.8094
G3 X0.2142 Y0.8096 I-0.0079 J-0.1248
G1 X0.1971 Y0.8099
G3 X0.1898 Y0.8097 I-0.0017 J-0.125
G1 X0.1732 Y0.809
G3 X0.1647 Y0.8083 I0.0056 J-0.1249
G1 X0.1485 Y0.8065
G3 X0.1389 Y0.805 I0.0141 J-0.1242
G1 X0.1232 Y0.802
G3 X0.1125 Y0.7994 I0.0237 J-0.1227
G1 X0.0974 Y0.7951
G3 X0.0858 Y0.7912 I0.0344 J-0.1202
G1 X0.0713 Y0.7854
G3 X0.0623 Y0.7814 I0.046 J-0.1162
G1 X0.0553 Y0.778
G3 X0.0492 Y0.7748 I0.055 J-0.1122
G1 X0.0424 Y0.771
G3 X0.0341 Y0.7659 I0.0611 J-0.1091
G1 X0.0209 Y0.7571
G3 X0.0117 Y0.7503 I0.0694 J-0.104
G1 X-0.0009 Y0.7401
G3 X-0.0081 Y0.7338 I0.0786 J-0.0972
G1 X-0.0202 Y0.7224
G3 X-0.0257 Y0.7169 I0.0859 J-0.0908
G1 X-0.0373 Y0.7045
G3 X-0.0414 Y0.6998 I0.0914 J-0.0853
X-0.1022 Y0.6189 I0.6281 J-0.5351
G1 X-0.1067 Y0.612
X-0.1108 Y0.6048
X-0.1143 Y0.5973
X-0.1174 Y0.5896
X-0.12 Y0.5817
X-0.122 Y0.5737
X-0.1235 Y0.5655
X-0.1244 Y0.5572
X-0.1248 Y0.549
G3 X-0.1212 Y0.4592 I0.6156 J-0.0204
G1 X-0.1201 Y0.4531
X-0.1183 Y0.4434
G3 X-0.1168 Y0.4362 I0.1231 J0.0219
G1 X-0.1146 Y0.4268
G3 X-0.1124 Y0.4187 I0.1216 J0.029
G1 X-0.1095 Y0.4095
G3 X-0.1063 Y0.4005 I0.1193 J0.0372
G1 X-0.1028 Y0.3917
G3 X-0.0984 Y0.382 I0.1161 J0.0463
G1 X-0.0942 Y0.3735
G3 X-0.0891 Y0.3644 I0.1118 J0.056
G1 X-0.0842 Y0.3563
G3 X-0.079 Y0.3484 I0.1067 J0.0651
G1 X-0.0734 Y0.3407
G3 X-0.0683 Y0.334 I0.1015 J0.073
G1 X-0.0621 Y0.3266
G3 X-0.0572 Y0.321 I0.0963 J0.0797
G1 X-0.0505 Y0.3138
G3 X-0.0461 Y0.3093 I0.0915 J0.0852
X0.0354 Y0.2453 I0.3572 J0.3706
G1 X0.0417 Y0.241
X0.0483 Y0.2371
X0.0552 Y0.2337
G3 X0.3014 Y0.1477 I0.5294 J1.1211
X0.7499 Y0.0473 I1.5906 J6.0538
X1.3648 Y-0.0659 I2.8428 J13.714
X1.7361 Y-0.1154 I2.3542 J16.2422
G1 X1.7405 Y-0.1159
X1.745 Y-0.1163
G3 X2.0183 Y-0.125 I0.2737 J4.2814
X2.2616 Y-0.1032 I-0.0128 J1.5096
X2.5311 Y-0.0239 I-0.2997 J1.5158
X2.6737 Y0.0325 I-1.3293 J3.5732
G1 X2.6802 Y0.0353
X2.6866 Y0.0386
X2.6928 Y0.0422
X2.6988 Y0.0461
X2.7045 Y0.0504
G3 X2.9079 Y0.2219 I-1.9478 J2.5169
X3.0574 Y0.3932 I-0.7822 J0.8336
X3.1807 Y0.6448 I-0.8968 J0.5955
X3.2541 Y0.8989 I-2.3323 J0.8108
G1 X3.2647 Y0.9404
G3 X3.2645 Y1.0017 I-0.1213 J0.0302
X3.1677 Y1.3617 I-9.0748 J-2.2462
X3.0546 Y1.6794 I-2.8684 J-0.8426
X2.9108 Y1.9434 I-1.4806 J-0.6355
X2.5704 Y2.2683 I-0.9716 J-0.677
X2.2781 Y2.4177 I-0.8883 J-1.3776
X1.9258 Y2.531 I-0.9987 J-2.5004
X1.5507 Y2.6115 I-1.2619 J-4.9658
X1.1697 Y2.6753 I-2.8735 J-15.9789
G1 X0.934 Y2.7214
G2 X0.6907 Y2.7668 I4.4182 J24.3175
G3 X0.5739 Y2.78 I-0.1792 J-1.0661
G1 X0.5581 Y2.7801
G3 X0.5519 I-0.0023 J-0.125
G1 X0.5365 Y2.7796
G3 X0.5291 Y2.7792 I0.0038 J-0.1249
G1 X0.5142 Y2.7778
G3 X0.5055 Y2.7767 I0.0112 J-0.1245
G1 X0.4911 Y2.7744
G3 X0.481 Y2.7724 I0.0198 J-0.1234
G1 X0.4672 Y2.769
G3 X0.4558 Y2.7656 I0.0299 J-0.1214
G1 X0.4427 Y2.761
G3 X0.4304 Y2.7559 I0.0413 J-0.118
G1 X0.4179 Y2.75
G3 X0.4083 Y2.7449 I0.0536 J-0.1129
G1 X0.4023 Y2.7414
G3 X0.3961 Y2.7375 I0.0632 J-0.1078
G1 X0.3903 Y2.7337
G3 X0.3819 Y2.7275 I0.0694 J-0.1039
G1 X0.3709 Y2.7188
G3 X0.3617 Y2.7107 I0.0779 J-0.0978
G1 X0.3514 Y2.7007
G3 X0.3443 Y2.6931 I0.0871 J-0.0896
G1 X0.3346 Y2.682
G3 X0.3292 Y2.6753 I0.0943 J-0.0821
G1 X0.3201 Y2.6632
G3 X0.316 Y2.6575 I0.0997 J-0.0754
X0.2605 Y2.5587 I0.5767 J-0.3886
G1 X0.2571 Y2.5515
X0.2542 Y2.5441
X0.2518 Y2.5365
X0.2498 Y2.5288
X0.2484 Y2.521
X0.2474 Y2.5131
X0.247 Y2.5052
G3 X0.2512 Y2.4121 I0.5196 J-0.0231
G1 X0.2527 Y2.4057
X0.2544 Y2.3973
G3 X0.2562 Y2.3899 I0.1224 J0.0256
G1 X0.2584 Y2.3818
G3 X0.261 Y2.3736 I0.1206 J0.033
G1 X0.2637 Y2.3657
G3 X0.2672 Y2.3569 I0.118 J0.0412
G1 X0.2705 Y2.3492
G3 X0.2746 Y2.3408 I0.1145 J0.05
G1 X0.2785 Y2.3335
G3 X0.2827 Y2.3261 I0.1105 J0.0584
G1 X0.2871 Y2.319
G3 X0.2913 Y2.3127 I0.1063 J0.0657
G1 X0.2962 Y2.3057
G3 X0.3001 Y2.3004 I0.1022 J0.072
X0.3678 Y2.2323 I0.3329 J0.2634
G1 X0.3747 Y2.2261
G3 X0.3897 Y2.2152 I0.0812 J0.095
X0.517 Y2.1476 I0.4035 J0.6064
X0.6918 Y2.1048 I0.3261 J0.9543
X0.7875 Y2.0874 I0.6089 J3.075
G1 X0.8909 Y2.0671
X0.9743 Y2.0508
G3 X0.9831 Y2.0494 I0.024 J0.1227
G2 X1.4417 Y1.9873 I-1.2289 J-10.8007
G1 X1.4905 Y1.9787
X1.5388 Y1.9698
X1.5431 Y1.9689
G2 X1.5628 Y1.9396 I-0.0048 J-0.0245
G1 X1.558 Y1.915
X1.5572 Y1.9112 Z-0.2497
X1.5565 Y1.9075 Z-0.2488
X1.5558 Y1.9039 Z-0.2473
X1.5551 Y1.9006 Z-0.2452
X1.5545 Y1.8977 Z-0.2427
X1.5541 Y1.8952 Z-0.2397
X1.5537 Y1.8932 Z-0.2363
X1.5534 Y1.8917 Z-0.2327
X1.5532 Y1.8908 Z-0.2289
X1.5531 Y1.8905 Z-0.225
X1.5041 Y1.9002
Z-0.275
Y1.9005 Z-0.2789
X1.5043 Y1.9014 Z-0.2827
X1.5046 Y1.9029 Z-0.2863
X1.505 Y1.9049 Z-0.2897
X1.5055 Y1.9074 Z-0.2927
X1.5061 Y1.9103 Z-0.2952
X1.5067 Y1.9136 Z-0.2973
X1.5074 Y1.9171 Z-0.2988
X1.5082 Y1.9209 Z-0.2997
X1.5089 Y1.9247 Z-0.3
X1.5138 Y1.9492
G2 X1.5431 Y1.9689 I0.0245 J-0.0048
X1.8985 Y1.8768 I-0.4585 J-2.5004
X2.1279 Y1.7731 I-0.4692 J-1.343
X2.3806 Y1.56 I-0.448 J-0.7877
X2.5294 Y1.3259 I-1.1226 J-0.8779
X2.6108 Y1.1575 I-2.5316 J-1.3281
G1 X2.6503 Y1.0683
X2.6657 Y1.0323
G2 X2.5416 Y0.813 I-2.8078 J1.4449
X2.4351 Y0.6705 I-0.9325 J0.5861
X2.3224 Y0.5762 I-0.3817 J0.3412
X2.1632 Y0.5205 I-0.2354 J0.4181
X1.9594 Y0.5085 I-0.1562 J0.9155
X1.7224 Y0.5306 I0.0807 J2.1518
G1 X1.6507 Y0.5409
X1.5778 Y0.5523
X1.5058 Y0.564
X0.384 Y0.783
G3 X0.2378 Y0.8085 I-0.2653 J-1.0887
G1 X0.2203 Y0.8094
G3 X0.2142 Y0.8096 I-0.0079 J-0.1248
G1 X0.1971 Y0.8099
G3 X0.1898 Y0.8097 I-0.0017 J-0.125
G1 X0.1732 Y0.809
G3 X0.1647 Y0.8083 I0.0056 J-0.1249
G1 X0.1485 Y0.8065
G3 X0.1389 Y0.805 I0.0141 J-0.1242
G1 X0.1232 Y0.802
G3 X0.1125 Y0.7994 I0.0237 J-0.1227
G1 X0.0974 Y0.7951
G3 X0.0858 Y0.7912 I0.0344 J-0.1202
G1 X0.0713 Y0.7854
G3 X0.0623 Y0.7814 I0.046 J-0.1162
G1 X0.0553 Y0.778
G3 X0.0492 Y0.7748 I0.055 J-0.1122
G1 X0.0424 Y0.771
G3 X0.0341 Y0.7659 I0.0611 J-0.1091
G1 X0.0209 Y0.7571
G3 X0.0117 Y0.7503 I0.0694 J-0.104
G1 X-0.0009 Y0.7401
G3 X-0.0081 Y0.7338 I0.0786 J-0.0972
G1 X-0.0202 Y0.7224
G3 X-0.0257 Y0.7169 I0.0859 J-0.0908
G1 X-0.0373 Y0.7045
G3 X-0.0414 Y0.6998 I0.0914 J-0.0853
X-0.1022 Y0.6189 I0.6281 J-0.5351
G1 X-0.1067 Y0.612
X-0.1108 Y0.6048
X-0.1143 Y0.5973
X-0.1174 Y0.5896
X-0.12 Y0.5817
X-0.122 Y0.5737
X-0.1235 Y0.5655
X-0.1244 Y0.5572
X-0.1248 Y0.549
G3 X-0.1212 Y0.4592 I0.6156 J-0.0204
G1 X-0.1201 Y0.4531
X-0.1183 Y0.4434
G3 X-0.1168 Y0.4362 I0.1231 J0.0219
G1 X-0.1146 Y0.4268
G3 X-0.1124 Y0.4187 I0.1216 J0.029
G1 X-0.1095 Y0.4095
G3 X-0.1063 Y0.4005 I0.1193 J0.0372
G1 X-0.1028 Y0.3917
G3 X-0.0984 Y0.382 I0.1161 J0.0463
G1 X-0.0942 Y0.3735
G3 X-0.0891 Y0.3644 I0.1118 J0.056
G1 X-0.0842 Y0.3563
G3 X-0.079 Y0.3484 I0.1067 J0.0651
G1 X-0.0734 Y0.3407
G3 X-0.0683 Y0.334 I0.1015 J0.073
G1 X-0.0621 Y0.3266
G3 X-0.0572 Y0.321 I0.0963 J0.0797
G1 X-0.0505 Y0.3138
G3 X-0.0461 Y0.3093 I0.0915 J0.0852
X0.0354 Y0.2453 I0.3572 J0.3706
G1 X0.0417 Y0.241
X0.0483 Y0.2371
X0.0552 Y0.2337
G3 X0.3014 Y0.1477 I0.5294 J1.1211
X0.7499 Y0.0473 I1.5906 J6.0538
X1.3648 Y-0.0659 I2.8428 J13.714
X1.7361 Y-0.1154 I2.3542 J16.2422
G1 X1.7405 Y-0.1159
X1.745 Y-0.1163
G3 X2.0183 Y-0.125 I0.2737 J4.2814
X2.2616 Y-0.1032 I-0.0128 J1.5096
X2.5311 Y-0.0239 I-0.2997 J1.5158
X2.6737 Y0.0325 I-1.3293 J3.5732
G1 X2.6802 Y0.0353
X2.6866 Y0.0386
X2.6928 Y0.0422
X2.6988 Y0.0461
X2.7045 Y0.0504
G3 X2.9079 Y0.2219 I-1.9478 J2.5169
X3.0574 Y0.3932 I-0.7822 J0.8336
X3.1807 Y0.6448 I-0.8968 J0.5955
X3.2541 Y0.8989 I-2.3323 J0.8108
G1 X3.2647 Y0.9404
G3 X3.2645 Y1.0017 I-0.1213 J0.0302
X3.1677 Y1.3617 I-9.0748 J-2.2462
X3.0546 Y1.6794 I-2.8684 J-0.8426
X2.9108 Y1.9434 I-1.4806 J-0.6355
X2.5704 Y2.2683 I-0.9716 J-0.677
X2.2781 Y2.4177 I-0.8883 J-1.3776
X1.9258 Y2.531 I-0.9987 J-2.5004
X1.5507 Y2.6115 I-1.2619 J-4.9658
X1.1697 Y2.6753 I-2.8735 J-15.9789
G1 X0.934 Y2.7214
G2 X0.6907 Y2.7668 I4.4182 J24.3175
G3 X0.5739 Y2.78 I-0.1792 J-1.0661
G1 X0.5581 Y2.7801
G3 X0.5519 I-0.0023 J-0.125
G1 X0.5365 Y2.7796
G3 X0.5291 Y2.7792 I0.0038 J-0.1249
G1 X0.5142 Y2.7778
G3 X0.5055 Y2.7767 I0.0112 J-0.1245
G1 X0.4911 Y2.7744
G3 X0.481 Y2.7724 I0.0198 J-0.1234
G1 X0.4672 Y2.769
G3 X0.4558 Y2.7656 I0.0299 J-0.1214
G1 X0.4427 Y2.761
G3 X0.4304 Y2.7559 I0.0413 J-0.118
G1 X0.4179 Y2.75
G3 X0.4083 Y2.7449 I0.0536 J-0.1129
G1 X0.4023 Y2.7414
G3 X0.3961 Y2.7375 I0.0632 J-0.1078
G1 X0.3903 Y2.7337
G3 X0.3819 Y2.7275 I0.0694 J-0.1039
G1 X0.3709 Y2.7188
G3 X0.3617 Y2.7107 I0.0779 J-0.0978
G1 X0.3514 Y2.7007
G3 X0.3443 Y2.6931 I0.0871 J-0.0896
G1 X0.3346 Y2.682
G3 X0.3292 Y2.6753 I0.0943 J-0.0821
G1 X0.3201 Y2.6632
G3 X0.316 Y2.6575 I0.0997 J-0.0754
X0.2605 Y2.5587 I0.5767 J-0.3886
G1 X0.2571 Y2.5515
X0.2542 Y2.5441
X0.2518 Y2.5365
X0.2498 Y2.5288
X0.2484 Y2.521
X0.2474 Y2.5131
X0.247 Y2.5052
G3 X0.2512 Y2.4121 I0.5196 J-0.0231
G1 X0.2527 Y2.4057
X0.2544 Y2.3973
G3 X0.2562 Y2.3899 I0.1224 J0.0256
G1 X0.2584 Y2.3818
G3 X0.261 Y2.3736 I0.1206 J0.033
G1 X0.2637 Y2.3657
G3 X0.2672 Y2.3569 I0.118 J0.0412
G1 X0.2705 Y2.3492
G3 X0.2746 Y2.3408 I0.1145 J0.05
G1 X0.2785 Y2.3335
G3 X0.2827 Y2.3261 I0.1105 J0.0584
G1 X0.2871 Y2.319
G3 X0.2913 Y2.3127 I0.1063 J0.0657
G1 X0.2962 Y2.3057
G3 X0.3001 Y2.3004 I0.1022 J0.072
X0.3678 Y2.2323 I0.3329 J0.2634
G1 X0.3747 Y2.2261
G3 X0.3897 Y2.2152 I0.0812 J0.095
X0.517 Y2.1476 I0.4035 J0.6064
X0.6918 Y2.1048 I0.3261 J0.9543
X0.7875 Y2.0874 I0.6089 J3.075
G1 X0.8909 Y2.0671
X0.9743 Y2.0508
G3 X0.9831 Y2.0494 I0.024 J0.1227
G2 X1.4417 Y1.9873 I-1.2289 J-10.8007
G1 X1.4905 Y1.9787
X1.5388 Y1.9698
X1.5431 Y1.9689
G2 X1.5628 Y1.9396 I-0.0048 J-0.0245
G1 X1.558 Y1.915
X1.5572 Y1.9112 Z-0.2997
X1.5565 Y1.9075 Z-0.2988
X1.5558 Y1.9039 Z-0.2973
X1.5551 Y1.9006 Z-0.2952
X1.5545 Y1.8977 Z-0.2927
X1.5541 Y1.8952 Z-0.2897
X1.5537 Y1.8932 Z-0.2863
X1.5534 Y1.8917 Z-0.2827
X1.5532 Y1.8908 Z-0.2789
X1.5531 Y1.8905 Z-0.275
X1.5041 Y1.9002
Z-0.325
Y1.9005 Z-0.3289
X1.5043 Y1.9014 Z-0.3327
X1.5046 Y1.9029 Z-0.3363
X1.505 Y1.9049 Z-0.3397
X1.5055 Y1.9074 Z-0.3427
X1.5061 Y1.9103 Z-0.3452
X1.5067 Y1.9136 Z-0.3473
X1.5074 Y1.9171 Z-0.3488
X1.5082 Y1.9209 Z-0.3497
X1.5089 Y1.9247 Z-0.35
X1.5138 Y1.9492
G2 X1.5431 Y1.9689 I0.0245 J-0.0048
X1.8985 Y1.8768 I-0.4585 J-2.5004
X2.1279 Y1.7731 I-0.4692 J-1.343
X2.3806 Y1.56 I-0.448 J-0.7877
X2.5294 Y1.3259 I-1.1226 J-0.8779
X2.6108 Y1.1575 I-2.5316 J-1.3281
G1 X2.6503 Y1.0683
X2.6657 Y1.0323
G2 X2.5416 Y0.813 I-2.8078 J1.4449
X2.4351 Y0.6705 I-0.9325 J0.5861
X2.3224 Y0.5762 I-0.3817 J0.3412
X2.1632 Y0.5205 I-0.2354 J0.4181
X1.9594 Y0.5085 I-0.1562 J0.9155
X1.7224 Y0.5306 I0.0807 J2.1518
G1 X1.6507 Y0.5409
X1.5778 Y0.5523
X1.5058 Y0.564
X0.384 Y0.783
G3 X0.2378 Y0.8085 I-0.2653 J-1.0887
G1 X0.2203 Y0.8094
G3 X0.2142 Y0.8096 I-0.0079 J-0.1248
G1 X0.1971 Y0.8099
G3 X0.1898 Y0.8097 I-0.0017 J-0.125
G1 X0.1732 Y0.809
G3 X0.1647 Y0.8083 I0.0056 J-0.1249
G1 X0.1485 Y0.8065
G3 X0.1389 Y0.805 I0.0141 J-0.1242
G1 X0.1232 Y0.802
G3 X0.1125 Y0.7994 I0.0237 J-0.1227
G1 X0.0974 Y0.7951
G3 X0.0858 Y0.7912 I0.0344 J-0.1202
G1 X0.0713 Y0.7854
G3 X0.0623 Y0.7814 I0.046 J-0.1162
G1 X0.0553 Y0.778
G3 X0.0492 Y0.7748 I0.055 J-0.1122
G1 X0.0424 Y0.771
G3 X0.0341 Y0.7659 I0.0611 J-0.1091
G1 X0.0209 Y0.7571
G3 X0.0117 Y0.7503 I0.0694 J-0.104
G1 X-0.0009 Y0.7401
G3 X-0.0081 Y0.7338 I0.0786 J-0.0972
G1 X-0.0202 Y0.7224
G3 X-0.0257 Y0.7169 I0.0859 J-0.0908
G1 X-0.0373 Y0.7045
G3 X-0.0414 Y0.6998 I0.0914 J-0.0853
X-0.1022 Y0.6189 I0.6281 J-0.5351
G1 X-0.1067 Y0.612
X-0.1108 Y0.6048
X-0.1143 Y0.5973
X-0.1174 Y0.5896
X-0.12 Y0.5817
X-0.122 Y0.5737
X-0.1235 Y0.5655
X-0.1244 Y0.5572
X-0.1248 Y0.549
G3 X-0.1212 Y0.4592 I0.6156 J-0.0204
G1 X-0.1201 Y0.4531
X-0.1183 Y0.4434
G3 X-0.1168 Y0.4362 I0.1231 J0.0219
G1 X-0.1146 Y0.4268
G3 X-0.1124 Y0.4187 I0.1216 J0.029
G1 X-0.1095 Y0.4095
G3 X-0.1063 Y0.4005 I0.1193 J0.0372
G1 X-0.1028 Y0.3917
G3 X-0.0984 Y0.382 I0.1161 J0.0463
G1 X-0.0942 Y0.3735
G3 X-0.0891 Y0.3644 I0.1118 J0.056
G1 X-0.0842 Y0.3563
G3 X-0.079 Y0.3484 I0.1067 J0.0651
G1 X-0.0734 Y0.3407
G3 X-0.0683 Y0.334 I0.1015 J0.073
G1 X-0.0621 Y0.3266
G3 X-0.0572 Y0.321 I0.0963 J0.0797
G1 X-0.0505 Y0.3138
G3 X-0.0461 Y0.3093 I0.0915 J0.0852
X0.0354 Y0.2453 I0.3572 J0.3706
G1 X0.0417 Y0.241
X0.0483 Y0.2371
X0.0552 Y0.2337
G3 X0.3014 Y0.1477 I0.5294 J1.1211
X0.7499 Y0.0473 I1.5906 J6.0538
X1.3648 Y-0.0659 I2.8428 J13.714
X1.7361 Y-0.1154 I2.3542 J16.2422
G1 X1.7405 Y-0.1159
X1.745 Y-0.1163
G3 X2.0183 Y-0.125 I0.2737 J4.2814
X2.2616 Y-0.1032 I-0.0128 J1.5096
X2.5311 Y-0.0239 I-0.2997 J1.5158
X2.6737 Y0.0325 I-1.3293 J3.5732
G1 X2.6802 Y0.0353
X2.6866 Y0.0386
X2.6928 Y0.0422
X2.6988 Y0.0461
X2.7045 Y0.0504
G3 X2.9079 Y0.2219 I-1.9478 J2.5169
X3.0574 Y0.3932 I-0.7822 J0.8336
X3.1807 Y0.6448 I-0.8968 J0.5955
X3.2541 Y0.8989 I-2.3323 J0.8108
G1 X3.2647 Y0.9404
G3 X3.2645 Y1.0017 I-0.1213 J0.0302
X3.1677 Y1.3617 I-9.0748 J-2.2462
X3.0546 Y1.6794 I-2.8684 J-0.8426
X2.9108 Y1.9434 I-1.4806 J-0.6355
X2.5704 Y2.2683 I-0.9716 J-0.677
X2.2781 Y2.4177 I-0.8883 J-1.3776
X1.9258 Y2.531 I-0.9987 J-2.5004
X1.5507 Y2.6115 I-1.2619 J-4.9658
X1.1697 Y2.6753 I-2.8735 J-15.9789
G1 X0.934 Y2.7214
G2 X0.6907 Y2.7668 I4.4182 J24.3175
G3 X0.5739 Y2.78 I-0.1792 J-1.0661
G1 X0.5581 Y2.7801
G3 X0.5519 I-0.0023 J-0.125
G1 X0.5365 Y2.7796
G3 X0.5291 Y2.7792 I0.0038 J-0.1249
G1 X0.5142 Y2.7778
G3 X0.5055 Y2.7767 I0.0112 J-0.1245
G1 X0.4911 Y2.7744
G3 X0.481 Y2.7724 I0.0198 J-0.1234
G1 X0.4672 Y2.769
G3 X0.4558 Y2.7656 I0.0299 J-0.1214
G1 X0.4427 Y2.761
G3 X0.4304 Y2.7559 I0.0413 J-0.118
G1 X0.4179 Y2.75
G3 X0.4083 Y2.7449 I0.0536 J-0.1129
G1 X0.4023 Y2.7414
G3 X0.3961 Y2.7375 I0.0632 J-0.1078
G1 X0.3903 Y2.7337
G3 X0.3819 Y2.7275 I0.0694 J-0.1039
G1 X0.3709 Y2.7188
G3 X0.3617 Y2.7107 I0.0779 J-0.0978
G1 X0.3514 Y2.7007
G3 X0.3443 Y2.6931 I0.0871 J-0.0896
G1 X0.3346 Y2.682
G3 X0.3292 Y2.6753 I0.0943 J-0.0821
G1 X0.3201 Y2.6632
G3 X0.316 Y2.6575 I0.0997 J-0.0754
X0.2605 Y2.5587 I0.5767 J-0.3886
G1 X0.2571 Y2.5515
X0.2542 Y2.5441
X0.2518 Y2.5365
X0.2498 Y2.5288
X0.2484 Y2.521
X0.2474 Y2.5131
X0.247 Y2.5052
G3 X0.2512 Y2.4121 I0.5196 J-0.0231
G1 X0.2527 Y2.4057
X0.2544 Y2.3973
G3 X0.2562 Y2.3899 I0.1224 J0.0256
G1 X0.2584 Y2.3818
G3 X0.261 Y2.3736 I0.1206 J0.033
G1 X0.2637 Y2.3657
G3 X0.2672 Y2.3569 I0.118 J0.0412
G1 X0.2705 Y2.3492
G3 X0.2746 Y2.3408 I0.1145 J0.05
G1 X0.2785 Y2.3335
G3 X0.2827 Y2.3261 I0.1105 J0.0584
G1 X0.2871 Y2.319
G3 X0.2913 Y2.3127 I0.1063 J0.0657
G1 X0.2962 Y2.3057
G3 X0.3001 Y2.3004 I0.1022 J0.072
X0.3678 Y2.2323 I0.3329 J0.2634
G1 X0.3747 Y2.2261
G3 X0.3897 Y2.2152 I0.0812 J0.095
X0.517 Y2.1476 I0.4035 J0.6064
X0.6918 Y2.1048 I0.3261 J0.9543
X0.7875 Y2.0874 I0.6089 J3.075
G1 X0.8909 Y2.0671
X0.9743 Y2.0508
G3 X0.9831 Y2.0494 I0.024 J0.1227
G2 X1.4417 Y1.9873 I-1.2289 J-10.8007
G1 X1.4905 Y1.9787
X1.5388 Y1.9698
X1.5431 Y1.9689
G2 X1.5628 Y1.9396 I-0.0048 J-0.0245
G1 X1.558 Y1.915
X1.5572 Y1.9112 Z-0.3497
X1.5565 Y1.9075 Z-0.3488
X1.5558 Y1.9039 Z-0.3473
X1.5551 Y1.9006 Z-0.3452
X1.5545 Y1.8977 Z-0.3427
X1.5541 Y1.8952 Z-0.3397
X1.5537 Y1.8932 Z-0.3363
X1.5534 Y1.8917 Z-0.3327
X1.5532 Y1.8908 Z-0.3289
X1.5531 Y1.8905 Z-0.325
X1.5041 Y1.9002
Z-0.375
Y1.9005 Z-0.3789
X1.5043 Y1.9014 Z-0.3827
X1.5046 Y1.9029 Z-0.3863
X1.505 Y1.9049 Z-0.3897
X1.5055 Y1.9074 Z-0.3927
X1.5061 Y1.9103 Z-0.3952
X1.5067 Y1.9136 Z-0.3973
X1.5074 Y1.9171 Z-0.3988
X1.5082 Y1.9209 Z-0.3997
X1.5089 Y1.9247 Z-0.4
X1.5138 Y1.9492
G2 X1.5431 Y1.9689 I0.0245 J-0.0048
X1.8985 Y1.8768 I-0.4585 J-2.5004
X2.1279 Y1.7731 I-0.4692 J-1.343
X2.3806 Y1.56 I-0.448 J-0.7877
X2.5294 Y1.3259 I-1.1226 J-0.8779
X2.6108 Y1.1575 I-2.5316 J-1.3281
G1 X2.6503 Y1.0683
X2.6657 Y1.0323
G2 X2.5416 Y0.813 I-2.8078 J1.4449
X2.4351 Y0.6705 I-0.9325 J0.5861
X2.3224 Y0.5762 I-0.3817 J0.3412
X2.1632 Y0.5205 I-0.2354 J0.4181
X1.9594 Y0.5085 I-0.1562 J0.9155
X1.7224 Y0.5306 I0.0807 J2.1518
G1 X1.6507 Y0.5409
X1.5778 Y0.5523
X1.5058 Y0.564
X0.384 Y0.783
G3 X0.2378 Y0.8085 I-0.2653 J-1.0887
G1 X0.2203 Y0.8094
G3 X0.2142 Y0.8096 I-0.0079 J-0.1248
G1 X0.1971 Y0.8099
G3 X0.1898 Y0.8097 I-0.0017 J-0.125
G1 X0.1732 Y0.809
G3 X0.1647 Y0.8083 I0.0056 J-0.1249
G1 X0.1485 Y0.8065
G3 X0.1389 Y0.805 I0.0141 J-0.1242
G1 X0.1232 Y0.802
G3 X0.1125 Y0.7994 I0.0237 J-0.1227
G1 X0.0974 Y0.7951
G3 X0.0858 Y0.7912 I0.0344 J-0.1202
G1 X0.0713 Y0.7854
G3 X0.0623 Y0.7814 I0.046 J-0.1162
G1 X0.0553 Y0.778
G3 X0.0492 Y0.7748 I0.055 J-0.1122
G1 X0.0424 Y0.771
G3 X0.0341 Y0.7659 I0.0611 J-0.1091
G1 X0.0209 Y0.7571
G3 X0.0117 Y0.7503 I0.0694 J-0.104
G1 X-0.0009 Y0.7401
G3 X-0.0081 Y0.7338 I0.0786 J-0.0972
G1 X-0.0202 Y0.7224
G3 X-0.0257 Y0.7169 I0.0859 J-0.0908
G1 X-0.0373 Y0.7045
G3 X-0.0414 Y0.6998 I0.0914 J-0.0853
X-0.1022 Y0.6189 I0.6281 J-0.5351
G1 X-0.1067 Y0.612
X-0.1108 Y0.6048
X-0.1143 Y0.5973
X-0.1174 Y0.5896
X-0.12 Y0.5817
X-0.122 Y0.5737
X-0.1235 Y0.5655
X-0.1244 Y0.5572
X-0.1248 Y0.549
G3 X-0.1212 Y0.4592 I0.6156 J-0.0204
G1 X-0.1201 Y0.4531
X-0.1183 Y0.4434
G3 X-0.1168 Y0.4362 I0.1231 J0.0219
G1 X-0.1146 Y0.4268
G3 X-0.1124 Y0.4187 I0.1216 J0.029
G1 X-0.1095 Y0.4095
G3 X-0.1063 Y0.4005 I0.1193 J0.0372
G1 X-0.1028 Y0.3917
G3 X-0.0984 Y0.382 I0.1161 J0.0463
G1 X-0.0942 Y0.3735
G3 X-0.0891 Y0.3644 I0.1118 J0.056
G1 X-0.0842 Y0.3563
G3 X-0.079 Y0.3484 I0.1067 J0.0651
G1 X-0.0734 Y0.3407
G3 X-0.0683 Y0.334 I0.1015 J0.073
G1 X-0.0621 Y0.3266
G3 X-0.0572 Y0.321 I0.0963 J0.0797
G1 X-0.0505 Y0.3138
G3 X-0.0461 Y0.3093 I0.0915 J0.0852
X0.0354 Y0.2453 I0.3572 J0.3706
G1 X0.0417 Y0.241
X0.0483 Y0.2371
X0.0552 Y0.2337
G3 X0.3014 Y0.1477 I0.5294 J1.1211
X0.7499 Y0.0473 I1.5906 J6.0538
X1.3648 Y-0.0659 I2.8428 J13.714
X1.7361 Y-0.1154 I2.3542 J16.2422
G1 X1.7405 Y-0.1159
X1.745 Y-0.1163
G3 X2.0183 Y-0.125 I0.2737 J4.2814
X2.2616 Y-0.1032 I-0.0128 J1.5096
X2.5311 Y-0.0239 I-0.2997 J1.5158
X2.6737 Y0.0325 I-1.3293 J3.5732
G1 X2.6802 Y0.0353
X2.6866 Y0.0386
X2.6928 Y0.0422
X2.6988 Y0.0461
X2.7045 Y0.0504
G3 X2.9079 Y0.2219 I-1.9478 J2.5169
X3.0574 Y0.3932 I-0.7822 J0.8336
X3.1807 Y0.6448 I-0.8968 J0.5955
X3.2541 Y0.8989 I-2.3323 J0.8108
G1 X3.2647 Y0.9404
G3 X3.2645 Y1.0017 I-0.1213 J0.0302
X3.1677 Y1.3617 I-9.0748 J-2.2462
X3.0546 Y1.6794 I-2.8684 J-0.8426
X2.9108 Y1.9434 I-1.4806 J-0.6355
X2.5704 Y2.2683 I-0.9716 J-0.677
X2.2781 Y2.4177 I-0.8883 J-1.3776
X1.9258 Y2.531 I-0.9987 J-2.5004
X1.5507 Y2.6115 I-1.2619 J-4.9658
X1.1697 Y2.6753 I-2.8735 J-15.9789
G1 X0.934 Y2.7214
G2 X0.6907 Y2.7668 I4.4182 J24.3175
G3 X0.5739 Y2.78 I-0.1792 J-1.0661
G1 X0.5581 Y2.7801
G3 X0.5519 I-0.0023 J-0.125
G1 X0.5365 Y2.7796
G3 X0.5291 Y2.7792 I0.0038 J-0.1249
G1 X0.5142 Y2.7778
G3 X0.5055 Y2.7767 I0.0112 J-0.1245
G1 X0.4911 Y2.7744
G3 X0.481 Y2.7724 I0.0198 J-0.1234
G1 X0.4672 Y2.769
G3 X0.4558 Y2.7656 I0.0299 J-0.1214
G1 X0.4427 Y2.761
G3 X0.4304 Y2.7559 I0.0413 J-0.118
G1 X0.4179 Y2.75
G3 X0.4083 Y2.7449 I0.0536 J-0.1129
G1 X0.4023 Y2.7414
G3 X0.3961 Y2.7375 I0.0632 J-0.1078
G1 X0.3903 Y2.7337
G3 X0.3819 Y2.7275 I0.0694 J-0.1039
G1 X0.3709 Y2.7188
G3 X0.3617 Y2.7107 I0.0779 J-0.0978
G1 X0.3514 Y2.7007
G3 X0.3443 Y2.6931 I0.0871 J-0.0896
G1 X0.3346 Y2.682
G3 X0.3292 Y2.6753 I0.0943 J-0.0821
G1 X0.3201 Y2.6632
G3 X0.316 Y2.6575 I0.0997 J-0.0754
X0.2605 Y2.5587 I0.5767 J-0.3886
G1 X0.2571 Y2.5515
X0.2542 Y2.5441
X0.2518 Y2.5365
X0.2498 Y2.5288
X0.2484 Y2.521
X0.2474 Y2.5131
X0.247 Y2.5052
G3 X0.2512 Y2.4121 I0.5196 J-0.0231
G1 X0.2527 Y2.4057
X0.2544 Y2.3973
G3 X0.2562 Y2.3899 I0.1224 J0.0256
G1 X0.2584 Y2.3818
G3 X0.261 Y2.3736 I0.1206 J0.033
G1 X0.2637 Y2.3657
G3 X0.2672 Y2.3569 I0.118 J0.0412
G1 X0.2705 Y2.3492
G3 X0.2746 Y2.3408 I0.1145 J0.05
G1 X0.2785 Y2.3335
G3 X0.2827 Y2.3261 I0.1105 J0.0584
G1 X0.2871 Y2.319
G3 X0.2913 Y2.3127 I0.1063 J0.0657
G1 X0.2962 Y2.3057
G3 X0.3001 Y2.3004 I0.1022 J0.072
X0.3678 Y2.2323 I0.3329 J0.2634
G1 X0.3747 Y2.2261
G3 X0.3897 Y2.2152 I0.0812 J0.095
X0.517 Y2.1476 I0.4035 J0.6064
X0.6918 Y2.1048 I0.3261 J0.9543
X0.7875 Y2.0874 I0.6089 J3.075
G1 X0.8909 Y2.0671
X0.9743 Y2.0508
G3 X0.9831 Y2.0494 I0.024 J0.1227
G2 X1.4417 Y1.9873 I-1.2289 J-10.8007
G1 X1.4905 Y1.9787
X1.5388 Y1.9698
X1.5431 Y1.9689
G2 X1.5628 Y1.9396 I-0.0048 J-0.0245
G1 X1.558 Y1.915
X1.5572 Y1.9112 Z-0.3997
X1.5565 Y1.9075 Z-0.3988
X1.5558 Y1.9039 Z-0.3973
X1.5551 Y1.9006 Z-0.3952
X1.5545 Y1.8977 Z-0.3927
X1.5541 Y1.8952 Z-0.3897
X1.5537 Y1.8932 Z-0.3863
X1.5534 Y1.8917 Z-0.3827
X1.5532 Y1.8908 Z-0.3789
X1.5531 Y1.8905 Z-0.375
X1.5041 Y1.9002
Z-0.425
Y1.9005 Z-0.4289
X1.5043 Y1.9014 Z-0.4327
X1.5046 Y1.9029 Z-0.4363
X1.505 Y1.9049 Z-0.4397
X1.5055 Y1.9074 Z-0.4427
X1.5061 Y1.9103 Z-0.4452
X1.5067 Y1.9136 Z-0.4473
X1.5074 Y1.9171 Z-0.4488
X1.5082 Y1.9209 Z-0.4497
X1.5089 Y1.9247 Z-0.45
X1.5138 Y1.9492
G2 X1.5431 Y1.9689 I0.0245 J-0.0048
X1.8985 Y1.8768 I-0.4585 J-2.5004
X2.1279 Y1.7731 I-0.4692 J-1.343
X2.3806 Y1.56 I-0.448 J-0.7877
X2.5294 Y1.3259 I-1.1226 J-0.8779
X2.6108 Y1.1575 I-2.5316 J-1.3281
G1 X2.6503 Y1.0683
X2.6657 Y1.0323
G2 X2.5416 Y0.813 I-2.8078 J1.4449
X2.4351 Y0.6705 I-0.9325 J0.5861
X2.3224 Y0.5762 I-0.3817 J0.3412
X2.1632 Y0.5205 I-0.2354 J0.4181
X1.9594 Y0.5085 I-0.1562 J0.9155
X1.7224 Y0.5306 I0.0807 J2.1518
G1 X1.6507 Y0.5409
X1.5778 Y0.5523
X1.5058 Y0.564
X0.631 Y0.7348
Z-0.44
X0.384 Y0.783
G3 X0.2378 Y0.8085 I-0.2653 J-1.0887
G1 X0.2203 Y0.8094
G3 X0.2142 Y0.8096 I-0.0079 J-0.1248
G1 X0.1971 Y0.8099
G3 X0.1898 Y0.8097 I-0.0017 J-0.125
G1 X0.1732 Y0.809
G3 X0.1647 Y0.8083 I0.0056 J-0.1249
G1 X0.1485 Y0.8065
G3 X0.1389 Y0.805 I0.0141 J-0.1242
G1 X0.1342 Y0.8041
Z-0.45
X0.1232 Y0.802
G3 X0.1125 Y0.7994 I0.0237 J-0.1227
G1 X0.0974 Y0.7951
G3 X0.0858 Y0.7912 I0.0344 J-0.1202
G1 X0.0713 Y0.7854
G3 X0.0623 Y0.7814 I0.046 J-0.1162
G1 X0.0553 Y0.778
G3 X0.0492 Y0.7748 I0.055 J-0.1122
G1 X0.0424 Y0.771
G3 X0.0341 Y0.7659 I0.0611 J-0.1091
G1 X0.0209 Y0.7571
G3 X0.0117 Y0.7503 I0.0694 J-0.104
G1 X-0.0009 Y0.7401
G3 X-0.0081 Y0.7338 I0.0786 J-0.0972
G1 X-0.0202 Y0.7224
G3 X-0.0257 Y0.7169 I0.0859 J-0.0908
G1 X-0.0373 Y0.7045
G3 X-0.0414 Y0.6998 I0.0914 J-0.0853
X-0.1022 Y0.6189 I0.6281 J-0.5351
G1 X-0.1067 Y0.612
X-0.1108 Y0.6048
X-0.1143 Y0.5973
X-0.1174 Y0.5896
X-0.12 Y0.5817
X-0.122 Y0.5737
X-0.1235 Y0.5655
X-0.1244 Y0.5572
X-0.1248 Y0.549
G3 X-0.1212 Y0.4592 I0.6156 J-0.0204
G1 X-0.1201 Y0.4531
X-0.1183 Y0.4434
G3 X-0.1168 Y0.4362 I0.1231 J0.0219
G1 X-0.1146 Y0.4268
G3 X-0.1124 Y0.4187 I0.1216 J0.029
G1 X-0.1095 Y0.4095
G3 X-0.1063 Y0.4005 I0.1193 J0.0372
G1 X-0.1028 Y0.3917
G3 X-0.0984 Y0.382 I0.1161 J0.0463
G1 X-0.0942 Y0.3735
G3 X-0.0891 Y0.3644 I0.1118 J0.056
G1 X-0.0842 Y0.3563
G3 X-0.079 Y0.3484 I0.1067 J0.0651
G1 X-0.0734 Y0.3407
G3 X-0.0683 Y0.334 I0.1015 J0.073
G1 X-0.0621 Y0.3266
G3 X-0.0572 Y0.321 I0.0963 J0.0797
G1 X-0.0505 Y0.3138
G3 X-0.0461 Y0.3093 I0.0915 J0.0852
X0.0354 Y0.2453 I0.3572 J0.3706
G1 X0.0417 Y0.241
X0.0483 Y0.2371
X0.0552 Y0.2337
G3 X0.3014 Y0.1477 I0.5294 J1.1211
X0.7499 Y0.0473 I1.5906 J6.0538
X1.3648 Y-0.0659 I2.8428 J13.714
X1.7361 Y-0.1154 I2.3542 J16.2422
G1 X1.7405 Y-0.1159
X1.745 Y-0.1163
G3 X2.0183 Y-0.125 I0.2737 J4.2814
X2.2616 Y-0.1032 I-0.0128 J1.5096
X2.4399 Y-0.0564 I-0.2581 J1.3469
G1 Z-0.44
G3 X2.6736 Y0.0327 I-1.0029 J2.9808
G1 X2.6801 Y0.0355
X2.6865 Y0.0387
X2.6928 Y0.0423
X2.6988 Y0.0462
X2.7045 Y0.0504
G3 X2.8778 Y0.1942 I-2.2947 J2.9417
G1 X2.8777 Y0.1943 Z-0.45
G3 X3.0447 Y0.3753 I-0.7917 J0.8983
X3.1651 Y0.6025 I-0.8252 J0.5828
X3.2435 Y0.857 I-1.9236 J0.7315
G1 X3.2542 Y0.8984
X3.2544 Y0.8989
X3.2647 Y0.9404
G3 X3.2645 Y1.0017 I-0.1213 J0.0302
X3.1677 Y1.3617 I-9.0748 J-2.2462
X3.0546 Y1.6794 I-2.8684 J-0.8426
X2.9108 Y1.9434 I-1.4806 J-0.6355
X2.5704 Y2.2683 I-0.9716 J-0.677
X2.2781 Y2.4177 I-0.8883 J-1.3776
X1.9258 Y2.531 I-0.9987 J-2.5004
X1.5507 Y2.6115 I-1.2619 J-4.9658
G1 X1.4245 Y2.6338
X1.4233 Y2.634
X1.4186 Y2.6348
Z-0.44
X1.296 Y2.6551
X1.2954 Y2.6552
X1.1697 Y2.6753
X0.934 Y2.7214
X0.9326 Y2.7216
X0.9264 Y2.7228
Z-0.45
G2 X0.6907 Y2.7668 I4.2424 J23.3423
G3 X0.5739 Y2.78 I-0.1793 J-1.0672
G1 X0.5581 Y2.7801
G3 X0.5519 I-0.0023 J-0.125
G1 X0.5365 Y2.7796
G3 X0.5291 Y2.7792 I0.0038 J-0.1249
G1 X0.5142 Y2.7778
G3 X0.5055 Y2.7767 I0.0112 J-0.1245
G1 X0.4911 Y2.7744
G3 X0.481 Y2.7724 I0.0198 J-0.1234
G1 X0.4672 Y2.769
G3 X0.4558 Y2.7656 I0.0299 J-0.1214
G1 X0.4427 Y2.761
G3 X0.4304 Y2.7559 I0.0413 J-0.118
G1 X0.4179 Y2.75
G3 X0.4083 Y2.7449 I0.0536 J-0.1129
G1 X0.4023 Y2.7414
G3 X0.3961 Y2.7375 I0.0632 J-0.1078
G1 X0.3903 Y2.7337
G3 X0.3819 Y2.7275 I0.0694 J-0.1039
G1 X0.3709 Y2.7188
G3 X0.3617 Y2.7107 I0.0779 J-0.0978
G1 X0.3514 Y2.7007
G3 X0.3443 Y2.6931 I0.0871 J-0.0896
G1 X0.3346 Y2.682
G3 X0.3292 Y2.6753 I0.0943 J-0.0821
G1 X0.3201 Y2.6632
G3 X0.316 Y2.6575 I0.0997 J-0.0754
X0.2605 Y2.5587 I0.5767 J-0.3886
G1 X0.2571 Y2.5515
X0.2542 Y2.5441
X0.2518 Y2.5365
X0.2498 Y2.5288
X0.2484 Y2.521
X0.2474 Y2.5131
X0.247 Y2.5052
G3 X0.2512 Y2.4121 I0.5196 J-0.0231
G1 X0.2527 Y2.4057
X0.2544 Y2.3973
G3 X0.2562 Y2.3899 I0.1224 J0.0256
G1 X0.2584 Y2.3818
G3 X0.261 Y2.3736 I0.1206 J0.033
G1 X0.2637 Y2.3657
G3 X0.2672 Y2.3569 I0.118 J0.0412
G1 X0.2705 Y2.3492
G3 X0.2746 Y2.3408 I0.1145 J0.05
G1 X0.2785 Y2.3335
G3 X0.2827 Y2.3261 I0.1105 J0.0584
G1 X0.2871 Y2.319
G3 X0.2913 Y2.3127 I0.1063 J0.0657
G1 X0.2962 Y2.3057
G3 X0.3001 Y2.3004 I0.1022 J0.072
X0.3678 Y2.2323 I0.3329 J0.2634
G1 X0.3747 Y2.2261
G3 X0.3897 Y2.2152 I0.0812 J0.095
X0.517 Y2.1476 I0.4035 J0.6064
X0.6918 Y2.1048 I0.3261 J0.9543
X0.737 Y2.0963 I0.2232 J1.0637
G1 Z-0.44
G2 X0.8909 Y2.0671 I-0.9303 J-5.3277
G1 X0.9743 Y2.0508
G3 X0.9831 Y2.0494 I0.024 J0.1227
G1 X1.087 Y2.0368
X1.1901 Y2.0237
X1.2311 Y2.0182
Z-0.45
G2 X1.5431 Y1.969 I-0.6983 J-5.4408
G1 X1.5469 Y1.9679
X1.5505 Y1.9663
X1.5538 Y1.9641
X1.5566 Y1.9614
X1.5591 Y1.9583
X1.561 Y1.9549
X1.5624 Y1.9512
X1.5631 Y1.9474
X1.5633 Y1.9435
X1.5628 Y1.9396
X1.558 Y1.915
X1.5572 Y1.9112 Z-0.4497
X1.5565 Y1.9075 Z-0.4488
X1.5558 Y1.9039 Z-0.4473
X1.5551 Y1.9006 Z-0.4452
X1.5545 Y1.8977 Z-0.4427
X1.5541 Y1.8952 Z-0.4397
X1.5537 Y1.8932 Z-0.4363
X1.5534 Y1.8917 Z-0.4327
X1.5532 Y1.8908 Z-0.4289
X1.5531 Y1.8905 Z-0.425
X1.5041 Y1.9002
Z-0.465
Y1.9005 Z-0.4689
X1.5043 Y1.9014 Z-0.4727
X1.5046 Y1.9029 Z-0.4763
X1.505 Y1.9049 Z-0.4797
X1.5055 Y1.9074 Z-0.4827
X1.5061 Y1.9103 Z-0.4852
X1.5067 Y1.9136 Z-0.4873
X1.5074 Y1.9171 Z-0.4888
X1.5082 Y1.9209 Z-0.4897
X1.5089 Y1.9247 Z-0.49
X1.5138 Y1.9492
G2 X1.5431 Y1.9689 I0.0245 J-0.0048
X1.8985 Y1.8768 I-0.4585 J-2.5004
X2.1279 Y1.7731 I-0.4692 J-1.343
X2.3806 Y1.56 I-0.448 J-0.7877
X2.5294 Y1.3259 I-1.1226 J-0.8779
X2.6108 Y1.1575 I-2.5316 J-1.3281
G1 X2.6503 Y1.0683
X2.6657 Y1.0323
G2 X2.5416 Y0.813 I-2.8078 J1.4449
X2.4351 Y0.6705 I-0.9325 J0.5861
X2.3224 Y0.5762 I-0.3817 J0.3412
X2.1632 Y0.5205 I-0.2354 J0.4181
X1.9594 Y0.5085 I-0.1562 J0.9155
X1.7224 Y0.5306 I0.0807 J2.1518
G1 X1.6507 Y0.5409
X1.5778 Y0.5523
X1.5058 Y0.564
X0.631 Y0.7348
Z-0.44
X0.384 Y0.783
G3 X0.2378 Y0.8085 I-0.2653 J-1.0887
G1 X0.2203 Y0.8094
G3 X0.2142 Y0.8096 I-0.0079 J-0.1248
G1 X0.1971 Y0.8099
G3 X0.1898 Y0.8097 I-0.0017 J-0.125
G1 X0.1732 Y0.809
G3 X0.1647 Y0.8083 I0.0056 J-0.1249
G1 X0.1485 Y0.8065
G3 X0.1389 Y0.805 I0.0141 J-0.1242
G1 X0.1342 Y0.8041
Z-0.49
X0.1232 Y0.802
G3 X0.1125 Y0.7994 I0.0237 J-0.1227
G1 X0.0974 Y0.7951
G3 X0.0858 Y0.7912 I0.0344 J-0.1202
G1 X0.0713 Y0.7854
G3 X0.0623 Y0.7814 I0.046 J-0.1162
G1 X0.0553 Y0.778
G3 X0.0492 Y0.7748 I0.055 J-0.1122
G1 X0.0424 Y0.771
G3 X0.0341 Y0.7659 I0.0611 J-0.1091
G1 X0.0209 Y0.7571
G3 X0.0117 Y0.7503 I0.0694 J-0.104
G1 X-0.0009 Y0.7401
G3 X-0.0081 Y0.7338 I0.0786 J-0.0972
G1 X-0.0202 Y0.7224
G3 X-0.0257 Y0.7169 I0.0859 J-0.0908
G1 X-0.0373 Y0.7045
G3 X-0.0414 Y0.6998 I0.0914 J-0.0853
X-0.1022 Y0.6189 I0.6281 J-0.5351
G1 X-0.1067 Y0.612
X-0.1108 Y0.6048
X-0.1143 Y0.5973
X-0.1174 Y0.5896
X-0.12 Y0.5817
X-0.122 Y0.5737
X-0.1235 Y0.5655
X-0.1244 Y0.5572
X-0.1248 Y0.549
G3 X-0.1212 Y0.4592 I0.6156 J-0.0204
G1 X-0.1201 Y0.4531
X-0.1183 Y0.4434
G3 X-0.1168 Y0.4362 I0.1231 J0.0219
G1 X-0.1146 Y0.4268
G3 X-0.1124 Y0.4187 I0.1216 J0.029
G1 X-0.1095 Y0.4095
G3 X-0.1063 Y0.4005 I0.1193 J0.0372
G1 X-0.1028 Y0.3917
G3 X-0.0984 Y0.382 I0.1161 J0.0463
G1 X-0.0942 Y0.3735
G3 X-0.0891 Y0.3644 I0.1118 J0.056
G1 X-0.0842 Y0.3563
G3 X-0.079 Y0.3484 I0.1067 J0.0651
G1 X-0.0734 Y0.3407
G3 X-0.0683 Y0.334 I0.1015 J0.073
G1 X-0.0621 Y0.3266
G3 X-0.0572 Y0.321 I0.0963 J0.0797
G1 X-0.0505 Y0.3138
G3 X-0.0461 Y0.3093 I0.0915 J0.0852
X0.0354 Y0.2453 I0.3572 J0.3706
G1 X0.0417 Y0.241
X0.0483 Y0.2371
X0.0552 Y0.2337
G3 X0.3014 Y0.1477 I0.5294 J1.1211
X0.7499 Y0.0473 I1.5906 J6.0538
X1.3648 Y-0.0659 I2.8428 J13.714
X1.7361 Y-0.1154 I2.3542 J16.2422
G1 X1.7405 Y-0.1159
X1.745 Y-0.1163
G3 X2.0183 Y-0.125 I0.2737 J4.2814
X2.2616 Y-0.1032 I-0.0128 J1.5096
X2.4399 Y-0.0564 I-0.2581 J1.3469
G1 Z-0.44
G3 X2.6736 Y0.0327 I-1.0029 J2.9808
G1 X2.6801 Y0.0355
X2.6865 Y0.0387
X2.6928 Y0.0423
X2.6988 Y0.0462
X2.7045 Y0.0504
G3 X2.8778 Y0.1942 I-2.2947 J2.9417
G1 X2.8777 Y0.1943 Z-0.49
G3 X3.0447 Y0.3753 I-0.7917 J0.8983
X3.1651 Y0.6025 I-0.8252 J0.5828
X3.2435 Y0.857 I-1.9236 J0.7315
G1 X3.2542 Y0.8984
X3.2544 Y0.8989
X3.2647 Y0.9404
G3 X3.2645 Y1.0017 I-0.1213 J0.0302
X3.1677 Y1.3617 I-9.0748 J-2.2462
X3.0546 Y1.6794 I-2.8684 J-0.8426
X2.9108 Y1.9434 I-1.4806 J-0.6355
X2.5704 Y2.2683 I-0.9716 J-0.677
X2.2781 Y2.4177 I-0.8883 J-1.3776
X1.9258 Y2.531 I-0.9987 J-2.5004
X1.5507 Y2.6115 I-1.2619 J-4.9658
G1 X1.4245 Y2.6338
X1.4233 Y2.634
X1.4186 Y2.6348
Z-0.44
X1.296 Y2.6551
X1.2954 Y2.6552
X1.1697 Y2.6753
X0.934 Y2.7214
X0.9326 Y2.7216
X0.9264 Y2.7228
Z-0.49
G2 X0.6907 Y2.7668 I4.2424 J23.3423
G3 X0.5739 Y2.78 I-0.1793 J-1.0672
G1 X0.5581 Y2.7801
G3 X0.5519 I-0.0023 J-0.125
G1 X0.5365 Y2.7796
G3 X0.5291 Y2.7792 I0.0038 J-0.1249
G1 X0.5142 Y2.7778
G3 X0.5055 Y2.7767 I0.0112 J-0.1245
G1 X0.4911 Y2.7744
G3 X0.481 Y2.7724 I0.0198 J-0.1234
G1 X0.4672 Y2.769
G3 X0.4558 Y2.7656 I0.0299 J-0.1214
G1 X0.4427 Y2.761
G3 X0.4304 Y2.7559 I0.0413 J-0.118
G1 X0.4179 Y2.75
G3 X0.4083 Y2.7449 I0.0536 J-0.1129
G1 X0.4023 Y2.7414
G3 X0.3961 Y2.7375 I0.0632 J-0.1078
G1 X0.3903 Y2.7337
G3 X0.3819 Y2.7275 I0.0694 J-0.1039
G1 X0.3709 Y2.7188
G3 X0.3617 Y2.7107 I0.0779 J-0.0978
G1 X0.3514 Y2.7007
G3 X0.3443 Y2.6931 I0.0871 J-0.0896
G1 X0.3346 Y2.682
G3 X0.3292 Y2.6753 I0.0943 J-0.0821
G1 X0.3201 Y2.6632
G3 X0.316 Y2.6575 I0.0997 J-0.0754
X0.2605 Y2.5587 I0.5767 J-0.3886
G1 X0.2571 Y2.5515
X0.2542 Y2.5441
X0.2518 Y2.5365
X0.2498 Y2.5288
X0.2484 Y2.521
X0.2474 Y2.5131
X0.247 Y2.5052
G3 X0.2512 Y2.4121 I0.5196 J-0.0231
G1 X0.2527 Y2.4057
X0.2544 Y2.3973
G3 X0.2562 Y2.3899 I0.1224 J0.0256
G1 X0.2584 Y2.3818
G3 X0.261 Y2.3736 I0.1206 J0.033
G1 X0.2637 Y2.3657
G3 X0.2672 Y2.3569 I0.118 J0.0412
G1 X0.2705 Y2.3492
G3 X0.2746 Y2.3408 I0.1145 J0.05
G1 X0.2785 Y2.3335
G3 X0.2827 Y2.3261 I0.1105 J0.0584
G1 X0.2871 Y2.319
G3 X0.2913 Y2.3127 I0.1063 J0.0657
G1 X0.2962 Y2.3057
G3 X0.3001 Y2.3004 I0.1022 J0.072
X0.3678 Y2.2323 I0.3329 J0.2634
G1 X0.3747 Y2.2261
G3 X0.3897 Y2.2152 I0.0812 J0.095
X0.517 Y2.1476 I0.4035 J0.6064
X0.6918 Y2.1048 I0.3261 J0.9543
X0.737 Y2.0963 I0.2232 J1.0637
G1 Z-0.44
G2 X0.8909 Y2.0671 I-0.9303 J-5.3277
G1 X0.9743 Y2.0508
G3 X0.9831 Y2.0494 I0.024 J0.1227
G1 X1.087 Y2.0368
X1.1901 Y2.0237
X1.2311 Y2.0182
Z-0.49
G2 X1.5431 Y1.969 I-0.6983 J-5.4408
G1 X1.5469 Y1.9679
X1.5505 Y1.9663
X1.5538 Y1.9641
X1.5566 Y1.9614
X1.5591 Y1.9583
X1.561 Y1.9549
X1.5624 Y1.9512
X1.5631 Y1.9474
X1.5633 Y1.9435
X1.5628 Y1.9396
X1.558 Y1.915
X1.5572 Y1.9112 Z-0.4897
X1.5565 Y1.9075 Z-0.4888
X1.5558 Y1.9039 Z-0.4873
X1.5551 Y1.9006 Z-0.4852
X1.5545 Y1.8977 Z-0.4827
X1.5541 Y1.8952 Z-0.4797
X1.5537 Y1.8932 Z-0.4763
X1.5534 Y1.8917 Z-0.4727
X1.5532 Y1.8908 Z-0.4689
X1.5531 Y1.8905 Z-0.465
G0 Z0.6
M9
M30
%
