%
(1001)
(T6  D=0.25 CR=0 - ZMIN=-0.441 - flat end mill)
G90 G94
G17
G20

(2D Contour1)
M9
T6 M6
S5514 M3
G54
M8
G0 X1.2841 Y3.3666
Z0.6
Z0.2
G1 Z0.0894 F21.36
Z-0.025
Y3.3663 Z-0.0289
Y3.3654 Z-0.0327
Y3.3639 Z-0.0363
X1.2842 Y3.3619 Z-0.0397
X1.2843 Y3.3593 Z-0.0427
Y3.3563 Z-0.0452
X1.2844 Y3.353 Z-0.0473
X1.2845 Y3.3494 Z-0.0488
X1.2846 Y3.3456 Z-0.0497
X1.2847 Y3.3417 Z-0.05
X1.2853 Y3.3167
G2 X1.261 Y3.291 I-0.025 J-0.0006
X0.9763 Y3.2951 I-0.0979 J3.076
G3 X0.7751 Y3.3009 I-0.3053 J-7.1871
G1 X0.7676 Y3.3006
G3 X0.6483 Y3.2905 I0.0296 J-1.0598
G1 X0.6324 Y3.2875
G3 X0.6264 Y3.2862 I0.0223 J-0.123
G1 X0.6111 Y3.2827
G3 X0.6038 Y3.2808 I0.0283 J-0.1217
G1 X0.5892 Y3.2764
G3 X0.5808 Y3.2736 I0.0356 J-0.1198
G1 X0.5669 Y3.2684
G3 X0.5573 Y3.2643 I0.0439 J-0.117
G1 X0.5442 Y3.2581
G3 X0.5337 Y3.2525 I0.0535 J-0.113
G1 X0.5214 Y3.2452
G3 X0.5103 Y3.2377 I0.064 J-0.1074
G1 X0.499 Y3.2293
G3 X0.4906 Y3.2223 I0.0752 J-0.0999
G1 X0.4854 Y3.2176
G3 X0.48 Y3.2125 I0.0836 J-0.0929
G1 X0.475 Y3.2074
G3 X0.4681 Y3.1998 I0.089 J-0.0878
G1 X0.4589 Y3.1888
G3 X0.4515 Y3.179 I0.0959 J-0.0801
G1 X0.4433 Y3.1669
G3 X0.4378 Y3.1582 I0.1034 J-0.0703
G1 X0.4304 Y3.1451
G3 X0.4265 Y3.1375 I0.1088 J-0.0616
G1 X0.4198 Y3.1235
G3 X0.417 Y3.1172 I0.1128 J-0.0539
X0.3817 Y3.0073 I0.6589 J-0.2725
G1 X0.3797 Y2.9992
X0.3782 Y2.991
X0.3774 Y2.9828
X0.377 Y2.9744
X0.3772 Y2.9661
G3 X0.3949 Y2.8582 I0.4246 J0.0143
G1 X0.3975 Y2.8521
G3 X0.3998 Y2.846 I0.1178 J0.0418
G1 X0.4024 Y2.8398
G3 X0.405 Y2.834 I0.1154 J0.048
X0.4602 Y2.7518 I0.3151 J0.152
G1 X0.4645 Y2.7462
G3 X0.4848 Y2.7267 I0.0961 J0.08
X0.5746 Y2.6708 I0.264 J0.3237
G1 X0.5807 Y2.6686
G3 X0.5864 Y2.6665 I0.0466 J0.116
X0.6887 Y2.6477 I0.1151 J0.3376
G1 X0.6954 Y2.6469
G3 X0.7039 Y2.6465 I0.0097 J0.1246
G2 X1.0486 Y2.638 I-0.1534 J-13.1952
G1 X1.1672 Y2.6367
G2 X1.1695 Y2.4558 I-2.8369 J-0.1269
X1.1404 Y1.3909 I-18.4399 J-0.0287
G1 X1.1406 Y1.3829
G2 X1.1393 Y1.0839 I-5.1127 J-0.127
X1.1113 Y0.8504 I-1.5323 J0.0655
X1.021 Y0.6095 I-0.8314 J0.1743
G1 X1.0016 Y0.575
X0.9809 Y0.54
X0.9789 Y0.5367
G2 X0.8399 Y0.5744 I0.0628 J0.5056
X0.6098 Y0.7229 I0.5079 J1.0396
X0.5585 Y0.7807 I0.1776 J0.2093
X0.5243 Y0.8753 I0.3367 J0.1751
X0.5162 Y0.9215 I0.143 J0.0488
G3 X0.5022 Y1.0123 I-0.6807 J-0.0585
G1 X0.5004 Y1.0187
X0.4965 Y1.0324
G3 X0.4941 Y1.04 I-0.1203 J-0.0341
G1 X0.4895 Y1.0531
G3 X0.486 Y1.0619 I-0.1178 J-0.0417
G1 X0.4805 Y1.0743
G3 X0.4756 Y1.0843 I-0.1143 J-0.0505
G1 X0.4692 Y1.0958
G3 X0.4624 Y1.1067 I-0.1094 J-0.0605
G1 X0.455 Y1.1173
G3 X0.4462 Y1.1285 I-0.1026 J-0.0714
G1 X0.4377 Y1.1381
G3 X0.4272 Y1.1487 I-0.0937 J-0.0827
G1 X0.4176 Y1.1573
G3 X0.407 Y1.1658 I-0.0832 J-0.0933
G1 X0.3963 Y1.1734
G3 X0.3866 Y1.1797 I-0.0727 J-0.1017
G1 X0.3749 Y1.1865
G3 X0.3663 Y1.1911 I-0.0629 J-0.108
G1 X0.3538 Y1.1971
G3 X0.3464 Y1.2004 I-0.0542 J-0.1126
G1 X0.3332 Y1.2057
G3 X0.3271 Y1.208 I-0.0469 J-0.1159
X0.2237 Y1.2352 I-0.2298 J-0.6638
G1 X0.2161 Y1.2366
X0.2084 Y1.2376
X0.2007 Y1.2381
X0.193
X0.1852 Y1.2376
X0.1775 Y1.2367
X0.1699 Y1.2353
G3 X0.0659 Y1.2071 I0.1657 J-0.8183
G1 X0.0599 Y1.2045
X0.0466 Y1.199
G3 X0.0391 Y1.1956 I0.0478 J-0.1155
G1 X0.0266 Y1.1894
G3 X0.0179 Y1.1847 I0.0553 J-0.1121
G1 X0.0063 Y1.1778
G3 X-0.0035 Y1.1713 I0.0639 J-0.1074
G1 X-0.0142 Y1.1635
G3 X-0.0248 Y1.1549 I0.0737 J-0.101
G1 X-0.0344 Y1.1461
G3 X-0.0448 Y1.1354 I0.0842 J-0.0924
G1 X-0.0532 Y1.1256
G3 X-0.0619 Y1.1144 I0.0946 J-0.0817
G1 X-0.0692 Y1.1036
G3 X-0.0759 Y1.0927 I0.1033 J-0.0704
G1 X-0.0822 Y1.081
G3 X-0.087 Y1.0711 I0.1099 J-0.0595
G1 X-0.0924 Y1.0586
G3 X-0.0958 Y1.0498 I0.1147 J-0.0496
G1 X-0.1004 Y1.0366
G3 X-0.1028 Y1.029 I0.1182 J-0.0408
G1 X-0.1066 Y1.0151
G3 X-0.1082 Y1.0087 I0.1205 J-0.0332
X-0.1232 Y0.8988 I0.6551 J-0.1456
G1 X-0.1246 Y0.8826
G3 X-0.1233 Y0.8524 I0.1246 J-0.0096
X-0.0834 Y0.6514 I2.2414 J0.3402
X-0.0113 Y0.4678 I0.778 J0.1997
X0.1382 Y0.2825 I0.7228 J0.43
X0.2894 Y0.1503 I1.484 J1.545
G1 X0.2947 Y0.1459
X0.3001 Y0.1419
G3 X0.5202 Y0.0061 I1.5274 J2.2301
X0.7396 Y-0.0795 I0.4761 J0.8964
X0.9992 Y-0.1207 I0.4135 J1.7669
G1 X1.0297 Y-0.1243
G3 X1.0736 Y-0.1212 I0.0133 J0.1243
X1.2563 Y-0.067 I-0.3431 J1.4922
X1.3503 Y-0.0201 I-0.2333 J0.5859
X1.4999 Y0.1342 I-0.2438 J0.3859
G1 X1.5141 Y0.1577
G3 X1.5171 Y0.163 I-0.1077 J0.0635
X1.5924 Y0.3398 I-0.9804 J0.5219
G1 X1.6025 Y0.368
X1.6027 Y0.3686
X1.6124 Y0.397
G3 X1.6168 Y0.4135 I-0.1183 J0.0405
X1.7293 Y1.0304 I-16.335 J3.2983
X1.8031 Y1.8379 I-6.5772 J1.0078
X1.8122 Y2.4637 I-15.7518 J0.5414
G1 X1.8125 Y2.5526
Y2.5544
Y2.5562
X1.8124 Y2.558
X1.8079 Y2.6647
G2 X1.9225 Y2.6652 I0.0656 J-2.0599
X2.0497 Y2.6466 I-0.1105 J-1.2004
G3 X2.1465 Y2.637 I0.1565 J1.0797
X2.1676 Y2.6374 I0.0078 J0.1248
X2.2589 Y2.6546 I-0.0344 J0.4346
G1 X2.2645 Y2.6569
X2.2706 Y2.6592
G3 X2.2768 Y2.6617 I-0.0443 J0.1169
G1 X2.2827 Y2.6643
G3 X2.2889 Y2.6673 I-0.0505 J0.1143
G1 X2.2947 Y2.6702
G3 X2.3005 Y2.6734 I-0.0567 J0.1114
X2.377 Y2.734 I-0.1743 J0.2987
G1 X2.3822 Y2.7386
G3 X2.3955 Y2.7539 I-0.0872 J0.0895
X2.4524 Y2.8505 I-0.3143 J0.2502
X2.4718 Y2.9556 I-0.3707 J0.1228
G1 X2.4723 Y2.964
Y2.9725
X2.4716 Y2.9809
X2.4704 Y2.9893
X2.4687 Y2.9976
X2.4664 Y3.0057
X2.4635 Y3.0137
X2.4601 Y3.0215
G3 X2.3992 Y3.1361 I-1.1156 J-0.5185
G1 X2.3956 Y3.1413
X2.3829 Y3.1598
G3 X2.3783 Y3.1663 I-0.1034 J-0.0703
G1 X2.3648 Y3.1835
G3 X2.3603 Y3.189 I-0.0987 J-0.0767
X2.3307 Y3.2202 I-0.2754 J-0.2326
X2.3261 Y3.2244 I-0.0865 J-0.0902
G1 X2.3182 Y3.2312
G3 X2.313 Y3.2354 I-0.0819 J-0.0944
G1 X2.3048 Y3.2418
G3 X2.2995 Y3.2457 I-0.0768 J-0.0987
G1 X2.291 Y3.2516
G3 X2.2857 Y3.2551 I-0.0714 J-0.1026
G1 X2.277 Y3.2606
G3 X2.2717 Y3.2637 I-0.0662 J-0.1061
X2.2041 Y3.2939 I-0.1803 J-0.3133
G1 X2.1976 Y3.296
X2.1767 Y3.302
G3 X2.1689 Y3.304 I-0.0346 J-0.1201
G1 X2.1473 Y3.3087
G3 X2.1404 Y3.31 I-0.0268 J-0.1221
X1.9753 Y3.3203 I-0.1327 J-0.7979
X1.6971 Y3.313 I0.3675 J-19.2003
G1 X1.5361 Y3.3042
X1.375 Y3.2951
G2 X1.261 Y3.291 I-0.2336 J4.9192
X1.2354 Y3.3154 I-0.0006 J0.025
G1 X1.2347 Y3.3404
X1.2346 Y3.3443 Z-0.0497
X1.2345 Y3.3481 Z-0.0488
X1.2344 Y3.3517 Z-0.0473
X1.2343 Y3.3551 Z-0.0452
Y3.3581 Z-0.0427
X1.2342 Y3.3606 Z-0.0397
Y3.3627 Z-0.0363
X1.2341 Y3.3642 Z-0.0327
Y3.3651 Z-0.0289
Y3.3654 Z-0.025
X1.2841 Y3.3666
Z-0.075
Y3.3663 Z-0.0789
Y3.3654 Z-0.0827
Y3.3639 Z-0.0863
X1.2842 Y3.3619 Z-0.0897
X1.2843 Y3.3593 Z-0.0927
Y3.3563 Z-0.0952
X1.2844 Y3.353 Z-0.0973
X1.2845 Y3.3494 Z-0.0988
X1.2846 Y3.3456 Z-0.0997
X1.2847 Y3.3417 Z-0.1
X1.2853 Y3.3167
G2 X1.261 Y3.291 I-0.025 J-0.0006
X0.9763 Y3.2951 I-0.0979 J3.076
G3 X0.7751 Y3.3009 I-0.3053 J-7.1871
G1 X0.7676 Y3.3006
G3 X0.6483 Y3.2905 I0.0296 J-1.0598
G1 X0.6324 Y3.2875
G3 X0.6264 Y3.2862 I0.0223 J-0.123
G1 X0.6111 Y3.2827
G3 X0.6038 Y3.2808 I0.0283 J-0.1217
G1 X0.5892 Y3.2764
G3 X0.5808 Y3.2736 I0.0356 J-0.1198
G1 X0.5669 Y3.2684
G3 X0.5573 Y3.2643 I0.0439 J-0.117
G1 X0.5442 Y3.2581
G3 X0.5337 Y3.2525 I0.0535 J-0.113
G1 X0.5214 Y3.2452
G3 X0.5103 Y3.2377 I0.064 J-0.1074
G1 X0.499 Y3.2293
G3 X0.4906 Y3.2223 I0.0752 J-0.0999
G1 X0.4854 Y3.2176
G3 X0.48 Y3.2125 I0.0836 J-0.0929
G1 X0.475 Y3.2074
G3 X0.4681 Y3.1998 I0.089 J-0.0878
G1 X0.4589 Y3.1888
G3 X0.4515 Y3.179 I0.0959 J-0.0801
G1 X0.4433 Y3.1669
G3 X0.4378 Y3.1582 I0.1034 J-0.0703
G1 X0.4304 Y3.1451
G3 X0.4265 Y3.1375 I0.1088 J-0.0616
G1 X0.4198 Y3.1235
G3 X0.417 Y3.1172 I0.1128 J-0.0539
X0.3817 Y3.0073 I0.6589 J-0.2725
G1 X0.3797 Y2.9992
X0.3782 Y2.991
X0.3774 Y2.9828
X0.377 Y2.9744
X0.3772 Y2.9661
G3 X0.3949 Y2.8582 I0.4246 J0.0143
G1 X0.3975 Y2.8521
G3 X0.3998 Y2.846 I0.1178 J0.0418
G1 X0.4024 Y2.8398
G3 X0.405 Y2.834 I0.1154 J0.048
X0.4602 Y2.7518 I0.3151 J0.152
G1 X0.4645 Y2.7462
G3 X0.4848 Y2.7267 I0.0961 J0.08
X0.5746 Y2.6708 I0.264 J0.3237
G1 X0.5807 Y2.6686
G3 X0.5864 Y2.6665 I0.0466 J0.116
X0.6887 Y2.6477 I0.1151 J0.3376
G1 X0.6954 Y2.6469
G3 X0.7039 Y2.6465 I0.0097 J0.1246
G2 X1.0486 Y2.638 I-0.1534 J-13.1952
G1 X1.1672 Y2.6367
G2 X1.1695 Y2.4558 I-2.8369 J-0.1269
X1.1404 Y1.3909 I-18.4399 J-0.0287
G1 X1.1406 Y1.3829
G2 X1.1393 Y1.0839 I-5.1127 J-0.127
X1.1113 Y0.8504 I-1.5323 J0.0655
X1.021 Y0.6095 I-0.8314 J0.1743
G1 X1.0016 Y0.575
X0.9809 Y0.54
X0.9789 Y0.5367
G2 X0.8399 Y0.5744 I0.0628 J0.5056
X0.6098 Y0.7229 I0.5079 J1.0396
X0.5585 Y0.7807 I0.1776 J0.2093
X0.5243 Y0.8753 I0.3367 J0.1751
X0.5162 Y0.9215 I0.143 J0.0488
G3 X0.5022 Y1.0123 I-0.6807 J-0.0585
G1 X0.5004 Y1.0187
X0.4965 Y1.0324
G3 X0.4941 Y1.04 I-0.1203 J-0.0341
G1 X0.4895 Y1.0531
G3 X0.486 Y1.0619 I-0.1178 J-0.0417
G1 X0.4805 Y1.0743
G3 X0.4756 Y1.0843 I-0.1143 J-0.0505
G1 X0.4692 Y1.0958
G3 X0.4624 Y1.1067 I-0.1094 J-0.0605
G1 X0.455 Y1.1173
G3 X0.4462 Y1.1285 I-0.1026 J-0.0714
G1 X0.4377 Y1.1381
G3 X0.4272 Y1.1487 I-0.0937 J-0.0827
G1 X0.4176 Y1.1573
G3 X0.407 Y1.1658 I-0.0832 J-0.0933
G1 X0.3963 Y1.1734
G3 X0.3866 Y1.1797 I-0.0727 J-0.1017
G1 X0.3749 Y1.1865
G3 X0.3663 Y1.1911 I-0.0629 J-0.108
G1 X0.3538 Y1.1971
G3 X0.3464 Y1.2004 I-0.0542 J-0.1126
G1 X0.3332 Y1.2057
G3 X0.3271 Y1.208 I-0.0469 J-0.1159
X0.2237 Y1.2352 I-0.2298 J-0.6638
G1 X0.2161 Y1.2366
X0.2084 Y1.2376
X0.2007 Y1.2381
X0.193
X0.1852 Y1.2376
X0.1775 Y1.2367
X0.1699 Y1.2353
G3 X0.0659 Y1.2071 I0.1657 J-0.8183
G1 X0.0599 Y1.2045
X0.0466 Y1.199
G3 X0.0391 Y1.1956 I0.0478 J-0.1155
G1 X0.0266 Y1.1894
G3 X0.0179 Y1.1847 I0.0553 J-0.1121
G1 X0.0063 Y1.1778
G3 X-0.0035 Y1.1713 I0.0639 J-0.1074
G1 X-0.0142 Y1.1635
G3 X-0.0248 Y1.1549 I0.0737 J-0.101
G1 X-0.0344 Y1.1461
G3 X-0.0448 Y1.1354 I0.0842 J-0.0924
G1 X-0.0532 Y1.1256
G3 X-0.0619 Y1.1144 I0.0946 J-0.0817
G1 X-0.0692 Y1.1036
G3 X-0.0759 Y1.0927 I0.1033 J-0.0704
G1 X-0.0822 Y1.081
G3 X-0.087 Y1.0711 I0.1099 J-0.0595
G1 X-0.0924 Y1.0586
G3 X-0.0958 Y1.0498 I0.1147 J-0.0496
G1 X-0.1004 Y1.0366
G3 X-0.1028 Y1.029 I0.1182 J-0.0408
G1 X-0.1066 Y1.0151
G3 X-0.1082 Y1.0087 I0.1205 J-0.0332
X-0.1232 Y0.8988 I0.6551 J-0.1456
G1 X-0.1246 Y0.8826
G3 X-0.1233 Y0.8524 I0.1246 J-0.0096
X-0.0834 Y0.6514 I2.2414 J0.3402
X-0.0113 Y0.4678 I0.778 J0.1997
X0.1382 Y0.2825 I0.7228 J0.43
X0.2894 Y0.1503 I1.484 J1.545
G1 X0.2947 Y0.1459
X0.3001 Y0.1419
G3 X0.5202 Y0.0061 I1.5274 J2.2301
X0.7396 Y-0.0795 I0.4761 J0.8964
X0.9992 Y-0.1207 I0.4135 J1.7669
G1 X1.0297 Y-0.1243
G3 X1.0736 Y-0.1212 I0.0133 J0.1243
X1.2563 Y-0.067 I-0.3431 J1.4922
X1.3503 Y-0.0201 I-0.2333 J0.5859
X1.4999 Y0.1342 I-0.2438 J0.3859
G1 X1.5141 Y0.1577
G3 X1.5171 Y0.163 I-0.1077 J0.0635
X1.5924 Y0.3398 I-0.9804 J0.5219
G1 X1.6025 Y0.368
X1.6027 Y0.3686
X1.6124 Y0.397
G3 X1.6168 Y0.4135 I-0.1183 J0.0405
X1.7293 Y1.0304 I-16.335 J3.2983
X1.8031 Y1.8379 I-6.5772 J1.0078
X1.8122 Y2.4637 I-15.7518 J0.5414
G1 X1.8125 Y2.5526
Y2.5544
Y2.5562
X1.8124 Y2.558
X1.8079 Y2.6647
G2 X1.9225 Y2.6652 I0.0656 J-2.0599
X2.0497 Y2.6466 I-0.1105 J-1.2004
G3 X2.1465 Y2.637 I0.1565 J1.0797
X2.1676 Y2.6374 I0.0078 J0.1248
X2.2589 Y2.6546 I-0.0344 J0.4346
G1 X2.2645 Y2.6569
X2.2706 Y2.6592
G3 X2.2768 Y2.6617 I-0.0443 J0.1169
G1 X2.2827 Y2.6643
G3 X2.2889 Y2.6673 I-0.0505 J0.1143
G1 X2.2947 Y2.6702
G3 X2.3005 Y2.6734 I-0.0567 J0.1114
X2.377 Y2.734 I-0.1743 J0.2987
G1 X2.3822 Y2.7386
G3 X2.3955 Y2.7539 I-0.0872 J0.0895
X2.4524 Y2.8505 I-0.3143 J0.2502
X2.4718 Y2.9556 I-0.3707 J0.1228
G1 X2.4723 Y2.964
Y2.9725
X2.4716 Y2.9809
X2.4704 Y2.9893
X2.4687 Y2.9976
X2.4664 Y3.0057
X2.4635 Y3.0137
X2.4601 Y3.0215
G3 X2.3992 Y3.1361 I-1.1156 J-0.5185
G1 X2.3956 Y3.1413
X2.3829 Y3.1598
G3 X2.3783 Y3.1663 I-0.1034 J-0.0703
G1 X2.3648 Y3.1835
G3 X2.3603 Y3.189 I-0.0987 J-0.0767
X2.3307 Y3.2202 I-0.2754 J-0.2326
X2.3261 Y3.2244 I-0.0865 J-0.0902
G1 X2.3182 Y3.2312
G3 X2.313 Y3.2354 I-0.0819 J-0.0944
G1 X2.3048 Y3.2418
G3 X2.2995 Y3.2457 I-0.0768 J-0.0987
G1 X2.291 Y3.2516
G3 X2.2857 Y3.2551 I-0.0714 J-0.1026
G1 X2.277 Y3.2606
G3 X2.2717 Y3.2637 I-0.0662 J-0.1061
X2.2041 Y3.2939 I-0.1803 J-0.3133
G1 X2.1976 Y3.296
X2.1767 Y3.302
G3 X2.1689 Y3.304 I-0.0346 J-0.1201
G1 X2.1473 Y3.3087
G3 X2.1404 Y3.31 I-0.0268 J-0.1221
X1.9753 Y3.3203 I-0.1327 J-0.7979
X1.6971 Y3.313 I0.3675 J-19.2003
G1 X1.5361 Y3.3042
X1.375 Y3.2951
G2 X1.261 Y3.291 I-0.2336 J4.9192
X1.2354 Y3.3154 I-0.0006 J0.025
G1 X1.2347 Y3.3404
X1.2346 Y3.3443 Z-0.0997
X1.2345 Y3.3481 Z-0.0988
X1.2344 Y3.3517 Z-0.0973
X1.2343 Y3.3551 Z-0.0952
Y3.3581 Z-0.0927
X1.2342 Y3.3606 Z-0.0897
Y3.3627 Z-0.0863
X1.2341 Y3.3642 Z-0.0827
Y3.3651 Z-0.0789
Y3.3654 Z-0.075
X1.2841 Y3.3666
Z-0.125
Y3.3663 Z-0.1289
Y3.3654 Z-0.1327
Y3.3639 Z-0.1363
X1.2842 Y3.3619 Z-0.1397
X1.2843 Y3.3593 Z-0.1427
Y3.3563 Z-0.1452
X1.2844 Y3.353 Z-0.1473
X1.2845 Y3.3494 Z-0.1488
X1.2846 Y3.3456 Z-0.1497
X1.2847 Y3.3417 Z-0.15
X1.2853 Y3.3167
G2 X1.261 Y3.291 I-0.025 J-0.0006
X0.9763 Y3.2951 I-0.0979 J3.076
G3 X0.7751 Y3.3009 I-0.3053 J-7.1871
G1 X0.7676 Y3.3006
G3 X0.6483 Y3.2905 I0.0296 J-1.0598
G1 X0.6324 Y3.2875
G3 X0.6264 Y3.2862 I0.0223 J-0.123
G1 X0.6111 Y3.2827
G3 X0.6038 Y3.2808 I0.0283 J-0.1217
G1 X0.5892 Y3.2764
G3 X0.5808 Y3.2736 I0.0356 J-0.1198
G1 X0.5669 Y3.2684
G3 X0.5573 Y3.2643 I0.0439 J-0.117
G1 X0.5442 Y3.2581
G3 X0.5337 Y3.2525 I0.0535 J-0.113
G1 X0.5214 Y3.2452
G3 X0.5103 Y3.2377 I0.064 J-0.1074
G1 X0.499 Y3.2293
G3 X0.4906 Y3.2223 I0.0752 J-0.0999
G1 X0.4854 Y3.2176
G3 X0.48 Y3.2125 I0.0836 J-0.0929
G1 X0.475 Y3.2074
G3 X0.4681 Y3.1998 I0.089 J-0.0878
G1 X0.4589 Y3.1888
G3 X0.4515 Y3.179 I0.0959 J-0.0801
G1 X0.4433 Y3.1669
G3 X0.4378 Y3.1582 I0.1034 J-0.0703
G1 X0.4304 Y3.1451
G3 X0.4265 Y3.1375 I0.1088 J-0.0616
G1 X0.4198 Y3.1235
G3 X0.417 Y3.1172 I0.1128 J-0.0539
X0.3817 Y3.0073 I0.6589 J-0.2725
G1 X0.3797 Y2.9992
X0.3782 Y2.991
X0.3774 Y2.9828
X0.377 Y2.9744
X0.3772 Y2.9661
G3 X0.3949 Y2.8582 I0.4246 J0.0143
G1 X0.3975 Y2.8521
G3 X0.3998 Y2.846 I0.1178 J0.0418
G1 X0.4024 Y2.8398
G3 X0.405 Y2.834 I0.1154 J0.048
X0.4602 Y2.7518 I0.3151 J0.152
G1 X0.4645 Y2.7462
G3 X0.4848 Y2.7267 I0.0961 J0.08
X0.5746 Y2.6708 I0.264 J0.3237
G1 X0.5807 Y2.6686
G3 X0.5864 Y2.6665 I0.0466 J0.116
X0.6887 Y2.6477 I0.1151 J0.3376
G1 X0.6954 Y2.6469
G3 X0.7039 Y2.6465 I0.0097 J0.1246
G2 X1.0486 Y2.638 I-0.1534 J-13.1952
G1 X1.1672 Y2.6367
G2 X1.1695 Y2.4558 I-2.8369 J-0.1269
X1.1404 Y1.3909 I-18.4399 J-0.0287
G1 X1.1406 Y1.3829
G2 X1.1393 Y1.0839 I-5.1127 J-0.127
X1.1113 Y0.8504 I-1.5323 J0.0655
X1.021 Y0.6095 I-0.8314 J0.1743
G1 X1.0016 Y0.575
X0.9809 Y0.54
X0.9789 Y0.5367
G2 X0.8399 Y0.5744 I0.0628 J0.5056
X0.6098 Y0.7229 I0.5079 J1.0396
X0.5585 Y0.7807 I0.1776 J0.2093
X0.5243 Y0.8753 I0.3367 J0.1751
X0.5162 Y0.9215 I0.143 J0.0488
G3 X0.5022 Y1.0123 I-0.6807 J-0.0585
G1 X0.5004 Y1.0187
X0.4965 Y1.0324
G3 X0.4941 Y1.04 I-0.1203 J-0.0341
G1 X0.4895 Y1.0531
G3 X0.486 Y1.0619 I-0.1178 J-0.0417
G1 X0.4805 Y1.0743
G3 X0.4756 Y1.0843 I-0.1143 J-0.0505
G1 X0.4692 Y1.0958
G3 X0.4624 Y1.1067 I-0.1094 J-0.0605
G1 X0.455 Y1.1173
G3 X0.4462 Y1.1285 I-0.1026 J-0.0714
G1 X0.4377 Y1.1381
G3 X0.4272 Y1.1487 I-0.0937 J-0.0827
G1 X0.4176 Y1.1573
G3 X0.407 Y1.1658 I-0.0832 J-0.0933
G1 X0.3963 Y1.1734
G3 X0.3866 Y1.1797 I-0.0727 J-0.1017
G1 X0.3749 Y1.1865
G3 X0.3663 Y1.1911 I-0.0629 J-0.108
G1 X0.3538 Y1.1971
G3 X0.3464 Y1.2004 I-0.0542 J-0.1126
G1 X0.3332 Y1.2057
G3 X0.3271 Y1.208 I-0.0469 J-0.1159
X0.2237 Y1.2352 I-0.2298 J-0.6638
G1 X0.2161 Y1.2366
X0.2084 Y1.2376
X0.2007 Y1.2381
X0.193
X0.1852 Y1.2376
X0.1775 Y1.2367
X0.1699 Y1.2353
G3 X0.0659 Y1.2071 I0.1657 J-0.8183
G1 X0.0599 Y1.2045
X0.0466 Y1.199
G3 X0.0391 Y1.1956 I0.0478 J-0.1155
G1 X0.0266 Y1.1894
G3 X0.0179 Y1.1847 I0.0553 J-0.1121
G1 X0.0063 Y1.1778
G3 X-0.0035 Y1.1713 I0.0639 J-0.1074
G1 X-0.0142 Y1.1635
G3 X-0.0248 Y1.1549 I0.0737 J-0.101
G1 X-0.0344 Y1.1461
G3 X-0.0448 Y1.1354 I0.0842 J-0.0924
G1 X-0.0532 Y1.1256
G3 X-0.0619 Y1.1144 I0.0946 J-0.0817
G1 X-0.0692 Y1.1036
G3 X-0.0759 Y1.0927 I0.1033 J-0.0704
G1 X-0.0822 Y1.081
G3 X-0.087 Y1.0711 I0.1099 J-0.0595
G1 X-0.0924 Y1.0586
G3 X-0.0958 Y1.0498 I0.1147 J-0.0496
G1 X-0.1004 Y1.0366
G3 X-0.1028 Y1.029 I0.1182 J-0.0408
G1 X-0.1066 Y1.0151
G3 X-0.1082 Y1.0087 I0.1205 J-0.0332
X-0.1232 Y0.8988 I0.6551 J-0.1456
G1 X-0.1246 Y0.8826
G3 X-0.1233 Y0.8524 I0.1246 J-0.0096
X-0.0834 Y0.6514 I2.2414 J0.3402
X-0.0113 Y0.4678 I0.778 J0.1997
X0.1382 Y0.2825 I0.7228 J0.43
X0.2894 Y0.1503 I1.484 J1.545
G1 X0.2947 Y0.1459
X0.3001 Y0.1419
G3 X0.5202 Y0.0061 I1.5274 J2.2301
X0.7396 Y-0.0795 I0.4761 J0.8964
X0.9992 Y-0.1207 I0.4135 J1.7669
G1 X1.0297 Y-0.1243
G3 X1.0736 Y-0.1212 I0.0133 J0.1243
X1.2563 Y-0.067 I-0.3431 J1.4922
X1.3503 Y-0.0201 I-0.2333 J0.5859
X1.4999 Y0.1342 I-0.2438 J0.3859
G1 X1.5141 Y0.1577
G3 X1.5171 Y0.163 I-0.1077 J0.0635
X1.5924 Y0.3398 I-0.9804 J0.5219
G1 X1.6025 Y0.368
X1.6027 Y0.3686
X1.6124 Y0.397
G3 X1.6168 Y0.4135 I-0.1183 J0.0405
X1.7293 Y1.0304 I-16.335 J3.2983
X1.8031 Y1.8379 I-6.5772 J1.0078
X1.8122 Y2.4637 I-15.7518 J0.5414
G1 X1.8125 Y2.5526
Y2.5544
Y2.5562
X1.8124 Y2.558
X1.8079 Y2.6647
G2 X1.9225 Y2.6652 I0.0656 J-2.0599
X2.0497 Y2.6466 I-0.1105 J-1.2004
G3 X2.1465 Y2.637 I0.1565 J1.0797
X2.1676 Y2.6374 I0.0078 J0.1248
X2.2589 Y2.6546 I-0.0344 J0.4346
G1 X2.2645 Y2.6569
X2.2706 Y2.6592
G3 X2.2768 Y2.6617 I-0.0443 J0.1169
G1 X2.2827 Y2.6643
G3 X2.2889 Y2.6673 I-0.0505 J0.1143
G1 X2.2947 Y2.6702
G3 X2.3005 Y2.6734 I-0.0567 J0.1114
X2.377 Y2.734 I-0.1743 J0.2987
G1 X2.3822 Y2.7386
G3 X2.3955 Y2.7539 I-0.0872 J0.0895
X2.4524 Y2.8505 I-0.3143 J0.2502
X2.4718 Y2.9556 I-0.3707 J0.1228
G1 X2.4723 Y2.964
Y2.9725
X2.4716 Y2.9809
X2.4704 Y2.9893
X2.4687 Y2.9976
X2.4664 Y3.0057
X2.4635 Y3.0137
X2.4601 Y3.0215
G3 X2.3992 Y3.1361 I-1.1156 J-0.5185
G1 X2.3956 Y3.1413
X2.3829 Y3.1598
G3 X2.3783 Y3.1663 I-0.1034 J-0.0703
G1 X2.3648 Y3.1835
G3 X2.3603 Y3.189 I-0.0987 J-0.0767
X2.3307 Y3.2202 I-0.2754 J-0.2326
X2.3261 Y3.2244 I-0.0865 J-0.0902
G1 X2.3182 Y3.2312
G3 X2.313 Y3.2354 I-0.0819 J-0.0944
G1 X2.3048 Y3.2418
G3 X2.2995 Y3.2457 I-0.0768 J-0.0987
G1 X2.291 Y3.2516
G3 X2.2857 Y3.2551 I-0.0714 J-0.1026
G1 X2.277 Y3.2606
G3 X2.2717 Y3.2637 I-0.0662 J-0.1061
X2.2041 Y3.2939 I-0.1803 J-0.3133
G1 X2.1976 Y3.296
X2.1767 Y3.302
G3 X2.1689 Y3.304 I-0.0346 J-0.1201
G1 X2.1473 Y3.3087
G3 X2.1404 Y3.31 I-0.0268 J-0.1221
X1.9753 Y3.3203 I-0.1327 J-0.7979
X1.6971 Y3.313 I0.3675 J-19.2003
G1 X1.5361 Y3.3042
X1.375 Y3.2951
G2 X1.261 Y3.291 I-0.2336 J4.9192
X1.2354 Y3.3154 I-0.0006 J0.025
G1 X1.2347 Y3.3404
X1.2346 Y3.3443 Z-0.1497
X1.2345 Y3.3481 Z-0.1488
X1.2344 Y3.3517 Z-0.1473
X1.2343 Y3.3551 Z-0.1452
Y3.3581 Z-0.1427
X1.2342 Y3.3606 Z-0.1397
Y3.3627 Z-0.1363
X1.2341 Y3.3642 Z-0.1327
Y3.3651 Z-0.1289
Y3.3654 Z-0.125
X1.2841 Y3.3666
Z-0.175
Y3.3663 Z-0.1789
Y3.3654 Z-0.1827
Y3.3639 Z-0.1863
X1.2842 Y3.3619 Z-0.1897
X1.2843 Y3.3593 Z-0.1927
Y3.3563 Z-0.1952
X1.2844 Y3.353 Z-0.1973
X1.2845 Y3.3494 Z-0.1988
X1.2846 Y3.3456 Z-0.1997
X1.2847 Y3.3417 Z-0.2
X1.2853 Y3.3167
G2 X1.261 Y3.291 I-0.025 J-0.0006
X0.9763 Y3.2951 I-0.0979 J3.076
G3 X0.7751 Y3.3009 I-0.3053 J-7.1871
G1 X0.7676 Y3.3006
G3 X0.6483 Y3.2905 I0.0296 J-1.0598
G1 X0.6324 Y3.2875
G3 X0.6264 Y3.2862 I0.0223 J-0.123
G1 X0.6111 Y3.2827
G3 X0.6038 Y3.2808 I0.0283 J-0.1217
G1 X0.5892 Y3.2764
G3 X0.5808 Y3.2736 I0.0356 J-0.1198
G1 X0.5669 Y3.2684
G3 X0.5573 Y3.2643 I0.0439 J-0.117
G1 X0.5442 Y3.2581
G3 X0.5337 Y3.2525 I0.0535 J-0.113
G1 X0.5214 Y3.2452
G3 X0.5103 Y3.2377 I0.064 J-0.1074
G1 X0.499 Y3.2293
G3 X0.4906 Y3.2223 I0.0752 J-0.0999
G1 X0.4854 Y3.2176
G3 X0.48 Y3.2125 I0.0836 J-0.0929
G1 X0.475 Y3.2074
G3 X0.4681 Y3.1998 I0.089 J-0.0878
G1 X0.4589 Y3.1888
G3 X0.4515 Y3.179 I0.0959 J-0.0801
G1 X0.4433 Y3.1669
G3 X0.4378 Y3.1582 I0.1034 J-0.0703
G1 X0.4304 Y3.1451
G3 X0.4265 Y3.1375 I0.1088 J-0.0616
G1 X0.4198 Y3.1235
G3 X0.417 Y3.1172 I0.1128 J-0.0539
X0.3817 Y3.0073 I0.6589 J-0.2725
G1 X0.3797 Y2.9992
X0.3782 Y2.991
X0.3774 Y2.9828
X0.377 Y2.9744
X0.3772 Y2.9661
G3 X0.3949 Y2.8582 I0.4246 J0.0143
G1 X0.3975 Y2.8521
G3 X0.3998 Y2.846 I0.1178 J0.0418
G1 X0.4024 Y2.8398
G3 X0.405 Y2.834 I0.1154 J0.048
X0.4602 Y2.7518 I0.3151 J0.152
G1 X0.4645 Y2.7462
G3 X0.4848 Y2.7267 I0.0961 J0.08
X0.5746 Y2.6708 I0.264 J0.3237
G1 X0.5807 Y2.6686
G3 X0.5864 Y2.6665 I0.0466 J0.116
X0.6887 Y2.6477 I0.1151 J0.3376
G1 X0.6954 Y2.6469
G3 X0.7039 Y2.6465 I0.0097 J0.1246
G2 X1.0486 Y2.638 I-0.1534 J-13.1952
G1 X1.1672 Y2.6367
G2 X1.1695 Y2.4558 I-2.8369 J-0.1269
X1.1404 Y1.3909 I-18.4399 J-0.0287
G1 X1.1406 Y1.3829
G2 X1.1393 Y1.0839 I-5.1127 J-0.127
X1.1113 Y0.8504 I-1.5323 J0.0655
X1.021 Y0.6095 I-0.8314 J0.1743
G1 X1.0016 Y0.575
X0.9809 Y0.54
X0.9789 Y0.5367
G2 X0.8399 Y0.5744 I0.0628 J0.5056
X0.6098 Y0.7229 I0.5079 J1.0396
X0.5585 Y0.7807 I0.1776 J0.2093
X0.5243 Y0.8753 I0.3367 J0.1751
X0.5162 Y0.9215 I0.143 J0.0488
G3 X0.5022 Y1.0123 I-0.6807 J-0.0585
G1 X0.5004 Y1.0187
X0.4965 Y1.0324
G3 X0.4941 Y1.04 I-0.1203 J-0.0341
G1 X0.4895 Y1.0531
G3 X0.486 Y1.0619 I-0.1178 J-0.0417
G1 X0.4805 Y1.0743
G3 X0.4756 Y1.0843 I-0.1143 J-0.0505
G1 X0.4692 Y1.0958
G3 X0.4624 Y1.1067 I-0.1094 J-0.0605
G1 X0.455 Y1.1173
G3 X0.4462 Y1.1285 I-0.1026 J-0.0714
G1 X0.4377 Y1.1381
G3 X0.4272 Y1.1487 I-0.0937 J-0.0827
G1 X0.4176 Y1.1573
G3 X0.407 Y1.1658 I-0.0832 J-0.0933
G1 X0.3963 Y1.1734
G3 X0.3866 Y1.1797 I-0.0727 J-0.1017
G1 X0.3749 Y1.1865
G3 X0.3663 Y1.1911 I-0.0629 J-0.108
G1 X0.3538 Y1.1971
G3 X0.3464 Y1.2004 I-0.0542 J-0.1126
G1 X0.3332 Y1.2057
G3 X0.3271 Y1.208 I-0.0469 J-0.1159
X0.2237 Y1.2352 I-0.2298 J-0.6638
G1 X0.2161 Y1.2366
X0.2084 Y1.2376
X0.2007 Y1.2381
X0.193
X0.1852 Y1.2376
X0.1775 Y1.2367
X0.1699 Y1.2353
G3 X0.0659 Y1.2071 I0.1657 J-0.8183
G1 X0.0599 Y1.2045
X0.0466 Y1.199
G3 X0.0391 Y1.1956 I0.0478 J-0.1155
G1 X0.0266 Y1.1894
G3 X0.0179 Y1.1847 I0.0553 J-0.1121
G1 X0.0063 Y1.1778
G3 X-0.0035 Y1.1713 I0.0639 J-0.1074
G1 X-0.0142 Y1.1635
G3 X-0.0248 Y1.1549 I0.0737 J-0.101
G1 X-0.0344 Y1.1461
G3 X-0.0448 Y1.1354 I0.0842 J-0.0924
G1 X-0.0532 Y1.1256
G3 X-0.0619 Y1.1144 I0.0946 J-0.0817
G1 X-0.0692 Y1.1036
G3 X-0.0759 Y1.0927 I0.1033 J-0.0704
G1 X-0.0822 Y1.081
G3 X-0.087 Y1.0711 I0.1099 J-0.0595
G1 X-0.0924 Y1.0586
G3 X-0.0958 Y1.0498 I0.1147 J-0.0496
G1 X-0.1004 Y1.0366
G3 X-0.1028 Y1.029 I0.1182 J-0.0408
G1 X-0.1066 Y1.0151
G3 X-0.1082 Y1.0087 I0.1205 J-0.0332
X-0.1232 Y0.8988 I0.6551 J-0.1456
G1 X-0.1246 Y0.8826
G3 X-0.1233 Y0.8524 I0.1246 J-0.0096
X-0.0834 Y0.6514 I2.2414 J0.3402
X-0.0113 Y0.4678 I0.778 J0.1997
X0.1382 Y0.2825 I0.7228 J0.43
X0.2894 Y0.1503 I1.484 J1.545
G1 X0.2947 Y0.1459
X0.3001 Y0.1419
G3 X0.5202 Y0.0061 I1.5274 J2.2301
X0.7396 Y-0.0795 I0.4761 J0.8964
X0.9992 Y-0.1207 I0.4135 J1.7669
G1 X1.0297 Y-0.1243
G3 X1.0736 Y-0.1212 I0.0133 J0.1243
X1.2563 Y-0.067 I-0.3431 J1.4922
X1.3503 Y-0.0201 I-0.2333 J0.5859
X1.4999 Y0.1342 I-0.2438 J0.3859
G1 X1.5141 Y0.1577
G3 X1.5171 Y0.163 I-0.1077 J0.0635
X1.5924 Y0.3398 I-0.9804 J0.5219
G1 X1.6025 Y0.368
X1.6027 Y0.3686
X1.6124 Y0.397
G3 X1.6168 Y0.4135 I-0.1183 J0.0405
X1.7293 Y1.0304 I-16.335 J3.2983
X1.8031 Y1.8379 I-6.5772 J1.0078
X1.8122 Y2.4637 I-15.7518 J0.5414
G1 X1.8125 Y2.5526
Y2.5544
Y2.5562
X1.8124 Y2.558
X1.8079 Y2.6647
G2 X1.9225 Y2.6652 I0.0656 J-2.0599
X2.0497 Y2.6466 I-0.1105 J-1.2004
G3 X2.1465 Y2.637 I0.1565 J1.0797
X2.1676 Y2.6374 I0.0078 J0.1248
X2.2589 Y2.6546 I-0.0344 J0.4346
G1 X2.2645 Y2.6569
X2.2706 Y2.6592
G3 X2.2768 Y2.6617 I-0.0443 J0.1169
G1 X2.2827 Y2.6643
G3 X2.2889 Y2.6673 I-0.0505 J0.1143
G1 X2.2947 Y2.6702
G3 X2.3005 Y2.6734 I-0.0567 J0.1114
X2.377 Y2.734 I-0.1743 J0.2987
G1 X2.3822 Y2.7386
G3 X2.3955 Y2.7539 I-0.0872 J0.0895
X2.4524 Y2.8505 I-0.3143 J0.2502
X2.4718 Y2.9556 I-0.3707 J0.1228
G1 X2.4723 Y2.964
Y2.9725
X2.4716 Y2.9809
X2.4704 Y2.9893
X2.4687 Y2.9976
X2.4664 Y3.0057
X2.4635 Y3.0137
X2.4601 Y3.0215
G3 X2.3992 Y3.1361 I-1.1156 J-0.5185
G1 X2.3956 Y3.1413
X2.3829 Y3.1598
G3 X2.3783 Y3.1663 I-0.1034 J-0.0703
G1 X2.3648 Y3.1835
G3 X2.3603 Y3.189 I-0.0987 J-0.0767
X2.3307 Y3.2202 I-0.2754 J-0.2326
X2.3261 Y3.2244 I-0.0865 J-0.0902
G1 X2.3182 Y3.2312
G3 X2.313 Y3.2354 I-0.0819 J-0.0944
G1 X2.3048 Y3.2418
G3 X2.2995 Y3.2457 I-0.0768 J-0.0987
G1 X2.291 Y3.2516
G3 X2.2857 Y3.2551 I-0.0714 J-0.1026
G1 X2.277 Y3.2606
G3 X2.2717 Y3.2637 I-0.0662 J-0.1061
X2.2041 Y3.2939 I-0.1803 J-0.3133
G1 X2.1976 Y3.296
X2.1767 Y3.302
G3 X2.1689 Y3.304 I-0.0346 J-0.1201
G1 X2.1473 Y3.3087
G3 X2.1404 Y3.31 I-0.0268 J-0.1221
X1.9753 Y3.3203 I-0.1327 J-0.7979
X1.6971 Y3.313 I0.3675 J-19.2003
G1 X1.5361 Y3.3042
X1.375 Y3.2951
G2 X1.261 Y3.291 I-0.2336 J4.9192
X1.2354 Y3.3154 I-0.0006 J0.025
G1 X1.2347 Y3.3404
X1.2346 Y3.3443 Z-0.1997
X1.2345 Y3.3481 Z-0.1988
X1.2344 Y3.3517 Z-0.1973
X1.2343 Y3.3551 Z-0.1952
Y3.3581 Z-0.1927
X1.2342 Y3.3606 Z-0.1897
Y3.3627 Z-0.1863
X1.2341 Y3.3642 Z-0.1827
Y3.3651 Z-0.1789
Y3.3654 Z-0.175
X1.2841 Y3.3666
Z-0.225
Y3.3663 Z-0.2289
Y3.3654 Z-0.2327
Y3.3639 Z-0.2363
X1.2842 Y3.3619 Z-0.2397
X1.2843 Y3.3593 Z-0.2427
Y3.3563 Z-0.2452
X1.2844 Y3.353 Z-0.2473
X1.2845 Y3.3494 Z-0.2488
X1.2846 Y3.3456 Z-0.2497
X1.2847 Y3.3417 Z-0.25
X1.2853 Y3.3167
G2 X1.261 Y3.291 I-0.025 J-0.0006
X0.9763 Y3.2951 I-0.0979 J3.076
G3 X0.7751 Y3.3009 I-0.3053 J-7.1871
G1 X0.7676 Y3.3006
G3 X0.6483 Y3.2905 I0.0296 J-1.0598
G1 X0.6324 Y3.2875
G3 X0.6264 Y3.2862 I0.0223 J-0.123
G1 X0.6111 Y3.2827
G3 X0.6038 Y3.2808 I0.0283 J-0.1217
G1 X0.5892 Y3.2764
G3 X0.5808 Y3.2736 I0.0356 J-0.1198
G1 X0.5669 Y3.2684
G3 X0.5573 Y3.2643 I0.0439 J-0.117
G1 X0.5442 Y3.2581
G3 X0.5337 Y3.2525 I0.0535 J-0.113
G1 X0.5214 Y3.2452
G3 X0.5103 Y3.2377 I0.064 J-0.1074
G1 X0.499 Y3.2293
G3 X0.4906 Y3.2223 I0.0752 J-0.0999
G1 X0.4854 Y3.2176
G3 X0.48 Y3.2125 I0.0836 J-0.0929
G1 X0.475 Y3.2074
G3 X0.4681 Y3.1998 I0.089 J-0.0878
G1 X0.4589 Y3.1888
G3 X0.4515 Y3.179 I0.0959 J-0.0801
G1 X0.4433 Y3.1669
G3 X0.4378 Y3.1582 I0.1034 J-0.0703
G1 X0.4304 Y3.1451
G3 X0.4265 Y3.1375 I0.1088 J-0.0616
G1 X0.4198 Y3.1235
G3 X0.417 Y3.1172 I0.1128 J-0.0539
X0.3817 Y3.0073 I0.6589 J-0.2725
G1 X0.3797 Y2.9992
X0.3782 Y2.991
X0.3774 Y2.9828
X0.377 Y2.9744
X0.3772 Y2.9661
G3 X0.3949 Y2.8582 I0.4246 J0.0143
G1 X0.3975 Y2.8521
G3 X0.3998 Y2.846 I0.1178 J0.0418
G1 X0.4024 Y2.8398
G3 X0.405 Y2.834 I0.1154 J0.048
X0.4602 Y2.7518 I0.3151 J0.152
G1 X0.4645 Y2.7462
G3 X0.4848 Y2.7267 I0.0961 J0.08
X0.5746 Y2.6708 I0.264 J0.3237
G1 X0.5807 Y2.6686
G3 X0.5864 Y2.6665 I0.0466 J0.116
X0.6887 Y2.6477 I0.1151 J0.3376
G1 X0.6954 Y2.6469
G3 X0.7039 Y2.6465 I0.0097 J0.1246
G2 X1.0486 Y2.638 I-0.1534 J-13.1952
G1 X1.1672 Y2.6367
G2 X1.1695 Y2.4558 I-2.8369 J-0.1269
X1.1404 Y1.3909 I-18.4399 J-0.0287
G1 X1.1406 Y1.3829
G2 X1.1393 Y1.0839 I-5.1127 J-0.127
X1.1113 Y0.8504 I-1.5323 J0.0655
X1.021 Y0.6095 I-0.8314 J0.1743
G1 X1.0016 Y0.575
X0.9809 Y0.54
X0.9789 Y0.5367
G2 X0.8399 Y0.5744 I0.0628 J0.5056
X0.6098 Y0.7229 I0.5079 J1.0396
X0.5585 Y0.7807 I0.1776 J0.2093
X0.5243 Y0.8753 I0.3367 J0.1751
X0.5162 Y0.9215 I0.143 J0.0488
G3 X0.5022 Y1.0123 I-0.6807 J-0.0585
G1 X0.5004 Y1.0187
X0.4965 Y1.0324
G3 X0.4941 Y1.04 I-0.1203 J-0.0341
G1 X0.4895 Y1.0531
G3 X0.486 Y1.0619 I-0.1178 J-0.0417
G1 X0.4805 Y1.0743
G3 X0.4756 Y1.0843 I-0.1143 J-0.0505
G1 X0.4692 Y1.0958
G3 X0.4624 Y1.1067 I-0.1094 J-0.0605
G1 X0.455 Y1.1173
G3 X0.4462 Y1.1285 I-0.1026 J-0.0714
G1 X0.4377 Y1.1381
G3 X0.4272 Y1.1487 I-0.0937 J-0.0827
G1 X0.4176 Y1.1573
G3 X0.407 Y1.1658 I-0.0832 J-0.0933
G1 X0.3963 Y1.1734
G3 X0.3866 Y1.1797 I-0.0727 J-0.1017
G1 X0.3749 Y1.1865
G3 X0.3663 Y1.1911 I-0.0629 J-0.108
G1 X0.3538 Y1.1971
G3 X0.3464 Y1.2004 I-0.0542 J-0.1126
G1 X0.3332 Y1.2057
G3 X0.3271 Y1.208 I-0.0469 J-0.1159
X0.2237 Y1.2352 I-0.2298 J-0.6638
G1 X0.2161 Y1.2366
X0.2084 Y1.2376
X0.2007 Y1.2381
X0.193
X0.1852 Y1.2376
X0.1775 Y1.2367
X0.1699 Y1.2353
G3 X0.0659 Y1.2071 I0.1657 J-0.8183
G1 X0.0599 Y1.2045
X0.0466 Y1.199
G3 X0.0391 Y1.1956 I0.0478 J-0.1155
G1 X0.0266 Y1.1894
G3 X0.0179 Y1.1847 I0.0553 J-0.1121
G1 X0.0063 Y1.1778
G3 X-0.0035 Y1.1713 I0.0639 J-0.1074
G1 X-0.0142 Y1.1635
G3 X-0.0248 Y1.1549 I0.0737 J-0.101
G1 X-0.0344 Y1.1461
G3 X-0.0448 Y1.1354 I0.0842 J-0.0924
G1 X-0.0532 Y1.1256
G3 X-0.0619 Y1.1144 I0.0946 J-0.0817
G1 X-0.0692 Y1.1036
G3 X-0.0759 Y1.0927 I0.1033 J-0.0704
G1 X-0.0822 Y1.081
G3 X-0.087 Y1.0711 I0.1099 J-0.0595
G1 X-0.0924 Y1.0586
G3 X-0.0958 Y1.0498 I0.1147 J-0.0496
G1 X-0.1004 Y1.0366
G3 X-0.1028 Y1.029 I0.1182 J-0.0408
G1 X-0.1066 Y1.0151
G3 X-0.1082 Y1.0087 I0.1205 J-0.0332
X-0.1232 Y0.8988 I0.6551 J-0.1456
G1 X-0.1246 Y0.8826
G3 X-0.1233 Y0.8524 I0.1246 J-0.0096
X-0.0834 Y0.6514 I2.2414 J0.3402
X-0.0113 Y0.4678 I0.778 J0.1997
X0.1382 Y0.2825 I0.7228 J0.43
X0.2894 Y0.1503 I1.484 J1.545
G1 X0.2947 Y0.1459
X0.3001 Y0.1419
G3 X0.5202 Y0.0061 I1.5274 J2.2301
X0.7396 Y-0.0795 I0.4761 J0.8964
X0.9992 Y-0.1207 I0.4135 J1.7669
G1 X1.0297 Y-0.1243
G3 X1.0736 Y-0.1212 I0.0133 J0.1243
X1.2563 Y-0.067 I-0.3431 J1.4922
X1.3503 Y-0.0201 I-0.2333 J0.5859
X1.4999 Y0.1342 I-0.2438 J0.3859
G1 X1.5141 Y0.1577
G3 X1.5171 Y0.163 I-0.1077 J0.0635
X1.5924 Y0.3398 I-0.9804 J0.5219
G1 X1.6025 Y0.368
X1.6027 Y0.3686
X1.6124 Y0.397
G3 X1.6168 Y0.4135 I-0.1183 J0.0405
X1.7293 Y1.0304 I-16.335 J3.2983
X1.8031 Y1.8379 I-6.5772 J1.0078
X1.8122 Y2.4637 I-15.7518 J0.5414
G1 X1.8125 Y2.5526
Y2.5544
Y2.5562
X1.8124 Y2.558
X1.8079 Y2.6647
G2 X1.9225 Y2.6652 I0.0656 J-2.0599
X2.0497 Y2.6466 I-0.1105 J-1.2004
G3 X2.1465 Y2.637 I0.1565 J1.0797
X2.1676 Y2.6374 I0.0078 J0.1248
X2.2589 Y2.6546 I-0.0344 J0.4346
G1 X2.2645 Y2.6569
X2.2706 Y2.6592
G3 X2.2768 Y2.6617 I-0.0443 J0.1169
G1 X2.2827 Y2.6643
G3 X2.2889 Y2.6673 I-0.0505 J0.1143
G1 X2.2947 Y2.6702
G3 X2.3005 Y2.6734 I-0.0567 J0.1114
X2.377 Y2.734 I-0.1743 J0.2987
G1 X2.3822 Y2.7386
G3 X2.3955 Y2.7539 I-0.0872 J0.0895
X2.4524 Y2.8505 I-0.3143 J0.2502
X2.4718 Y2.9556 I-0.3707 J0.1228
G1 X2.4723 Y2.964
Y2.9725
X2.4716 Y2.9809
X2.4704 Y2.9893
X2.4687 Y2.9976
X2.4664 Y3.0057
X2.4635 Y3.0137
X2.4601 Y3.0215
G3 X2.3992 Y3.1361 I-1.1156 J-0.5185
G1 X2.3956 Y3.1413
X2.3829 Y3.1598
G3 X2.3783 Y3.1663 I-0.1034 J-0.0703
G1 X2.3648 Y3.1835
G3 X2.3603 Y3.189 I-0.0987 J-0.0767
X2.3307 Y3.2202 I-0.2754 J-0.2326
X2.3261 Y3.2244 I-0.0865 J-0.0902
G1 X2.3182 Y3.2312
G3 X2.313 Y3.2354 I-0.0819 J-0.0944
G1 X2.3048 Y3.2418
G3 X2.2995 Y3.2457 I-0.0768 J-0.0987
G1 X2.291 Y3.2516
G3 X2.2857 Y3.2551 I-0.0714 J-0.1026
G1 X2.277 Y3.2606
G3 X2.2717 Y3.2637 I-0.0662 J-0.1061
X2.2041 Y3.2939 I-0.1803 J-0.3133
G1 X2.1976 Y3.296
X2.1767 Y3.302
G3 X2.1689 Y3.304 I-0.0346 J-0.1201
G1 X2.1473 Y3.3087
G3 X2.1404 Y3.31 I-0.0268 J-0.1221
X1.9753 Y3.3203 I-0.1327 J-0.7979
X1.6971 Y3.313 I0.3675 J-19.2003
G1 X1.5361 Y3.3042
X1.375 Y3.2951
G2 X1.261 Y3.291 I-0.2336 J4.9192
X1.2354 Y3.3154 I-0.0006 J0.025
G1 X1.2347 Y3.3404
X1.2346 Y3.3443 Z-0.2497
X1.2345 Y3.3481 Z-0.2488
X1.2344 Y3.3517 Z-0.2473
X1.2343 Y3.3551 Z-0.2452
Y3.3581 Z-0.2427
X1.2342 Y3.3606 Z-0.2397
Y3.3627 Z-0.2363
X1.2341 Y3.3642 Z-0.2327
Y3.3651 Z-0.2289
Y3.3654 Z-0.225
X1.2841 Y3.3666
Z-0.275
Y3.3663 Z-0.2789
Y3.3654 Z-0.2827
Y3.3639 Z-0.2863
X1.2842 Y3.3619 Z-0.2897
X1.2843 Y3.3593 Z-0.2927
Y3.3563 Z-0.2952
X1.2844 Y3.353 Z-0.2973
X1.2845 Y3.3494 Z-0.2988
X1.2846 Y3.3456 Z-0.2997
X1.2847 Y3.3417 Z-0.3
X1.2853 Y3.3167
G2 X1.261 Y3.291 I-0.025 J-0.0006
X0.9763 Y3.2951 I-0.0979 J3.076
G3 X0.7751 Y3.3009 I-0.3053 J-7.1871
G1 X0.7676 Y3.3006
G3 X0.6483 Y3.2905 I0.0296 J-1.0598
G1 X0.6324 Y3.2875
G3 X0.6264 Y3.2862 I0.0223 J-0.123
G1 X0.6111 Y3.2827
G3 X0.6038 Y3.2808 I0.0283 J-0.1217
G1 X0.5892 Y3.2764
G3 X0.5808 Y3.2736 I0.0356 J-0.1198
G1 X0.5669 Y3.2684
G3 X0.5573 Y3.2643 I0.0439 J-0.117
G1 X0.5442 Y3.2581
G3 X0.5337 Y3.2525 I0.0535 J-0.113
G1 X0.5214 Y3.2452
G3 X0.5103 Y3.2377 I0.064 J-0.1074
G1 X0.499 Y3.2293
G3 X0.4906 Y3.2223 I0.0752 J-0.0999
G1 X0.4854 Y3.2176
G3 X0.48 Y3.2125 I0.0836 J-0.0929
G1 X0.475 Y3.2074
G3 X0.4681 Y3.1998 I0.089 J-0.0878
G1 X0.4589 Y3.1888
G3 X0.4515 Y3.179 I0.0959 J-0.0801
G1 X0.4433 Y3.1669
G3 X0.4378 Y3.1582 I0.1034 J-0.0703
G1 X0.4304 Y3.1451
G3 X0.4265 Y3.1375 I0.1088 J-0.0616
G1 X0.4198 Y3.1235
G3 X0.417 Y3.1172 I0.1128 J-0.0539
X0.3817 Y3.0073 I0.6589 J-0.2725
G1 X0.3797 Y2.9992
X0.3782 Y2.991
X0.3774 Y2.9828
X0.377 Y2.9744
X0.3772 Y2.9661
G3 X0.3949 Y2.8582 I0.4246 J0.0143
G1 X0.3975 Y2.8521
G3 X0.3998 Y2.846 I0.1178 J0.0418
G1 X0.4024 Y2.8398
G3 X0.405 Y2.834 I0.1154 J0.048
X0.4602 Y2.7518 I0.3151 J0.152
G1 X0.4645 Y2.7462
G3 X0.4848 Y2.7267 I0.0961 J0.08
X0.5746 Y2.6708 I0.264 J0.3237
G1 X0.5807 Y2.6686
G3 X0.5864 Y2.6665 I0.0466 J0.116
X0.6887 Y2.6477 I0.1151 J0.3376
G1 X0.6954 Y2.6469
G3 X0.7039 Y2.6465 I0.0097 J0.1246
G2 X1.0486 Y2.638 I-0.1534 J-13.1952
G1 X1.1672 Y2.6367
G2 X1.1695 Y2.4558 I-2.8369 J-0.1269
X1.1404 Y1.3909 I-18.4399 J-0.0287
G1 X1.1406 Y1.3829
G2 X1.1393 Y1.0839 I-5.1127 J-0.127
X1.1113 Y0.8504 I-1.5323 J0.0655
X1.021 Y0.6095 I-0.8314 J0.1743
G1 X1.0016 Y0.575
X0.9809 Y0.54
X0.9789 Y0.5367
G2 X0.8399 Y0.5744 I0.0628 J0.5056
X0.6098 Y0.7229 I0.5079 J1.0396
X0.5585 Y0.7807 I0.1776 J0.2093
X0.5243 Y0.8753 I0.3367 J0.1751
X0.5162 Y0.9215 I0.143 J0.0488
G3 X0.5022 Y1.0123 I-0.6807 J-0.0585
G1 X0.5004 Y1.0187
X0.4965 Y1.0324
G3 X0.4941 Y1.04 I-0.1203 J-0.0341
G1 X0.4895 Y1.0531
G3 X0.486 Y1.0619 I-0.1178 J-0.0417
G1 X0.4805 Y1.0743
G3 X0.4756 Y1.0843 I-0.1143 J-0.0505
G1 X0.4692 Y1.0958
G3 X0.4624 Y1.1067 I-0.1094 J-0.0605
G1 X0.455 Y1.1173
G3 X0.4462 Y1.1285 I-0.1026 J-0.0714
G1 X0.4377 Y1.1381
G3 X0.4272 Y1.1487 I-0.0937 J-0.0827
G1 X0.4176 Y1.1573
G3 X0.407 Y1.1658 I-0.0832 J-0.0933
G1 X0.3963 Y1.1734
G3 X0.3866 Y1.1797 I-0.0727 J-0.1017
G1 X0.3749 Y1.1865
G3 X0.3663 Y1.1911 I-0.0629 J-0.108
G1 X0.3538 Y1.1971
G3 X0.3464 Y1.2004 I-0.0542 J-0.1126
G1 X0.3332 Y1.2057
G3 X0.3271 Y1.208 I-0.0469 J-0.1159
X0.2237 Y1.2352 I-0.2298 J-0.6638
G1 X0.2161 Y1.2366
X0.2084 Y1.2376
X0.2007 Y1.2381
X0.193
X0.1852 Y1.2376
X0.1775 Y1.2367
X0.1699 Y1.2353
G3 X0.0659 Y1.2071 I0.1657 J-0.8183
G1 X0.0599 Y1.2045
X0.0466 Y1.199
G3 X0.0391 Y1.1956 I0.0478 J-0.1155
G1 X0.0266 Y1.1894
G3 X0.0179 Y1.1847 I0.0553 J-0.1121
G1 X0.0063 Y1.1778
G3 X-0.0035 Y1.1713 I0.0639 J-0.1074
G1 X-0.0142 Y1.1635
G3 X-0.0248 Y1.1549 I0.0737 J-0.101
G1 X-0.0344 Y1.1461
G3 X-0.0448 Y1.1354 I0.0842 J-0.0924
G1 X-0.0532 Y1.1256
G3 X-0.0619 Y1.1144 I0.0946 J-0.0817
G1 X-0.0692 Y1.1036
G3 X-0.0759 Y1.0927 I0.1033 J-0.0704
G1 X-0.0822 Y1.081
G3 X-0.087 Y1.0711 I0.1099 J-0.0595
G1 X-0.0924 Y1.0586
G3 X-0.0958 Y1.0498 I0.1147 J-0.0496
G1 X-0.1004 Y1.0366
G3 X-0.1028 Y1.029 I0.1182 J-0.0408
G1 X-0.1066 Y1.0151
G3 X-0.1082 Y1.0087 I0.1205 J-0.0332
X-0.1232 Y0.8988 I0.6551 J-0.1456
G1 X-0.1246 Y0.8826
G3 X-0.1233 Y0.8524 I0.1246 J-0.0096
X-0.0834 Y0.6514 I2.2414 J0.3402
X-0.0113 Y0.4678 I0.778 J0.1997
X0.1382 Y0.2825 I0.7228 J0.43
X0.2894 Y0.1503 I1.484 J1.545
G1 X0.2947 Y0.1459
X0.3001 Y0.1419
G3 X0.5202 Y0.0061 I1.5274 J2.2301
X0.7396 Y-0.0795 I0.4761 J0.8964
X0.9992 Y-0.1207 I0.4135 J1.7669
G1 X1.0297 Y-0.1243
G3 X1.0736 Y-0.1212 I0.0133 J0.1243
X1.2563 Y-0.067 I-0.3431 J1.4922
X1.3503 Y-0.0201 I-0.2333 J0.5859
X1.4999 Y0.1342 I-0.2438 J0.3859
G1 X1.5141 Y0.1577
G3 X1.5171 Y0.163 I-0.1077 J0.0635
X1.5924 Y0.3398 I-0.9804 J0.5219
G1 X1.6025 Y0.368
X1.6027 Y0.3686
X1.6124 Y0.397
G3 X1.6168 Y0.4135 I-0.1183 J0.0405
X1.7293 Y1.0304 I-16.335 J3.2983
X1.8031 Y1.8379 I-6.5772 J1.0078
X1.8122 Y2.4637 I-15.7518 J0.5414
G1 X1.8125 Y2.5526
Y2.5544
Y2.5562
X1.8124 Y2.558
X1.8079 Y2.6647
G2 X1.9225 Y2.6652 I0.0656 J-2.0599
X2.0497 Y2.6466 I-0.1105 J-1.2004
G3 X2.1465 Y2.637 I0.1565 J1.0797
X2.1676 Y2.6374 I0.0078 J0.1248
X2.2589 Y2.6546 I-0.0344 J0.4346
G1 X2.2645 Y2.6569
X2.2706 Y2.6592
G3 X2.2768 Y2.6617 I-0.0443 J0.1169
G1 X2.2827 Y2.6643
G3 X2.2889 Y2.6673 I-0.0505 J0.1143
G1 X2.2947 Y2.6702
G3 X2.3005 Y2.6734 I-0.0567 J0.1114
X2.377 Y2.734 I-0.1743 J0.2987
G1 X2.3822 Y2.7386
G3 X2.3955 Y2.7539 I-0.0872 J0.0895
X2.4524 Y2.8505 I-0.3143 J0.2502
X2.4718 Y2.9556 I-0.3707 J0.1228
G1 X2.4723 Y2.964
Y2.9725
X2.4716 Y2.9809
X2.4704 Y2.9893
X2.4687 Y2.9976
X2.4664 Y3.0057
X2.4635 Y3.0137
X2.4601 Y3.0215
G3 X2.3992 Y3.1361 I-1.1156 J-0.5185
G1 X2.3956 Y3.1413
X2.3829 Y3.1598
G3 X2.3783 Y3.1663 I-0.1034 J-0.0703
G1 X2.3648 Y3.1835
G3 X2.3603 Y3.189 I-0.0987 J-0.0767
X2.3307 Y3.2202 I-0.2754 J-0.2326
X2.3261 Y3.2244 I-0.0865 J-0.0902
G1 X2.3182 Y3.2312
G3 X2.313 Y3.2354 I-0.0819 J-0.0944
G1 X2.3048 Y3.2418
G3 X2.2995 Y3.2457 I-0.0768 J-0.0987
G1 X2.291 Y3.2516
G3 X2.2857 Y3.2551 I-0.0714 J-0.1026
G1 X2.277 Y3.2606
G3 X2.2717 Y3.2637 I-0.0662 J-0.1061
X2.2041 Y3.2939 I-0.1803 J-0.3133
G1 X2.1976 Y3.296
X2.1767 Y3.302
G3 X2.1689 Y3.304 I-0.0346 J-0.1201
G1 X2.1473 Y3.3087
G3 X2.1404 Y3.31 I-0.0268 J-0.1221
X1.9753 Y3.3203 I-0.1327 J-0.7979
X1.6971 Y3.313 I0.3675 J-19.2003
G1 X1.5361 Y3.3042
X1.375 Y3.2951
G2 X1.261 Y3.291 I-0.2336 J4.9192
X1.2354 Y3.3154 I-0.0006 J0.025
G1 X1.2347 Y3.3404
X1.2346 Y3.3443 Z-0.2997
X1.2345 Y3.3481 Z-0.2988
X1.2344 Y3.3517 Z-0.2973
X1.2343 Y3.3551 Z-0.2952
Y3.3581 Z-0.2927
X1.2342 Y3.3606 Z-0.2897
Y3.3627 Z-0.2863
X1.2341 Y3.3642 Z-0.2827
Y3.3651 Z-0.2789
Y3.3654 Z-0.275
X1.2841 Y3.3666
Z-0.325
Y3.3663 Z-0.3289
Y3.3654 Z-0.3327
Y3.3639 Z-0.3363
X1.2842 Y3.3619 Z-0.3397
X1.2843 Y3.3593 Z-0.3427
Y3.3563 Z-0.3452
X1.2844 Y3.353 Z-0.3473
X1.2845 Y3.3494 Z-0.3488
X1.2846 Y3.3456 Z-0.3497
X1.2847 Y3.3417 Z-0.35
X1.2853 Y3.3167
G2 X1.261 Y3.291 I-0.025 J-0.0006
X0.9763 Y3.2951 I-0.0979 J3.076
G3 X0.7751 Y3.3009 I-0.3053 J-7.1871
G1 X0.7676 Y3.3006
G3 X0.6483 Y3.2905 I0.0296 J-1.0598
G1 X0.6324 Y3.2875
G3 X0.6264 Y3.2862 I0.0223 J-0.123
G1 X0.6111 Y3.2827
G3 X0.6038 Y3.2808 I0.0283 J-0.1217
G1 X0.5892 Y3.2764
G3 X0.5808 Y3.2736 I0.0356 J-0.1198
G1 X0.5669 Y3.2684
G3 X0.5573 Y3.2643 I0.0439 J-0.117
G1 X0.5442 Y3.2581
G3 X0.5337 Y3.2525 I0.0535 J-0.113
G1 X0.5214 Y3.2452
G3 X0.5103 Y3.2377 I0.064 J-0.1074
G1 X0.499 Y3.2293
G3 X0.4906 Y3.2223 I0.0752 J-0.0999
G1 X0.4854 Y3.2176
G3 X0.48 Y3.2125 I0.0836 J-0.0929
G1 X0.475 Y3.2074
G3 X0.4681 Y3.1998 I0.089 J-0.0878
G1 X0.4589 Y3.1888
G3 X0.4515 Y3.179 I0.0959 J-0.0801
G1 X0.4433 Y3.1669
G3 X0.4378 Y3.1582 I0.1034 J-0.0703
G1 X0.4304 Y3.1451
G3 X0.4265 Y3.1375 I0.1088 J-0.0616
G1 X0.4198 Y3.1235
G3 X0.417 Y3.1172 I0.1128 J-0.0539
X0.3817 Y3.0073 I0.6589 J-0.2725
G1 X0.3797 Y2.9992
X0.3782 Y2.991
X0.3774 Y2.9828
X0.377 Y2.9744
X0.3772 Y2.9661
G3 X0.3949 Y2.8582 I0.4246 J0.0143
G1 X0.3975 Y2.8521
G3 X0.3998 Y2.846 I0.1178 J0.0418
G1 X0.4024 Y2.8398
G3 X0.405 Y2.834 I0.1154 J0.048
X0.4602 Y2.7518 I0.3151 J0.152
G1 X0.4645 Y2.7462
G3 X0.4848 Y2.7267 I0.0961 J0.08
X0.5746 Y2.6708 I0.264 J0.3237
G1 X0.5807 Y2.6686
G3 X0.5864 Y2.6665 I0.0466 J0.116
X0.6887 Y2.6477 I0.1151 J0.3376
G1 X0.6954 Y2.6469
G3 X0.7039 Y2.6465 I0.0097 J0.1246
G2 X1.0486 Y2.638 I-0.1534 J-13.1952
G1 X1.1672 Y2.6367
G2 X1.1695 Y2.4558 I-2.8369 J-0.1269
X1.1404 Y1.3909 I-18.4399 J-0.0287
G1 X1.1406 Y1.3829
G2 X1.1393 Y1.0839 I-5.1127 J-0.127
X1.1113 Y0.8504 I-1.5323 J0.0655
X1.021 Y0.6095 I-0.8314 J0.1743
G1 X1.0016 Y0.575
X0.9809 Y0.54
X0.9789 Y0.5367
G2 X0.8399 Y0.5744 I0.0628 J0.5056
X0.6098 Y0.7229 I0.5079 J1.0396
X0.5585 Y0.7807 I0.1776 J0.2093
X0.5243 Y0.8753 I0.3367 J0.1751
X0.5162 Y0.9215 I0.143 J0.0488
G3 X0.5022 Y1.0123 I-0.6807 J-0.0585
G1 X0.5004 Y1.0187
X0.4965 Y1.0324
G3 X0.4941 Y1.04 I-0.1203 J-0.0341
G1 X0.4895 Y1.0531
G3 X0.486 Y1.0619 I-0.1178 J-0.0417
G1 X0.4805 Y1.0743
G3 X0.4756 Y1.0843 I-0.1143 J-0.0505
G1 X0.4692 Y1.0958
G3 X0.4624 Y1.1067 I-0.1094 J-0.0605
G1 X0.455 Y1.1173
G3 X0.4462 Y1.1285 I-0.1026 J-0.0714
G1 X0.4377 Y1.1381
G3 X0.4272 Y1.1487 I-0.0937 J-0.0827
G1 X0.4176 Y1.1573
G3 X0.407 Y1.1658 I-0.0832 J-0.0933
G1 X0.3963 Y1.1734
G3 X0.3866 Y1.1797 I-0.0727 J-0.1017
G1 X0.3749 Y1.1865
G3 X0.3663 Y1.1911 I-0.0629 J-0.108
G1 X0.3538 Y1.1971
G3 X0.3464 Y1.2004 I-0.0542 J-0.1126
G1 X0.3332 Y1.2057
G3 X0.3271 Y1.208 I-0.0469 J-0.1159
X0.2237 Y1.2352 I-0.2298 J-0.6638
G1 X0.2161 Y1.2366
X0.2084 Y1.2376
X0.2007 Y1.2381
X0.193
X0.1852 Y1.2376
X0.1775 Y1.2367
X0.1699 Y1.2353
G3 X0.0659 Y1.2071 I0.1657 J-0.8183
G1 X0.0599 Y1.2045
X0.0466 Y1.199
G3 X0.0391 Y1.1956 I0.0478 J-0.1155
G1 X0.0266 Y1.1894
G3 X0.0179 Y1.1847 I0.0553 J-0.1121
G1 X0.0063 Y1.1778
G3 X-0.0035 Y1.1713 I0.0639 J-0.1074
G1 X-0.0142 Y1.1635
G3 X-0.0248 Y1.1549 I0.0737 J-0.101
G1 X-0.0344 Y1.1461
G3 X-0.0448 Y1.1354 I0.0842 J-0.0924
G1 X-0.0532 Y1.1256
G3 X-0.0619 Y1.1144 I0.0946 J-0.0817
G1 X-0.0692 Y1.1036
G3 X-0.0759 Y1.0927 I0.1033 J-0.0704
G1 X-0.0822 Y1.081
G3 X-0.087 Y1.0711 I0.1099 J-0.0595
G1 X-0.0924 Y1.0586
G3 X-0.0958 Y1.0498 I0.1147 J-0.0496
G1 X-0.1004 Y1.0366
G3 X-0.1028 Y1.029 I0.1182 J-0.0408
G1 X-0.1066 Y1.0151
G3 X-0.1082 Y1.0087 I0.1205 J-0.0332
X-0.1232 Y0.8988 I0.6551 J-0.1456
G1 X-0.1246 Y0.8826
G3 X-0.1233 Y0.8524 I0.1246 J-0.0096
X-0.0834 Y0.6514 I2.2414 J0.3402
X-0.0113 Y0.4678 I0.778 J0.1997
X0.1382 Y0.2825 I0.7228 J0.43
X0.2894 Y0.1503 I1.484 J1.545
G1 X0.2947 Y0.1459
X0.3001 Y0.1419
G3 X0.5202 Y0.0061 I1.5274 J2.2301
X0.7396 Y-0.0795 I0.4761 J0.8964
X0.9992 Y-0.1207 I0.4135 J1.7669
G1 X1.0297 Y-0.1243
G3 X1.0736 Y-0.1212 I0.0133 J0.1243
X1.2563 Y-0.067 I-0.3431 J1.4922
X1.3503 Y-0.0201 I-0.2333 J0.5859
X1.4999 Y0.1342 I-0.2438 J0.3859
G1 X1.5141 Y0.1577
G3 X1.5171 Y0.163 I-0.1077 J0.0635
X1.5924 Y0.3398 I-0.9804 J0.5219
G1 X1.6025 Y0.368
X1.6027 Y0.3686
X1.6124 Y0.397
G3 X1.6168 Y0.4135 I-0.1183 J0.0405
X1.7293 Y1.0304 I-16.335 J3.2983
X1.8031 Y1.8379 I-6.5772 J1.0078
X1.8122 Y2.4637 I-15.7518 J0.5414
G1 X1.8125 Y2.5526
Y2.5544
Y2.5562
X1.8124 Y2.558
X1.8079 Y2.6647
G2 X1.9225 Y2.6652 I0.0656 J-2.0599
X2.0497 Y2.6466 I-0.1105 J-1.2004
G3 X2.1465 Y2.637 I0.1565 J1.0797
X2.1676 Y2.6374 I0.0078 J0.1248
X2.2589 Y2.6546 I-0.0344 J0.4346
G1 X2.2645 Y2.6569
X2.2706 Y2.6592
G3 X2.2768 Y2.6617 I-0.0443 J0.1169
G1 X2.2827 Y2.6643
G3 X2.2889 Y2.6673 I-0.0505 J0.1143
G1 X2.2947 Y2.6702
G3 X2.3005 Y2.6734 I-0.0567 J0.1114
X2.377 Y2.734 I-0.1743 J0.2987
G1 X2.3822 Y2.7386
G3 X2.3955 Y2.7539 I-0.0872 J0.0895
X2.4524 Y2.8505 I-0.3143 J0.2502
X2.4718 Y2.9556 I-0.3707 J0.1228
G1 X2.4723 Y2.964
Y2.9725
X2.4716 Y2.9809
X2.4704 Y2.9893
X2.4687 Y2.9976
X2.4664 Y3.0057
X2.4635 Y3.0137
X2.4601 Y3.0215
G3 X2.3992 Y3.1361 I-1.1156 J-0.5185
G1 X2.3956 Y3.1413
X2.3829 Y3.1598
G3 X2.3783 Y3.1663 I-0.1034 J-0.0703
G1 X2.3648 Y3.1835
G3 X2.3603 Y3.189 I-0.0987 J-0.0767
X2.3307 Y3.2202 I-0.2754 J-0.2326
X2.3261 Y3.2244 I-0.0865 J-0.0902
G1 X2.3182 Y3.2312
G3 X2.313 Y3.2354 I-0.0819 J-0.0944
G1 X2.3048 Y3.2418
G3 X2.2995 Y3.2457 I-0.0768 J-0.0987
G1 X2.291 Y3.2516
G3 X2.2857 Y3.2551 I-0.0714 J-0.1026
G1 X2.277 Y3.2606
G3 X2.2717 Y3.2637 I-0.0662 J-0.1061
X2.2041 Y3.2939 I-0.1803 J-0.3133
G1 X2.1976 Y3.296
X2.1767 Y3.302
G3 X2.1689 Y3.304 I-0.0346 J-0.1201
G1 X2.1473 Y3.3087
G3 X2.1404 Y3.31 I-0.0268 J-0.1221
X1.9753 Y3.3203 I-0.1327 J-0.7979
X1.6971 Y3.313 I0.3675 J-19.2003
G1 X1.5361 Y3.3042
X1.375 Y3.2951
G2 X1.261 Y3.291 I-0.2336 J4.9192
X1.2354 Y3.3154 I-0.0006 J0.025
G1 X1.2347 Y3.3404
X1.2346 Y3.3443 Z-0.3497
X1.2345 Y3.3481 Z-0.3488
X1.2344 Y3.3517 Z-0.3473
X1.2343 Y3.3551 Z-0.3452
Y3.3581 Z-0.3427
X1.2342 Y3.3606 Z-0.3397
Y3.3627 Z-0.3363
X1.2341 Y3.3642 Z-0.3327
Y3.3651 Z-0.3289
Y3.3654 Z-0.325
X1.2841 Y3.3666
Z-0.375
Y3.3664 Z-0.3785
Y3.3657 Z-0.3819
Y3.3645 Z-0.3851
X1.2842 Y3.3629 Z-0.3882
Y3.3609 Z-0.391
X1.2847 Y3.3417
X1.2853 Y3.3167
G2 X1.261 Y3.291 I-0.025 J-0.0006
X0.9763 Y3.2951 I-0.0979 J3.076
X0.9178 Y3.2973 I0.087 J3.1343
G1 Z-0.4
G3 X0.7751 Y3.3007 I-0.1773 J-4.4238
G1 X0.7676 Y3.3006
G3 X0.6483 Y3.2905 I0.0296 J-1.0598
G1 X0.6324 Y3.2875
G3 X0.6264 Y3.2862 I0.0223 J-0.123
G1 X0.6111 Y3.2827
G3 X0.6038 Y3.2808 I0.0283 J-0.1217
G1 X0.5892 Y3.2764
G3 X0.5808 Y3.2736 I0.0356 J-0.1198
G1 X0.5669 Y3.2684
G3 X0.5573 Y3.2643 I0.0439 J-0.117
G1 X0.5442 Y3.2581
G3 X0.5337 Y3.2525 I0.0535 J-0.113
G1 X0.5214 Y3.2452
G3 X0.5103 Y3.2377 I0.064 J-0.1074
G1 X0.499 Y3.2293
G3 X0.4906 Y3.2223 I0.0752 J-0.0999
G1 X0.4854 Y3.2176
G3 X0.48 Y3.2125 I0.0836 J-0.0929
G1 X0.475 Y3.2074
G3 X0.4681 Y3.1998 I0.089 J-0.0878
G1 X0.4589 Y3.1888
G3 X0.4515 Y3.179 I0.0959 J-0.0801
G1 X0.4433 Y3.1669
G3 X0.4378 Y3.1582 I0.1034 J-0.0703
G1 X0.4304 Y3.1451
G3 X0.4265 Y3.1375 I0.1088 J-0.0616
G1 X0.4198 Y3.1235
G3 X0.417 Y3.1172 I0.1128 J-0.0539
X0.3817 Y3.0073 I0.6589 J-0.2725
G1 X0.3797 Y2.9992
X0.3782 Y2.991
X0.3774 Y2.9828
X0.377 Y2.9744
X0.3772 Y2.9661
G3 X0.3949 Y2.8582 I0.4246 J0.0143
G1 X0.3975 Y2.8521
G3 X0.3998 Y2.846 I0.1178 J0.0418
G1 X0.4024 Y2.8398
G3 X0.405 Y2.834 I0.1154 J0.048
X0.4602 Y2.7518 I0.3151 J0.152
G1 X0.4645 Y2.7462
G3 X0.4848 Y2.7267 I0.0961 J0.08
X0.5746 Y2.6708 I0.264 J0.3237
G1 X0.5807 Y2.6686
G3 X0.5864 Y2.6665 I0.0466 J0.116
X0.6827 Y2.6481 I0.1129 J0.3288
G1 Y2.6479 Z-0.391
X0.6883 Y2.6474
X0.6887
X0.6954 Y2.6469
G3 X0.7039 Y2.6465 I0.0097 J0.1246
G2 X1.0486 Y2.638 I-0.1534 J-13.1952
G1 X1.1672 Y2.6367
G2 X1.1697 Y2.4841 I-2.528 J-0.1175
G1 Z-0.4
G2 X1.1525 Y1.6335 I-19.1062 J-0.0398
G1 X1.1522 Y1.6331
Z-0.391
X1.1466 Y1.512
X1.1408 Y1.3908
G3 X1.1406 Y1.3829 I0.1249 J-0.0061
G2 X1.141 Y1.1329 I-6.0697 J-0.1341
G1 X1.1409 Z-0.4
G2 X1.1185 Y0.8875 I-1.699 J0.031
X1.0625 Y0.6936 I-0.8986 J0.1548
X0.9788 Y0.5367 I-1.172 J0.5242
X0.8399 Y0.5744 I0.0621 J0.5031
X0.6098 Y0.7229 I0.5074 J1.0389
X0.5585 Y0.7807 I0.1775 J0.2092
X0.5243 Y0.8753 I0.3366 J0.1751
X0.5162 Y0.9215 I0.143 J0.0488
G3 X0.5022 Y1.0123 I-0.6807 J-0.0585
G1 X0.5004 Y1.0187
X0.4965 Y1.0324
G3 X0.4941 Y1.04 I-0.1203 J-0.0341
G1 X0.4895 Y1.0531
G3 X0.486 Y1.0619 I-0.1178 J-0.0417
G1 X0.4805 Y1.0743
G3 X0.4756 Y1.0843 I-0.1143 J-0.0505
G1 X0.4692 Y1.0958
G3 X0.4624 Y1.1067 I-0.1094 J-0.0605
G1 X0.455 Y1.1173
G3 X0.4462 Y1.1285 I-0.1026 J-0.0714
G1 X0.4377 Y1.1381
G3 X0.4272 Y1.1487 I-0.0937 J-0.0827
G1 X0.4176 Y1.1573
G3 X0.407 Y1.1658 I-0.0832 J-0.0933
G1 X0.3963 Y1.1734
G3 X0.3866 Y1.1797 I-0.0727 J-0.1017
G1 X0.3749 Y1.1865
G3 X0.3663 Y1.1911 I-0.0629 J-0.108
G1 X0.3538 Y1.1971
G3 X0.3464 Y1.2004 I-0.0542 J-0.1126
G1 X0.3332 Y1.2057
G3 X0.3271 Y1.208 I-0.0469 J-0.1159
X0.2237 Y1.2352 I-0.2298 J-0.6638
G1 X0.2161 Y1.2366
X0.2084 Y1.2376
X0.2007 Y1.2381
X0.193
X0.1852 Y1.2376
X0.1775 Y1.2367
X0.1699 Y1.2353
G3 X0.0659 Y1.2071 I0.1657 J-0.8183
G1 X0.0599 Y1.2045
X0.0466 Y1.199
G3 X0.0391 Y1.1956 I0.0478 J-0.1155
G1 X0.0266 Y1.1894
G3 X0.0179 Y1.1847 I0.0553 J-0.1121
G1 X0.0063 Y1.1778
G3 X-0.0035 Y1.1713 I0.0639 J-0.1074
G1 X-0.0142 Y1.1635
G3 X-0.0248 Y1.1549 I0.0737 J-0.101
G1 X-0.0344 Y1.1461
G3 X-0.0448 Y1.1354 I0.0842 J-0.0924
G1 X-0.0514 Y1.1277
Z-0.391
X-0.0532 Y1.1256
G3 X-0.0619 Y1.1144 I0.0946 J-0.0817
G1 X-0.0692 Y1.1036
G3 X-0.0759 Y1.0927 I0.1033 J-0.0704
G1 X-0.0822 Y1.081
G3 X-0.087 Y1.0711 I0.1099 J-0.0595
G1 X-0.0924 Y1.0586
G3 X-0.0958 Y1.0498 I0.1147 J-0.0496
G1 X-0.1004 Y1.0366
G3 X-0.1028 Y1.029 I0.1182 J-0.0408
G1 X-0.1066 Y1.0151
G3 X-0.1082 Y1.0087 I0.1205 J-0.0332
X-0.1232 Y0.8988 I0.6551 J-0.1456
G1 X-0.1246 Y0.8826
G3 X-0.1233 Y0.8524 I0.1246 J-0.0096
X-0.0834 Y0.6514 I2.2414 J0.3402
G1 X-0.0767 Y0.6282
Z-0.4
G3 X0.0206 Y0.4176 I0.6759 J0.1843
X0.1632 Y0.2588 I0.7923 J0.568
X0.2893 Y0.1501 I1.7366 J1.8896
G1 X0.2946 Y0.1459
X0.3001 Y0.1419
G3 X0.5202 Y0.0061 I1.5274 J2.2301
X0.7396 Y-0.0795 I0.4761 J0.8964
X0.9992 Y-0.1207 I0.4135 J1.7669
G1 X1.0297 Y-0.1243
G3 X1.0736 Y-0.1212 I0.0133 J0.1243
X1.2563 Y-0.067 I-0.3431 J1.4922
X1.3503 Y-0.0201 I-0.2333 J0.5859
X1.4999 Y0.1342 I-0.2438 J0.3859
G1 X1.5141 Y0.1577
G3 X1.5171 Y0.163 I-0.1077 J0.0635
G1 X1.5244 Y0.1769
Z-0.391
G3 X1.6023 Y0.3687 I-1.1206 J0.5671
G1 X1.6124 Y0.397
G3 X1.6168 Y0.4135 I-0.1183 J0.0405
X1.6643 Y0.659 I-37.0558 J7.2971
G1 Z-0.4
G3 X1.7546 Y1.2092 I-9.3656 J1.819
X1.806 Y1.9275 I-7.127 J0.8712
X1.8121 Y2.5349 I-18.4943 J0.4913
G1 X1.8125 Z-0.391
G3 X1.8124 Y2.558 I-0.5136 J0.0096
G1 X1.8079 Y2.6647
G2 X1.9225 Y2.6652 I0.0656 J-2.0599
X2.0497 Y2.6466 I-0.1105 J-1.2004
G3 X2.1465 Y2.637 I0.1565 J1.0797
X2.1676 Y2.6374 I0.0078 J0.1248
X2.2589 Y2.6546 I-0.0344 J0.4346
G1 X2.2645 Y2.6569
X2.2677 Y2.6581
Z-0.4
X2.2706 Y2.6592
G3 X2.2768 Y2.6617 I-0.0443 J0.1169
G1 X2.2827 Y2.6643
G3 X2.2889 Y2.6673 I-0.0505 J0.1143
G1 X2.2947 Y2.6702
G3 X2.3005 Y2.6734 I-0.0567 J0.1114
X2.377 Y2.734 I-0.1743 J0.2987
G1 X2.3822 Y2.7386
G3 X2.3955 Y2.7539 I-0.0872 J0.0895
X2.4524 Y2.8505 I-0.3143 J0.2502
X2.4718 Y2.9556 I-0.3707 J0.1228
G1 X2.4723 Y2.964
Y2.9725
X2.4716 Y2.9809
X2.4704 Y2.9893
X2.4687 Y2.9976
X2.4664 Y3.0057
X2.4635 Y3.0137
X2.4601 Y3.0215
G3 X2.3992 Y3.1361 I-1.1156 J-0.5185
G1 X2.3956 Y3.1413
X2.3829 Y3.1598
G3 X2.3783 Y3.1663 I-0.1034 J-0.0703
G1 X2.3648 Y3.1835
G3 X2.3603 Y3.189 I-0.0987 J-0.0767
X2.3307 Y3.2202 I-0.2754 J-0.2326
X2.3261 Y3.2244 I-0.0865 J-0.0902
G1 X2.3182 Y3.2312
G3 X2.313 Y3.2354 I-0.0819 J-0.0944
G1 X2.3048 Y3.2418
G3 X2.2995 Y3.2457 I-0.0768 J-0.0987
G1 X2.291 Y3.2516
G3 X2.2857 Y3.2551 I-0.0714 J-0.1026
G1 X2.277 Y3.2606
G3 X2.2717 Y3.2637 I-0.0662 J-0.1061
X2.2041 Y3.2939 I-0.1803 J-0.3133
G1 X2.1976 Y3.296
X2.1767 Y3.302
G3 X2.1689 Y3.304 I-0.0346 J-0.1201
G1 X2.1473 Y3.3087
G3 X2.1404 Y3.31 I-0.0268 J-0.1221
X1.9753 Y3.3203 I-0.1327 J-0.7979
X1.6971 Y3.313 I0.3675 J-19.2003
X1.4179 Y3.2973 I2.0567 J-39.0833
G1 Z-0.391
G2 X1.261 Y3.291 I-0.2914 J5.3411
X1.2354 Y3.3154 I-0.0006 J0.025
G1 X1.2347 Y3.3404
X1.2342 Y3.3596
Y3.3616 Z-0.3882
X1.2341 Y3.3632 Z-0.3851
Y3.3644 Z-0.3819
Y3.3651 Z-0.3785
Y3.3654 Z-0.375
X1.2841 Y3.3666
Z-0.391
X1.2847 Y3.3417
X1.2853 Y3.3167
G2 X1.261 Y3.291 I-0.025 J-0.0006
X0.9763 Y3.2951 I-0.0979 J3.076
X0.9178 Y3.2973 I0.087 J3.1343
G1 Z-0.441
G3 X0.7751 Y3.3007 I-0.1773 J-4.4238
G1 X0.7676 Y3.3006
G3 X0.6483 Y3.2905 I0.0296 J-1.0598
G1 X0.6324 Y3.2875
G3 X0.6264 Y3.2862 I0.0223 J-0.123
G1 X0.6111 Y3.2827
G3 X0.6038 Y3.2808 I0.0283 J-0.1217
G1 X0.5892 Y3.2764
G3 X0.5808 Y3.2736 I0.0356 J-0.1198
G1 X0.5669 Y3.2684
G3 X0.5573 Y3.2643 I0.0439 J-0.117
G1 X0.5442 Y3.2581
G3 X0.5337 Y3.2525 I0.0535 J-0.113
G1 X0.5214 Y3.2452
G3 X0.5103 Y3.2377 I0.064 J-0.1074
G1 X0.499 Y3.2293
G3 X0.4906 Y3.2223 I0.0752 J-0.0999
G1 X0.4854 Y3.2176
G3 X0.48 Y3.2125 I0.0836 J-0.0929
G1 X0.475 Y3.2074
G3 X0.4681 Y3.1998 I0.089 J-0.0878
G1 X0.4589 Y3.1888
G3 X0.4515 Y3.179 I0.0959 J-0.0801
G1 X0.4433 Y3.1669
G3 X0.4378 Y3.1582 I0.1034 J-0.0703
G1 X0.4304 Y3.1451
G3 X0.4265 Y3.1375 I0.1088 J-0.0616
G1 X0.4198 Y3.1235
G3 X0.417 Y3.1172 I0.1128 J-0.0539
X0.3817 Y3.0073 I0.6589 J-0.2725
G1 X0.3797 Y2.9992
X0.3782 Y2.991
X0.3774 Y2.9828
X0.377 Y2.9744
X0.3772 Y2.9661
G3 X0.3949 Y2.8582 I0.4246 J0.0143
G1 X0.3975 Y2.8521
G3 X0.3998 Y2.846 I0.1178 J0.0418
G1 X0.4024 Y2.8398
G3 X0.405 Y2.834 I0.1154 J0.048
X0.4602 Y2.7518 I0.3151 J0.152
G1 X0.4645 Y2.7462
G3 X0.4848 Y2.7267 I0.0961 J0.08
X0.5746 Y2.6708 I0.264 J0.3237
G1 X0.5807 Y2.6686
G3 X0.5864 Y2.6665 I0.0466 J0.116
X0.6827 Y2.6481 I0.1129 J0.3288
G1 Y2.6479 Z-0.391
X0.6883 Y2.6474
X0.6887
X0.6954 Y2.6469
G3 X0.7039 Y2.6465 I0.0097 J0.1246
G2 X1.0486 Y2.638 I-0.1534 J-13.1952
G1 X1.1672 Y2.6367
G2 X1.1697 Y2.4841 I-2.528 J-0.1175
G1 Z-0.441
G2 X1.1525 Y1.6335 I-19.1062 J-0.0398
G1 X1.1522 Y1.6331
Z-0.391
X1.1466 Y1.512
X1.1408 Y1.3908
G3 X1.1406 Y1.3829 I0.1249 J-0.0061
G2 X1.141 Y1.1329 I-6.0697 J-0.1341
G1 X1.1409 Z-0.441
G2 X1.1185 Y0.8875 I-1.699 J0.031
X1.0625 Y0.6936 I-0.8986 J0.1548
X0.9788 Y0.5367 I-1.172 J0.5242
X0.8399 Y0.5744 I0.0621 J0.5031
X0.6098 Y0.7229 I0.5074 J1.0389
X0.5585 Y0.7807 I0.1775 J0.2092
X0.5243 Y0.8753 I0.3366 J0.1751
X0.5162 Y0.9215 I0.143 J0.0488
G3 X0.5022 Y1.0123 I-0.6807 J-0.0585
G1 X0.5004 Y1.0187
X0.4965 Y1.0324
G3 X0.4941 Y1.04 I-0.1203 J-0.0341
G1 X0.4895 Y1.0531
G3 X0.486 Y1.0619 I-0.1178 J-0.0417
G1 X0.4805 Y1.0743
G3 X0.4756 Y1.0843 I-0.1143 J-0.0505
G1 X0.4692 Y1.0958
G3 X0.4624 Y1.1067 I-0.1094 J-0.0605
G1 X0.455 Y1.1173
G3 X0.4462 Y1.1285 I-0.1026 J-0.0714
G1 X0.4377 Y1.1381
G3 X0.4272 Y1.1487 I-0.0937 J-0.0827
G1 X0.4176 Y1.1573
G3 X0.407 Y1.1658 I-0.0832 J-0.0933
G1 X0.3963 Y1.1734
G3 X0.3866 Y1.1797 I-0.0727 J-0.1017
G1 X0.3749 Y1.1865
G3 X0.3663 Y1.1911 I-0.0629 J-0.108
G1 X0.3538 Y1.1971
G3 X0.3464 Y1.2004 I-0.0542 J-0.1126
G1 X0.3332 Y1.2057
G3 X0.3271 Y1.208 I-0.0469 J-0.1159
X0.2237 Y1.2352 I-0.2298 J-0.6638
G1 X0.2161 Y1.2366
X0.2084 Y1.2376
X0.2007 Y1.2381
X0.193
X0.1852 Y1.2376
X0.1775 Y1.2367
X0.1699 Y1.2353
G3 X0.0659 Y1.2071 I0.1657 J-0.8183
G1 X0.0599 Y1.2045
X0.0466 Y1.199
G3 X0.0391 Y1.1956 I0.0478 J-0.1155
G1 X0.0266 Y1.1894
G3 X0.0179 Y1.1847 I0.0553 J-0.1121
G1 X0.0063 Y1.1778
G3 X-0.0035 Y1.1713 I0.0639 J-0.1074
G1 X-0.0142 Y1.1635
G3 X-0.0248 Y1.1549 I0.0737 J-0.101
G1 X-0.0344 Y1.1461
G3 X-0.0448 Y1.1354 I0.0842 J-0.0924
G1 X-0.0514 Y1.1277
Z-0.391
X-0.0532 Y1.1256
G3 X-0.0619 Y1.1144 I0.0946 J-0.0817
G1 X-0.0692 Y1.1036
G3 X-0.0759 Y1.0927 I0.1033 J-0.0704
G1 X-0.0822 Y1.081
G3 X-0.087 Y1.0711 I0.1099 J-0.0595
G1 X-0.0924 Y1.0586
G3 X-0.0958 Y1.0498 I0.1147 J-0.0496
G1 X-0.1004 Y1.0366
G3 X-0.1028 Y1.029 I0.1182 J-0.0408
G1 X-0.1066 Y1.0151
G3 X-0.1082 Y1.0087 I0.1205 J-0.0332
X-0.1232 Y0.8988 I0.6551 J-0.1456
G1 X-0.1246 Y0.8826
G3 X-0.1233 Y0.8524 I0.1246 J-0.0096
X-0.0834 Y0.6514 I2.2414 J0.3402
G1 X-0.0767 Y0.6282
Z-0.441
G3 X0.0206 Y0.4176 I0.6759 J0.1843
X0.1632 Y0.2588 I0.7923 J0.568
X0.2893 Y0.1501 I1.7366 J1.8896
G1 X0.2946 Y0.1459
X0.3001 Y0.1419
G3 X0.5202 Y0.0061 I1.5274 J2.2301
X0.7396 Y-0.0795 I0.4761 J0.8964
X0.9992 Y-0.1207 I0.4135 J1.7669
G1 X1.0297 Y-0.1243
G3 X1.0736 Y-0.1212 I0.0133 J0.1243
X1.2563 Y-0.067 I-0.3431 J1.4922
X1.3503 Y-0.0201 I-0.2333 J0.5859
X1.4999 Y0.1342 I-0.2438 J0.3859
G1 X1.5141 Y0.1577
G3 X1.5171 Y0.163 I-0.1077 J0.0635
G1 X1.5244 Y0.1769
Z-0.391
G3 X1.6023 Y0.3687 I-1.1206 J0.5671
G1 X1.6124 Y0.397
G3 X1.6168 Y0.4135 I-0.1183 J0.0405
X1.6643 Y0.659 I-37.0558 J7.2971
G1 Z-0.441
G3 X1.7546 Y1.2092 I-9.3656 J1.819
X1.806 Y1.9275 I-7.127 J0.8712
X1.8121 Y2.5349 I-18.4943 J0.4913
G1 X1.8125 Z-0.391
G3 X1.8124 Y2.558 I-0.5136 J0.0096
G1 X1.8079 Y2.6647
G2 X1.9225 Y2.6652 I0.0656 J-2.0599
X2.0497 Y2.6466 I-0.1105 J-1.2004
G3 X2.1465 Y2.637 I0.1565 J1.0797
X2.1676 Y2.6374 I0.0078 J0.1248
X2.2589 Y2.6546 I-0.0344 J0.4346
G1 X2.2645 Y2.6569
X2.2677 Y2.6581
Z-0.441
X2.2706 Y2.6592
G3 X2.2768 Y2.6617 I-0.0443 J0.1169
G1 X2.2827 Y2.6643
G3 X2.2889 Y2.6673 I-0.0505 J0.1143
G1 X2.2947 Y2.6702
G3 X2.3005 Y2.6734 I-0.0567 J0.1114
X2.377 Y2.734 I-0.1743 J0.2987
G1 X2.3822 Y2.7386
G3 X2.3955 Y2.7539 I-0.0872 J0.0895
X2.4524 Y2.8505 I-0.3143 J0.2502
X2.4718 Y2.9556 I-0.3707 J0.1228
G1 X2.4723 Y2.964
Y2.9725
X2.4716 Y2.9809
X2.4704 Y2.9893
X2.4687 Y2.9976
X2.4664 Y3.0057
X2.4635 Y3.0137
X2.4601 Y3.0215
G3 X2.3992 Y3.1361 I-1.1156 J-0.5185
G1 X2.3956 Y3.1413
X2.3829 Y3.1598
G3 X2.3783 Y3.1663 I-0.1034 J-0.0703
G1 X2.3648 Y3.1835
G3 X2.3603 Y3.189 I-0.0987 J-0.0767
X2.3307 Y3.2202 I-0.2754 J-0.2326
X2.3261 Y3.2244 I-0.0865 J-0.0902
G1 X2.3182 Y3.2312
G3 X2.313 Y3.2354 I-0.0819 J-0.0944
G1 X2.3048 Y3.2418
G3 X2.2995 Y3.2457 I-0.0768 J-0.0987
G1 X2.291 Y3.2516
G3 X2.2857 Y3.2551 I-0.0714 J-0.1026
G1 X2.277 Y3.2606
G3 X2.2717 Y3.2637 I-0.0662 J-0.1061
X2.2041 Y3.2939 I-0.1803 J-0.3133
G1 X2.1976 Y3.296
X2.1767 Y3.302
G3 X2.1689 Y3.304 I-0.0346 J-0.1201
G1 X2.1473 Y3.3087
G3 X2.1404 Y3.31 I-0.0268 J-0.1221
X1.9753 Y3.3203 I-0.1327 J-0.7979
X1.6971 Y3.313 I0.3675 J-19.2003
X1.4179 Y3.2973 I2.0567 J-39.0833
G1 Z-0.391
G2 X1.261 Y3.291 I-0.2914 J5.3411
X1.2354 Y3.3154 I-0.0006 J0.025
G1 X1.2341 Y3.3654
G0 Z0.6
M9
M30
%
