%
(1001)
(T3  D=0.125 CR=0.0625 - ZMIN=-0.1 - ball end mill)
G90 G94
G17
G20

(Contour3)
M9
T3 M6
S11028 M3
G54
M8
G0 X-0.0351 Y1.4622
Z0.6
Z0.0345
G1 Z-0.0075 F35
X-0.0348 Z-0.0103
X-0.0339 Y1.4623 Z-0.0129
X-0.0324 Y1.4624 Z-0.0153
X-0.0304 Y1.4625 Z-0.0173
X-0.028 Y1.4627 Z-0.0188
X-0.0254 Y1.4629 Z-0.0197
X-0.0226 Y1.4631 Z-0.02
G2 X-0.0092 Y1.4515 I0.0009 J-0.0125
G3 X0.0484 Y1.1711 I1.0294 J0.0655 F35.38
X0.177 Y0.9246 I1.173 J0.4551
X0.343 Y0.6972 I2.4296 J1.6
X0.3918 Y0.6354 I1.5795 J1.1946
X0.595 Y0.4527 I7.6676 J8.327
X0.8271 Y0.2773 I1.5061 J1.7521
X1.1348 Y0.1265 I0.8391 J1.3223
X1.4656 Y0.0231 I1.2452 J3.4019
X1.5283 Y0.0056 I0.3633 J1.1838
X1.7943 Y-0.0141 I0.4263 J3.9543
X1.9926 Y-0.0014 I0.0238 J1.1893
X2.2293 Y0.0763 I-0.153 J0.865
X2.4399 Y0.1942 I-0.8647 J1.7921
X2.5051 Y0.2348 I-1.2616 J2.0999
X2.6774 Y0.4067 I-3.4267 J3.607
X2.8154 Y0.5809 I-0.9887 J0.9251
X2.9288 Y0.8181 I-0.9546 J0.6019
X3.0061 Y1.0745 I-2.7427 J0.9664
X3.0135 Y1.1276 I-0.1384 J0.0464
X3.0202 Y1.4614 I-3.0584 J0.2291
X2.988 Y1.684 I-1.2235 J-0.0637
X2.8674 Y1.9545 I-0.9389 J-0.2566
X2.737 Y2.1382 I-1.5326 J-0.9495
X2.6055 Y2.2984 I-4.2448 J-3.3509
X2.3425 Y2.5163 I-4.5301 J-5.1999
X2.1135 Y2.6679 I-1.2622 J-1.6574
X1.7831 Y2.8059 I-0.8755 J-1.6316
X1.4944 Y2.8886 I-1.4381 J-4.4794
X1.4413 Y2.8993 I-0.0782 J-0.2504
X1.1609 Y2.9344 I-0.5068 J-2.9104
X0.9349 Y2.9275 I-0.0772 J-1.1759
X0.6871 Y2.8551 I0.1634 J-1.0201
X0.4776 Y2.7575 I1.1008 J-2.6368
X0.4599 Y2.7441 I0.0139 J-0.0369
X0.2686 Y2.5356 I2.2161 J-2.2246
X0.1588 Y2.371 I0.8913 J-0.7138
X0.0607 Y2.1193 I1.1594 J-0.5967
X-0.0015 Y1.8677 I3.4847 J-0.9948
X-0.0041 Y1.8436 I0.0877 J-0.0215
X-0.014 Y1.5678 I4.1038 J-0.2864
X-0.0093 Y1.4515 I1.8992 J0.0194
G1 X-0.0094 Y1.4488 F35
X-0.0101 Y1.4461
X-0.0114 Y1.4436
X-0.0132 Y1.4415
X-0.0155 Y1.4398
X-0.0181 Y1.4387
X-0.0208 Y1.4382
X-0.0236 Y1.438 Z-0.0197
X-0.0262 Y1.4378 Z-0.0188
X-0.0286 Y1.4376 Z-0.0173
X-0.0305 Y1.4375 Z-0.0153
X-0.032 Y1.4374 Z-0.0129
X-0.033 Y1.4373 Z-0.0103
X-0.0333 Z-0.0075
G0 Z0.2
X0.4447 Y1.4805
Z0.0345
G1 Z-0.0075 F35
X0.4444 Y1.4804 Z-0.0103
X0.4435 Z-0.0129
X0.442 Y1.4802 Z-0.0153
X0.44 Y1.48 Z-0.0173
X0.4377 Y1.4798 Z-0.0188
X0.435 Y1.4796 Z-0.0197
X0.4323 Y1.4793 Z-0.02
G2 X0.4187 Y1.4906 I-0.0011 J0.0124
X0.4145 Y1.6888 I1.5534 J0.1316 F35.38
X0.4177 Y1.7819 I5.2248 J-0.13
X0.4692 Y1.999 I2.8367 J-0.5582
X0.5362 Y2.163 I0.8476 J-0.2507
X0.6534 Y2.3239 I0.827 J-0.4792
X0.7197 Y2.3986 I2.0677 J-1.7671
X0.89 Y2.4719 I0.9539 J-1.9838
X1.0641 Y2.5085 I0.2194 J-0.6108
X1.243 Y2.4995 I0.0419 J-0.9543
X1.4027 Y2.4735 I-0.3429 J-2.6008
X1.6203 Y2.4127 I-1.8827 J-7.1608
X1.8572 Y2.3207 I-0.4941 J-1.6234
X2.1083 Y2.1592 I-0.7023 J-1.3683
X2.2766 Y2.0241 I-2.7645 J-3.6165
X2.4271 Y1.8486 I-2.4989 J-2.2936
X2.5286 Y1.6889 I-0.7877 J-0.6132
X2.587 Y1.4824 I-0.5702 J-0.2727
X2.5943 Y1.2776 I-1.3311 J-0.1501
X2.5913 Y1.1768 I-4.5715 J0.0891
X2.5281 Y0.963 I-2.4973 J0.6218
X2.4549 Y0.8131 I-0.7695 J0.2826
X2.3163 Y0.6451 I-0.929 J0.6258
X2.2509 Y0.5785 I-2.3139 J2.206
X2.0752 Y0.4743 I-1.1469 J1.7329
X1.9201 Y0.4209 I-0.2785 J0.5577
X1.7363 Y0.4139 I-0.1226 J0.8026
X1.6069 Y0.4249 I0.1606 J2.6736
X1.3155 Y0.5127 I1.0482 J4.005
X1.0955 Y0.6145 I0.4767 J1.3182
X0.8765 Y0.7746 I0.8959 J1.4557
X0.7257 Y0.9072 I3.3623 J3.9749
X0.5622 Y1.1129 I2.3602 J2.0445
X0.4711 Y1.2726 I0.8129 J0.5691
X0.4189 Y1.4907 I0.638 J0.268
G1 X0.4178 Y1.5005
X0.4174 Y1.5056
X0.417 Y1.5107
X0.4167 Y1.5158 Z-0.0201
X0.4164 Y1.521
X0.416 Y1.5309 Z-0.0202
X0.4156 Y1.5407 Z-0.0203
X0.4154 Y1.546 Z-0.0204
X0.4152 Y1.5512
Y1.5611 Z-0.0206
X0.4151 Y1.571 Z-0.0207
Y1.5809 Z-0.0209
Y1.5861 Z-0.021
X0.4152 Y1.5913 Z-0.0211
X0.4154 Y1.6012 Z-0.0214
X0.4157 Y1.6111 Z-0.0216
X0.4158 Y1.6162 Z-0.0217
X0.4159 Y1.6213 Z-0.0219
X0.4164 Y1.6312 Z-0.0221
X0.4168 Y1.6411 Z-0.0224
X0.4173 Y1.6511 Z-0.0227
X0.4176 Y1.6561 Z-0.0229
X0.4179 Y1.6611 Z-0.023
X0.4185 Y1.671 Z-0.0234
X0.4191 Y1.6809 Z-0.0237
X0.4195 Y1.686 Z-0.0239
X0.4199 Y1.691 Z-0.024
X0.4245 Y1.7503 Z-0.0261
X0.4249 Y1.7553 Z-0.0263
X0.4253 Y1.7603 Z-0.0265
X0.4261 Y1.7702 Z-0.0268
X0.4266 Y1.7761 Z-0.027
X0.4268 Y1.7791 Z-0.0271
X0.4269 Y1.7806 Z-0.0272
X0.427 Y1.7808
X0.4297 Y1.7917 Z-0.0276
X0.4394 Y1.8301 Z-0.029
X0.4419 Y1.8397 Z-0.0293
X0.4443 Y1.8494 Z-0.0297
X0.4468 Y1.859 Z-0.03
X0.4493 Y1.8686 Z-0.0304
X0.4531 Y1.883 Z-0.0309
X0.4544 Y1.8878 Z-0.0311
X0.4637 Y1.9214 Z-0.0323
X0.4651 Y1.9262 Z-0.0324
X0.4735 Y1.9547 Z-0.0335
X0.475 Y1.9595 Z-0.0337
X0.4766 Y1.9642 Z-0.0338
X0.4796 Y1.9737 Z-0.0342
X0.4827 Y1.9831 Z-0.0345
X0.4857 Y1.9926 Z-0.0349
X0.4874 Y1.9973 Z-0.035
X0.4891 Y2.002 Z-0.0352
X0.4924 Y2.0113 Z-0.0356
X0.4957 Y2.0207 Z-0.0359
X0.4974 Y2.0254 Z-0.0361
X0.4991 Y2.0301 Z-0.0363
X0.5028 Y2.0393 Z-0.0366
X0.5064 Y2.0485 Z-0.0369
X0.51 Y2.0577 Z-0.0372
X0.5138 Y2.067 Z-0.0375
X0.5176 Y2.0761 Z-0.0378
X0.5216 Y2.0852 Z-0.0381
X0.5256 Y2.0942 Z-0.0384
X0.5299 Y2.1032 Z-0.0386
X0.5341 Y2.1122 Z-0.0388
X0.5386 Y2.121 Z-0.039
X0.5431 Y2.1298 Z-0.0392
X0.5478 Y2.1386 Z-0.0394
X0.5525 Y2.1473 Z-0.0395
X0.5574 Y2.1559 Z-0.0397
X0.5624 Y2.1644 Z-0.0398
X0.5674 Y2.173 Z-0.0399
X0.5727 Y2.1813
X0.5781 Y2.1897 Z-0.04
X0.5834 Y2.198
X0.5849 Y2.2003
G2 X0.698 Y2.3417 I1.0228 J-0.7019
G1 X0.7284 Y2.3757
X0.7328 Y2.3806
G2 X0.918 Y2.4583 I0.7399 J-1.504
X1.1608 Y2.4855 I0.1885 J-0.5844
X1.3156 Y2.4667 I-0.088 J-1.3699
X1.3881 Y2.4543 I-1.3497 J-8.1004
X1.6589 Y2.3773 I-1.0657 J-4.2641
X1.8814 Y2.2836 I-0.4561 J-1.394
X2.1308 Y2.1142 I-0.8541 J-1.5259
X2.2607 Y2.009 I-2.7632 J-3.5438
X2.4324 Y1.8051 I-1.9386 J-1.8063
X2.5202 Y1.655 I-0.7004 J-0.5107
X2.5686 Y1.4469 I-0.5985 J-0.249
X2.5726 Y1.2779 I-1.3919 J-0.1172
X2.5695 Y1.1801 I-4.1779 J0.0838
X2.5084 Y0.9727 I-2.5362 J0.6342
X2.4376 Y0.8265 I-0.7556 J0.2758
X2.3018 Y0.6615 I-0.903 J0.605
X2.2371 Y0.5957 I-1.9347 J1.8353
X2.0651 Y0.4938 I-1.0335 J1.548
X1.9104 Y0.4415 I-0.2616 J0.5192
X1.7363 Y0.4358 I-0.1133 J0.7967
X1.6109 Y0.4464 I0.1316 J2.2994
X1.3251 Y0.5325 I0.9912 J3.8088
X1.1366 Y0.6164 I0.4968 J1.3707
X0.8903 Y0.7918 I0.7674 J1.3378
X0.7401 Y0.9238 I2.568 J3.074
X0.5804 Y1.1251 I2.3546 J2.0319
X0.4929 Y1.2775 I0.7948 J0.5575
X0.4418 Y1.4808 I0.6078 J0.261
X0.4365 Y1.6888 I1.4547 J0.1411
X0.4395 Y1.7792 I3.697 J-0.0794
X0.4905 Y1.9936 I2.5454 J-0.4917
X0.5558 Y2.1533 I0.8115 J-0.239
X0.5848 Y2.2003 I0.7352 J-0.4211
G1 X0.5864 Y2.2022 F35
X0.5883 Y2.2037
X0.5905 Y2.2048
X0.5929 Y2.2055
X0.5953 Y2.2057
X0.5978 Y2.2055
X0.6001 Y2.2047
X0.6022 Y2.2035
X0.6045 Y2.202 Z-0.0397
X0.6067 Y2.2005 Z-0.0388
X0.6087 Y2.1991 Z-0.0373
X0.6103 Y2.198 Z-0.0353
X0.6115 Y2.1972 Z-0.0329
X0.6123 Y2.1967 Z-0.0303
X0.6126 Y2.1965 Z-0.0275
G0 Z0.2
X0.1774 Y2.491
Z0.0188
G1 Z-0.0275 F35
X0.1777 Y2.4908 Z-0.0303
X0.1784 Y2.4903 Z-0.0329
X0.1797 Y2.4895 Z-0.0353
X0.1813 Y2.4884 Z-0.0373
X0.1833 Y2.4871 Z-0.0388
X0.1855 Y2.4856 Z-0.0397
X0.1878 Y2.484 Z-0.04
G2 X0.1911 Y2.4667 I-0.007 J-0.0104
G3 X0.0669 Y2.2112 I0.8802 J-0.5859 F35.38
X-0.0008 Y1.9693 I2.0751 J-0.7115
X-0.0252 Y1.863 I2.9157 J-0.7239
X-0.0357 Y1.6259 I6.7855 J-0.4182
X-0.0208 Y1.3549 I1.7373 J-0.0408
X0.017 Y1.1953 I1.0505 J0.1643
X0.1388 Y0.944 I1.1027 J0.3792
X0.2858 Y0.7351 I2.0279 J1.2723
X0.3727 Y0.6238 I5.4871 J4.189
X0.6095 Y0.412 I4.317 J4.5894
X0.8802 Y0.2193 I1.2964 J1.535
X1.219 Y0.0738 I0.8923 J1.6106
X1.5235 Y-0.0158 I1.6083 J4.9004
X1.7894 Y-0.0358 I0.4171 J3.7747
X1.9974 Y-0.0228 I0.0293 J1.197
X2.2389 Y0.0568 I-0.1569 J0.8831
X2.4468 Y0.1729 I-0.8224 J1.7163
X2.5197 Y0.2183 I-0.6552 J1.1326
X2.6937 Y0.3922 I-3.1284 J3.3057
X2.834 Y0.5693 I-0.9954 J0.9323
X2.9496 Y0.8114 I-0.9759 J0.6148
X3.0222 Y1.0503 I-2.6395 J0.9324
X3.0339 Y1.0937 I-0.5242 J0.1645
X3.044 Y1.4082 I-4.3775 J0.2986
X3.0204 Y1.6405 I-1.4375 J-0.0289
X2.9044 Y1.9353 I-0.9206 J-0.1918
X2.7904 Y2.1048 I-1.3582 J-0.791
X2.6212 Y2.3137 I-3.6669 J-2.7964
X2.3595 Y2.5308 I-4.2717 J-4.8841
X2.1522 Y2.671 I-1.3257 J-1.7376
X1.8234 Y2.8157 I-0.8641 J-1.5173
X1.5041 Y2.9087 I-1.3916 J-4.1804
X1.4413 Y2.9215 I-0.0933 J-0.2977
X1.156 Y2.9565 I-0.4989 J-2.8878
X0.9045 Y2.9448 I-0.0735 J-1.1276
X0.6436 Y2.8604 I0.2271 J-1.1485
X0.4581 Y2.7725 I1.3015 J-2.9855
X0.4378 Y2.753 I0.0948 J-0.1191
X0.2516 Y2.5492 I2.0819 J-2.0884
X0.1911 Y2.4667 I1.1338 J-0.8961
G1 X0.1857 Y2.4587
X0.1803 Y2.4504
X0.1749 Y2.4422 Z-0.0401
X0.1698 Y2.434 Z-0.0402
X0.1646 Y2.4256 Z-0.0403
X0.1596 Y2.4174 Z-0.0404
X0.1545 Y2.4089 Z-0.0405
X0.1496 Y2.4007 Z-0.0407
X0.1447 Y2.3921 Z-0.0409
X0.1398 Y2.3835 Z-0.0411
X0.1351 Y2.3751 Z-0.0413
X0.1305 Y2.3664 Z-0.0415
X0.1258 Y2.3577 Z-0.0418
X0.1214 Y2.3492 Z-0.042
X0.1169 Y2.3404 Z-0.0423
X0.1125 Y2.3315 Z-0.0426
X0.1082 Y2.3229 Z-0.0429
X0.104 Y2.314 Z-0.0432
X0.0997 Y2.305 Z-0.0435
X0.0957 Y2.2962 Z-0.0439
X0.0917 Y2.2872 Z-0.0442
X0.0876 Y2.2782 Z-0.0446
X0.0838 Y2.2693 Z-0.0449
X0.08 Y2.2601 Z-0.0453
X0.0762 Y2.251 Z-0.0456
X0.0725 Y2.242 Z-0.0459
X0.0689 Y2.2328 Z-0.0463
X0.0653 Y2.2235 Z-0.0466
X0.0619 Y2.2144 Z-0.047
X0.0551 Y2.1958 Z-0.0477
X0.0517 Y2.1866 Z-0.048
X0.0453 Y2.1679 Z-0.0487
X0.0421 Y2.1587 Z-0.049
X0.0359 Y2.1399 Z-0.0497
X0.0329 Y2.1306 Z-0.0501
X0.0242 Y2.1022 Z-0.0511
X0.0213 Y2.0927 Z-0.0515
X0.0184 Y2.0832 Z-0.0518
X0.0156 Y2.0738 Z-0.0521
X0.0129 Y2.0643 Z-0.0525
X0.0102 Y2.0548 Z-0.0528
X0.0075 Y2.0452 Z-0.0532
X0.0048 Y2.0357 Z-0.0535
X0.0022 Y2.0262 Z-0.0539
X-0.0004 Y2.0166 Z-0.0542
X-0.0029 Y2.0071 Z-0.0546
X-0.0054 Y1.9975 Z-0.0549
X-0.0079 Y1.9879 Z-0.0553
X-0.0104 Y1.9783 Z-0.0556
X-0.0129 Y1.9688 Z-0.0559
X-0.0153 Y1.9592 Z-0.0563
X-0.0177 Y1.9496 Z-0.0566
X-0.0201 Y1.9399 Z-0.057
X-0.0224 Y1.9303 Z-0.0573
X-0.0248 Y1.9207 Z-0.0576
X-0.0272 Y1.9111 Z-0.0578
X-0.0295 Y1.9015 Z-0.0581
X-0.0319 Y1.8919 Z-0.0584
X-0.0342 Y1.8822 Z-0.0586
X-0.0366 Y1.8726 Z-0.0588
X-0.0371 Y1.8702 Z-0.0589
X-0.0376 Y1.8678
X-0.0381 Y1.8629 Z-0.059
X-0.0388 Y1.8531 Z-0.0592
X-0.0395 Y1.8432 Z-0.0594
X-0.0401 Y1.8333 Z-0.0595
X-0.0407 Y1.8234 Z-0.0597
X-0.0413 Y1.8136 Z-0.0598
X-0.0419 Y1.8037 Z-0.0599
X-0.0424 Y1.7938
X-0.043 Y1.7839 Z-0.06
X-0.0435 Y1.774
X-0.0436 Y1.7711
G3 X-0.0464 Y1.4711 I2.6909 J-0.1749
X-0.0064 Y1.2243 I1.1975 J0.0675
X0.111 Y0.9633 I1.0697 J0.3242
X0.2389 Y0.7746 I1.765 J1.0582
X0.363 Y0.6142 I5.0833 J3.8071
X0.6288 Y0.3783 I4.0469 J4.2925
X0.8706 Y0.2092 I1.2687 J1.5557
X1.2142 Y0.0611 I0.8985 J1.6124
X1.5234 Y-0.0297 I1.5705 J4.7758
X1.7072 Y-0.0455 I1.0186 J10.7728
X1.9587 Y-0.0421 I0.1062 J1.4126
X2.2445 Y0.0443 I-0.1118 J0.886
X2.4565 Y0.1628 I-0.8582 J1.785
X2.5294 Y0.2086 I-0.573 J0.9913
X2.7034 Y0.3824 I-3.797 J3.976
X2.8452 Y0.5615 I-1.0303 J0.9613
X2.963 Y0.8084 I-0.9907 J0.6243
X3.0388 Y1.06 I-2.7415 J0.964
X3.0488 Y1.1228 I-0.1597 J0.0575
X3.0567 Y1.4372 I-3.4127 J0.2434
X3.028 Y1.6695 I-1.3185 J-0.0453
X2.9158 Y1.943 I-0.9356 J-0.224
X2.766 Y2.1587 I-1.5548 J-0.9199
X2.6309 Y2.3234 I-4.2812 J-3.3736
X2.3942 Y2.521 I-5.1967 J-5.9832
X2.1627 Y2.6807 I-1.3795 J-1.7532
X1.828 Y2.8284 I-0.872 J-1.5221
X1.5137 Y2.9201 I-1.3433 J-4.0184
X1.4461 Y2.9345 I-0.1038 J-0.3227
X1.1609 Y2.97 I-0.5136 J-2.9658
X0.9287 Y2.9624 I-0.0771 J-1.2076
X0.6775 Y2.8895 I0.169 J-1.0514
X0.448 Y2.7824 I1.1215 J-2.7027
X0.2565 Y2.5766 I2.329 J-2.3586
X0.1396 Y2.4097 I0.9209 J-0.7692
X0.0352 Y2.1579 I1.086 J-0.5979
X-0.027 Y1.9161 I2.7144 J-0.8273
X-0.0389 Y1.863 I0.6361 J-0.1701
G2 X-0.0436 Y1.7711 I-8.8497 J0.4124
X-0.0568 Y1.7593 I-0.0125 J0.0006 F35
G1 X-0.0595 Y1.7594 Z-0.0597
X-0.0622 Y1.7595 Z-0.0588
X-0.0645 Y1.7597 Z-0.0573
X-0.0665 Y1.7598 Z-0.0553
X-0.068 Z-0.0529
X-0.0689 Y1.7599 Z-0.0503
X-0.0692 Z-0.0475
G0 Z0.2
X0.4706 Y1.7385
Z0.0118
G1 Z-0.0533 F35
X0.4704 Z-0.0551
X0.4698 Z-0.0567
X0.4687 Y1.7386 Z-0.0581
X0.4673 Z-0.0591
X0.4657 Y1.7387 Z-0.0598
X0.464 Z-0.06
G2 X0.452 Y1.7517 I0.0005 J0.0125
X0.4578 Y1.8 I0.1658 J0.0044 F35.38
X0.5156 Y2.0275 I1.9219 J-0.367
X0.6339 Y2.2447 I0.6759 J-0.2272
X0.742 Y2.3701 I1.5462 J-1.2235
X0.9032 Y2.4389 I0.916 J-1.9247
X1.1608 Y2.4719 I0.2036 J-0.5677
X1.3639 Y2.4444 I-0.1166 J-1.6255
X1.4308 Y2.4287 I-0.0641 J-0.4233
X1.7412 Y2.3332 I-0.6602 J-2.698
X2.0118 Y2.1862 I-0.4638 J-1.176
X2.2537 Y1.9968 I-1.9993 J-2.8029
X2.4009 Y1.8244 I-2.3621 J-2.1658
X2.5009 Y1.6647 I-0.7361 J-0.5725
X2.5521 Y1.4759 I-0.5497 J-0.2502
X2.5589 Y1.2776 I-1.3077 J-0.1441
X2.5559 Y1.182 I-3.8813 J0.0712
X2.4957 Y0.9776 I-2.4221 J0.6032
X2.423 Y0.8291 I-0.7261 J0.263
X2.2921 Y0.6711 I-0.9055 J0.6169
X2.2285 Y0.6063 I-2.1813 J2.0792
X2.0555 Y0.5041 I-1.0605 J1.5974
X1.9104 Y0.4553 I-0.2537 J0.5145
X1.7363 Y0.4495 I-0.1133 J0.7754
X1.6132 Y0.4599 I0.1401 J2.3834
X1.3257 Y0.5468 I0.982 J3.7681
X1.1124 Y0.6459 I0.4531 J1.254
X0.8999 Y0.8013 I0.8616 J1.4012
X0.7497 Y0.9334 I2.9565 J3.511
X0.5919 Y1.1323 I2.3899 J2.0588
X0.5035 Y1.2872 I0.78 J0.548
X0.4534 Y1.5051 I0.6125 J0.2556
X0.4489 Y1.6259 I1.1041 J0.1018
X0.452 Y1.7517 I3.0871 J-0.014
G1 X0.4524 Y1.7616
X0.4528 Y1.7715
X0.4531 Y1.7773 Z-0.0601
Y1.7775
X0.4536 Y1.7799
X0.4542 Y1.7826
X0.4563 Y1.7923 Z-0.0602
X0.4584 Y1.802 Z-0.0603
X0.4605 Y1.8117 Z-0.0604
X0.4626 Y1.8213 Z-0.0606
X0.4647 Y1.831 Z-0.0607
X0.4669 Y1.8407 Z-0.0609
X0.4691 Y1.8504 Z-0.0611
X0.4714 Y1.86 Z-0.0614
X0.4737 Y1.8697 Z-0.0616
X0.476 Y1.8794 Z-0.0619
X0.4784 Y1.889 Z-0.0621
X0.4808 Y1.8986 Z-0.0624
X0.4832 Y1.9082 Z-0.0627
X0.4845 Y1.9131 Z-0.0629
X0.4857 Y1.9179 Z-0.063
X0.4884 Y1.9275 Z-0.0633
X0.491 Y1.937 Z-0.0637
X0.4937 Y1.9465 Z-0.064
X0.495 Y1.9514 Z-0.0642
X0.4964 Y1.9562 Z-0.0644
X0.4993 Y1.9657 Z-0.0647
X0.5022 Y1.9752 Z-0.0651
X0.5051 Y1.9846 Z-0.0654
X0.5066 Y1.9894 Z-0.0656
X0.5082 Y1.9942 Z-0.0658
X0.5113 Y2.0036 Z-0.0661
X0.5145 Y2.013 Z-0.0665
X0.5177 Y2.0224 Z-0.0668
X0.5194 Y2.0271 Z-0.067
X0.5212 Y2.0318 Z-0.0672
X0.5299 Y2.055 Z-0.068
X0.5318 Y2.0597 Z-0.0682
X0.5356 Y2.0688 Z-0.0685
X0.5395 Y2.078 Z-0.0689
X0.5435 Y2.0872 Z-0.0692
X0.5477 Y2.0961 Z-0.0696
X0.552 Y2.1051 Z-0.0699
X0.5564 Y2.114 Z-0.0703
X0.5586 Y2.1185 Z-0.0705
X0.5681 Y2.136 Z-0.0711
X0.5705 Y2.1404 Z-0.0713
X0.5755 Y2.149 Z-0.0717
X0.5806 Y2.1575 Z-0.072
X0.5831 Y2.1618 Z-0.0722
X0.5858 Y2.166 Z-0.0724
X0.5912 Y2.1743 Z-0.0727
X0.5966 Y2.1826 Z-0.0731
X0.6022 Y2.1909 Z-0.0734
X0.6079 Y2.199 Z-0.0737
X0.6136 Y2.207 Z-0.0741
X0.6195 Y2.2151 Z-0.0744
X0.6255 Y2.223 Z-0.0748
X0.6316 Y2.2308 Z-0.0751
X0.6377 Y2.2387 Z-0.0755
X0.6439 Y2.2463 Z-0.0758
X0.6502 Y2.254 Z-0.0762
X0.6565 Y2.2617 Z-0.0765
X0.6628 Y2.2693 Z-0.0768
X0.6692 Y2.2768 Z-0.0772
X0.6757 Y2.2843 Z-0.0775
X0.6822 Y2.2918 Z-0.0778
X0.6887 Y2.2993 Z-0.078
X0.6953 Y2.3067 Z-0.0783
X0.7018 Y2.3141 Z-0.0785
X0.7084 Y2.3215 Z-0.0788
X0.715 Y2.3289 Z-0.079
X0.7217 Y2.3362 Z-0.0792
X0.7284 Y2.3435 Z-0.0793
X0.7351 Y2.3508 Z-0.0795
X0.7417 Y2.3581 Z-0.0796
X0.7451 Y2.3617 Z-0.0797
X0.746 Y2.3628
X0.7462 Y2.3629
X0.7493 Y2.3643 Z-0.0798
X0.7583 Y2.3684
X0.7673 Y2.3726 Z-0.0799
X0.7762 Y2.3767 Z-0.08
X0.7852 Y2.3809
X0.7903 Y2.3832
G2 X0.9577 Y2.4473 I0.4927 J-1.0365
X1.1608 Y2.4637 I0.1495 J-0.5856
X1.3107 Y2.4454 I-0.0907 J-1.3671
G1 X1.3688 Y2.4355
G2 X1.4316 Y2.4201 I-0.1109 J-0.5875
X1.7364 Y2.3263 I-0.6698 J-2.7182
X2.0069 Y2.1795 I-0.4588 J-1.1686
X2.2489 Y1.9899 I-1.9367 J-2.7212
X2.394 Y1.8199 I-2.3716 J-2.1702
X2.4942 Y1.6599 I-0.726 J-0.5659
X2.5435 Y1.4788 I-0.5445 J-0.2458
X2.5507 Y1.2776 I-1.3006 J-0.1468
X2.5478 Y1.1833 I-3.6362 J0.0642
X2.4869 Y0.9775 I-2.3925 J0.5961
X2.4182 Y0.8367 I-0.7238 J0.2659
X2.2826 Y0.6731 I-0.8956 J0.6045
X2.2233 Y0.6127 I-2.9014 J2.7843
X2.0555 Y0.5132 I-1.1171 J1.6945
X1.9104 Y0.4635 I-0.2585 J0.5178
X1.7363 Y0.4576 I-0.1135 J0.7791
X1.6129 Y0.4682 I0.1239 J2.1713
X1.359 Y0.5437 I1.2024 J4.5082
X1.1414 Y0.6386 I0.4626 J1.358
X0.9048 Y0.808 I0.775 J1.3318
X0.7559 Y0.9388 I2.5867 J3.095
X0.5986 Y1.1371 I2.3265 J2.0077
X0.5128 Y1.2865 I0.7761 J0.5453
X0.4637 Y1.4808 I0.5853 J0.2511
X0.4583 Y1.6888 I1.4064 J0.1406
X0.4612 Y1.7765 I3.5207 J-0.0726
X0.5118 Y1.9888 I2.4747 J-0.4776
X0.5754 Y2.1436 I0.7873 J-0.2329
X0.6888 Y2.2982 I0.8092 J-0.4746
X0.7462 Y2.3628 I1.6976 J-1.4502
G1 X0.7499 Y2.3645
X0.7886 Y2.3824
X0.7903 Y2.3832
G2 X0.8068 Y2.377 I0.0051 J-0.0114 F35
G1 X0.808 Y2.3744 Z-0.0797
X0.8091 Y2.372 Z-0.0788
X0.81 Y2.3699 Z-0.0773
X0.8108 Y2.3681 Z-0.0753
X0.8115 Y2.3667 Z-0.0729
X0.8118 Y2.3659 Z-0.0703
X0.812 Y2.3656 Z-0.0675
G0 Z0.2
X0.5725 Y2.8844
Z-0.0082
G1 Z-0.0675 F35
X0.5727 Y2.8841 Z-0.0703
X0.573 Y2.8833 Z-0.0729
X0.5737 Y2.882 Z-0.0753
X0.5745 Y2.8802 Z-0.0773
X0.5755 Y2.878 Z-0.0788
X0.5766 Y2.8756 Z-0.0797
X0.5778 Y2.8731 Z-0.08
X0.5794 Y2.8695
G2 X0.5733 Y2.8529 I-0.0113 J-0.0052
G3 X0.4451 Y2.7904 I1.8656 J-3.9898 F35.38
X0.4216 Y2.7675 I0.1305 J-0.1572
X0.2323 Y2.5599 I2.0065 J-2.0205
X0.0472 Y2.2208 I0.8469 J-0.6824
X-0.0221 Y1.9741 I2.0951 J-0.7213
X-0.0465 Y1.8678 I3.0919 J-0.7648
X-0.0579 Y1.5727 I4.779 J-0.332
X-0.0364 Y1.3162 I1.5621 J0.0018
X0.0848 Y0.9923 I1.0037 J0.1908
X0.2324 Y0.7698 I1.6757 J0.9513
X0.3581 Y0.6073 I4.3784 J3.2561
X0.5648 Y0.4213 I5.3535 J5.7414
X0.8367 Y0.2197 I1.4456 J1.666
X1.1658 Y0.0689 I0.8764 J1.478
X1.4123 Y-0.0077 I1.19 J3.397
G1 X1.4945 Y-0.0307
G3 X1.5332 Y-0.0386 I0.049 J0.1405
X1.7894 Y-0.0575 I0.3877 J3.5072
X2.0167 Y-0.0415 I0.0311 J1.1799
X2.2487 Y0.0371 I-0.1835 J0.9224
X2.4603 Y0.1555 I-0.873 J1.8095
X2.53 Y0.1988 I-0.8555 J1.4535
X2.7448 Y0.4163 I-2.2287 J2.4159
X2.8785 Y0.6002 I-0.9265 J0.8143
X2.9882 Y0.8568 I-1.1846 J0.6583
X3.0552 Y1.0889 I-3.5699 J1.1558
X3.0658 Y1.4082 I-4.1687 J0.2981
X3.042 Y1.6434 I-1.4235 J-0.0254
X2.9212 Y1.9499 I-0.9424 J-0.1944
X2.7732 Y2.1627 I-1.5217 J-0.9004
X2.6359 Y2.3302 I-3.9755 J-3.1195
X2.4326 Y2.5009 I-6.5865 J-7.6338
X2.1667 Y2.6879 I-1.4645 J-1.8005
X1.8343 Y2.835 I-0.88 J-1.5391
X1.5203 Y2.9268 I-1.3288 J-3.9601
X1.4461 Y2.9428 I-0.1121 J-0.34
X1.1609 Y2.9782 I-0.5156 J-2.9932
X0.9287 Y2.9707 I-0.077 J-1.2106
X0.6726 Y2.8964 I0.1669 J-1.0538
X0.5733 Y2.8528 I0.6125 J-1.5324
G1 X0.5644 Y2.8487
X0.5555 Y2.8445
X0.5465 Y2.8402 Z-0.0801
X0.5376 Y2.836 Z-0.0802
X0.5286 Y2.8317 Z-0.0803
X0.5198 Y2.8274 Z-0.0804
X0.5108 Y2.8231 Z-0.0806
X0.5019 Y2.8188 Z-0.0807
X0.493 Y2.8145 Z-0.0809
X0.4841 Y2.8102 Z-0.0811
X0.4752 Y2.8059 Z-0.0813
X0.4663 Y2.8016 Z-0.0816
X0.4574 Y2.7973 Z-0.0818
X0.453 Y2.7952 Z-0.0819
X0.4487 Y2.793 Z-0.0821
X0.4447 Y2.7905 Z-0.0822
X0.4409 Y2.7878 Z-0.0823
X0.4373 Y2.7847 Z-0.0825
X0.4339 Y2.7813 Z-0.0826
X0.427 Y2.7743 Z-0.0829
X0.42 Y2.7673 Z-0.0832
X0.413 Y2.7603 Z-0.0836
X0.4061 Y2.7532 Z-0.0839
X0.3852 Y2.7322 Z-0.085
X0.3782 Y2.7251 Z-0.0853
X0.3713 Y2.718 Z-0.0856
X0.3644 Y2.7109 Z-0.086
X0.3575 Y2.7038 Z-0.0863
X0.3506 Y2.6967 Z-0.0867
X0.3438 Y2.6896 Z-0.087
X0.337 Y2.6824 Z-0.0874
X0.3302 Y2.6752 Z-0.0877
X0.3234 Y2.668 Z-0.0881
X0.3099 Y2.6535 Z-0.0888
X0.3032 Y2.6463 Z-0.0891
X0.2703 Y2.6094 Z-0.0908
X0.2638 Y2.6019 Z-0.0912
X0.2509 Y2.5869 Z-0.0919
X0.2446 Y2.5793 Z-0.0922
X0.2383 Y2.5716 Z-0.0926
X0.232 Y2.564 Z-0.0929
X0.2075 Y2.5329 Z-0.0943
X0.2016 Y2.525 Z-0.0946
X0.1956 Y2.5171 Z-0.095
X0.1898 Y2.5091 Z-0.0953
X0.184 Y2.5011 Z-0.0957
X0.1783 Y2.493 Z-0.096
X0.1727 Y2.4849 Z-0.0964
X0.1671 Y2.4767 Z-0.0967
X0.1616 Y2.4684 Z-0.097
X0.1562 Y2.4601 Z-0.0973
X0.1509 Y2.4518 Z-0.0976
X0.1457 Y2.4434 Z-0.0979
X0.1405 Y2.435 Z-0.0982
X0.1355 Y2.4264 Z-0.0984
X0.1305 Y2.4179 Z-0.0987
X0.1256 Y2.4092 Z-0.0989
X0.1208 Y2.4006 Z-0.0991
X0.1161 Y2.3919 Z-0.0993
X0.1115 Y2.3831 Z-0.0994
X0.107 Y2.3743 Z-0.0996
X0.1025 Y2.3655 Z-0.0997
X0.0982 Y2.3566 Z-0.0998
X0.0939 Y2.3476 Z-0.0999
X0.0897 Y2.3387
X0.0856 Y2.3297 Z-0.1
X0.0816 Y2.3206
X0.0813 Y2.32
G3 X-0.0011 Y2.0757 I1.486 J-0.6376
X-0.0506 Y1.8678 I4.3912 J-1.1547
X-0.0619 Y1.5678 I4.7494 J-0.3297
X-0.0405 Y1.3162 I1.5489 J0.005
X0.0634 Y1.0227 I0.9874 J0.1846
X0.2309 Y0.765 I1.6404 J0.8824
X0.3546 Y0.6051 I4.3299 J3.2234
X0.5902 Y0.3943 I4.7558 J5.0765
X0.8367 Y0.2149 I1.3781 J1.6354
X1.1658 Y0.0646 I0.8739 J1.4773
X1.4656 Y-0.0266 I1.3047 J3.7531
X1.5186 Y-0.0413 I0.266 J0.8542
X1.7894 Y-0.0618 I0.4227 J3.79
X2.0022 Y-0.0482 I0.0285 J1.2297
X2.2528 Y0.0346 I-0.1635 J0.915
X2.4613 Y0.1514 I-0.8611 J1.7825
X2.5366 Y0.1985 I-0.767 J1.3086
X2.7112 Y0.3728 I-3.6901 J3.8714
X2.8567 Y0.5566 I-1.0384 J0.9714
X2.9744 Y0.8036 I-1.0146 J0.635
X3.0529 Y1.0648 I-2.8872 J1.0099
X3.0609 Y1.1162 I-0.1371 J0.0476
X3.0691 Y1.4372 I-3.525 J0.2505
X3.0396 Y1.6743 I-1.3302 J-0.0452
X2.926 Y1.9499 I-0.9502 J-0.2305
X2.7756 Y2.1663 I-1.5405 J-0.91
X2.6394 Y2.3323 I-4.0422 J-3.1779
X2.4036 Y2.5293 I-5.2857 J-6.0867
X2.1329 Y2.7119 I-1.3323 J-1.6835
X1.7942 Y2.8526 I-0.9043 J-1.6985
X1.4752 Y2.9429 I-1.5562 J-4.8885
G2 X1.3736 Y2.9583 I0.495 J3.6012
G3 X1.1125 Y2.9844 I-0.3565 J-2.2537
X0.861 Y2.9624 I-0.0349 J-1.0498
X0.6001 Y2.8694 I0.3149 J-1.2966
X0.4427 Y2.7937 I1.3942 J-3.0984
X0.4259 Y2.7779 I0.0846 J-0.1067
X0.2306 Y2.5646 I2.1893 J-2.2008
X0.1124 Y2.3855 I0.9126 J-0.7309
X0.0813 Y2.32 I1.1639 J-0.5932
G1 X0.0799 Y2.3176 F35
X0.078 Y2.3155
X0.0756 Y2.314
X0.073 Y2.3129
X0.0703 Y2.3125
X0.0675 Y2.3128
X0.0648 Y2.3136
X0.0623 Y2.3147 Z-0.0997
X0.0598 Y2.3158 Z-0.0988
X0.0577 Y2.3168 Z-0.0973
X0.0559 Y2.3176 Z-0.0953
X0.0545 Y2.3182 Z-0.0929
X0.0537 Y2.3186 Z-0.0903
X0.0534 Y2.3187 Z-0.0875
G0 Z0.2
X0.5875 Y2.0729
Z-0.0283
G1 Z-0.0875 F35
X0.5872 Y2.073 Z-0.0903
X0.5864 Y2.0734 Z-0.0929
X0.585 Y2.074 Z-0.0953
X0.5832 Y2.0749 Z-0.0973
X0.5811 Y2.0758 Z-0.0988
X0.5787 Y2.0769 Z-0.0997
X0.5761 Y2.0781 Z-0.1
X0.5643 Y2.0834
G2 X0.558 Y2.1 I0.0052 J0.0114
X0.6656 Y2.2642 I0.6606 J-0.3153 F35.38
X0.7487 Y2.3594 I1.6279 J-1.3368
X0.9238 Y2.4329 I0.7437 J-1.5266
X1.1608 Y2.4595 I0.1828 J-0.56
X1.3397 Y2.4361 I-0.1007 J-1.4669
X1.4316 Y2.4158 I-0.0716 J-0.5433
X1.7339 Y2.3228 I-0.6728 J-2.7235
X2.0069 Y2.1745 I-0.4566 J-1.1659
X2.2292 Y2.001 I-1.8579 J-2.6095
G1 X2.2427 Y1.9904
G2 X2.3891 Y1.8194 I-2.3449 J-2.1559
X2.4909 Y1.6573 I-0.7268 J-0.569
X2.5397 Y1.4759 I-0.5443 J-0.2439
X2.5465 Y1.2776 I-1.2999 J-0.1441
X2.5437 Y1.1839 I-4.3215 J0.0831
X2.4842 Y0.9824 I-2.3618 J0.5877
X2.4133 Y0.8368 I-0.7132 J0.2574
X2.2824 Y0.6789 I-0.8872 J0.6019
X2.2208 Y0.616 I-2.0399 J1.9379
X2.0507 Y0.5155 I-1.0239 J1.54
X1.9055 Y0.467 I-0.2464 J0.4957
X1.7363 Y0.4618 I-0.1087 J0.7762
X1.6154 Y0.472 I0.1519 J2.5201
X1.33 Y0.5583 I1.0077 J3.8463
X1.122 Y0.6545 I0.4567 J1.2608
X0.9048 Y0.8133 I0.8575 J1.4006
X0.7571 Y0.9435 I2.8862 J3.4237
X0.621 Y1.1129 I3.335 J2.8184
X0.5235 Y1.2726 I0.8525 J0.6298
X0.4678 Y1.4808 I0.5731 J0.2648
X0.4625 Y1.6888 I1.3993 J0.1403
X0.4653 Y1.776 I4.1694 J-0.0912
X0.5161 Y1.9888 I2.5971 J-0.5074
X0.558 Y2.1 I0.9106 J-0.2796
G1 X0.5592 Y2.1021 F35
X0.5608 Y2.104
X0.5628 Y2.1055
X0.565 Y2.1066
X0.5674 Y2.1072
X0.5698 Y2.1073
X0.5723 Y2.107
X0.5746 Y2.1062
X0.5771 Y2.1051 Z-0.0997
X0.5795 Y2.104 Z-0.0988
X0.5817 Y2.103 Z-0.0973
X0.5835 Y2.1022 Z-0.0953
X0.5849 Y2.1016 Z-0.0929
X0.5857 Y2.1012 Z-0.0903
X0.586 Y2.1011 Z-0.0875
G0 Z0.6
M9
M30
%
