%
(1001)
(T3  D=0.125 CR=0.0625 - ZMIN=-0.1 - ball end mill)
G90 G94
G17
G20

(Contour3)
M9
T3 M6
S11028 M3
G54
M8
G0 X-0.0364 Y0.5819
Z0.6
Z0.0345
G1 Z-0.0075 F35
X-0.0361 Y0.582 Z-0.0103
X-0.0352 Y0.5822 Z-0.0129
X-0.0337 Y0.5825 Z-0.0153
X-0.0318 Y0.583 Z-0.0173
X-0.0295 Y0.5835 Z-0.0188
X-0.0269 Y0.5841 Z-0.0197
X-0.0242 Y0.5848 Z-0.02
G2 X-0.0092 Y0.5754 I0.0029 J-0.0122
G3 X0.0348 Y0.4214 I1.202 J0.2597 F35.38
X0.1068 Y0.2985 I0.3896 J0.1457
X0.237 Y0.1943 I0.41 J0.3789
X0.3681 Y0.1219 I0.8708 J1.4228
X0.5954 Y0.0412 I1.2057 J3.0335
X0.881 Y-0.006 I0.3558 J1.2657
X1.0261 Y-0.0139 I0.2675 J3.5612
X1.3116 Y0.0097 I-0.1894 J4.027
X1.5245 Y0.0571 I-0.1795 J1.3085
X1.7657 Y0.1604 I-0.5433 J1.602
X1.897 Y0.229 I-2.2946 J4.5512
X2.0762 Y0.3772 I-1.8237 J2.3871
X2.2024 Y0.5229 I-0.6002 J0.6473
X2.2838 Y0.7112 I-0.5486 J0.3488
X2.3167 Y0.8714 I-1.2452 J0.3393
X2.3324 Y0.9827 I-3.6574 J0.5731
X2.3086 Y1.1729 I-1.8854 J-0.1393
X2.2763 Y1.2827 I-0.7031 J-0.1467
X2.1774 Y1.4469 I-0.6337 J-0.2697
X2.0955 Y1.5473 I-1.3807 J-1.0435
X1.9165 Y1.6763 I-1.9136 J-2.4652
X1.7422 Y1.7621 I-0.4756 J-0.7464
X1.5081 Y1.8145 I-0.3892 J-1.1905
X1.3648 Y1.8324 I-0.3398 J-2.141
G2 X0.9535 Y1.8815 I0.1452 J2.9628
X0.8519 Y1.9099 I0.2143 J0.9614
X0.7695 Y1.9593 I0.0835 J0.2327
X0.7169 Y2.0463 I0.1949 J0.1774
X0.698 Y2.0934 I0.5811 J0.2598
X0.7244 Y2.2213 I0.989 J-0.1369
X0.8119 Y2.3614 I0.3 J-0.0902
X0.9146 Y2.4483 I0.6611 J-0.6773
X1.055 Y2.5214 I1.4162 J-2.5474
X1.2874 Y2.5825 I0.2973 J-0.6584
X1.4277 Y2.5934 I0.2171 J-1.8837
X1.586 Y2.5795 I-0.0729 J-1.7458
X1.776 Y2.5414 I-0.6352 J-3.6523
G3 X1.9986 Y2.5115 I0.312 J1.4785
X2.0857 Y2.5283 I-0.0669 J0.5819
X2.1393 Y2.5598 I-0.0425 J0.1336
X2.1728 Y2.6278 I-0.1107 J0.0966
X2.1851 Y2.6954 I-0.3797 J0.1043
X2.1775 Y2.7163 I-0.0478 J-0.0056
X2.1167 Y2.8117 I-0.4671 J-0.2307
X2.0082 Y2.8846 I-0.2016 J-0.1831
X1.8727 Y2.9224 I-0.2695 J-0.7045
X1.7325 Y2.9558 I-1.7716 J-7.1133
X1.5051 Y2.9863 I-0.2937 J-1.3287
X1.4229 Y2.9905 I-0.1413 J-1.9568
X1.2341 Y2.9692 I0.7018 J-7.073
X1.1132 Y2.9462 I0.2604 J-1.7018
X0.8632 Y2.85 I0.2314 J-0.9743
X0.6531 Y2.7242 I1.2242 J-2.2819
X0.6103 Y2.6921 I0.1478 J-0.2422
X0.4454 Y2.5479 I1.062 J-1.3806
X0.361 Y2.4439 I0.5616 J-0.5421
X0.2814 Y2.2602 I0.5375 J-0.3417
X0.2411 Y2.0761 I1.7701 J-0.4844
X0.2425 Y2.052 I0.0605 J-0.0086
X0.2742 Y1.8874 I1.0579 J0.1185
X0.3395 Y1.7615 I0.3697 J0.1119
X0.4549 Y1.6554 I0.4824 J0.4092
X0.5276 Y1.603 I0.9339 J1.2195
X0.6583 Y1.5454 I2.7966 J6.1615
X0.9161 Y1.4812 I0.3548 J0.8753
X1.1471 Y1.463 I0.418 J3.8371
G2 X1.331 Y1.4401 I-0.1269 J-1.7708
X1.5429 Y1.3744 I-0.2402 J-1.1482
X1.6358 Y1.3363 I-1.1167 J-2.8582
X1.7617 Y1.2544 I-0.676 J-1.1774
X1.8367 Y1.1763 I-0.2332 J-0.2992
X1.8857 Y1.0552 I-0.3254 J-0.202
X1.9056 Y0.9608 I-1.1595 J-0.2938
X1.871 Y0.8036 I-1.3654 J0.218
X1.8114 Y0.6825 I-0.3894 J0.1164
X1.6998 Y0.5813 I-0.3879 J0.3158
X1.5748 Y0.5034 I-0.8292 J1.1904
X1.4375 Y0.4473 I-2.7113 J6.4497
X1.2536 Y0.3975 I-0.3563 J0.9499
X1.0116 Y0.3773 I-0.2868 J1.9832
X0.8229 Y0.3893 I0.017 J1.7694
X0.6247 Y0.4504 I0.1083 J0.7027
X0.55 Y0.4849 I0.7953 J1.8208
X0.4458 Y0.5857 I0.531 J0.6531
X0.3727 Y0.6877 I1.3869 J1.071
G3 X0.3185 Y0.7506 I-0.3557 J-0.2517
X0.2375 Y0.7888 I-0.1141 J-0.137
X0.194 Y0.7972 I-0.0719 J-0.2547
X0.1213 Y0.786 I0.0214 J-0.3774
X0.044 Y0.7394 I0.0993 J-0.2526
X0 Y0.678 I0.1786 J-0.1746
X-0.0135 Y0.5956 I0.2184 J-0.0779
X-0.0091 Y0.5755 I0.2021 J0.0329
G1 X-0.007 Y0.5658
X-0.0047 Y0.5563
X-0.0025 Y0.5466 Z-0.0201
X-0.0003 Y0.5371 Z-0.0202
X0.0019 Y0.5276 Z-0.0203
X0.0042 Y0.518 Z-0.0204
X0.0064 Y0.5087 Z-0.0205
X0.0088 Y0.4991 Z-0.0207
X0.0112 Y0.4896 Z-0.0209
X0.0136 Y0.4804 Z-0.0211
X0.0162 Y0.4708 Z-0.0213
X0.0187 Y0.4613 Z-0.0215
X0.0213 Y0.4523 Z-0.0218
X0.0241 Y0.4428 Z-0.022
X0.027 Y0.4339 Z-0.0223
X0.03 Y0.4244 Z-0.0226
X0.0331 Y0.4157 Z-0.0229
X0.0364 Y0.4063 Z-0.0232
X0.0397 Y0.3977 Z-0.0235
X0.0434 Y0.3885 Z-0.0238
X0.0469 Y0.38 Z-0.0242
X0.051 Y0.371 Z-0.0245
X0.0549 Y0.3624 Z-0.0248
X0.0637 Y0.3454 Z-0.0255
X0.0684 Y0.3373 Z-0.0258
X0.0735 Y0.3287 Z-0.0262
X0.0783 Y0.3211 Z-0.0265
X0.0839 Y0.3129 Z-0.0268
X0.0893 Y0.3052 Z-0.0272
X0.0952 Y0.2975 Z-0.0275
X0.1011 Y0.29 Z-0.0278
X0.1074 Y0.2826 Z-0.0282
X0.1137 Y0.2754 Z-0.0285
X0.1203 Y0.2683 Z-0.0289
X0.127 Y0.2614 Z-0.0292
X0.1339 Y0.2545 Z-0.0295
X0.141 Y0.2479 Z-0.0299
X0.1481 Y0.2413 Z-0.0302
X0.1555 Y0.2348 Z-0.0306
X0.1629 Y0.2286 Z-0.0309
X0.1704 Y0.2223 Z-0.0312
X0.1782 Y0.2162 Z-0.0316
X0.1858 Y0.2103 Z-0.0319
X0.2018 Y0.1986 Z-0.0326
X0.2097 Y0.1929 Z-0.0329
X0.2178 Y0.1873 Z-0.0333
X0.2259 Y0.1817 Z-0.0336
X0.2342 Y0.1763 Z-0.034
X0.2424 Y0.1709 Z-0.0343
X0.2507 Y0.1657 Z-0.0347
X0.2592 Y0.1605 Z-0.035
X0.2676 Y0.1553 Z-0.0354
X0.276 Y0.1501 Z-0.0357
X0.2845 Y0.1451 Z-0.0361
X0.293 Y0.1401 Z-0.0364
X0.3016 Y0.1351 Z-0.0367
X0.3101 Y0.1301 Z-0.037
X0.3187 Y0.1252 Z-0.0374
X0.3273 Y0.1204 Z-0.0376
X0.336 Y0.1155 Z-0.0379
X0.3446 Y0.1107 Z-0.0382
X0.349 Y0.1083 Z-0.0383
X0.3533 Y0.1059 Z-0.0384
X0.3577 Y0.1039 Z-0.0386
X0.3623 Y0.102 Z-0.0387
X0.3714 Y0.0983 Z-0.0389
X0.3806 Y0.0945 Z-0.0391
X0.3898 Y0.0909 Z-0.0393
X0.399 Y0.0872 Z-0.0394
X0.4082 Y0.0835 Z-0.0396
X0.4174 Y0.0799 Z-0.0397
X0.4266 Y0.0764 Z-0.0398
X0.4359 Y0.0728 Z-0.0399
X0.4451 Y0.0693 Z-0.04
X0.4544 Y0.0658
X0.4637 Y0.0623
X0.4639 Y0.0624
G3 X0.7213 Y-0.0102 I0.5285 J1.3804
X0.9681 Y-0.0331 I0.3176 J2.0888
X1.031 Y-0.0357 I0.0646 J0.7991
X1.2729 Y-0.017 I-0.2449 J4.7574
X1.51 Y0.0297 I-0.1556 J1.4156
X1.7757 Y0.1411 I-0.4971 J1.5583
X1.9117 Y0.2122 I-1.5407 J3.1099
X2.0567 Y0.3304 I-2.8769 J3.6774
X2.1948 Y0.4745 I-0.6787 J0.7886
X2.2968 Y0.6779 I-0.5049 J0.3805
X2.3379 Y0.8666 I-1.1894 J0.358
X2.3544 Y0.9827 I-3.1637 J0.5081
X2.3337 Y1.1569 I-2.2512 J-0.1787
X2.2842 Y1.3193 I-0.6631 J-0.1133
X2.1788 Y1.4809 I-0.7515 J-0.3751
X2.1101 Y1.5637 I-1.253 J-0.9695
X1.96 Y1.6738 I-2.444 J-3.1758
X1.7668 Y1.7765 I-0.5468 J-0.7953
X1.5486 Y1.8305 I-0.3872 J-1.0962
X1.3793 Y1.8532 I-0.4711 J-2.865
G2 X0.9729 Y1.8998 I0.1465 J3.0752
X0.8518 Y1.9332 I0.172 J0.8584
X0.7853 Y1.9743 I0.0822 J0.2076
X0.7422 Y2.0424 I0.1651 J0.1522
X0.7205 Y2.0957 I0.5706 J0.264
X0.7504 Y2.2311 I0.8055 J-0.1071
X0.7858 Y2.2988 I0.276 J-0.101
X0.8711 Y2.3856 I0.3896 J-0.2974
X0.9261 Y2.4296 I0.4717 J-0.5339
X1.0792 Y2.5083 I0.9988 J-1.7557
X1.2874 Y2.5606 I0.2728 J-0.6451
X1.4277 Y2.5715 I0.2074 J-1.7533
X1.5825 Y2.558 I-0.0658 J-1.6464
X1.776 Y2.5192 I-0.6736 J-3.8571
G3 X1.9986 Y2.4895 I0.3117 J1.4905
X2.0906 Y2.5069 I-0.0704 J0.6248
X2.1556 Y2.5452 I-0.0479 J0.1559
X2.194 Y2.6229 I-0.1283 J0.1117
X2.2074 Y2.6954 I-0.4573 J0.122
X2.1968 Y2.7263 I-0.0584 J-0.0029
X2.1329 Y2.8262 I-0.4752 J-0.2331
X2.013 Y2.906 I-0.2172 J-0.1966
X1.8853 Y2.9418 I-0.2572 J-0.6714
X1.7373 Y2.9771 I-3.5293 J-14.4854
X1.5051 Y3.0081 I-0.2987 J-1.3514
X1.4229 Y3.0124 I-0.1364 J-1.8344
X1.1857 Y2.9835 I0.3465 J-3.84
X1.0164 Y2.9414 I0.2169 J-1.2332
X0.8088 Y2.8453 I0.4064 J-1.1493
X0.6245 Y2.732 I1.6752 J-2.934
X0.4714 Y2.6037 I1.8511 J-2.3638
X0.3438 Y2.4577 I0.5833 J-0.6386
X0.2601 Y2.2647 I0.5597 J-0.3574
X0.2216 Y2.0906 I1.6476 J-0.4554
X0.2204 Y2.052 I0.0673 J-0.0214
X0.2529 Y1.8825 I1.1172 J0.126
X0.3019 Y1.7761 I0.4184 J0.1281
X0.4168 Y1.6575 I0.4298 J0.3017
X0.5133 Y1.5862 I0.9532 J1.189
X0.7019 Y1.5058 I0.9118 J1.8779
X0.9149 Y1.4594 I0.3102 J0.9123
X1.1471 Y1.441 I0.4191 J3.8167
G2 X1.3261 Y1.4188 I-0.1159 J-1.6665
X1.5326 Y1.3549 I-0.23 J-1.1084
X1.6261 Y1.3167 I-0.9229 J-2.3926
X1.7471 Y1.238 I-0.6349 J-1.1089
X1.8262 Y1.1522 I-0.1992 J-0.263
X1.8701 Y1.0262 I-0.3794 J-0.2028
X1.8835 Y0.9608 I-1.0415 J-0.2468
X1.8497 Y0.8084 I-1.2633 J0.2002
X1.7914 Y0.6922 I-0.361 J0.1083
X1.6894 Y0.6007 I-0.3734 J0.3134
X1.5681 Y0.5244 I-0.8531 J1.2227
X1.3792 Y0.4501 I-0.9961 J2.2567
X1.1481 Y0.4072 I-0.2952 J0.945
X1.0116 Y0.3991 I-0.1861 J1.9792
X0.8326 Y0.4099 I0.0219 J1.8565
X0.7455 Y0.428 I0.1072 J0.733
X0.5918 Y0.4893 I0.2925 J0.9565
X0.5626 Y0.5031 I0.6899 J1.5063
X0.4622 Y0.6003 I0.4757 J0.5916
X0.3925 Y0.6975 I1.1646 J0.9077
G3 X0.3345 Y0.7656 I-0.3914 J-0.2748
X0.2375 Y0.8111 I-0.1317 J-0.1545
X0.194 Y0.8192 I-0.064 J-0.2231
X0.1262 Y0.8099 I0.0393 J-0.5395
X0.0443 Y0.7669 I0.0656 J-0.2245
X0.0165 Y0.7406 I0.0444 J-0.0748
X-0.0339 Y0.6198 I0.1288 J-0.1246
X-0.0317 Y0.5763 I0.0867 J-0.0175
X0.0147 Y0.4126 I1.2612 J0.2693
X0.0889 Y0.2858 I0.4188 J0.1598
X0.2232 Y0.1772 I0.4244 J0.3877
X0.3584 Y0.1023 I0.8932 J1.4524
G2 X0.4639 Y0.0624 I-3.5858 J-9.6461
G1 X0.473 Y0.0589
X0.4823 Y0.0556
X0.4916 Y0.0522 Z-0.0401
X0.5007 Y0.0489 Z-0.0402
X0.51 Y0.0456 Z-0.0403
X0.5194 Y0.0423 Z-0.0404
X0.5285 Y0.039 Z-0.0406
X0.5379 Y0.0359 Z-0.0407
X0.5472 Y0.0326 Z-0.0409
X0.5564 Y0.0295 Z-0.0411
X0.5658 Y0.0264 Z-0.0413
X0.5752 Y0.0234 Z-0.0415
X0.5846 Y0.0203 Z-0.0418
X0.5938 Y0.0174 Z-0.0421
X0.6033 Y0.0146 Z-0.0423
X0.6128 Y0.0117 Z-0.0426
X0.6221 Y0.0089 Z-0.0429
X0.6315 Y0.0063 Z-0.0432
X0.641 Y0.0036 Z-0.0436
X0.6506 Y0.0009 Z-0.0439
X0.6599 Y-0.0014 Z-0.0443
X0.6695 Y-0.0038 Z-0.0446
X0.6791 Y-0.0062 Z-0.0449
X0.6885 Y-0.0083 Z-0.0453
X0.6982 Y-0.0104 Z-0.0456
X0.7079 Y-0.0125 Z-0.046
X0.7175 Y-0.0145 Z-0.0463
X0.7271 Y-0.0163 Z-0.0467
X0.7368 Y-0.0181 Z-0.047
X0.7465 Y-0.0199 Z-0.0473
X0.7561 Y-0.0215 Z-0.0477
X0.7757 Y-0.0246 Z-0.0484
X0.7853 Y-0.026 Z-0.0487
X0.805 Y-0.0287 Z-0.0494
X0.8147 Y-0.03 Z-0.0498
X0.8245 Y-0.0312 Z-0.0501
X0.8441 Y-0.0335 Z-0.0508
X0.8539 Y-0.0346 Z-0.0511
X0.8638 Y-0.0356 Z-0.0515
X0.8736 Y-0.0366 Z-0.0518
X0.8834 Y-0.0375 Z-0.0522
X0.8933 Y-0.0384 Z-0.0525
X0.9032 Y-0.0393 Z-0.0529
X0.913 Y-0.0401 Z-0.0532
X0.9228 Y-0.0409 Z-0.0535
X0.9327 Y-0.0416 Z-0.0539
X0.9426 Y-0.0424 Z-0.0542
X0.9525 Y-0.0431 Z-0.0546
X0.9623 Y-0.0439 Z-0.0549
X0.9722 Y-0.0445 Z-0.0553
X1.0018 Y-0.0465 Z-0.0563
X1.0117 Y-0.0471 Z-0.0567
X1.0215 Y-0.0478 Z-0.057
X1.0313 Y-0.0476 Z-0.0573
X1.0412 Y-0.0472 Z-0.0576
X1.0511 Y-0.0468 Z-0.0579
X1.061 Y-0.0464 Z-0.0581
X1.0709 Y-0.0459 Z-0.0584
X1.0808 Y-0.0455 Z-0.0586
X1.0907 Y-0.045 Z-0.0588
X1.1006 Y-0.0445 Z-0.059
X1.1104 Y-0.044 Z-0.0592
X1.1203 Y-0.0434 Z-0.0594
X1.1302 Y-0.0429 Z-0.0596
X1.1401 Y-0.0423 Z-0.0597
X1.15 Y-0.0416 Z-0.0598
X1.1598 Y-0.041 Z-0.0599
X1.1697 Y-0.0402
X1.1796 Y-0.0395 Z-0.06
X1.1895 Y-0.0387
X1.1917 Y-0.0385
G3 X1.4713 Y0.0046 I-0.1206 J1.709
X1.742 Y0.1091 I-0.3767 J1.3785
X1.9163 Y0.1992 I-1.7451 J3.5925
X2.1198 Y0.3697 I-1.5828 J2.0951
X2.1852 Y0.4407 I-0.8694 J0.8655
X2.3096 Y0.6731 I-0.4905 J0.4121
X2.3515 Y0.8653 I-1.1843 J0.359
X2.3681 Y0.9826 I-3.2334 J0.5169
X2.3471 Y1.1593 I-2.3129 J-0.1852
X2.296 Y1.3263 I-0.6755 J-0.1153
X2.1924 Y1.4857 I-0.7528 J-0.3761
X2.1198 Y1.5734 I-1.4049 J-1.0888
X1.9697 Y1.6838 I-2.554 J-3.3176
X1.7921 Y1.7812 I-0.5817 J-0.8492
X1.5922 Y1.8368 I-0.378 J-0.9731
X1.3745 Y1.8673 I-0.4798 J-2.6339
G2 X0.968 Y1.9147 I0.1435 J2.9932
X0.8567 Y1.9461 I0.1697 J0.8159
X0.7903 Y1.9888 I0.0719 J0.1849
X0.7487 Y2.0617 I0.2017 J0.1632
X0.7345 Y2.0971 I0.4868 J0.2159
X0.7646 Y2.2298 I0.7513 J-0.1003
X0.8377 Y2.337 I0.2613 J-0.0998
X0.934 Y2.4184 I0.6162 J-0.6308
X1.0666 Y2.4876 I1.205 J-2.1492
X1.2923 Y2.5473 I0.2842 J-0.6177
X1.4277 Y2.5579 I0.2038 J-1.7327
X1.5777 Y2.545 I-0.0775 J-1.7805
X1.7695 Y2.5065 I-0.653 J-3.7511
G3 X1.9986 Y2.4759 I0.3188 J1.5116
X2.0954 Y2.4941 I-0.0642 J0.6073
X2.1633 Y2.5334 I-0.0536 J0.1707
X2.2069 Y2.6181 I-0.1318 J0.1215
X2.2213 Y2.6977 I-0.4643 J0.1252
X2.208 Y2.734 I-0.073 J-0.0062
X2.1426 Y2.8359 I-0.4631 J-0.2252
X2.0226 Y2.9169 I-0.2245 J-0.203
X1.9211 Y2.9479 I-0.2285 J-0.5672
G2 X1.7857 Y2.9802 I1.4013 J6.1728
G3 X1.4664 Y3.0237 I-0.3633 J-1.4718
X1.389 Y3.0223 I-0.0334 J-0.2796
X1.1059 Y2.9812 I0.1674 J-2.1525
X0.8424 Y2.8792 I0.2474 J-1.0301
X0.6344 Y2.7545 I1.295 J-2.3956
X0.5876 Y2.7195 I0.163 J-0.267
X0.4212 Y2.5739 I1.0926 J-1.4168
X0.3245 Y2.4528 I0.5654 J-0.5507
X0.2472 Y2.2696 I0.5932 J-0.3582
X0.2043 Y2.0713 I1.8494 J-0.5039
X0.2358 Y1.8922 I1.3109 J0.1385
X0.2985 Y1.7566 I0.4338 J0.1184
X0.407 Y1.6476 I0.4569 J0.3462
X0.509 Y1.5728 I0.9968 J1.2511
X0.7019 Y1.4912 I1.0063 J2.112
X0.9149 Y1.4457 I0.3135 J0.9445
X1.1471 Y1.4274 I0.4231 J3.8925
G2 X1.3552 Y1.3989 I-0.1049 J-1.5419
X1.5776 Y1.322 I-0.3653 J-1.4161
X1.6239 Y1.3023 I-0.2064 J-0.5486
X1.7479 Y1.2201 I-0.5809 J-1.0107
X1.8101 Y1.1522 I-0.2051 J-0.2505
X1.8516 Y1.0455 I-0.3112 J-0.1825
X1.8695 Y0.9607 I-1.0527 J-0.2669
X1.8368 Y0.8133 I-1.2307 J0.1957
X1.7816 Y0.7019 I-0.3497 J0.1039
X1.6694 Y0.6036 I-0.3718 J0.3113
X1.5653 Y0.5384 I-0.8929 J1.3106
X1.3697 Y0.4616 I-0.8953 J1.9913
X1.1471 Y0.4209 I-0.2844 J0.9261
X1.0068 Y0.4128 I-0.1723 J1.7732
X0.8568 Y0.4209 I0.0398 J2.1359
X0.6393 Y0.4828 I0.07 J0.6587
X0.5695 Y0.5149 I0.6464 J1.4957
X0.4744 Y0.6069 I0.4809 J0.5922
X0.3975 Y0.714 I1.6209 J1.2452
G3 X0.3391 Y0.7796 I-0.3428 J-0.2465
X0.2423 Y0.8241 I-0.1354 J-0.1672
X0.194 Y0.8329 I-0.0697 J-0.2446
X0.1165 Y0.8215 I0.0319 J-0.4871
X0.0247 Y0.7695 I0.0928 J-0.2709
X0.0055 Y0.749 I0.0738 J-0.0881
X-0.0473 Y0.6246 I0.1386 J-0.1323
X-0.0434 Y0.5666 I0.1157 J-0.0213
X0.0098 Y0.3883 I1.0775 J0.2245
X0.0925 Y0.2616 I0.4005 J0.171
X0.2377 Y0.1525 I0.4606 J0.4621
X0.3535 Y0.0894 I0.9385 J1.5833
X0.5568 Y0.0159 I1.4689 J3.7458
X0.8471 Y-0.039 I0.3821 J1.2245
X1.031 Y-0.0495 I0.2775 J3.2518
X1.1917 Y-0.0386 I-1.0147 J16.2147
G1 X1.2016 Y-0.0377
X1.2115 Y-0.0368
X1.2213 Y-0.036 Z-0.0601
X1.2311 Y-0.0351 Z-0.0602
X1.2409 Y-0.0342 Z-0.0603
X1.2508 Y-0.0332 Z-0.0604
X1.2606 Y-0.0322 Z-0.0606
X1.2705 Y-0.0313 Z-0.0607
X1.2801 Y-0.0302 Z-0.0609
X1.29 Y-0.0291 Z-0.0611
X1.2998 Y-0.0279 Z-0.0613
X1.3096 Y-0.0268 Z-0.0616
X1.3193 Y-0.0256 Z-0.0618
X1.3291 Y-0.0243 Z-0.0621
X1.3389 Y-0.0229 Z-0.0623
X1.3487 Y-0.0216 Z-0.0626
X1.3585 Y-0.0203 Z-0.063
X1.3681 Y-0.0187 Z-0.0633
X1.3779 Y-0.0171 Z-0.0636
X1.3877 Y-0.0155 Z-0.0639
X1.3974 Y-0.0139 Z-0.0643
X1.407 Y-0.0122 Z-0.0646
X1.4167 Y-0.0103 Z-0.065
X1.4264 Y-0.0083 Z-0.0653
X1.4361 Y-0.0064 Z-0.0657
X1.4458 Y-0.0044 Z-0.066
X1.4553 Y-0.0023 Z-0.0664
X1.465 Y-0.0001 Z-0.0667
X1.4745 Y0.0022 Z-0.067
X1.4841 Y0.0046 Z-0.0674
X1.4937 Y0.0071 Z-0.0677
X1.5127 Y0.0123 Z-0.0684
X1.5221 Y0.015 Z-0.0688
X1.5316 Y0.0178 Z-0.0691
X1.541 Y0.0207 Z-0.0695
X1.5505 Y0.0237 Z-0.0698
X1.5598 Y0.0267 Z-0.0701
X1.5786 Y0.033 Z-0.0708
X1.5878 Y0.0364 Z-0.0712
X1.5971 Y0.0398 Z-0.0715
X1.6064 Y0.0432 Z-0.0719
X1.6157 Y0.0466 Z-0.0722
X1.6249 Y0.0501 Z-0.0726
X1.6341 Y0.0538 Z-0.0729
X1.6433 Y0.0575 Z-0.0732
X1.6525 Y0.0612 Z-0.0736
X1.6617 Y0.0649 Z-0.0739
X1.6707 Y0.0687 Z-0.0743
X1.6798 Y0.0727 Z-0.0746
X1.6889 Y0.0766 Z-0.075
X1.698 Y0.0806 Z-0.0753
X1.707 Y0.0846 Z-0.0757
X1.716 Y0.0887 Z-0.076
X1.725 Y0.0928 Z-0.0764
X1.734 Y0.097 Z-0.0767
X1.7429 Y0.1011 Z-0.077
X1.7519 Y0.1054 Z-0.0773
X1.7608 Y0.1097 Z-0.0776
X1.7697 Y0.114 Z-0.0779
X1.7786 Y0.1183 Z-0.0782
X1.7875 Y0.1227 Z-0.0784
X1.7963 Y0.1272 Z-0.0787
X1.8051 Y0.1317 Z-0.0789
X1.8139 Y0.1362 Z-0.0791
X1.8228 Y0.1407 Z-0.0793
X1.8316 Y0.1452 Z-0.0794
X1.8404 Y0.1497 Z-0.0796
X1.8492 Y0.1542 Z-0.0797
X1.858 Y0.1588 Z-0.0798
X1.8668 Y0.1634 Z-0.0799
X1.8755 Y0.168
X1.8843 Y0.1726 Z-0.08
X1.893 Y0.1772
X1.8938 Y0.1776
G3 X1.9357 Y0.2036 I-0.0754 J0.1684
X2.1043 Y0.3439 I-1.7089 J2.2262
X2.2407 Y0.5017 I-0.6046 J0.6602
X2.3265 Y0.7021 I-0.5873 J0.37
X2.3593 Y0.8617 I-1.2735 J0.3454
X2.3763 Y0.9826 I-2.6289 J0.4303
X2.355 Y1.1617 I-2.2622 J-0.1781
X2.3052 Y1.3263 I-0.6844 J-0.1175
X2.199 Y1.4905 I-0.7611 J-0.3754
X2.1269 Y1.578 I-1.6579 J-1.2935
X1.9392 Y1.7134 I-1.684 J-2.1354
X1.7132 Y1.8172 I-0.4771 J-0.7416
X1.4712 Y1.8638 I-0.4238 J-1.5482
X1.389 Y1.8743 I-0.2644 J-1.7442
G2 X1.0551 Y1.9077 I0.1724 J3.4054
G3 X0.9826 Y1.9202 I-1.2145 J-6.8634
G2 X0.8567 Y1.9548 I0.1587 J0.8225
X0.8034 Y1.9874 I0.0825 J0.1948
X0.762 Y2.0521 I0.1369 J0.1334
X0.743 Y2.0979 I0.4429 J0.2102
X0.772 Y2.2262 I0.7362 J-0.099
X0.8425 Y2.3302 I0.2531 J-0.0957
X0.9389 Y2.4117 I0.5968 J-0.6083
X1.0938 Y2.4906 I0.9081 J-1.5904
X1.2922 Y2.5391 I0.2588 J-0.629
X1.4228 Y2.5496 I0.2176 J-1.8817
X1.7082 Y2.5111 I-0.0425 J-1.3908
G3 X1.8776 Y2.479 I0.6219 J2.8216
X1.9985 Y2.4675 I0.2689 J2.1836
X2.1003 Y2.4871 I-0.0628 J0.6004
X2.173 Y2.5317 I-0.0555 J0.1721
X2.2166 Y2.6229 I-0.1517 J0.1286
X2.2298 Y2.7002 I-0.4682 J0.1196
X2.2147 Y2.7388 I-0.0873 J-0.0118
X2.1493 Y2.8407 I-0.472 J-0.2311
X2.0226 Y2.9257 I-0.2333 J-0.2109
X1.8872 Y2.9638 I-0.2714 J-0.7042
X1.6745 Y3.012 I-0.9243 J-3.5916
X1.4319 Y3.0338 I-0.294 J-1.909
X1.4084 Y3.0325 I-0.0068 J-0.0916
X1.1374 Y2.9965 I0.2074 J-2.5998
X0.843 Y2.8888 I0.2132 J-1.0386
X0.6248 Y2.7581 I1.2638 J-2.3571
X0.6053 Y2.7444 I0.0475 J-0.0887
X0.4551 Y2.6183 I1.6173 J-2.0788
X0.3245 Y2.4682 I0.5949 J-0.6496
X0.2387 Y2.2696 I0.5848 J-0.3704
X0.1959 Y2.0713 I1.8314 J-0.4987
X0.2273 Y1.8922 I1.3445 J0.1429
X0.2852 Y1.7615 I0.4524 J0.1223
X0.4023 Y1.6412 I0.449 J0.3197
X0.5036 Y1.5664 I0.9047 J1.1206
X0.697 Y1.4843 I0.949 J1.9663
X0.9127 Y1.4376 I0.3171 J0.9443
X1.1423 Y1.4195 I0.4141 J3.7684
G2 X1.3552 Y1.3905 I-0.0979 J-1.5192
X1.5727 Y1.3152 I-0.3707 J-1.4219
X1.6147 Y1.2979 I-1.2744 J-3.1526
X1.7347 Y1.22 I-0.5904 J-1.0408
X1.8004 Y1.1522 I-0.2035 J-0.2627
X1.8431 Y1.0455 I-0.2881 J-0.1773
X1.8612 Y0.9607 I-0.9763 J-0.2527
X1.8297 Y0.8181 I-1.2315 J0.1969
X1.775 Y0.7067 I-0.3429 J0.0994
X1.6743 Y0.6167 I-0.3575 J0.2988
X1.5607 Y0.5453 I-0.8745 J1.2632
X1.3697 Y0.4702 I-0.8965 J2.0001
X1.1422 Y0.4287 I-0.2853 J0.9206
X1.0165 Y0.421 I-0.1897 J2.0598
X0.8326 Y0.432 I0.0114 J1.7246
X0.6441 Y0.4895 I0.0975 J0.6574
X0.5746 Y0.5215 I0.7381 J1.6944
X0.4793 Y0.614 I0.4545 J0.5639
X0.4092 Y0.7119 I1.1944 J0.9282
G3 X0.3538 Y0.7775 I-0.4555 J-0.3284
X0.2472 Y0.8314 I-0.148 J-0.1605
X0.194 Y0.8412 I-0.0772 J-0.269
X0.1214 Y0.8313 I0.0443 J-0.5967
X0.0372 Y0.789 I0.0675 J-0.239
X-0.004 Y0.7503 I0.0727 J-0.1187
X-0.055 Y0.6295 I0.1422 J-0.1314
X-0.0569 Y0.5859 I0.1766 J-0.0293
X-0.02 Y0.4456 I2.3359 J0.5381
X0.0486 Y0.3016 I0.5314 J0.1649
X0.1699 Y0.1861 I0.3992 J0.2979
X0.3054 Y0.1054 I0.6504 J0.9375
X0.3487 Y0.0827 I0.3476 J0.6108
X0.5809 Y-0.0001 I1.184 J2.9567
X0.881 Y-0.0497 I0.3705 J1.3074
X1.031 Y-0.0577 I0.2277 J2.8644
X1.2332 Y-0.0432 I-0.3726 J6.5895
X1.4955 Y0.0026 I-0.143 J1.5952
X1.7469 Y0.1023 I-0.4299 J1.4509
X1.8937 Y0.1777 I-1.6011 J3.2966
G1 X1.9025 Y0.1823
X1.9113 Y0.1869
X1.9155 Y0.1891 Z-0.0801
X1.9196 Y0.1915
X1.9235 Y0.1942
X1.9273 Y0.1971 Z-0.0802
X1.9351 Y0.2032 Z-0.0803
X1.9429 Y0.2093 Z-0.0804
X1.9507 Y0.2154 Z-0.0805
X1.9585 Y0.2215 Z-0.0807
X1.9664 Y0.2275 Z-0.0809
X1.9741 Y0.2336 Z-0.0811
X1.9819 Y0.2397 Z-0.0813
X1.9897 Y0.2459 Z-0.0815
X1.9975 Y0.252 Z-0.0818
X2.0052 Y0.2581 Z-0.0821
X2.0129 Y0.2643 Z-0.0823
X2.0206 Y0.2705 Z-0.0826
X2.0283 Y0.2767 Z-0.0829
X2.036 Y0.2829 Z-0.0833
X2.0436 Y0.2892 Z-0.0836
X2.0512 Y0.2956 Z-0.0839
X2.0588 Y0.3019 Z-0.0843
X2.0664 Y0.3083 Z-0.0846
X2.0738 Y0.3147 Z-0.085
X2.0812 Y0.3213 Z-0.0853
X2.0887 Y0.3278 Z-0.0857
X2.0961 Y0.3344 Z-0.086
X2.1035 Y0.3409 Z-0.0864
X2.1107 Y0.3477 Z-0.0867
X2.1179 Y0.3544 Z-0.087
X2.1251 Y0.3612 Z-0.0874
X2.1321 Y0.3681 Z-0.0877
X2.1391 Y0.3751 Z-0.0881
X2.1462 Y0.3821 Z-0.0884
X2.153 Y0.3891 Z-0.0888
X2.1666 Y0.4035 Z-0.0895
X2.1733 Y0.4108 Z-0.0898
X2.1863 Y0.4256 Z-0.0905
X2.1928 Y0.4331 Z-0.0908
X2.1991 Y0.4407 Z-0.0912
X2.2115 Y0.4561 Z-0.0919
X2.2174 Y0.464 Z-0.0922
X2.2292 Y0.4799 Z-0.0929
X2.2349 Y0.488 Z-0.0933
X2.2405 Y0.4961 Z-0.0936
X2.2459 Y0.5044 Z-0.0939
X2.2512 Y0.5127 Z-0.0943
X2.2564 Y0.5212 Z-0.0946
X2.2614 Y0.5297 Z-0.095
X2.2663 Y0.5383 Z-0.0953
X2.271 Y0.547 Z-0.0957
X2.2756 Y0.5557 Z-0.096
X2.2801 Y0.5646 Z-0.0964
X2.2844 Y0.5734 Z-0.0967
X2.2885 Y0.5825 Z-0.097
X2.2925 Y0.5915 Z-0.0973
X2.2965 Y0.6006 Z-0.0976
X2.3002 Y0.6097 Z-0.0979
X2.3038 Y0.619 Z-0.0982
X2.3074 Y0.6282 Z-0.0984
X2.3109 Y0.6374 Z-0.0987
X2.314 Y0.6468 Z-0.0989
X2.3172 Y0.6562 Z-0.0991
X2.3203 Y0.6656 Z-0.0993
X2.3232 Y0.6751 Z-0.0994
X2.326 Y0.6846 Z-0.0996
X2.3288 Y0.6941 Z-0.0997
X2.3314 Y0.7036 Z-0.0998
X2.3339 Y0.7132 Z-0.0999
X2.3364 Y0.7228
X2.3388 Y0.7324 Z-0.1
X2.341 Y0.742
X2.3412 Y0.7428
G3 X2.3741 Y0.9343 I-1.946 J0.4331
X2.3803 Y0.9875 I-0.4799 J0.083
X2.3602 Y1.1569 I-2.9781 J-0.2668
X2.3309 Y1.273 I-0.8815 J-0.1608
X2.2335 Y1.4518 I-0.6247 J-0.2245
X2.1293 Y1.5812 I-1.4281 J-1.0429
X1.9407 Y1.7176 I-1.736 J-2.2034
X1.7567 Y1.8076 I-0.4934 J-0.775
X1.5534 Y1.8561 I-0.3853 J-1.1656
X1.3745 Y1.8797 I-0.4692 J-2.8688
G2 X0.968 Y1.9273 I0.1412 J2.9652
X0.8615 Y1.9574 I0.1807 J0.8427
X0.8028 Y1.9937 I0.0719 J0.1822
X0.7604 Y2.066 I0.1693 J0.1476
X0.7472 Y2.0984 I0.3643 J0.1675
X0.7764 Y2.2262 I0.7212 J-0.0972
X0.8456 Y2.3275 I0.2501 J-0.0968
X0.9369 Y2.4054 I0.6367 J-0.6539
X1.0975 Y2.4877 I0.8405 J-1.4418
X1.2922 Y2.5349 I0.255 J-0.6258
X1.4277 Y2.5455 I0.2072 J-1.7776
X1.5825 Y2.5317 I-0.0691 J-1.65
X1.7663 Y2.4946 I-0.6783 J-3.8318
G3 X1.9986 Y2.4636 I0.3192 J1.5048
X2.1002 Y2.4828 I-0.0576 J0.5844
X2.1778 Y2.5308 I-0.055 J0.1754
X2.2219 Y2.6278 I-0.1623 J0.1324
X2.2339 Y2.7003 I-0.4518 J0.1119
X2.2194 Y2.7388 I-0.0843 J-0.0097
X2.1505 Y2.8456 I-0.477 J-0.2322
X2.0227 Y2.9302 I-0.235 J-0.2163
X1.8824 Y2.9692 I-0.2855 J-0.7553
X1.6745 Y3.0162 I-0.8604 J-3.323
X1.4228 Y3.0381 I-0.2955 J-1.9317
X1.1422 Y3.0019 I0.2408 J-2.9665
X1.031 Y2.9734 I0.2884 J-1.3567
X0.7941 Y2.8666 I0.3635 J-1.1226
X0.61 Y2.7536 I1.6516 J-2.8948
X0.4551 Y2.6241 I1.8688 J-2.394
X0.3227 Y2.473 I0.6082 J-0.6666
X0.2345 Y2.2696 I0.5817 J-0.3733
X0.1961 Y2.0954 I1.6536 J-0.4556
X0.195 Y2.0472 I0.0889 J-0.0262
X0.2286 Y1.8728 I1.0959 J0.121
X0.294 Y1.7422 I0.4217 J0.1294
X0.4018 Y1.636 I0.4688 J0.368
X0.5035 Y1.5617 I1.0134 J1.2808
X0.6946 Y1.4807 I1.0519 J2.215
X0.9149 Y1.4332 I0.321 J0.9557
X1.1423 Y1.4154 I0.4203 J3.892
G2 X1.3213 Y1.3933 I-0.1185 J-1.6996
X1.523 Y1.3308 I-0.2275 J-1.0901
X1.6162 Y1.2926 I-0.8744 J-2.269
X1.7327 Y1.2164 I-0.6845 J-1.1738
X1.8017 Y1.1425 I-0.1937 J-0.2502
X1.8445 Y1.0213 I-0.3487 J-0.1914
X1.8571 Y0.9607 I-0.9919 J-0.2365
X1.8254 Y0.8181 I-1.2405 J0.2005
X1.7714 Y0.7089 I-0.3376 J0.099
X1.6743 Y0.6218 I-0.3532 J0.2961
X1.5589 Y0.549 I-0.8983 J1.296
X1.3697 Y0.4745 I-0.9251 J2.0718
X1.1422 Y0.4329 I-0.2854 J0.9177
X1.0165 Y0.4251 I-0.2013 J2.2311
X0.8326 Y0.4362 I0.0146 J1.7688
X0.6441 Y0.4941 I0.0979 J0.6538
X0.5768 Y0.525 I0.7667 J1.7593
X0.4722 Y0.6292 I0.434 J0.5402
X0.4072 Y0.7216 I2.8772 J2.0954
G3 X0.3442 Y0.7916 I-0.3448 J-0.2469
X0.2404 Y0.8372 I-0.1447 J-0.1883
X0.194 Y0.8452 I-0.0643 J-0.234
X0.1119 Y0.833 I0.0272 J-0.4656
X0.0101 Y0.7733 I0.0987 J-0.2848
X-0.0417 Y0.7022 I0.2352 J-0.2258
X-0.0607 Y0.6101 I0.2309 J-0.0958
X-0.0574 Y0.5726 I0.0771 J-0.012
X-0.0095 Y0.4031 I1.2456 J0.2603
X0.0631 Y0.2761 I0.445 J0.1701
X0.2087 Y0.1557 I0.4357 J0.3786
X0.3487 Y0.0782 I0.8636 J1.3952
X0.5858 Y-0.0057 I1.1593 J2.8984
X0.881 Y-0.0539 I0.3655 J1.3112
X1.031 Y-0.0618 I0.2319 J2.9827
X1.2777 Y-0.0427 I-0.2729 J5.1253
X1.5187 Y0.0051 I-0.1608 J1.4424
X1.7855 Y0.1169 I-0.505 J1.5796
X1.9262 Y0.1907 I-1.6899 J3.3937
X2.073 Y0.31 I-3.1809 J4.0639
X2.2127 Y0.4551 I-0.7153 J0.8289
X2.2841 Y0.5716 I-0.537 J0.4091
X2.341 Y0.7428 I-0.7632 J0.3489
G1 X2.3419 Y0.7451 F35
X2.3431 Y0.7473
X2.3447 Y0.7491
X2.3467 Y0.7506
X2.3489 Y0.7517
X2.3513 Y0.7523
X2.3537 Y0.7525
X2.3562 Y0.7521
X2.3589 Y0.7515 Z-0.0997
X2.3614 Y0.7509 Z-0.0988
X2.3638 Y0.7504 Z-0.0973
X2.3657 Y0.7499 Z-0.0953
X2.3671 Y0.7496 Z-0.0929
X2.368 Y0.7494 Z-0.0903
X2.3683 Y0.7493 Z-0.0875
G0 Z0.6
M9
M30
%
