%
(1001)
(T3  D=0.125 CR=0.0625 - ZMIN=-0.441 - ball end mill)
G90 G94
G17
G20

(Contour3)
M9
T3 M6
S11028 M3
G54
M8
G0 X-0.0359 Y0.8514
Z0.6
Z0.0345
G1 Z-0.0075 F35
X-0.0356 Z-0.0103
X-0.0347 Y0.8516 Z-0.0129
X-0.0333 Y0.8518 Z-0.0153
X-0.0313 Y0.8522 Z-0.0173
X-0.029 Y0.8526 Z-0.0188
X-0.0264 Y0.853 Z-0.0197
X-0.0236 Y0.8535 Z-0.02
G2 X-0.0092 Y0.8433 I0.0021 J-0.0123
G3 X0.0329 Y0.6481 I1.6001 J0.2428 F35.38
X0.1749 Y0.4037 I0.5679 J0.1665
X0.3234 Y0.2665 I1.0341 J0.9705
X0.4071 Y0.2047 I0.3348 J0.3657
X0.6342 Y0.074 I0.9214 J1.3388
X0.8763 Y0.0068 I0.3665 J0.8502
X1.0408 Y-0.0136 I0.414 J2.6625
X1.0697 Y-0.0075 I-0.0122 J0.1284
X1.2344 Y0.0441 I-0.2369 J1.0451
X1.3409 Y0.1116 I-0.1526 J0.3588
X1.4304 Y0.2374 I-0.302 J0.3095
X1.488 Y0.3775 I-0.9382 J0.4677
X1.5093 Y0.4402 I-0.944 J0.3549
X1.5961 Y0.9043 I-30.8245 J6.0101
X1.6734 Y1.5036 I-6.7393 J1.1729
X1.6999 Y2.1997 I-9.8618 J0.7245
X1.7014 Y2.5574 I-30.6823 J0.3079
G1 X1.6923 Y2.7718
G2 X1.9117 Y2.7769 I0.2157 J-4.5734
X2.0423 Y2.7606 I-0.0518 J-0.9475
G3 X2.1585 Y2.7479 I0.1381 J0.7292
X2.2312 Y2.7626 I-0.0247 J0.3108
X2.2997 Y2.8138 I-0.0949 J0.1984
X2.319 Y2.8378 I-0.0709 J0.0766
X2.3596 Y2.9489 I-0.1513 J0.1183
X2.3517 Y2.9897 I-0.0484 J0.0118
X2.2797 Y3.113 I-0.5854 J-0.2591
X2.2182 Y3.1665 I-0.1938 J-0.1606
X2.1004 Y3.2037 I-0.1498 J-0.2692
X1.9601 Y3.209 I-0.1002 J-0.7926
G2 X1.8004 Y3.2052 I-0.4622 J16.1401
G3 X1.5004 Y3.1905 I0.2581 J-8.2989
G2 X1.1472 Y3.178 I-0.4152 J6.7591
X0.8521 Y3.1887 I0.517 J18.4313
G3 X0.7408 Y3.1885 I-0.0534 J-1.5148
X0.6391 Y3.1755 I0.0322 J-0.6559
X0.5616 Y3.1372 I0.0419 J-0.1826
X0.5137 Y3.0594 I0.1369 J-0.1378
X0.4886 Y2.9779 I0.5788 J-0.2226
X0.491 Y2.9392 I0.2156 J-0.0061
X0.5329 Y2.8384 I0.1735 J0.0129
X0.5737 Y2.7992 I0.1079 J0.0715
X0.6779 Y2.7601 I0.1143 J0.1462
X0.7263 Y2.7574 I0.0413 J0.3054
G2 X1.0746 Y2.7486 I-0.433 J-24.202
G3 X1.2721 Y2.7495 I0.0788 J4.447
G2 X1.2805 Y2.451 I-3.2916 J-0.2426
X1.2676 Y1.726 I-18.8423 J-0.0259
G1 X1.2515 Y1.378
G2 X1.2481 Y1.0396 I-4.4198 J-0.1249
X1.2121 Y0.7931 I-1.5156 J0.0958
X1.0991 Y0.5226 I-0.9534 J0.2394
X1.0358 Y0.4173 I-2.2887 J1.3047
X0.8859 Y0.4414 I0.124 J1.2479
X0.7312 Y0.5062 I0.15 J0.5756
X0.5324 Y0.643 I0.5963 J1.079
X0.4682 Y0.7156 I0.2665 J0.3003
X0.4238 Y0.8222 I0.3392 J0.204
X0.4083 Y0.8801 I1.1696 J0.3443
G3 X0.3918 Y0.9962 I-0.6441 J-0.0322
X0.3507 Y1.0689 I-0.1598 J-0.0424
X0.2714 Y1.1092 I-0.1284 J-0.1546
X0.1989 Y1.1268 I-0.167 J-0.5294
X0.1651 Y1.1201 I0.0172 J-0.1742
X0.0681 Y1.0859 I0.0673 J-0.3464
X0.0051 Y1.0009 I0.0739 J-0.1206
X-0.0113 Y0.9043 I0.386 J-0.115
X-0.0131 Y0.8656 I0.152 J-0.0263
G2 X-0.0092 Y0.8433 I-2.9016 J-0.516
G1 X-0.0075 Y0.8336
X-0.0059 Y0.8238
X-0.0043 Y0.814 Z-0.0201
X-0.0027 Y0.8042 Z-0.0202
X-0.0012 Y0.7948 Z-0.0203
X0.0005 Y0.7851 Z-0.0204
X0.0021 Y0.7753 Z-0.0206
X0.0038 Y0.7655 Z-0.0207
X0.0053 Y0.7558 Z-0.0209
X0.007 Y0.7465 Z-0.0211
X0.0088 Y0.7367 Z-0.0213
X0.0105 Y0.727 Z-0.0215
X0.0122 Y0.7175 Z-0.0218
X0.0142 Y0.7081 Z-0.022
X0.0162 Y0.6984 Z-0.0223
X0.0181 Y0.6887 Z-0.0226
X0.0201 Y0.6796 Z-0.0229
X0.0224 Y0.67 Z-0.0232
X0.0247 Y0.6603 Z-0.0236
X0.0269 Y0.6507 Z-0.0239
X0.0292 Y0.6416 Z-0.0242
X0.0318 Y0.632 Z-0.0246
X0.0344 Y0.6228 Z-0.0249
X0.0372 Y0.6134 Z-0.0252
X0.0401 Y0.6043 Z-0.0256
X0.0431 Y0.595 Z-0.0259
X0.0463 Y0.5859 Z-0.0263
X0.0496 Y0.5765 Z-0.0266
X0.0531 Y0.5677 Z-0.0269
X0.0567 Y0.5585 Z-0.0273
X0.0605 Y0.5498 Z-0.0276
X0.0644 Y0.5408 Z-0.028
X0.0685 Y0.5321 Z-0.0283
X0.0728 Y0.5232 Z-0.0286
X0.0772 Y0.5148 Z-0.029
X0.0818 Y0.506 Z-0.0293
X0.0865 Y0.4977 Z-0.0297
X0.0915 Y0.4892 Z-0.03
X0.0965 Y0.481 Z-0.0303
X0.1018 Y0.4726 Z-0.0307
X0.1071 Y0.4645 Z-0.031
X0.1126 Y0.4563 Z-0.0314
X0.1182 Y0.4484 Z-0.0317
X0.1239 Y0.4405 Z-0.032
X0.1359 Y0.4248 Z-0.0327
X0.1418 Y0.417 Z-0.0331
X0.148 Y0.4094 Z-0.0334
X0.1543 Y0.4018 Z-0.0338
X0.1606 Y0.3942 Z-0.0341
X0.167 Y0.3868 Z-0.0344
X0.1736 Y0.3794 Z-0.0348
X0.1802 Y0.372 Z-0.0351
X0.1868 Y0.3648 Z-0.0355
X0.1937 Y0.3577 Z-0.0358
X0.2005 Y0.3505 Z-0.0362
X0.2073 Y0.3433 Z-0.0365
X0.2143 Y0.3364 Z-0.0368
X0.2213 Y0.3294 Z-0.0371
X0.2284 Y0.3225 Z-0.0375
X0.2355 Y0.3156 Z-0.0377
X0.2427 Y0.3089 Z-0.038
X0.25 Y0.3021 Z-0.0383
X0.2572 Y0.2954 Z-0.0385
X0.2645 Y0.2887 Z-0.0388
X0.2719 Y0.2821 Z-0.039
X0.2793 Y0.2756 Z-0.0392
X0.2867 Y0.269 Z-0.0393
X0.2942 Y0.2625 Z-0.0395
X0.3017 Y0.256 Z-0.0396
X0.3092 Y0.2496 Z-0.0397
X0.3168 Y0.2432 Z-0.0398
X0.3243 Y0.2368 Z-0.0399
X0.3319 Y0.2304 Z-0.04
X0.3394 Y0.224
X0.3445 Y0.22
G3 X0.5489 Y0.0922 I1.4412 J2.078
X0.8715 Y-0.0145 I0.4444 J0.8032
X1.0456 Y-0.036 I0.3842 J2.3944
X1.2247 Y0.0164 I-0.3078 J1.3855
X1.3361 Y0.0786 I-0.1691 J0.4331
X1.4399 Y0.2084 I-0.2651 J0.3186
X1.5059 Y0.3631 I-0.8476 J0.453
X1.5306 Y0.4353 I-0.8866 J0.3442
X1.6168 Y0.8954 I-28.7045 J5.6137
X1.6857 Y1.3973 I-7.1685 J1.2404
X1.7205 Y2.103 I-8.4638 J0.7703
X1.7232 Y2.5574 I-24.2853 J0.3747
G1 X1.715 Y2.7508
G2 X1.9165 Y2.7548 I0.1745 J-3.679
X2.0423 Y2.7384 I-0.0638 J-0.9801
G3 X2.1584 Y2.7258 I0.1522 J0.8589
X2.2311 Y2.7393 I-0.0379 J0.4047
X2.3009 Y2.7847 I-0.0702 J0.1845
X2.3453 Y2.8379 I-0.1242 J0.1486
X2.38 Y2.9344 I-0.1594 J0.112
X2.3828 Y2.9731 I-0.1679 J0.0316
X2.3678 Y3.0068 I-0.1501 J-0.0467
X2.2991 Y3.1236 I-0.5882 J-0.2674
X2.1487 Y3.2167 I-0.204 J-0.1616
X2.023 Y3.231 I-0.1207 J-0.5
X1.8924 Y3.2288 I-0.0339 J-1.8418
X1.5004 Y3.2124 I0.0973 J-7.0192
G2 X1.1472 Y3.1999 I-0.4106 J6.5999
X0.8569 Y3.2105 I0.4294 J15.7474
G3 X0.765 Y3.2115 I-0.0954 J-4.5758
X0.644 Y3.1991 I0.0272 J-0.8642
X0.5569 Y3.1618 I0.0468 J-0.2296
X0.4982 Y3.0792 I0.1238 J-0.1502
X0.4663 Y2.9779 I0.5487 J-0.2284
X0.4797 Y2.8859 I0.3404 J0.0029
X0.5287 Y2.8089 I0.2367 J0.0963
X0.5522 Y2.7879 I0.0609 J0.0446
X0.6779 Y2.738 I0.1387 J0.1659
X0.7263 Y2.7355 I0.0413 J0.3321
G2 X1.065 Y2.7269 I-0.3471 J-20.3547
G3 X1.2516 Y2.7272 I0.0873 J4.2313
G2 X1.2588 Y2.451 I-3.2256 J-0.2224
X1.2296 Y1.3877 I-18.542 J-0.0237
X1.2281 Y1.0735 I-4.9474 J-0.1329
X1.1911 Y0.7989 I-1.5319 J0.0666
X1.0795 Y0.5323 I-0.9376 J0.2359
X1.0246 Y0.4406 I-1.9068 J1.0801
X0.8859 Y0.464 I0.1109 J1.08
X0.7409 Y0.5258 I0.15 J0.5533
X0.5568 Y0.651 I0.5809 J1.0518
X0.4848 Y0.7302 I0.2365 J0.2875
X0.4437 Y0.8318 I0.3416 J0.1974
X0.4299 Y0.8837 I0.8688 J0.2583
G3 X0.4131 Y1.001 I-0.6697 J-0.036
X0.3719 Y1.0785 I-0.188 J-0.0504
X0.2894 Y1.1263 I-0.1364 J-0.1403
X0.1989 Y1.149 I-0.1846 J-0.5434
X0.1602 Y1.1414 I0.0161 J-0.1842
X0.0535 Y1.1027 I0.0693 J-0.3573
X-0.0163 Y1.0057 I0.0896 J-0.1382
X-0.0331 Y0.905 I0.414 J-0.1208
X-0.0347 Y0.8608 I0.1648 J-0.028
X-0.0062 Y0.7109 I3.7332 J0.6319
X0.0484 Y0.5465 I0.8133 J0.1788
X0.1603 Y0.3873 I0.5703 J0.2818
X0.2894 Y0.2664 I0.9864 J0.9241
X0.3445 Y0.22 I5.9142 J6.9596
G1 X0.3478 Y0.2171
X0.3513 Y0.2147
X0.3593 Y0.2094
X0.3676 Y0.2039 Z-0.0401
X0.3758 Y0.1984 Z-0.0402
X0.384 Y0.1929 Z-0.0403
X0.3923 Y0.1874 Z-0.0404
X0.4005 Y0.1818 Z-0.0405
X0.4086 Y0.1763 Z-0.0407
X0.4168 Y0.1709 Z-0.0409
X0.425 Y0.1654 Z-0.0411
X0.4333 Y0.1599 Z-0.0413
X0.4414 Y0.1544 Z-0.0415
X0.4496 Y0.149 Z-0.0418
X0.4579 Y0.1436 Z-0.042
X0.4662 Y0.1382 Z-0.0423
X0.4744 Y0.1327 Z-0.0426
X0.4826 Y0.1275 Z-0.0429
X0.491 Y0.1222 Z-0.0432
X0.4994 Y0.1169 Z-0.0436
X0.5077 Y0.1116 Z-0.0439
X0.516 Y0.1066 Z-0.0442
X0.5245 Y0.1016 Z-0.0446
X0.533 Y0.0965 Z-0.0449
X0.5415 Y0.0914 Z-0.0453
X0.5498 Y0.0866 Z-0.0456
X0.5585 Y0.0818 Z-0.0459
X0.5671 Y0.077 Z-0.0463
X0.5758 Y0.0722 Z-0.0466
X0.5844 Y0.0676 Z-0.047
X0.5931 Y0.0631 Z-0.0473
X0.6018 Y0.0586 Z-0.0477
X0.6195 Y0.0499 Z-0.0484
X0.6284 Y0.0458 Z-0.0487
X0.6374 Y0.0416 Z-0.049
X0.6463 Y0.0377 Z-0.0494
X0.6554 Y0.0337 Z-0.0497
X0.6643 Y0.0299 Z-0.0501
X0.6735 Y0.0263 Z-0.0504
X0.6826 Y0.0226 Z-0.0508
X0.6919 Y0.0192 Z-0.0511
X0.7011 Y0.0158 Z-0.0514
X0.7104 Y0.0127 Z-0.0518
X0.7198 Y0.0095 Z-0.0521
X0.7291 Y0.0064 Z-0.0525
X0.7385 Y0.0036 Z-0.0528
X0.748 Y0.0008 Z-0.0532
X0.7574 Y-0.002 Z-0.0535
X0.767 Y-0.0045 Z-0.0539
X0.7766 Y-0.0071 Z-0.0542
X0.7861 Y-0.0095 Z-0.0545
X0.7957 Y-0.0118 Z-0.0549
X0.8054 Y-0.0141 Z-0.0552
X0.815 Y-0.0162 Z-0.0556
X0.8246 Y-0.0183 Z-0.0559
X0.8343 Y-0.0203 Z-0.0563
X0.844 Y-0.0222 Z-0.0566
X0.8537 Y-0.0241 Z-0.0569
X0.8635 Y-0.0259 Z-0.0572
X0.8732 Y-0.0275 Z-0.0575
X0.883 Y-0.0291 Z-0.0578
X0.8927 Y-0.0307 Z-0.0581
X0.9025 Y-0.0323 Z-0.0584
X0.9123 Y-0.0338 Z-0.0586
X0.9221 Y-0.0353 Z-0.0588
X0.9319 Y-0.0366 Z-0.059
X0.9417 Y-0.0379 Z-0.0592
X0.9515 Y-0.0392 Z-0.0594
X0.9613 Y-0.0404 Z-0.0595
X0.9712 Y-0.0417 Z-0.0597
X0.981 Y-0.0429 Z-0.0598
X0.9908 Y-0.044 Z-0.0599
X1.0007 Y-0.0451
X1.0105 Y-0.0462 Z-0.06
X1.0203 Y-0.0473
X1.0238 Y-0.0477
G3 X1.0743 Y-0.0427 I0.0165 J0.0916
X1.2489 Y0.0117 I-0.2446 J1.0926
X1.3603 Y0.0812 I-0.1734 J0.4015
X1.4614 Y0.2202 I-0.3141 J0.3347
X1.4973 Y0.3001 I-0.6456 J0.3379
X1.5423 Y0.4258 I-2.2701 J0.8836
X1.6474 Y0.9961 I-17.8264 J3.5802
X1.7261 Y1.7985 I-6.4612 J1.0388
X1.7366 Y2.3785 I-14.2218 J0.5477
X1.7369 Y2.5574 I-34.2461 J0.1577
G1 X1.7293 Y2.7378
G2 X1.9117 Y2.7413 I0.1687 J-3.9757
X2.0375 Y2.7254 I-0.0528 J-0.9223
G3 X2.1584 Y2.7121 I0.1577 J0.8788
X2.2349 Y2.7262 I-0.0388 J0.4253
X2.3106 Y2.775 I-0.0735 J0.1971
X2.3565 Y2.8301 I-0.133 J0.1575
X2.3938 Y2.9344 I-0.1714 J0.12
X2.3958 Y2.9784 I-0.132 J0.0281
X2.3734 Y3.0261 I-0.3556 J-0.1376
X2.297 Y3.1473 I-0.498 J-0.2295
X2.1536 Y3.2296 I-0.2026 J-0.1869
X2.0181 Y3.2448 I-0.1293 J-0.5404
X1.873 Y3.2419 I-0.0111 J-3.0486
X1.5004 Y3.2259 I0.1016 J-6.7219
G2 X1.1472 Y3.2135 I-0.4167 J6.8121
X0.8618 Y3.224 I0.4271 J15.5548
G3 X0.765 Y3.2252 I-0.1228 J-6.0707
X0.644 Y3.213 I0.0315 J-0.9244
X0.547 Y3.1714 I0.0464 J-0.2417
X0.4834 Y3.0793 I0.1381 J-0.1634
X0.4523 Y2.9779 I0.586 J-0.235
X0.4654 Y2.886 I0.3903 J0.0086
X0.5191 Y2.7993 I0.2398 J0.0886
X0.5426 Y2.7782 I0.0599 J0.0429
X0.6779 Y2.7243 I0.1486 J0.1765
X0.7263 Y2.7219 I0.0406 J0.3289
G2 X1.065 Y2.7133 I-0.3633 J-20.8906
G3 X1.2387 Y2.7134 I0.0842 J4.0276
G2 X1.2451 Y2.451 I-3.1064 J-0.206
X1.2159 Y1.3877 I-18.2913 J-0.0298
X1.2126 Y1.0396 I-4.3893 J-0.1329
X1.1791 Y0.8076 I-1.4953 J0.0973
X1.0695 Y0.5423 I-0.9194 J0.2245
X1.0175 Y0.4552 I-1.9345 J1.097
X0.8762 Y0.4807 I0.101 J0.9645
X0.7505 Y0.5359 I0.1708 J0.5595
X0.5665 Y0.6606 I0.5899 J1.0684
X0.492 Y0.7446 I0.2189 J0.2695
X0.4513 Y0.856 I0.412 J0.2136
X0.4421 Y0.8994 I0.1656 J0.0576
G3 X0.4214 Y1.0204 I-0.5151 J-0.0258
X0.3733 Y1.0962 I-0.1841 J-0.0637
X0.281 Y1.1433 I-0.1503 J-0.1807
X0.1989 Y1.1629 I-0.1802 J-0.5728
X0.1602 Y1.1554 I0.0198 J-0.2059
X0.0487 Y1.1157 I0.0741 J-0.3848
X-0.0304 Y1.0057 I0.0943 J-0.1513
X-0.046 Y0.914 I0.4034 J-0.1156
X-0.0492 Y0.8656 I0.3452 J-0.0473
X-0.0122 Y0.677 I2.7652 J0.4455
X0.0249 Y0.5659 I0.8914 J0.2352
X0.1508 Y0.3777 I0.5732 J0.2473
X0.2813 Y0.2554 I0.9613 J0.895
X0.3437 Y0.2032 I1.5111 J1.7444
X0.5084 Y0.0991 I2.2724 J3.414
X0.6827 Y0.0166 I0.5545 J0.9457
X0.9198 Y-0.0353 I0.3629 J1.089
X1.0238 Y-0.0477 I0.4207 J3.1005
G1 X1.0336 Y-0.0488
X1.0381 Y-0.0492
X1.0425 Y-0.0494
X1.0468 Y-0.0493 Z-0.0601
X1.0511 Y-0.0488
X1.0556 Y-0.0479
X1.0601 Y-0.0468 Z-0.0602
X1.0697 Y-0.0444 Z-0.0603
X1.0793 Y-0.042 Z-0.0604
X1.0889 Y-0.0396 Z-0.0605
X1.0985 Y-0.0372 Z-0.0607
X1.1081 Y-0.0349 Z-0.0609
X1.1176 Y-0.0324 Z-0.061
X1.1271 Y-0.0299 Z-0.0613
X1.1367 Y-0.0274 Z-0.0615
X1.1463 Y-0.0249 Z-0.0617
X1.1557 Y-0.0223 Z-0.062
X1.1652 Y-0.0196 Z-0.0623
X1.1746 Y-0.0168 Z-0.0626
X1.1841 Y-0.0139 Z-0.0629
X1.1934 Y-0.011 Z-0.0632
X1.2028 Y-0.0079 Z-0.0635
X1.212 Y-0.0048 Z-0.0638
X1.2213 Y-0.0015 Z-0.0642
X1.2304 Y0.0018 Z-0.0645
X1.2397 Y0.0055 Z-0.0649
X1.2488 Y0.0091 Z-0.0652
X1.2577 Y0.013 Z-0.0656
X1.2667 Y0.017 Z-0.0659
X1.2755 Y0.0212 Z-0.0662
X1.2844 Y0.0256 Z-0.0666
X1.293 Y0.03 Z-0.0669
X1.3101 Y0.0396 Z-0.0676
X1.3184 Y0.0448 Z-0.0679
X1.3267 Y0.0501 Z-0.0683
X1.3347 Y0.0557 Z-0.0686
X1.3428 Y0.0614 Z-0.069
X1.3504 Y0.0674 Z-0.0693
X1.358 Y0.0735 Z-0.0697
X1.3654 Y0.08 Z-0.07
X1.3727 Y0.0865 Z-0.0703
X1.3797 Y0.0934 Z-0.0707
X1.3868 Y0.1003 Z-0.071
X1.3934 Y0.1075 Z-0.0714
X1.4 Y0.1148 Z-0.0717
X1.4063 Y0.1223 Z-0.0721
X1.4125 Y0.1299 Z-0.0724
X1.4186 Y0.1378 Z-0.0727
X1.4244 Y0.1456 Z-0.0731
X1.4301 Y0.1537 Z-0.0734
X1.4356 Y0.1619 Z-0.0738
X1.441 Y0.1701 Z-0.0741
X1.4461 Y0.1785 Z-0.0745
X1.4513 Y0.187 Z-0.0748
X1.4563 Y0.1955 Z-0.0752
X1.461 Y0.2042 Z-0.0755
X1.4658 Y0.2129 Z-0.0758
X1.4704 Y0.2216 Z-0.0762
X1.4748 Y0.2304 Z-0.0765
X1.4791 Y0.2393 Z-0.0769
X1.4834 Y0.2482 Z-0.0772
X1.4874 Y0.2573 Z-0.0775
X1.4915 Y0.2663 Z-0.0778
X1.4954 Y0.2754 Z-0.078
X1.4993 Y0.2845 Z-0.0783
X1.5031 Y0.2936 Z-0.0785
X1.5068 Y0.3028 Z-0.0788
X1.5104 Y0.312 Z-0.079
X1.514 Y0.3212 Z-0.0792
X1.5174 Y0.3305 Z-0.0793
X1.5209 Y0.3398 Z-0.0795
X1.5243 Y0.3491 Z-0.0796
X1.5277 Y0.3584 Z-0.0798
X1.531 Y0.3677
X1.5343 Y0.3771 Z-0.0799
X1.5375 Y0.3864 Z-0.08
X1.5408 Y0.3958
X1.5426 Y0.4011
G3 X1.5526 Y0.4354 I-0.1672 J0.0671
X1.6554 Y0.995 I-17.3391 J3.4765
X1.7342 Y1.7985 I-6.4525 J1.0383
X1.7448 Y2.3785 I-14.1049 J0.5462
X1.7451 Y2.5574 I-24.9941 J0.14
G1 X1.7378 Y2.7298
G2 X1.9117 Y2.7331 I0.1554 J-3.6415
X2.0375 Y2.7171 I-0.0513 J-0.9056
G3 X2.1584 Y2.7039 I0.1585 J0.893
X2.2359 Y2.7179 I-0.0413 J0.4494
X2.3179 Y2.7707 I-0.0746 J0.2059
X2.3567 Y2.8155 I-0.1118 J0.1359
X2.4026 Y2.9392 I-0.1836 J0.1385
X2.4034 Y2.9828 I-0.1099 J0.0239
X2.3303 Y3.1182 I-0.8549 J-0.3738
X2.2554 Y3.1947 I-0.2656 J-0.1855
X2.1294 Y3.2433 I-0.1765 J-0.2699
X1.9988 Y3.2532 I-0.1144 J-0.64
X1.8923 Y3.2507 I0.0076 J-2.618
X1.4956 Y3.2339 I0.1113 J-7.2967
G2 X1.1472 Y3.2217 I-0.4105 J6.7659
X0.8618 Y3.2322 I0.4123 J15.1776
G3 X0.7601 Y3.2332 I-0.0856 J-3.449
X0.644 Y3.2214 I0.0364 J-0.9346
X0.5463 Y3.1811 I0.048 J-0.2553
X0.4786 Y3.0889 I0.1306 J-0.1668
X0.4525 Y3.0117 I0.4293 J-0.1881
X0.4442 Y2.9779 I0.17 J-0.0597
X0.46 Y2.8763 I0.3639 J0.0046
X0.5262 Y2.7795 I0.2735 J0.116
X0.5858 Y2.7399 I0.3073 J0.3985
X0.6779 Y2.7162 I0.1046 J0.2156
X0.7263 Y2.7137 I0.0395 J0.2952
G2 X1.0698 Y2.7051 I-0.4406 J-24.3548
G3 X1.231 Y2.705 I0.082 J3.664
G2 X1.2369 Y2.451 I-3.1017 J-0.1991
X1.2077 Y1.3877 I-18.4949 J-0.0242
X1.2062 Y1.0735 I-4.7961 J-0.1337
X1.1696 Y0.8027 I-1.5027 J0.0656
X1.0598 Y0.542 I-0.9183 J0.2329
X1.0133 Y0.464 I-1.734 J0.9815
X0.8714 Y0.4907 I0.0934 J0.8871
X0.7554 Y0.5425 I0.1821 J0.5634
X0.5762 Y0.6632 I0.5992 J1.0826
X0.5015 Y0.7446 I0.2228 J0.2795
X0.4597 Y0.856 I0.3817 J0.2065
G1 X0.452 Y0.885
G3 X0.4401 Y0.9817 I-1.0644 J-0.0824
X0.4039 Y1.0737 I-0.2575 J-0.0481
X0.3198 Y1.1382 I-0.1526 J-0.1118
X0.2133 Y1.1684 I-0.1945 J-0.4826
X0.1748 Y1.167 I-0.0171 J-0.059
X0.0584 Y1.1305 I0.0896 J-0.4888
X-0.0379 Y1.0097 I0.0842 J-0.1659
X-0.0547 Y0.9091 I0.4294 J-0.1235
X-0.0575 Y0.8656 I0.3105 J-0.0421
X-0.0206 Y0.677 I2.8015 J0.4505
X0.0197 Y0.5571 I0.8705 J0.2261
X0.144 Y0.3728 I0.5815 J0.2581
X0.2765 Y0.2488 I0.9758 J0.9096
X0.3391 Y0.1966 I0.8508 J0.9559
X0.5036 Y0.0925 I2.0035 J2.9854
X0.6971 Y0.0029 I0.548 J0.9297
X0.9198 Y-0.0437 I0.3631 J1.1795
X1.0463 Y-0.0579 I0.3281 J2.3486
X1.1472 Y-0.032 I-0.2883 J1.3315
X1.2973 Y0.0266 I-0.1809 J0.6848
X1.442 Y0.1689 I-0.1911 J0.3391
X1.5114 Y0.3147 I-0.6331 J0.3902
X1.5426 Y0.4011 I-1.4428 J0.5701
G1 X1.5458 Y0.4104
X1.549 Y0.4197
X1.5503 Y0.4242 Z-0.0801
X1.5513 Y0.4289
X1.5532 Y0.4386 Z-0.0802
X1.5551 Y0.4483 Z-0.0803
X1.557 Y0.458 Z-0.0804
X1.559 Y0.4677 Z-0.0806
X1.5609 Y0.4774 Z-0.0807
X1.5628 Y0.4871 Z-0.0809
X1.5648 Y0.4968 Z-0.0811
X1.5667 Y0.5065 Z-0.0813
X1.5687 Y0.5162 Z-0.0815
X1.5707 Y0.5259 Z-0.0818
X1.5726 Y0.5357 Z-0.0821
X1.5746 Y0.5454 Z-0.0823
X1.5766 Y0.5551 Z-0.0826
X1.5785 Y0.5648 Z-0.0829
X1.5805 Y0.5745 Z-0.0833
X1.5825 Y0.5842 Z-0.0836
X1.5845 Y0.5939 Z-0.0839
X1.5864 Y0.6035 Z-0.0843
X1.5884 Y0.6133 Z-0.0846
X1.5903 Y0.623 Z-0.085
X1.5923 Y0.6327 Z-0.0853
X1.5942 Y0.6424 Z-0.0857
X1.5961 Y0.6521 Z-0.086
X1.598 Y0.6618 Z-0.0864
X1.6 Y0.6715 Z-0.0867
X1.6019 Y0.6812 Z-0.0871
X1.6038 Y0.6909 Z-0.0874
X1.6057 Y0.7006 Z-0.0877
X1.6076 Y0.7104 Z-0.0881
X1.6224 Y0.7882 Z-0.0909
X1.6243 Y0.7979 Z-0.0912
X1.6403 Y0.8855 Z-0.0943
X1.6421 Y0.8953 Z-0.0947
X1.6438 Y0.905 Z-0.095
X1.6455 Y0.9148 Z-0.0954
X1.6472 Y0.9245 Z-0.0957
X1.6489 Y0.9343 Z-0.096
X1.6505 Y0.944 Z-0.0964
X1.6522 Y0.9538 Z-0.0967
X1.6539 Y0.9636 Z-0.097
X1.6555 Y0.9733 Z-0.0974
X1.6572 Y0.9831 Z-0.0976
X1.6589 Y0.9928 Z-0.0979
X1.6604 Y1.0026 Z-0.0982
X1.6619 Y1.0124 Z-0.0984
X1.6635 Y1.0222 Z-0.0987
X1.665 Y1.032 Z-0.0989
X1.6665 Y1.0417 Z-0.0991
X1.668 Y1.0515 Z-0.0993
X1.6695 Y1.0613 Z-0.0994
X1.671 Y1.0711 Z-0.0996
X1.6726 Y1.0809 Z-0.0997
X1.6741 Y1.0907 Z-0.0998
X1.6755 Y1.1005 Z-0.0999
X1.6768 Y1.1103 Z-0.1
X1.6782 Y1.1201
X1.6795 Y1.1296
G3 X1.7383 Y1.7985 I-6.2723 J0.8884
X1.7489 Y2.3785 I-13.9101 J0.5439
X1.7492 Y2.5574 I-32.516 J0.146
G1 X1.7451 Y2.654
X1.7421 Y2.7259
G2 X1.9117 Y2.729 I0.1536 J-3.7459
X2.0375 Y2.7129 I-0.0551 J-0.9292
G3 X2.1584 Y2.6998 I0.1562 J0.8795
X2.2408 Y2.7152 I-0.0335 J0.408
X2.3284 Y2.7751 I-0.0862 J0.22
X2.3603 Y2.8137 I-0.0959 J0.1116
X2.4057 Y2.9296 I-0.1814 J0.138
X2.4093 Y2.973 I-0.2888 J0.0459
X2.3942 Y3.0115 I-0.1075 J-0.02
X2.3248 Y3.1327 I-0.6463 J-0.2898
X2.1536 Y3.2423 I-0.2298 J-0.1706
X2.0181 Y3.2571 I-0.1279 J-0.5402
X1.8827 Y3.2545 I-0.0195 J-2.4464
X1.5004 Y3.2383 I0.0949 J-6.7527
G2 X1.1472 Y3.2258 I-0.4182 J6.8621
X0.8569 Y3.2364 I0.4862 J17.44
G3 X0.7408 I-0.0585 J-1.6458
X0.6294 Y3.2224 I0.0358 J-0.7341
X0.5325 Y3.1754 I0.054 J-0.2348
X0.472 Y3.0841 I0.158 J-0.1705
X0.4407 Y2.9827 I0.6259 J-0.2489
X0.4435 Y2.9344 I0.2646 J-0.0088
X0.4953 Y2.8089 I0.2206 J0.0175
X0.5456 Y2.7606 I0.1359 J0.0912
X0.6754 Y2.7123 I0.1423 J0.1842
X0.7263 Y2.7096 I0.0427 J0.3205
G2 X1.0698 Y2.7009 I-0.4283 J-23.7907
G3 X1.2271 Y2.7008 I0.0814 J4.0704
G2 X1.2327 Y2.451 I-2.9846 J-0.1908
X1.2055 Y1.4263 I-17.9019 J-0.0375
G3 X1.2053 Y1.2958 I1.5312 J-0.0674
G2 X1.1979 Y1.0106 I-3.3429 J-0.0567
X1.1575 Y0.7737 I-1.3132 J0.1025
X1.0579 Y0.5468 I-0.9077 J0.2629
X1.0112 Y0.4684 I-1.7603 J0.9967
X0.8762 Y0.4936 I0.0958 J0.8872
X0.7564 Y0.5467 I0.1707 J0.5467
X0.5762 Y0.6686 I0.588 J1.0637
X0.5034 Y0.7495 I0.2145 J0.2663
X0.4605 Y0.8699 I0.4209 J0.2177
X0.4547 Y0.8995 I0.0855 J0.0321
G3 X0.4344 Y1.0204 I-0.5642 J-0.0325
X0.3781 Y1.1083 I-0.1922 J-0.061
X0.2907 Y1.1533 I-0.1541 J-0.192
X0.1989 Y1.1753 I-0.1935 J-0.604
X0.1554 Y1.1669 I0.0222 J-0.2302
X0.0436 Y1.1269 I0.0752 J-0.3869
X-0.0405 Y1.0154 I0.0975 J-0.1609
X-0.0588 Y0.9091 I0.4228 J-0.1276
X-0.061 Y0.8608 I0.2243 J-0.0343
G2 X-0.0482 Y0.7883 I-2.0253 J-0.395
G3 X0.0002 Y0.5949 I1.2254 J0.2034
X0.1411 Y0.37 I0.5968 J0.2173
X0.2764 Y0.2434 I0.9974 J0.9306
X0.3362 Y0.1937 I0.8087 J0.912
X0.5374 Y0.0686 I1.6813 J2.4815
X0.7262 Y-0.0103 I0.4722 J0.8644
X0.9184 Y-0.0478 I0.3499 J1.2811
X1.0456 Y-0.062 I0.4162 J3.1411
X1.0843 Y-0.0531 I-0.0502 J0.307
X1.2537 Y0.0004 I-0.2534 J1.0967
X1.3797 Y0.0823 I-0.1703 J0.3994
X1.4761 Y0.2215 I-0.3594 J0.3518
X1.5436 Y0.3925 I-1.1524 J0.5544
X1.5549 Y0.4257 I-0.2768 J0.1125
X1.6599 Y0.9961 I-18.6419 J3.7269
G1 X1.6744 Y1.0928
X1.6746 Y1.0943
X1.6795 Y1.1297
G2 X1.6936 Y1.1403 I0.0124 J-0.0017 F35
G1 X1.6964 Y1.1399 Z-0.0997
X1.699 Y1.1396 Z-0.0988
X1.7013 Y1.1393 Z-0.0973
X1.7033 Y1.139 Z-0.0953
X1.7048 Y1.1388 Z-0.0929
X1.7057 Y1.1386 Z-0.0903
X1.706 Z-0.0875
G0 Z0.2
X1.7963 Y2.3176
Z-0.0483
G1 Z-0.1075 F35
X1.796 Z-0.1103
X1.795 Z-0.1129
X1.7936 Z-0.1153
X1.7916 Z-0.1173
X1.7892 Z-0.1188
X1.7866 Z-0.1197
X1.7838 Z-0.12
X1.7619 Y2.3177
G2 X1.7495 Y2.3302 J0.0125
G1 X1.7498 Y2.4849 F35.38
G2 X1.7624 Y2.4973 I0.0125 F35
X1.7748 Y2.4858 J-0.0125 F35.38
G1 X1.7873 Y2.3312
G2 X1.7717 Y2.3143 I-0.0156 J-0.0013
X1.7586 Y2.3215 J0.0156 F35
G1 X1.7583 Y2.3219
G2 X1.7852 Y2.3379 Z-0.1217 I0.0134 J0.008
X1.7583 Y2.3219 Z-0.1234 I-0.0134 J-0.008
X1.7852 Y2.3379 Z-0.1251 I0.0134 J0.008
X1.7583 Y2.3219 Z-0.1269 I-0.0134 J-0.008
X1.7852 Y2.3379 Z-0.1286 I0.0134 J0.008
X1.7583 Y2.3219 Z-0.1303 I-0.0134 J-0.008
X1.7852 Y2.3379 Z-0.132 I0.0134 J0.008
X1.7583 Y2.3219 Z-0.1337 I-0.0134 J-0.008
X1.7852 Y2.3379 Z-0.1354 I0.0134 J0.008
X1.7583 Y2.3219 Z-0.1371 I-0.0134 J-0.008
X1.7852 Y2.3379 Z-0.1389 I0.0134 J0.008
X1.7721 Y2.3143 Z-0.14 I-0.0134 J-0.008
G1 X1.7717
X1.7653
G2 X1.7495 Y2.3302 J0.0158
G1 X1.7498 Y2.4849 F35.38
G2 X1.7624 Y2.4973 I0.0125 F35
X1.7748 Y2.4858 J-0.0125 F35.38
G1 X1.7873 Y2.3312
G2 X1.7717 Y2.3143 I-0.0156 J-0.0013
X1.7586 Y2.3215 J0.0156 F35
G1 X1.7583 Y2.3219
G2 X1.7852 Y2.3379 Z-0.1417 I0.0134 J0.008
X1.7583 Y2.3219 Z-0.1434 I-0.0134 J-0.008
X1.7852 Y2.3379 Z-0.1451 I0.0134 J0.008
X1.7583 Y2.3219 Z-0.1469 I-0.0134 J-0.008
X1.7852 Y2.3379 Z-0.1486 I0.0134 J0.008
X1.7583 Y2.3219 Z-0.1503 I-0.0134 J-0.008
X1.7852 Y2.3379 Z-0.152 I0.0134 J0.008
X1.7583 Y2.3219 Z-0.1537 I-0.0134 J-0.008
X1.7852 Y2.3379 Z-0.1554 I0.0134 J0.008
X1.7583 Y2.3219 Z-0.1571 I-0.0134 J-0.008
X1.7852 Y2.3379 Z-0.1589 I0.0134 J0.008
X1.7721 Y2.3143 Z-0.16 I-0.0134 J-0.008
G1 X1.7717
X1.7653
G2 X1.7495 Y2.3302 J0.0158
G1 X1.7498 Y2.4849 F35.38
G2 X1.7624 Y2.4973 I0.0125 F35
X1.7748 Y2.4858 J-0.0125 F35.38
G1 X1.7873 Y2.3312
G2 X1.7717 Y2.3143 I-0.0156 J-0.0013
X1.7586 Y2.3215 J0.0156 F35
G1 X1.7583 Y2.3219
G2 X1.7852 Y2.3379 Z-0.1617 I0.0134 J0.008
X1.7583 Y2.3219 Z-0.1634 I-0.0134 J-0.008
X1.7852 Y2.3379 Z-0.1651 I0.0134 J0.008
X1.7583 Y2.3219 Z-0.1669 I-0.0134 J-0.008
X1.7852 Y2.3379 Z-0.1686 I0.0134 J0.008
X1.7583 Y2.3219 Z-0.1703 I-0.0134 J-0.008
X1.7852 Y2.3379 Z-0.172 I0.0134 J0.008
X1.7583 Y2.3219 Z-0.1737 I-0.0134 J-0.008
X1.7852 Y2.3379 Z-0.1754 I0.0134 J0.008
X1.7583 Y2.3219 Z-0.1771 I-0.0134 J-0.008
X1.7852 Y2.3379 Z-0.1789 I0.0134 J0.008
X1.7721 Y2.3143 Z-0.18 I-0.0134 J-0.008
G1 X1.7717
X1.7653
G2 X1.7495 Y2.3302 J0.0158
G1 X1.7498 Y2.4849 F35.38
G2 X1.7624 Y2.4973 I0.0125 F35
X1.7748 Y2.4858 J-0.0125 F35.38
G1 X1.7873 Y2.3312
G2 X1.7717 Y2.3143 I-0.0156 J-0.0013
X1.7586 Y2.3215 J0.0156 F35
G1 X1.7583 Y2.3219
G2 X1.7852 Y2.3379 Z-0.1817 I0.0134 J0.008
X1.7583 Y2.3219 Z-0.1834 I-0.0134 J-0.008
X1.7852 Y2.3379 Z-0.1851 I0.0134 J0.008
X1.7583 Y2.3219 Z-0.1869 I-0.0134 J-0.008
X1.7852 Y2.3379 Z-0.1886 I0.0134 J0.008
X1.7583 Y2.3219 Z-0.1903 I-0.0134 J-0.008
X1.7852 Y2.3379 Z-0.192 I0.0134 J0.008
X1.7583 Y2.3219 Z-0.1937 I-0.0134 J-0.008
X1.7852 Y2.3379 Z-0.1954 I0.0134 J0.008
X1.7583 Y2.3219 Z-0.1971 I-0.0134 J-0.008
X1.7852 Y2.3379 Z-0.1989 I0.0134 J0.008
X1.7721 Y2.3143 Z-0.2 I-0.0134 J-0.008
G1 X1.7717
X1.7653
G2 X1.7495 Y2.3302 J0.0158
G1 X1.7498 Y2.4849 F35.38
G2 X1.7624 Y2.4973 I0.0125 F35
X1.7748 Y2.4858 J-0.0125 F35.38
G1 X1.7873 Y2.3312
G2 X1.7717 Y2.3143 I-0.0156 J-0.0013
X1.7586 Y2.3215 J0.0156 F35
G1 X1.7583 Y2.3219
G2 X1.7852 Y2.3379 Z-0.2017 I0.0134 J0.008
X1.7583 Y2.3219 Z-0.2034 I-0.0134 J-0.008
X1.7852 Y2.3379 Z-0.2051 I0.0134 J0.008
X1.7583 Y2.3219 Z-0.2069 I-0.0134 J-0.008
X1.7852 Y2.3379 Z-0.2086 I0.0134 J0.008
X1.7583 Y2.3219 Z-0.2103 I-0.0134 J-0.008
X1.7852 Y2.3379 Z-0.212 I0.0134 J0.008
X1.7583 Y2.3219 Z-0.2137 I-0.0134 J-0.008
X1.7852 Y2.3379 Z-0.2154 I0.0134 J0.008
X1.7583 Y2.3219 Z-0.2171 I-0.0134 J-0.008
X1.7852 Y2.3379 Z-0.2189 I0.0134 J0.008
X1.7721 Y2.3143 Z-0.22 I-0.0134 J-0.008
G1 X1.7717
X1.7653
G2 X1.7495 Y2.3302 J0.0158
G1 X1.7498 Y2.4849 F35.38
G2 X1.7624 Y2.4973 I0.0125 F35
X1.7748 Y2.4858 J-0.0125 F35.38
G1 X1.7873 Y2.3312
G2 X1.7717 Y2.3143 I-0.0156 J-0.0013
X1.7586 Y2.3215 J0.0156 F35
G1 X1.7583 Y2.3219
G2 X1.7852 Y2.3379 Z-0.2217 I0.0134 J0.008
X1.7583 Y2.3219 Z-0.2234 I-0.0134 J-0.008
X1.7852 Y2.3379 Z-0.2251 I0.0134 J0.008
X1.7583 Y2.3219 Z-0.2269 I-0.0134 J-0.008
X1.7852 Y2.3379 Z-0.2286 I0.0134 J0.008
X1.7583 Y2.3219 Z-0.2303 I-0.0134 J-0.008
X1.7852 Y2.3379 Z-0.232 I0.0134 J0.008
X1.7583 Y2.3219 Z-0.2337 I-0.0134 J-0.008
X1.7852 Y2.3379 Z-0.2354 I0.0134 J0.008
X1.7583 Y2.3219 Z-0.2371 I-0.0134 J-0.008
X1.7852 Y2.3379 Z-0.2389 I0.0134 J0.008
X1.7721 Y2.3143 Z-0.24 I-0.0134 J-0.008
G1 X1.7717
X1.7653
G2 X1.7495 Y2.3302 J0.0158
G1 X1.7498 Y2.4849 F35.38
G2 X1.7624 Y2.4973 I0.0125 F35
X1.7748 Y2.4858 J-0.0125 F35.38
G1 X1.7873 Y2.3312
G2 X1.7717 Y2.3143 I-0.0156 J-0.0013
X1.7586 Y2.3215 J0.0156 F35
G1 X1.7583 Y2.3219
G2 X1.7852 Y2.3379 Z-0.2417 I0.0134 J0.008
X1.7583 Y2.3219 Z-0.2434 I-0.0134 J-0.008
X1.7852 Y2.3379 Z-0.2451 I0.0134 J0.008
X1.7583 Y2.3219 Z-0.2469 I-0.0134 J-0.008
X1.7852 Y2.3379 Z-0.2486 I0.0134 J0.008
X1.7583 Y2.3219 Z-0.2503 I-0.0134 J-0.008
X1.7852 Y2.3379 Z-0.252 I0.0134 J0.008
X1.7583 Y2.3219 Z-0.2537 I-0.0134 J-0.008
X1.7852 Y2.3379 Z-0.2554 I0.0134 J0.008
X1.7583 Y2.3219 Z-0.2571 I-0.0134 J-0.008
X1.7852 Y2.3379 Z-0.2589 I0.0134 J0.008
X1.7721 Y2.3143 Z-0.26 I-0.0134 J-0.008
G1 X1.7717
X1.7653
G2 X1.7495 Y2.3302 J0.0158
G1 X1.7498 Y2.4849 F35.38
G2 X1.7624 Y2.4973 I0.0125 F35
X1.7748 Y2.4858 J-0.0125 F35.38
G1 X1.7873 Y2.3312
G2 X1.7717 Y2.3143 I-0.0156 J-0.0013
X1.7586 Y2.3215 J0.0156 F35
G1 X1.7583 Y2.3219
G2 X1.7852 Y2.3379 Z-0.2617 I0.0134 J0.008
X1.7583 Y2.3219 Z-0.2634 I-0.0134 J-0.008
X1.7852 Y2.3379 Z-0.2651 I0.0134 J0.008
X1.7583 Y2.3219 Z-0.2669 I-0.0134 J-0.008
X1.7852 Y2.3379 Z-0.2686 I0.0134 J0.008
X1.7583 Y2.3219 Z-0.2703 I-0.0134 J-0.008
X1.7852 Y2.3379 Z-0.272 I0.0134 J0.008
X1.7583 Y2.3219 Z-0.2737 I-0.0134 J-0.008
X1.7852 Y2.3379 Z-0.2754 I0.0134 J0.008
X1.7583 Y2.3219 Z-0.2771 I-0.0134 J-0.008
X1.7852 Y2.3379 Z-0.2789 I0.0134 J0.008
X1.7721 Y2.3143 Z-0.28 I-0.0134 J-0.008
G1 X1.7717
X1.7653
G2 X1.7495 Y2.3302 J0.0158
G1 X1.7498 Y2.4849 F35.38
G2 X1.7624 Y2.4973 I0.0125 F35
X1.7748 Y2.4858 J-0.0125 F35.38
G1 X1.7873 Y2.3312
G2 X1.7717 Y2.3143 I-0.0156 J-0.0013
X1.7586 Y2.3215 J0.0156 F35
G1 X1.7583 Y2.3219
G2 X1.7852 Y2.3379 Z-0.2817 I0.0134 J0.008
X1.7583 Y2.3219 Z-0.2834 I-0.0134 J-0.008
X1.7852 Y2.3379 Z-0.2851 I0.0134 J0.008
X1.7583 Y2.3219 Z-0.2869 I-0.0134 J-0.008
X1.7852 Y2.3379 Z-0.2886 I0.0134 J0.008
X1.7583 Y2.3219 Z-0.2903 I-0.0134 J-0.008
X1.7852 Y2.3379 Z-0.292 I0.0134 J0.008
X1.7583 Y2.3219 Z-0.2937 I-0.0134 J-0.008
X1.7852 Y2.3379 Z-0.2954 I0.0134 J0.008
X1.7583 Y2.3219 Z-0.2971 I-0.0134 J-0.008
X1.7852 Y2.3379 Z-0.2989 I0.0134 J0.008
X1.7721 Y2.3143 Z-0.3 I-0.0134 J-0.008
G1 X1.7717
X1.7653
G2 X1.7495 Y2.3302 J0.0158
G1 X1.7498 Y2.4849 F35.38
G2 X1.7624 Y2.4973 I0.0125 F35
X1.7748 Y2.4858 J-0.0125 F35.38
G1 X1.7873 Y2.3312
G2 X1.7717 Y2.3143 I-0.0156 J-0.0013
X1.7586 Y2.3215 J0.0156 F35
G1 X1.7583 Y2.3219
G2 X1.7852 Y2.3379 Z-0.3017 I0.0134 J0.008
X1.7583 Y2.3219 Z-0.3034 I-0.0134 J-0.008
X1.7852 Y2.3379 Z-0.3051 I0.0134 J0.008
X1.7583 Y2.3219 Z-0.3069 I-0.0134 J-0.008
X1.7852 Y2.3379 Z-0.3086 I0.0134 J0.008
X1.7583 Y2.3219 Z-0.3103 I-0.0134 J-0.008
X1.7852 Y2.3379 Z-0.312 I0.0134 J0.008
X1.7583 Y2.3219 Z-0.3137 I-0.0134 J-0.008
X1.7852 Y2.3379 Z-0.3154 I0.0134 J0.008
X1.7583 Y2.3219 Z-0.3171 I-0.0134 J-0.008
X1.7852 Y2.3379 Z-0.3189 I0.0134 J0.008
X1.7721 Y2.3143 Z-0.32 I-0.0134 J-0.008
G1 X1.7717
X1.7653
G2 X1.7495 Y2.3302 J0.0158
G1 X1.7498 Y2.4849 F35.38
G2 X1.7624 Y2.4973 I0.0125 F35
X1.7748 Y2.4858 J-0.0125 F35.38
G1 X1.7873 Y2.3312
G2 X1.7717 Y2.3143 I-0.0156 J-0.0013
X1.7586 Y2.3215 J0.0156 F35
G1 X1.7583 Y2.3219
G2 X1.7852 Y2.3379 Z-0.3217 I0.0134 J0.008
X1.7583 Y2.3219 Z-0.3234 I-0.0134 J-0.008
X1.7852 Y2.3379 Z-0.3251 I0.0134 J0.008
X1.7583 Y2.3219 Z-0.3269 I-0.0134 J-0.008
X1.7852 Y2.3379 Z-0.3286 I0.0134 J0.008
X1.7583 Y2.3219 Z-0.3303 I-0.0134 J-0.008
X1.7852 Y2.3379 Z-0.332 I0.0134 J0.008
X1.7583 Y2.3219 Z-0.3337 I-0.0134 J-0.008
X1.7852 Y2.3379 Z-0.3354 I0.0134 J0.008
X1.7583 Y2.3219 Z-0.3371 I-0.0134 J-0.008
X1.7852 Y2.3379 Z-0.3389 I0.0134 J0.008
X1.7721 Y2.3143 Z-0.34 I-0.0134 J-0.008
G1 X1.7717
X1.7653
G2 X1.7495 Y2.3302 J0.0158
G1 X1.7498 Y2.4849 F35.38
G2 X1.7624 Y2.4973 I0.0125 F35
X1.7748 Y2.4858 J-0.0125 F35.38
G1 X1.7873 Y2.3312
G2 X1.7717 Y2.3143 I-0.0156 J-0.0013
X1.7586 Y2.3215 J0.0156 F35
G1 X1.7583 Y2.3219
G2 X1.7852 Y2.3379 Z-0.3417 I0.0134 J0.008
X1.7583 Y2.3219 Z-0.3434 I-0.0134 J-0.008
X1.7852 Y2.3379 Z-0.3451 I0.0134 J0.008
X1.7583 Y2.3219 Z-0.3469 I-0.0134 J-0.008
X1.7852 Y2.3379 Z-0.3486 I0.0134 J0.008
X1.7583 Y2.3219 Z-0.3503 I-0.0134 J-0.008
X1.7852 Y2.3379 Z-0.352 I0.0134 J0.008
X1.7583 Y2.3219 Z-0.3537 I-0.0134 J-0.008
X1.7852 Y2.3379 Z-0.3554 I0.0134 J0.008
X1.7583 Y2.3219 Z-0.3571 I-0.0134 J-0.008
X1.7852 Y2.3379 Z-0.3589 I0.0134 J0.008
X1.7721 Y2.3143 Z-0.36 I-0.0134 J-0.008
G1 X1.7717
X1.7653
G2 X1.7495 Y2.3302 J0.0158
G1 X1.7498 Y2.4849 F35.38
G2 X1.7624 Y2.4973 I0.0125 F35
X1.7748 Y2.4858 J-0.0125 F35.38
G1 X1.7873 Y2.3312
G2 X1.7717 Y2.3143 I-0.0156 J-0.0013
X1.7586 Y2.3215 J0.0156 F35
G1 X1.7583 Y2.3219
G2 X1.7852 Y2.3379 Z-0.3617 I0.0134 J0.008
X1.7583 Y2.3219 Z-0.3634 I-0.0134 J-0.008
X1.7852 Y2.3379 Z-0.3651 I0.0134 J0.008
X1.7583 Y2.3219 Z-0.3669 I-0.0134 J-0.008
X1.7852 Y2.3379 Z-0.3686 I0.0134 J0.008
X1.7583 Y2.3219 Z-0.3703 I-0.0134 J-0.008
X1.7852 Y2.3379 Z-0.372 I0.0134 J0.008
X1.7583 Y2.3219 Z-0.3737 I-0.0134 J-0.008
X1.7852 Y2.3379 Z-0.3754 I0.0134 J0.008
X1.7583 Y2.3219 Z-0.3771 I-0.0134 J-0.008
X1.7852 Y2.3379 Z-0.3789 I0.0134 J0.008
X1.7721 Y2.3143 Z-0.38 I-0.0134 J-0.008
G1 X1.7717
X1.7653
G2 X1.7495 Y2.3302 J0.0158
G1 X1.7498 Y2.4849 F35.38
G2 X1.7624 Y2.4973 I0.0125 F35
X1.7748 Y2.4858 J-0.0125 F35.38
G1 X1.7873 Y2.3312
G2 X1.7717 Y2.3143 I-0.0156 J-0.0013
X1.7586 Y2.3215 J0.0156 F35
G1 X1.7583 Y2.3219
G2 X1.7852 Y2.3379 Z-0.3817 I0.0134 J0.008
X1.7583 Y2.3219 Z-0.3834 I-0.0134 J-0.008
X1.7852 Y2.3379 Z-0.3851 I0.0134 J0.008
X1.7583 Y2.3219 Z-0.3869 I-0.0134 J-0.008
X1.7852 Y2.3379 Z-0.3886 I0.0134 J0.008
X1.7583 Y2.3219 Z-0.3903 I-0.0134 J-0.008
X1.7852 Y2.3379 Z-0.392 I0.0134 J0.008
X1.7583 Y2.3219 Z-0.3937 I-0.0134 J-0.008
X1.7852 Y2.3379 Z-0.3954 I0.0134 J0.008
X1.7583 Y2.3219 Z-0.3971 I-0.0134 J-0.008
X1.7852 Y2.3379 Z-0.3989 I0.0134 J0.008
X1.7721 Y2.3143 Z-0.4 I-0.0134 J-0.008
G1 X1.7717
X1.7653
G2 X1.7495 Y2.3302 J0.0158
G1 X1.7498 Y2.4849 F35.38
G2 X1.7624 Y2.4973 I0.0125 F35
X1.7748 Y2.4858 J-0.0125 F35.38
G1 X1.7873 Y2.3312
G2 X1.7717 Y2.3143 I-0.0156 J-0.0013
X1.7586 Y2.3215 J0.0156 F35
G1 X1.7583 Y2.3219
G2 X1.7852 Y2.3379 Z-0.4017 I0.0134 J0.008
X1.7583 Y2.3219 Z-0.4034 I-0.0134 J-0.008
X1.7852 Y2.3379 Z-0.4051 I0.0134 J0.008
X1.7583 Y2.3219 Z-0.4069 I-0.0134 J-0.008
X1.7852 Y2.3379 Z-0.4086 I0.0134 J0.008
X1.7583 Y2.3219 Z-0.4103 I-0.0134 J-0.008
X1.7852 Y2.3379 Z-0.412 I0.0134 J0.008
X1.7583 Y2.3219 Z-0.4137 I-0.0134 J-0.008
X1.7852 Y2.3379 Z-0.4154 I0.0134 J0.008
X1.7583 Y2.3219 Z-0.4171 I-0.0134 J-0.008
X1.7852 Y2.3379 Z-0.4189 I0.0134 J0.008
X1.7721 Y2.3143 Z-0.42 I-0.0134 J-0.008
G1 X1.7717
X1.7653
G2 X1.7495 Y2.3302 J0.0158
G1 X1.7498 Y2.4849 F35.38
G2 X1.7624 Y2.4973 I0.0125 F35
X1.7748 Y2.4858 J-0.0125 F35.38
G1 X1.7873 Y2.3312
G2 X1.7782 Y2.3157 I-0.0156 J-0.0013
G1 X1.7778 Y2.3155 F35
G2 X1.7657 Y2.3443 Z-0.4217 I-0.0061 J0.0144
X1.7778 Y2.3155 Z-0.4234 I0.0061 J-0.0144
X1.7657 Y2.3443 Z-0.4251 I-0.0061 J0.0144
X1.7778 Y2.3155 Z-0.4269 I0.0061 J-0.0144
X1.7657 Y2.3443 Z-0.4286 I-0.0061 J0.0144
X1.7778 Y2.3155 Z-0.4303 I0.0061 J-0.0144
X1.7721 Y2.3143 Z-0.4305 I-0.0061 J0.0144
G1 X1.7717
X1.7653
G2 X1.7495 Y2.3302 J0.0158
G1 X1.7498 Y2.4849 F35.38
G2 X1.7624 Y2.4973 I0.0125 F35
X1.7748 Y2.4858 J-0.0125 F35.38
G1 X1.7873 Y2.3312
G2 X1.7782 Y2.3157 I-0.0156 J-0.0013
G1 X1.7778 Y2.3155 F35
G2 X1.7657 Y2.3443 Z-0.4322 I-0.0061 J0.0144
X1.7778 Y2.3155 Z-0.4339 I0.0061 J-0.0144
X1.7657 Y2.3443 Z-0.4356 I-0.0061 J0.0144
X1.7778 Y2.3155 Z-0.4374 I0.0061 J-0.0144
X1.7657 Y2.3443 Z-0.4391 I-0.0061 J0.0144
X1.7778 Y2.3155 Z-0.4408 I0.0061 J-0.0144
X1.7721 Y2.3143 Z-0.441 I-0.0061 J0.0144
G1 X1.7717
X1.7653
G2 X1.7495 Y2.3302 J0.0158
G1 X1.7498 Y2.4849 F35.38
G2 X1.7624 Y2.4973 I0.0125 F35
G1 X1.7651 Z-0.4407
X1.7678 Z-0.4398
X1.7702 Z-0.4383
X1.7721 Z-0.4363
X1.7736 Z-0.4339
X1.7746 Z-0.4313
X1.7749 Z-0.4285
G0 Z0.6
M9
M30
%
