%
(1001)
(T6  D=0.25 CR=0 - ZMIN=-0.441 - flat end mill)
G90 G94
G17
G20

(2D Contour1)
M9
T6 M6
S5514 M3
G54
M8
G0 X0.9326 Y1.292
Z0.6
Z0.2
G1 Z0.0894 F21.36
Z-0.025
X0.9327 Y1.2923 Z-0.0289
Y1.2932 Z-0.0327
X0.9329 Y1.2947 Z-0.0363
X0.9331 Y1.2968 Z-0.0397
X0.9333 Y1.2993 Z-0.0427
X0.9336 Y1.3023 Z-0.0452
X0.9339 Y1.3056 Z-0.0473
X0.9342 Y1.3092 Z-0.0488
X0.9345 Y1.313 Z-0.0497
X0.9349 Y1.3169 Z-0.05
X0.9371 Y1.3418
G2 X0.9642 Y1.3645 I0.0249 J-0.0022
G3 X1.1481 Y1.3515 I0.4955 J5.6993
G2 X1.3295 Y1.3271 I-0.1014 J-1.4454
X1.5235 Y1.2625 I-0.2838 J-1.1751
G1 X1.5463 Y1.2535
X1.5693 Y1.244
X1.5843 Y1.2377
G2 X1.7032 Y1.1589 I-0.4856 J-0.8624
X1.7517 Y1.1025 I-0.1386 J-0.1683
X1.7849 Y0.9986 I-0.355 J-0.1708
G1 X1.7892 Y0.9792
X1.7928 Y0.9605
G2 X1.7616 Y0.8262 I-1.0269 J0.1679
X1.7253 Y0.7529 I-0.2653 J0.0856
X1.6458 Y0.679 I-0.2869 J0.2292
X1.5309 Y0.6059 I-0.7888 J1.1117
X1.3264 Y0.5272 I-0.7777 J1.7169
X1.1138 Y0.4941 I-0.2597 J0.9675
X1.007 Y0.4884 I-0.1248 J1.3494
X0.8351 Y0.4997 I0.0163 J1.5715
X0.67 Y0.5518 I0.0984 J0.5997
X0.6115 Y0.5785 I0.5082 J1.1875
X0.4875 Y0.717 I0.359 J0.4463
G3 X0.4261 Y0.7993 I-0.8434 J-0.5652
X0.3919 Y0.8337 I-0.3152 J-0.2791
G1 X0.3872 Y0.8376
X0.3806 Y0.8429
G3 X0.3752 Y0.8471 I-0.0788 J-0.097
G1 X0.3684 Y0.852
G3 X0.3622 Y0.8563 I-0.0734 J-0.1012
G1 X0.3552 Y0.8607
G3 X0.3483 Y0.8648 I-0.0672 J-0.1054
G1 X0.341 Y0.8688
G3 X0.3343 Y0.8723 I-0.0603 J-0.1095
G1 X0.3268 Y0.8759
G3 X0.3207 Y0.8786 I-0.0537 J-0.1129
X0.2295 Y0.9041 I-0.1545 J-0.3768
G1 X0.2207 Y0.906
G3 X0.188 Y0.9079 I-0.0235 J-0.1228
X0.0761 Y0.8878 I0.0151 J-0.4051
X-0.0179 Y0.8321 I0.1463 J-0.3542
G1 X-0.0249 Y0.8267
X-0.0315 Y0.8209
X-0.0377 Y0.8146
G3 X-0.0967 Y0.7336 I0.2769 J-0.2639
G1 X-0.0993 Y0.7273
X-0.1017 Y0.7218
G3 X-0.1044 Y0.7154 I0.1142 J-0.0508
G1 X-0.1065 Y0.7098
G3 X-0.1087 Y0.7036 I0.1168 J-0.0444
X-0.1241 Y0.6121 I0.3166 J-0.1003
G1 X-0.1247 Y0.6058
G3 X-0.1217 Y0.5693 I0.1247 J-0.0081
X-0.0757 Y0.4001 I1.5485 J0.3306
X-0.0544 Y0.3476 I0.7462 J0.2724
X-0.0516 Y0.3415 I0.1149 J0.0493
X0.0599 Y0.1881 I0.4351 J0.1989
G1 X0.0651 Y0.1833
X0.084 Y0.1667
G3 X0.0888 Y0.1628 I0.0822 J0.0942
X0.2377 Y0.0655 I0.5822 J0.7287
X0.311 Y0.0261 I1.0604 J1.8845
G1 X0.3174 Y0.023
X0.324 Y0.0202
G3 X0.5746 Y-0.0683 I1.1139 J2.7568
X0.8744 Y-0.1168 I0.3754 J1.3691
X1.0178 Y-0.1247 I0.2535 J3.283
G1 X1.0242 Y-0.1249
X1.0305 Y-0.1248
G3 X1.3067 Y-0.1028 I-0.186 J4.0835
X1.5491 Y-0.0516 I-0.1764 J1.4339
X1.8097 Y0.0583 I-0.5403 J1.6457
X1.9474 Y0.13 I-1.9715 J3.9511
G1 X1.9537 Y0.1336
X1.9598 Y0.1375
X1.9657 Y0.1418
G3 X2.1521 Y0.2963 I-1.7075 J2.2493
X2.2884 Y0.4517 I-0.6747 J0.7293
X2.3932 Y0.6909 I-0.6322 J0.4196
X2.4315 Y0.8889 I-1.4915 J0.391
G1 X2.437 Y0.9269
X2.4371 Y0.9275
X2.4422 Y0.9657
G3 X2.4428 Y0.9938 I-0.1239 J0.0167
X2.4186 Y1.188 I-1.9909 J-0.1496
X2.3778 Y1.3281 I-0.7877 J-0.1532
G1 X2.3752 Y1.334
G3 X2.2686 Y1.5106 I-0.7307 J-0.3203
X2.1834 Y1.6155 I-1.5809 J-1.1975
G1 X2.1789 Y1.6206
X2.1742 Y1.6255
X2.1692 Y1.6301
X2.1639 Y1.6344
G3 X1.9696 Y1.774 I-1.6118 J-2.0381
X1.7734 Y1.8687 I-0.5127 J-0.8118
X1.5354 Y1.9227 I-0.414 J-1.272
X1.4041 Y1.9404 I-0.5031 J-3.2489
G1 X1.397 Y1.9411
G2 X1.1276 Y1.965 I0.2318 J4.1482
X0.9826 Y1.9888 I0.6909 J4.6683
X0.8864 Y2.0156 I0.1694 J0.7937
X0.8448 Y2.0413 I0.0414 J0.1134
X0.8126 Y2.1051 I0.2097 J0.146
X0.8415 Y2.2186 I0.4824 J-0.0626
X0.9007 Y2.2928 I0.2201 J-0.1147
X0.972 Y2.3526 I0.6449 J-0.6968
X1.1318 Y2.4335 I0.7451 J-1.2747
X1.3178 Y2.474 I0.2298 J-0.6076
X1.4267 Y2.4822 I0.1672 J-1.4961
X1.6844 Y2.4473 I-0.0444 J-1.298
G3 X1.8266 Y2.4187 I1.2929 J6.0555
X1.9861 Y2.401 I0.2672 J1.6805
G1 X1.9928 Y2.4006
X1.9995 Y2.4005
X2.0062 Y2.4008
X2.0129 Y2.4015
G3 X2.1164 Y2.4215 I-0.0725 J0.654
G1 X2.1232 Y2.4241
X2.1338 Y2.4279
G3 X2.1419 Y2.4312 I-0.0424 J0.1176
G1 X2.152 Y2.4356
G3 X2.1613 Y2.4402 I-0.0506 J0.1143
G1 X2.1707 Y2.4453
G3 X2.1811 Y2.4517 I-0.0599 J0.1097
G1 X2.1897 Y2.4576
G3 X2.2008 Y2.4661 I-0.0704 J0.1033
G1 X2.2086 Y2.4727
G3 X2.2195 Y2.4833 I-0.0814 J0.0948
G1 X2.2264 Y2.4909
G3 X2.2354 Y2.5019 I-0.0923 J0.0843
G1 X2.2415 Y2.5104
G3 X2.2483 Y2.5209 I-0.1013 J0.0732
G1 X2.2536 Y2.5301
G3 X2.2586 Y2.5395 I-0.1081 J0.0627
G1 X2.2632 Y2.5494
G3 X2.2668 Y2.5577 I-0.1131 J0.0533
G1 X2.2708 Y2.5682
G3 X2.2733 Y2.5752 I-0.1166 J0.045
G1 X2.2768 Y2.5862
G3 X2.2785 Y2.592 I-0.1191 J0.0379
X2.2953 Y2.6785 I-0.6087 J0.163
G1 X2.2962 Y2.6864
X2.2967 Y2.6944
X2.2966 Y2.7024
X2.2961 Y2.7103
X2.295 Y2.7183
X2.2934 Y2.7261
X2.2913 Y2.7338
X2.2888 Y2.7414
X2.2857 Y2.7488
X2.2822 Y2.756
G3 X2.2229 Y2.8563 I-0.7906 J-0.4
G1 X2.2189 Y2.8612
X2.2089 Y2.8741
G3 X2.2041 Y2.8799 I-0.0987 J-0.0767
G1 X2.1934 Y2.892
G3 X2.1874 Y2.8984 I-0.0939 J-0.0825
G1 X2.176 Y2.9097
G3 X2.1692 Y2.916 I-0.0878 J-0.0889
G1 X2.1571 Y2.9262
G3 X2.1501 Y2.9317 I-0.081 J-0.0952
G1 X2.1373 Y2.9411
G3 X2.1307 Y2.9457 I-0.074 J-0.1007
G1 X2.1172 Y2.9543
G3 X2.1108 Y2.9581 I-0.0674 J-0.1053
G1 X2.0968 Y2.966
G3 X2.0909 Y2.9691 I-0.061 J-0.1091
X1.954 Y3.0176 I-0.2699 J-0.5438
G1 X1.8326 Y3.0464
G3 X1.4703 Y3.0993 I-0.4149 J-1.5751
G1 X1.4522 Y3.1005
X1.4339 Y3.1014
G3 X1.4157 Y3.101 I-0.0062 J-0.1248
X1.16 Y3.0695 I0.267 J-3.2216
X0.9363 Y3.0069 I0.2027 J-1.1554
X0.703 Y2.8865 I0.6041 J-1.4574
X0.5813 Y2.8104 I2.0679 J-3.4408
G1 X0.5758 Y2.8067
X0.5705 Y2.8028
G3 X0.3851 Y2.6448 I1.5117 J-1.9621
X0.3094 Y2.5613 I0.7871 J-0.7892
X0.1862 Y2.3293 I0.5383 J-0.4345
X0.1375 Y2.126 I1.4416 J-0.4529
G1 X0.1311 Y2.0935
G3 X0.1301 Y2.0534 I0.1228 J-0.0232
X0.1633 Y1.8712 I1.3746 J0.1565
X0.1794 Y1.8225 I0.7771 J0.2301
X0.1818 Y1.8162 I0.1179 J0.0414
G1 X0.1903 Y1.7955
G3 X0.1935 Y1.7886 I0.1155 J0.0477
G1 X0.2032 Y1.7686
G3 X0.2072 Y1.7611 I0.1124 J0.0547
G1 X0.2182 Y1.7419
G3 X0.2228 Y1.7344 I0.1084 J0.0622
G1 X0.2351 Y1.716
G3 X0.2398 Y1.7095 I0.1038 J0.0696
G1 X0.2534 Y1.6918
G3 X0.2579 Y1.6862 I0.0991 J0.0761
G1 X0.2726 Y1.6692
G3 X0.2769 Y1.6645 I0.0946 J0.0817
X0.4194 Y1.5439 I0.6347 J0.6052
G1 X0.4388 Y1.5295
X0.4393 Y1.5291
X0.459 Y1.5152
G3 X0.4787 Y1.5038 I0.0722 J0.102
X0.6817 Y1.4183 I0.9343 J1.9352
X0.9301 Y1.3681 I0.3399 J1.0425
G1 X0.9528 Y1.3655
X0.9539 Y1.3654
X0.9642 Y1.3645
G2 X0.9869 Y1.3373 I-0.0022 J-0.0249
G1 X0.9847 Y1.3124
X0.9843 Y1.3085 Z-0.0497
X0.984 Y1.3047 Z-0.0488
X0.9837 Y1.3011 Z-0.0473
X0.9834 Y1.2978 Z-0.0452
X0.9831 Y1.2948 Z-0.0427
X0.9829 Y1.2923 Z-0.0397
X0.9827 Y1.2902 Z-0.0363
X0.9825 Y1.2888 Z-0.0327
Y1.2878 Z-0.0289
X0.9824 Y1.2875 Z-0.025
X0.9326 Y1.292
Z-0.075
X0.9327 Y1.2923 Z-0.0789
Y1.2932 Z-0.0827
X0.9329 Y1.2947 Z-0.0863
X0.9331 Y1.2968 Z-0.0897
X0.9333 Y1.2993 Z-0.0927
X0.9336 Y1.3023 Z-0.0952
X0.9339 Y1.3056 Z-0.0973
X0.9342 Y1.3092 Z-0.0988
X0.9345 Y1.313 Z-0.0997
X0.9349 Y1.3169 Z-0.1
X0.9371 Y1.3418
G2 X0.9642 Y1.3645 I0.0249 J-0.0022
G3 X1.1481 Y1.3515 I0.4955 J5.6993
G2 X1.3295 Y1.3271 I-0.1014 J-1.4454
X1.5235 Y1.2625 I-0.2838 J-1.1751
G1 X1.5463 Y1.2535
X1.5693 Y1.244
X1.5843 Y1.2377
G2 X1.7032 Y1.1589 I-0.4856 J-0.8624
X1.7517 Y1.1025 I-0.1386 J-0.1683
X1.7849 Y0.9986 I-0.355 J-0.1708
G1 X1.7892 Y0.9792
X1.7928 Y0.9605
G2 X1.7616 Y0.8262 I-1.0269 J0.1679
X1.7253 Y0.7529 I-0.2653 J0.0856
X1.6458 Y0.679 I-0.2869 J0.2292
X1.5309 Y0.6059 I-0.7888 J1.1117
X1.3264 Y0.5272 I-0.7777 J1.7169
X1.1138 Y0.4941 I-0.2597 J0.9675
X1.007 Y0.4884 I-0.1248 J1.3494
X0.8351 Y0.4997 I0.0163 J1.5715
X0.67 Y0.5518 I0.0984 J0.5997
X0.6115 Y0.5785 I0.5082 J1.1875
X0.4875 Y0.717 I0.359 J0.4463
G3 X0.4261 Y0.7993 I-0.8434 J-0.5652
X0.3919 Y0.8337 I-0.3152 J-0.2791
G1 X0.3872 Y0.8376
X0.3806 Y0.8429
G3 X0.3752 Y0.8471 I-0.0788 J-0.097
G1 X0.3684 Y0.852
G3 X0.3622 Y0.8563 I-0.0734 J-0.1012
G1 X0.3552 Y0.8607
G3 X0.3483 Y0.8648 I-0.0672 J-0.1054
G1 X0.341 Y0.8688
G3 X0.3343 Y0.8723 I-0.0603 J-0.1095
G1 X0.3268 Y0.8759
G3 X0.3207 Y0.8786 I-0.0537 J-0.1129
X0.2295 Y0.9041 I-0.1545 J-0.3768
G1 X0.2207 Y0.906
G3 X0.188 Y0.9079 I-0.0235 J-0.1228
X0.0761 Y0.8878 I0.0151 J-0.4051
X-0.0179 Y0.8321 I0.1463 J-0.3542
G1 X-0.0249 Y0.8267
X-0.0315 Y0.8209
X-0.0377 Y0.8146
G3 X-0.0967 Y0.7336 I0.2769 J-0.2639
G1 X-0.0993 Y0.7273
X-0.1017 Y0.7218
G3 X-0.1044 Y0.7154 I0.1142 J-0.0508
G1 X-0.1065 Y0.7098
G3 X-0.1087 Y0.7036 I0.1168 J-0.0444
X-0.1241 Y0.6121 I0.3166 J-0.1003
G1 X-0.1247 Y0.6058
G3 X-0.1217 Y0.5693 I0.1247 J-0.0081
X-0.0757 Y0.4001 I1.5485 J0.3306
X-0.0544 Y0.3476 I0.7462 J0.2724
X-0.0516 Y0.3415 I0.1149 J0.0493
X0.0599 Y0.1881 I0.4351 J0.1989
G1 X0.0651 Y0.1833
X0.084 Y0.1667
G3 X0.0888 Y0.1628 I0.0822 J0.0942
X0.2377 Y0.0655 I0.5822 J0.7287
X0.311 Y0.0261 I1.0604 J1.8845
G1 X0.3174 Y0.023
X0.324 Y0.0202
G3 X0.5746 Y-0.0683 I1.1139 J2.7568
X0.8744 Y-0.1168 I0.3754 J1.3691
X1.0178 Y-0.1247 I0.2535 J3.283
G1 X1.0242 Y-0.1249
X1.0305 Y-0.1248
G3 X1.3067 Y-0.1028 I-0.186 J4.0835
X1.5491 Y-0.0516 I-0.1764 J1.4339
X1.8097 Y0.0583 I-0.5403 J1.6457
X1.9474 Y0.13 I-1.9715 J3.9511
G1 X1.9537 Y0.1336
X1.9598 Y0.1375
X1.9657 Y0.1418
G3 X2.1521 Y0.2963 I-1.7075 J2.2493
X2.2884 Y0.4517 I-0.6747 J0.7293
X2.3932 Y0.6909 I-0.6322 J0.4196
X2.4315 Y0.8889 I-1.4915 J0.391
G1 X2.437 Y0.9269
X2.4371 Y0.9275
X2.4422 Y0.9657
G3 X2.4428 Y0.9938 I-0.1239 J0.0167
X2.4186 Y1.188 I-1.9909 J-0.1496
X2.3778 Y1.3281 I-0.7877 J-0.1532
G1 X2.3752 Y1.334
G3 X2.2686 Y1.5106 I-0.7307 J-0.3203
X2.1834 Y1.6155 I-1.5809 J-1.1975
G1 X2.1789 Y1.6206
X2.1742 Y1.6255
X2.1692 Y1.6301
X2.1639 Y1.6344
G3 X1.9696 Y1.774 I-1.6118 J-2.0381
X1.7734 Y1.8687 I-0.5127 J-0.8118
X1.5354 Y1.9227 I-0.414 J-1.272
X1.4041 Y1.9404 I-0.5031 J-3.2489
G1 X1.397 Y1.9411
G2 X1.1276 Y1.965 I0.2318 J4.1482
X0.9826 Y1.9888 I0.6909 J4.6683
X0.8864 Y2.0156 I0.1694 J0.7937
X0.8448 Y2.0413 I0.0414 J0.1134
X0.8126 Y2.1051 I0.2097 J0.146
X0.8415 Y2.2186 I0.4824 J-0.0626
X0.9007 Y2.2928 I0.2201 J-0.1147
X0.972 Y2.3526 I0.6449 J-0.6968
X1.1318 Y2.4335 I0.7451 J-1.2747
X1.3178 Y2.474 I0.2298 J-0.6076
X1.4267 Y2.4822 I0.1672 J-1.4961
X1.6844 Y2.4473 I-0.0444 J-1.298
G3 X1.8266 Y2.4187 I1.2929 J6.0555
X1.9861 Y2.401 I0.2672 J1.6805
G1 X1.9928 Y2.4006
X1.9995 Y2.4005
X2.0062 Y2.4008
X2.0129 Y2.4015
G3 X2.1164 Y2.4215 I-0.0725 J0.654
G1 X2.1232 Y2.4241
X2.1338 Y2.4279
G3 X2.1419 Y2.4312 I-0.0424 J0.1176
G1 X2.152 Y2.4356
G3 X2.1613 Y2.4402 I-0.0506 J0.1143
G1 X2.1707 Y2.4453
G3 X2.1811 Y2.4517 I-0.0599 J0.1097
G1 X2.1897 Y2.4576
G3 X2.2008 Y2.4661 I-0.0704 J0.1033
G1 X2.2086 Y2.4727
G3 X2.2195 Y2.4833 I-0.0814 J0.0948
G1 X2.2264 Y2.4909
G3 X2.2354 Y2.5019 I-0.0923 J0.0843
G1 X2.2415 Y2.5104
G3 X2.2483 Y2.5209 I-0.1013 J0.0732
G1 X2.2536 Y2.5301
G3 X2.2586 Y2.5395 I-0.1081 J0.0627
G1 X2.2632 Y2.5494
G3 X2.2668 Y2.5577 I-0.1131 J0.0533
G1 X2.2708 Y2.5682
G3 X2.2733 Y2.5752 I-0.1166 J0.045
G1 X2.2768 Y2.5862
G3 X2.2785 Y2.592 I-0.1191 J0.0379
X2.2953 Y2.6785 I-0.6087 J0.163
G1 X2.2962 Y2.6864
X2.2967 Y2.6944
X2.2966 Y2.7024
X2.2961 Y2.7103
X2.295 Y2.7183
X2.2934 Y2.7261
X2.2913 Y2.7338
X2.2888 Y2.7414
X2.2857 Y2.7488
X2.2822 Y2.756
G3 X2.2229 Y2.8563 I-0.7906 J-0.4
G1 X2.2189 Y2.8612
X2.2089 Y2.8741
G3 X2.2041 Y2.8799 I-0.0987 J-0.0767
G1 X2.1934 Y2.892
G3 X2.1874 Y2.8984 I-0.0939 J-0.0825
G1 X2.176 Y2.9097
G3 X2.1692 Y2.916 I-0.0878 J-0.0889
G1 X2.1571 Y2.9262
G3 X2.1501 Y2.9317 I-0.081 J-0.0952
G1 X2.1373 Y2.9411
G3 X2.1307 Y2.9457 I-0.074 J-0.1007
G1 X2.1172 Y2.9543
G3 X2.1108 Y2.9581 I-0.0674 J-0.1053
G1 X2.0968 Y2.966
G3 X2.0909 Y2.9691 I-0.061 J-0.1091
X1.954 Y3.0176 I-0.2699 J-0.5438
G1 X1.8326 Y3.0464
G3 X1.4703 Y3.0993 I-0.4149 J-1.5751
G1 X1.4522 Y3.1005
X1.4339 Y3.1014
G3 X1.4157 Y3.101 I-0.0062 J-0.1248
X1.16 Y3.0695 I0.267 J-3.2216
X0.9363 Y3.0069 I0.2027 J-1.1554
X0.703 Y2.8865 I0.6041 J-1.4574
X0.5813 Y2.8104 I2.0679 J-3.4408
G1 X0.5758 Y2.8067
X0.5705 Y2.8028
G3 X0.3851 Y2.6448 I1.5117 J-1.9621
X0.3094 Y2.5613 I0.7871 J-0.7892
X0.1862 Y2.3293 I0.5383 J-0.4345
X0.1375 Y2.126 I1.4416 J-0.4529
G1 X0.1311 Y2.0935
G3 X0.1301 Y2.0534 I0.1228 J-0.0232
X0.1633 Y1.8712 I1.3746 J0.1565
X0.1794 Y1.8225 I0.7771 J0.2301
X0.1818 Y1.8162 I0.1179 J0.0414
G1 X0.1903 Y1.7955
G3 X0.1935 Y1.7886 I0.1155 J0.0477
G1 X0.2032 Y1.7686
G3 X0.2072 Y1.7611 I0.1124 J0.0547
G1 X0.2182 Y1.7419
G3 X0.2228 Y1.7344 I0.1084 J0.0622
G1 X0.2351 Y1.716
G3 X0.2398 Y1.7095 I0.1038 J0.0696
G1 X0.2534 Y1.6918
G3 X0.2579 Y1.6862 I0.0991 J0.0761
G1 X0.2726 Y1.6692
G3 X0.2769 Y1.6645 I0.0946 J0.0817
X0.4194 Y1.5439 I0.6347 J0.6052
G1 X0.4388 Y1.5295
X0.4393 Y1.5291
X0.459 Y1.5152
G3 X0.4787 Y1.5038 I0.0722 J0.102
X0.6817 Y1.4183 I0.9343 J1.9352
X0.9301 Y1.3681 I0.3399 J1.0425
G1 X0.9528 Y1.3655
X0.9539 Y1.3654
X0.9642 Y1.3645
G2 X0.9869 Y1.3373 I-0.0022 J-0.0249
G1 X0.9847 Y1.3124
X0.9843 Y1.3085 Z-0.0997
X0.984 Y1.3047 Z-0.0988
X0.9837 Y1.3011 Z-0.0973
X0.9834 Y1.2978 Z-0.0952
X0.9831 Y1.2948 Z-0.0927
X0.9829 Y1.2923 Z-0.0897
X0.9827 Y1.2902 Z-0.0863
X0.9825 Y1.2888 Z-0.0827
Y1.2878 Z-0.0789
X0.9824 Y1.2875 Z-0.075
X0.9326 Y1.292
Z-0.125
X0.9327 Y1.2923 Z-0.1289
Y1.2932 Z-0.1327
X0.9329 Y1.2947 Z-0.1363
X0.9331 Y1.2968 Z-0.1397
X0.9333 Y1.2993 Z-0.1427
X0.9336 Y1.3023 Z-0.1452
X0.9339 Y1.3056 Z-0.1473
X0.9342 Y1.3092 Z-0.1488
X0.9345 Y1.313 Z-0.1497
X0.9349 Y1.3169 Z-0.15
X0.9371 Y1.3418
G2 X0.9642 Y1.3645 I0.0249 J-0.0022
G3 X1.1481 Y1.3515 I0.4955 J5.6993
G2 X1.3295 Y1.3271 I-0.1014 J-1.4454
X1.5235 Y1.2625 I-0.2838 J-1.1751
G1 X1.5463 Y1.2535
X1.5693 Y1.244
X1.5843 Y1.2377
G2 X1.7032 Y1.1589 I-0.4856 J-0.8624
X1.7517 Y1.1025 I-0.1386 J-0.1683
X1.7849 Y0.9986 I-0.355 J-0.1708
G1 X1.7892 Y0.9792
X1.7928 Y0.9605
G2 X1.7616 Y0.8262 I-1.0269 J0.1679
X1.7253 Y0.7529 I-0.2653 J0.0856
X1.6458 Y0.679 I-0.2869 J0.2292
X1.5309 Y0.6059 I-0.7888 J1.1117
X1.3264 Y0.5272 I-0.7777 J1.7169
X1.1138 Y0.4941 I-0.2597 J0.9675
X1.007 Y0.4884 I-0.1248 J1.3494
X0.8351 Y0.4997 I0.0163 J1.5715
X0.67 Y0.5518 I0.0984 J0.5997
X0.6115 Y0.5785 I0.5082 J1.1875
X0.4875 Y0.717 I0.359 J0.4463
G3 X0.4261 Y0.7993 I-0.8434 J-0.5652
X0.3919 Y0.8337 I-0.3152 J-0.2791
G1 X0.3872 Y0.8376
X0.3806 Y0.8429
G3 X0.3752 Y0.8471 I-0.0788 J-0.097
G1 X0.3684 Y0.852
G3 X0.3622 Y0.8563 I-0.0734 J-0.1012
G1 X0.3552 Y0.8607
G3 X0.3483 Y0.8648 I-0.0672 J-0.1054
G1 X0.341 Y0.8688
G3 X0.3343 Y0.8723 I-0.0603 J-0.1095
G1 X0.3268 Y0.8759
G3 X0.3207 Y0.8786 I-0.0537 J-0.1129
X0.2295 Y0.9041 I-0.1545 J-0.3768
G1 X0.2207 Y0.906
G3 X0.188 Y0.9079 I-0.0235 J-0.1228
X0.0761 Y0.8878 I0.0151 J-0.4051
X-0.0179 Y0.8321 I0.1463 J-0.3542
G1 X-0.0249 Y0.8267
X-0.0315 Y0.8209
X-0.0377 Y0.8146
G3 X-0.0967 Y0.7336 I0.2769 J-0.2639
G1 X-0.0993 Y0.7273
X-0.1017 Y0.7218
G3 X-0.1044 Y0.7154 I0.1142 J-0.0508
G1 X-0.1065 Y0.7098
G3 X-0.1087 Y0.7036 I0.1168 J-0.0444
X-0.1241 Y0.6121 I0.3166 J-0.1003
G1 X-0.1247 Y0.6058
G3 X-0.1217 Y0.5693 I0.1247 J-0.0081
X-0.0757 Y0.4001 I1.5485 J0.3306
X-0.0544 Y0.3476 I0.7462 J0.2724
X-0.0516 Y0.3415 I0.1149 J0.0493
X0.0599 Y0.1881 I0.4351 J0.1989
G1 X0.0651 Y0.1833
X0.084 Y0.1667
G3 X0.0888 Y0.1628 I0.0822 J0.0942
X0.2377 Y0.0655 I0.5822 J0.7287
X0.311 Y0.0261 I1.0604 J1.8845
G1 X0.3174 Y0.023
X0.324 Y0.0202
G3 X0.5746 Y-0.0683 I1.1139 J2.7568
X0.8744 Y-0.1168 I0.3754 J1.3691
X1.0178 Y-0.1247 I0.2535 J3.283
G1 X1.0242 Y-0.1249
X1.0305 Y-0.1248
G3 X1.3067 Y-0.1028 I-0.186 J4.0835
X1.5491 Y-0.0516 I-0.1764 J1.4339
X1.8097 Y0.0583 I-0.5403 J1.6457
X1.9474 Y0.13 I-1.9715 J3.9511
G1 X1.9537 Y0.1336
X1.9598 Y0.1375
X1.9657 Y0.1418
G3 X2.1521 Y0.2963 I-1.7075 J2.2493
X2.2884 Y0.4517 I-0.6747 J0.7293
X2.3932 Y0.6909 I-0.6322 J0.4196
X2.4315 Y0.8889 I-1.4915 J0.391
G1 X2.437 Y0.9269
X2.4371 Y0.9275
X2.4422 Y0.9657
G3 X2.4428 Y0.9938 I-0.1239 J0.0167
X2.4186 Y1.188 I-1.9909 J-0.1496
X2.3778 Y1.3281 I-0.7877 J-0.1532
G1 X2.3752 Y1.334
G3 X2.2686 Y1.5106 I-0.7307 J-0.3203
X2.1834 Y1.6155 I-1.5809 J-1.1975
G1 X2.1789 Y1.6206
X2.1742 Y1.6255
X2.1692 Y1.6301
X2.1639 Y1.6344
G3 X1.9696 Y1.774 I-1.6118 J-2.0381
X1.7734 Y1.8687 I-0.5127 J-0.8118
X1.5354 Y1.9227 I-0.414 J-1.272
X1.4041 Y1.9404 I-0.5031 J-3.2489
G1 X1.397 Y1.9411
G2 X1.1276 Y1.965 I0.2318 J4.1482
X0.9826 Y1.9888 I0.6909 J4.6683
X0.8864 Y2.0156 I0.1694 J0.7937
X0.8448 Y2.0413 I0.0414 J0.1134
X0.8126 Y2.1051 I0.2097 J0.146
X0.8415 Y2.2186 I0.4824 J-0.0626
X0.9007 Y2.2928 I0.2201 J-0.1147
X0.972 Y2.3526 I0.6449 J-0.6968
X1.1318 Y2.4335 I0.7451 J-1.2747
X1.3178 Y2.474 I0.2298 J-0.6076
X1.4267 Y2.4822 I0.1672 J-1.4961
X1.6844 Y2.4473 I-0.0444 J-1.298
G3 X1.8266 Y2.4187 I1.2929 J6.0555
X1.9861 Y2.401 I0.2672 J1.6805
G1 X1.9928 Y2.4006
X1.9995 Y2.4005
X2.0062 Y2.4008
X2.0129 Y2.4015
G3 X2.1164 Y2.4215 I-0.0725 J0.654
G1 X2.1232 Y2.4241
X2.1338 Y2.4279
G3 X2.1419 Y2.4312 I-0.0424 J0.1176
G1 X2.152 Y2.4356
G3 X2.1613 Y2.4402 I-0.0506 J0.1143
G1 X2.1707 Y2.4453
G3 X2.1811 Y2.4517 I-0.0599 J0.1097
G1 X2.1897 Y2.4576
G3 X2.2008 Y2.4661 I-0.0704 J0.1033
G1 X2.2086 Y2.4727
G3 X2.2195 Y2.4833 I-0.0814 J0.0948
G1 X2.2264 Y2.4909
G3 X2.2354 Y2.5019 I-0.0923 J0.0843
G1 X2.2415 Y2.5104
G3 X2.2483 Y2.5209 I-0.1013 J0.0732
G1 X2.2536 Y2.5301
G3 X2.2586 Y2.5395 I-0.1081 J0.0627
G1 X2.2632 Y2.5494
G3 X2.2668 Y2.5577 I-0.1131 J0.0533
G1 X2.2708 Y2.5682
G3 X2.2733 Y2.5752 I-0.1166 J0.045
G1 X2.2768 Y2.5862
G3 X2.2785 Y2.592 I-0.1191 J0.0379
X2.2953 Y2.6785 I-0.6087 J0.163
G1 X2.2962 Y2.6864
X2.2967 Y2.6944
X2.2966 Y2.7024
X2.2961 Y2.7103
X2.295 Y2.7183
X2.2934 Y2.7261
X2.2913 Y2.7338
X2.2888 Y2.7414
X2.2857 Y2.7488
X2.2822 Y2.756
G3 X2.2229 Y2.8563 I-0.7906 J-0.4
G1 X2.2189 Y2.8612
X2.2089 Y2.8741
G3 X2.2041 Y2.8799 I-0.0987 J-0.0767
G1 X2.1934 Y2.892
G3 X2.1874 Y2.8984 I-0.0939 J-0.0825
G1 X2.176 Y2.9097
G3 X2.1692 Y2.916 I-0.0878 J-0.0889
G1 X2.1571 Y2.9262
G3 X2.1501 Y2.9317 I-0.081 J-0.0952
G1 X2.1373 Y2.9411
G3 X2.1307 Y2.9457 I-0.074 J-0.1007
G1 X2.1172 Y2.9543
G3 X2.1108 Y2.9581 I-0.0674 J-0.1053
G1 X2.0968 Y2.966
G3 X2.0909 Y2.9691 I-0.061 J-0.1091
X1.954 Y3.0176 I-0.2699 J-0.5438
G1 X1.8326 Y3.0464
G3 X1.4703 Y3.0993 I-0.4149 J-1.5751
G1 X1.4522 Y3.1005
X1.4339 Y3.1014
G3 X1.4157 Y3.101 I-0.0062 J-0.1248
X1.16 Y3.0695 I0.267 J-3.2216
X0.9363 Y3.0069 I0.2027 J-1.1554
X0.703 Y2.8865 I0.6041 J-1.4574
X0.5813 Y2.8104 I2.0679 J-3.4408
G1 X0.5758 Y2.8067
X0.5705 Y2.8028
G3 X0.3851 Y2.6448 I1.5117 J-1.9621
X0.3094 Y2.5613 I0.7871 J-0.7892
X0.1862 Y2.3293 I0.5383 J-0.4345
X0.1375 Y2.126 I1.4416 J-0.4529
G1 X0.1311 Y2.0935
G3 X0.1301 Y2.0534 I0.1228 J-0.0232
X0.1633 Y1.8712 I1.3746 J0.1565
X0.1794 Y1.8225 I0.7771 J0.2301
X0.1818 Y1.8162 I0.1179 J0.0414
G1 X0.1903 Y1.7955
G3 X0.1935 Y1.7886 I0.1155 J0.0477
G1 X0.2032 Y1.7686
G3 X0.2072 Y1.7611 I0.1124 J0.0547
G1 X0.2182 Y1.7419
G3 X0.2228 Y1.7344 I0.1084 J0.0622
G1 X0.2351 Y1.716
G3 X0.2398 Y1.7095 I0.1038 J0.0696
G1 X0.2534 Y1.6918
G3 X0.2579 Y1.6862 I0.0991 J0.0761
G1 X0.2726 Y1.6692
G3 X0.2769 Y1.6645 I0.0946 J0.0817
X0.4194 Y1.5439 I0.6347 J0.6052
G1 X0.4388 Y1.5295
X0.4393 Y1.5291
X0.459 Y1.5152
G3 X0.4787 Y1.5038 I0.0722 J0.102
X0.6817 Y1.4183 I0.9343 J1.9352
X0.9301 Y1.3681 I0.3399 J1.0425
G1 X0.9528 Y1.3655
X0.9539 Y1.3654
X0.9642 Y1.3645
G2 X0.9869 Y1.3373 I-0.0022 J-0.0249
G1 X0.9847 Y1.3124
X0.9843 Y1.3085 Z-0.1497
X0.984 Y1.3047 Z-0.1488
X0.9837 Y1.3011 Z-0.1473
X0.9834 Y1.2978 Z-0.1452
X0.9831 Y1.2948 Z-0.1427
X0.9829 Y1.2923 Z-0.1397
X0.9827 Y1.2902 Z-0.1363
X0.9825 Y1.2888 Z-0.1327
Y1.2878 Z-0.1289
X0.9824 Y1.2875 Z-0.125
X0.9326 Y1.292
Z-0.175
X0.9327 Y1.2923 Z-0.1789
Y1.2932 Z-0.1827
X0.9329 Y1.2947 Z-0.1863
X0.9331 Y1.2968 Z-0.1897
X0.9333 Y1.2993 Z-0.1927
X0.9336 Y1.3023 Z-0.1952
X0.9339 Y1.3056 Z-0.1973
X0.9342 Y1.3092 Z-0.1988
X0.9345 Y1.313 Z-0.1997
X0.9349 Y1.3169 Z-0.2
X0.9371 Y1.3418
G2 X0.9642 Y1.3645 I0.0249 J-0.0022
G3 X1.1481 Y1.3515 I0.4955 J5.6993
G2 X1.3295 Y1.3271 I-0.1014 J-1.4454
X1.5235 Y1.2625 I-0.2838 J-1.1751
G1 X1.5463 Y1.2535
X1.5693 Y1.244
X1.5843 Y1.2377
G2 X1.7032 Y1.1589 I-0.4856 J-0.8624
X1.7517 Y1.1025 I-0.1386 J-0.1683
X1.7849 Y0.9986 I-0.355 J-0.1708
G1 X1.7892 Y0.9792
X1.7928 Y0.9605
G2 X1.7616 Y0.8262 I-1.0269 J0.1679
X1.7253 Y0.7529 I-0.2653 J0.0856
X1.6458 Y0.679 I-0.2869 J0.2292
X1.5309 Y0.6059 I-0.7888 J1.1117
X1.3264 Y0.5272 I-0.7777 J1.7169
X1.1138 Y0.4941 I-0.2597 J0.9675
X1.007 Y0.4884 I-0.1248 J1.3494
X0.8351 Y0.4997 I0.0163 J1.5715
X0.67 Y0.5518 I0.0984 J0.5997
X0.6115 Y0.5785 I0.5082 J1.1875
X0.4875 Y0.717 I0.359 J0.4463
G3 X0.4261 Y0.7993 I-0.8434 J-0.5652
X0.3919 Y0.8337 I-0.3152 J-0.2791
G1 X0.3872 Y0.8376
X0.3806 Y0.8429
G3 X0.3752 Y0.8471 I-0.0788 J-0.097
G1 X0.3684 Y0.852
G3 X0.3622 Y0.8563 I-0.0734 J-0.1012
G1 X0.3552 Y0.8607
G3 X0.3483 Y0.8648 I-0.0672 J-0.1054
G1 X0.341 Y0.8688
G3 X0.3343 Y0.8723 I-0.0603 J-0.1095
G1 X0.3268 Y0.8759
G3 X0.3207 Y0.8786 I-0.0537 J-0.1129
X0.2295 Y0.9041 I-0.1545 J-0.3768
G1 X0.2207 Y0.906
G3 X0.188 Y0.9079 I-0.0235 J-0.1228
X0.0761 Y0.8878 I0.0151 J-0.4051
X-0.0179 Y0.8321 I0.1463 J-0.3542
G1 X-0.0249 Y0.8267
X-0.0315 Y0.8209
X-0.0377 Y0.8146
G3 X-0.0967 Y0.7336 I0.2769 J-0.2639
G1 X-0.0993 Y0.7273
X-0.1017 Y0.7218
G3 X-0.1044 Y0.7154 I0.1142 J-0.0508
G1 X-0.1065 Y0.7098
G3 X-0.1087 Y0.7036 I0.1168 J-0.0444
X-0.1241 Y0.6121 I0.3166 J-0.1003
G1 X-0.1247 Y0.6058
G3 X-0.1217 Y0.5693 I0.1247 J-0.0081
X-0.0757 Y0.4001 I1.5485 J0.3306
X-0.0544 Y0.3476 I0.7462 J0.2724
X-0.0516 Y0.3415 I0.1149 J0.0493
X0.0599 Y0.1881 I0.4351 J0.1989
G1 X0.0651 Y0.1833
X0.084 Y0.1667
G3 X0.0888 Y0.1628 I0.0822 J0.0942
X0.2377 Y0.0655 I0.5822 J0.7287
X0.311 Y0.0261 I1.0604 J1.8845
G1 X0.3174 Y0.023
X0.324 Y0.0202
G3 X0.5746 Y-0.0683 I1.1139 J2.7568
X0.8744 Y-0.1168 I0.3754 J1.3691
X1.0178 Y-0.1247 I0.2535 J3.283
G1 X1.0242 Y-0.1249
X1.0305 Y-0.1248
G3 X1.3067 Y-0.1028 I-0.186 J4.0835
X1.5491 Y-0.0516 I-0.1764 J1.4339
X1.8097 Y0.0583 I-0.5403 J1.6457
X1.9474 Y0.13 I-1.9715 J3.9511
G1 X1.9537 Y0.1336
X1.9598 Y0.1375
X1.9657 Y0.1418
G3 X2.1521 Y0.2963 I-1.7075 J2.2493
X2.2884 Y0.4517 I-0.6747 J0.7293
X2.3932 Y0.6909 I-0.6322 J0.4196
X2.4315 Y0.8889 I-1.4915 J0.391
G1 X2.437 Y0.9269
X2.4371 Y0.9275
X2.4422 Y0.9657
G3 X2.4428 Y0.9938 I-0.1239 J0.0167
X2.4186 Y1.188 I-1.9909 J-0.1496
X2.3778 Y1.3281 I-0.7877 J-0.1532
G1 X2.3752 Y1.334
G3 X2.2686 Y1.5106 I-0.7307 J-0.3203
X2.1834 Y1.6155 I-1.5809 J-1.1975
G1 X2.1789 Y1.6206
X2.1742 Y1.6255
X2.1692 Y1.6301
X2.1639 Y1.6344
G3 X1.9696 Y1.774 I-1.6118 J-2.0381
X1.7734 Y1.8687 I-0.5127 J-0.8118
X1.5354 Y1.9227 I-0.414 J-1.272
X1.4041 Y1.9404 I-0.5031 J-3.2489
G1 X1.397 Y1.9411
G2 X1.1276 Y1.965 I0.2318 J4.1482
X0.9826 Y1.9888 I0.6909 J4.6683
X0.8864 Y2.0156 I0.1694 J0.7937
X0.8448 Y2.0413 I0.0414 J0.1134
X0.8126 Y2.1051 I0.2097 J0.146
X0.8415 Y2.2186 I0.4824 J-0.0626
X0.9007 Y2.2928 I0.2201 J-0.1147
X0.972 Y2.3526 I0.6449 J-0.6968
X1.1318 Y2.4335 I0.7451 J-1.2747
X1.3178 Y2.474 I0.2298 J-0.6076
X1.4267 Y2.4822 I0.1672 J-1.4961
X1.6844 Y2.4473 I-0.0444 J-1.298
G3 X1.8266 Y2.4187 I1.2929 J6.0555
X1.9861 Y2.401 I0.2672 J1.6805
G1 X1.9928 Y2.4006
X1.9995 Y2.4005
X2.0062 Y2.4008
X2.0129 Y2.4015
G3 X2.1164 Y2.4215 I-0.0725 J0.654
G1 X2.1232 Y2.4241
X2.1338 Y2.4279
G3 X2.1419 Y2.4312 I-0.0424 J0.1176
G1 X2.152 Y2.4356
G3 X2.1613 Y2.4402 I-0.0506 J0.1143
G1 X2.1707 Y2.4453
G3 X2.1811 Y2.4517 I-0.0599 J0.1097
G1 X2.1897 Y2.4576
G3 X2.2008 Y2.4661 I-0.0704 J0.1033
G1 X2.2086 Y2.4727
G3 X2.2195 Y2.4833 I-0.0814 J0.0948
G1 X2.2264 Y2.4909
G3 X2.2354 Y2.5019 I-0.0923 J0.0843
G1 X2.2415 Y2.5104
G3 X2.2483 Y2.5209 I-0.1013 J0.0732
G1 X2.2536 Y2.5301
G3 X2.2586 Y2.5395 I-0.1081 J0.0627
G1 X2.2632 Y2.5494
G3 X2.2668 Y2.5577 I-0.1131 J0.0533
G1 X2.2708 Y2.5682
G3 X2.2733 Y2.5752 I-0.1166 J0.045
G1 X2.2768 Y2.5862
G3 X2.2785 Y2.592 I-0.1191 J0.0379
X2.2953 Y2.6785 I-0.6087 J0.163
G1 X2.2962 Y2.6864
X2.2967 Y2.6944
X2.2966 Y2.7024
X2.2961 Y2.7103
X2.295 Y2.7183
X2.2934 Y2.7261
X2.2913 Y2.7338
X2.2888 Y2.7414
X2.2857 Y2.7488
X2.2822 Y2.756
G3 X2.2229 Y2.8563 I-0.7906 J-0.4
G1 X2.2189 Y2.8612
X2.2089 Y2.8741
G3 X2.2041 Y2.8799 I-0.0987 J-0.0767
G1 X2.1934 Y2.892
G3 X2.1874 Y2.8984 I-0.0939 J-0.0825
G1 X2.176 Y2.9097
G3 X2.1692 Y2.916 I-0.0878 J-0.0889
G1 X2.1571 Y2.9262
G3 X2.1501 Y2.9317 I-0.081 J-0.0952
G1 X2.1373 Y2.9411
G3 X2.1307 Y2.9457 I-0.074 J-0.1007
G1 X2.1172 Y2.9543
G3 X2.1108 Y2.9581 I-0.0674 J-0.1053
G1 X2.0968 Y2.966
G3 X2.0909 Y2.9691 I-0.061 J-0.1091
X1.954 Y3.0176 I-0.2699 J-0.5438
G1 X1.8326 Y3.0464
G3 X1.4703 Y3.0993 I-0.4149 J-1.5751
G1 X1.4522 Y3.1005
X1.4339 Y3.1014
G3 X1.4157 Y3.101 I-0.0062 J-0.1248
X1.16 Y3.0695 I0.267 J-3.2216
X0.9363 Y3.0069 I0.2027 J-1.1554
X0.703 Y2.8865 I0.6041 J-1.4574
X0.5813 Y2.8104 I2.0679 J-3.4408
G1 X0.5758 Y2.8067
X0.5705 Y2.8028
G3 X0.3851 Y2.6448 I1.5117 J-1.9621
X0.3094 Y2.5613 I0.7871 J-0.7892
X0.1862 Y2.3293 I0.5383 J-0.4345
X0.1375 Y2.126 I1.4416 J-0.4529
G1 X0.1311 Y2.0935
G3 X0.1301 Y2.0534 I0.1228 J-0.0232
X0.1633 Y1.8712 I1.3746 J0.1565
X0.1794 Y1.8225 I0.7771 J0.2301
X0.1818 Y1.8162 I0.1179 J0.0414
G1 X0.1903 Y1.7955
G3 X0.1935 Y1.7886 I0.1155 J0.0477
G1 X0.2032 Y1.7686
G3 X0.2072 Y1.7611 I0.1124 J0.0547
G1 X0.2182 Y1.7419
G3 X0.2228 Y1.7344 I0.1084 J0.0622
G1 X0.2351 Y1.716
G3 X0.2398 Y1.7095 I0.1038 J0.0696
G1 X0.2534 Y1.6918
G3 X0.2579 Y1.6862 I0.0991 J0.0761
G1 X0.2726 Y1.6692
G3 X0.2769 Y1.6645 I0.0946 J0.0817
X0.4194 Y1.5439 I0.6347 J0.6052
G1 X0.4388 Y1.5295
X0.4393 Y1.5291
X0.459 Y1.5152
G3 X0.4787 Y1.5038 I0.0722 J0.102
X0.6817 Y1.4183 I0.9343 J1.9352
X0.9301 Y1.3681 I0.3399 J1.0425
G1 X0.9528 Y1.3655
X0.9539 Y1.3654
X0.9642 Y1.3645
G2 X0.9869 Y1.3373 I-0.0022 J-0.0249
G1 X0.9847 Y1.3124
X0.9843 Y1.3085 Z-0.1997
X0.984 Y1.3047 Z-0.1988
X0.9837 Y1.3011 Z-0.1973
X0.9834 Y1.2978 Z-0.1952
X0.9831 Y1.2948 Z-0.1927
X0.9829 Y1.2923 Z-0.1897
X0.9827 Y1.2902 Z-0.1863
X0.9825 Y1.2888 Z-0.1827
Y1.2878 Z-0.1789
X0.9824 Y1.2875 Z-0.175
X0.9326 Y1.292
Z-0.225
X0.9327 Y1.2923 Z-0.2289
Y1.2932 Z-0.2327
X0.9329 Y1.2947 Z-0.2363
X0.9331 Y1.2968 Z-0.2397
X0.9333 Y1.2993 Z-0.2427
X0.9336 Y1.3023 Z-0.2452
X0.9339 Y1.3056 Z-0.2473
X0.9342 Y1.3092 Z-0.2488
X0.9345 Y1.313 Z-0.2497
X0.9349 Y1.3169 Z-0.25
X0.9371 Y1.3418
G2 X0.9642 Y1.3645 I0.0249 J-0.0022
G3 X1.1481 Y1.3515 I0.4955 J5.6993
G2 X1.3295 Y1.3271 I-0.1014 J-1.4454
X1.5235 Y1.2625 I-0.2838 J-1.1751
G1 X1.5463 Y1.2535
X1.5693 Y1.244
X1.5843 Y1.2377
G2 X1.7032 Y1.1589 I-0.4856 J-0.8624
X1.7517 Y1.1025 I-0.1386 J-0.1683
X1.7849 Y0.9986 I-0.355 J-0.1708
G1 X1.7892 Y0.9792
X1.7928 Y0.9605
G2 X1.7616 Y0.8262 I-1.0269 J0.1679
X1.7253 Y0.7529 I-0.2653 J0.0856
X1.6458 Y0.679 I-0.2869 J0.2292
X1.5309 Y0.6059 I-0.7888 J1.1117
X1.3264 Y0.5272 I-0.7777 J1.7169
X1.1138 Y0.4941 I-0.2597 J0.9675
X1.007 Y0.4884 I-0.1248 J1.3494
X0.8351 Y0.4997 I0.0163 J1.5715
X0.67 Y0.5518 I0.0984 J0.5997
X0.6115 Y0.5785 I0.5082 J1.1875
X0.4875 Y0.717 I0.359 J0.4463
G3 X0.4261 Y0.7993 I-0.8434 J-0.5652
X0.3919 Y0.8337 I-0.3152 J-0.2791
G1 X0.3872 Y0.8376
X0.3806 Y0.8429
G3 X0.3752 Y0.8471 I-0.0788 J-0.097
G1 X0.3684 Y0.852
G3 X0.3622 Y0.8563 I-0.0734 J-0.1012
G1 X0.3552 Y0.8607
G3 X0.3483 Y0.8648 I-0.0672 J-0.1054
G1 X0.341 Y0.8688
G3 X0.3343 Y0.8723 I-0.0603 J-0.1095
G1 X0.3268 Y0.8759
G3 X0.3207 Y0.8786 I-0.0537 J-0.1129
X0.2295 Y0.9041 I-0.1545 J-0.3768
G1 X0.2207 Y0.906
G3 X0.188 Y0.9079 I-0.0235 J-0.1228
X0.0761 Y0.8878 I0.0151 J-0.4051
X-0.0179 Y0.8321 I0.1463 J-0.3542
G1 X-0.0249 Y0.8267
X-0.0315 Y0.8209
X-0.0377 Y0.8146
G3 X-0.0967 Y0.7336 I0.2769 J-0.2639
G1 X-0.0993 Y0.7273
X-0.1017 Y0.7218
G3 X-0.1044 Y0.7154 I0.1142 J-0.0508
G1 X-0.1065 Y0.7098
G3 X-0.1087 Y0.7036 I0.1168 J-0.0444
X-0.1241 Y0.6121 I0.3166 J-0.1003
G1 X-0.1247 Y0.6058
G3 X-0.1217 Y0.5693 I0.1247 J-0.0081
X-0.0757 Y0.4001 I1.5485 J0.3306
X-0.0544 Y0.3476 I0.7462 J0.2724
X-0.0516 Y0.3415 I0.1149 J0.0493
X0.0599 Y0.1881 I0.4351 J0.1989
G1 X0.0651 Y0.1833
X0.084 Y0.1667
G3 X0.0888 Y0.1628 I0.0822 J0.0942
X0.2377 Y0.0655 I0.5822 J0.7287
X0.311 Y0.0261 I1.0604 J1.8845
G1 X0.3174 Y0.023
X0.324 Y0.0202
G3 X0.5746 Y-0.0683 I1.1139 J2.7568
X0.8744 Y-0.1168 I0.3754 J1.3691
X1.0178 Y-0.1247 I0.2535 J3.283
G1 X1.0242 Y-0.1249
X1.0305 Y-0.1248
G3 X1.3067 Y-0.1028 I-0.186 J4.0835
X1.5491 Y-0.0516 I-0.1764 J1.4339
X1.8097 Y0.0583 I-0.5403 J1.6457
X1.9474 Y0.13 I-1.9715 J3.9511
G1 X1.9537 Y0.1336
X1.9598 Y0.1375
X1.9657 Y0.1418
G3 X2.1521 Y0.2963 I-1.7075 J2.2493
X2.2884 Y0.4517 I-0.6747 J0.7293
X2.3932 Y0.6909 I-0.6322 J0.4196
X2.4315 Y0.8889 I-1.4915 J0.391
G1 X2.437 Y0.9269
X2.4371 Y0.9275
X2.4422 Y0.9657
G3 X2.4428 Y0.9938 I-0.1239 J0.0167
X2.4186 Y1.188 I-1.9909 J-0.1496
X2.3778 Y1.3281 I-0.7877 J-0.1532
G1 X2.3752 Y1.334
G3 X2.2686 Y1.5106 I-0.7307 J-0.3203
X2.1834 Y1.6155 I-1.5809 J-1.1975
G1 X2.1789 Y1.6206
X2.1742 Y1.6255
X2.1692 Y1.6301
X2.1639 Y1.6344
G3 X1.9696 Y1.774 I-1.6118 J-2.0381
X1.7734 Y1.8687 I-0.5127 J-0.8118
X1.5354 Y1.9227 I-0.414 J-1.272
X1.4041 Y1.9404 I-0.5031 J-3.2489
G1 X1.397 Y1.9411
G2 X1.1276 Y1.965 I0.2318 J4.1482
X0.9826 Y1.9888 I0.6909 J4.6683
X0.8864 Y2.0156 I0.1694 J0.7937
X0.8448 Y2.0413 I0.0414 J0.1134
X0.8126 Y2.1051 I0.2097 J0.146
X0.8415 Y2.2186 I0.4824 J-0.0626
X0.9007 Y2.2928 I0.2201 J-0.1147
X0.972 Y2.3526 I0.6449 J-0.6968
X1.1318 Y2.4335 I0.7451 J-1.2747
X1.3178 Y2.474 I0.2298 J-0.6076
X1.4267 Y2.4822 I0.1672 J-1.4961
X1.6844 Y2.4473 I-0.0444 J-1.298
G3 X1.8266 Y2.4187 I1.2929 J6.0555
X1.9861 Y2.401 I0.2672 J1.6805
G1 X1.9928 Y2.4006
X1.9995 Y2.4005
X2.0062 Y2.4008
X2.0129 Y2.4015
G3 X2.1164 Y2.4215 I-0.0725 J0.654
G1 X2.1232 Y2.4241
X2.1338 Y2.4279
G3 X2.1419 Y2.4312 I-0.0424 J0.1176
G1 X2.152 Y2.4356
G3 X2.1613 Y2.4402 I-0.0506 J0.1143
G1 X2.1707 Y2.4453
G3 X2.1811 Y2.4517 I-0.0599 J0.1097
G1 X2.1897 Y2.4576
G3 X2.2008 Y2.4661 I-0.0704 J0.1033
G1 X2.2086 Y2.4727
G3 X2.2195 Y2.4833 I-0.0814 J0.0948
G1 X2.2264 Y2.4909
G3 X2.2354 Y2.5019 I-0.0923 J0.0843
G1 X2.2415 Y2.5104
G3 X2.2483 Y2.5209 I-0.1013 J0.0732
G1 X2.2536 Y2.5301
G3 X2.2586 Y2.5395 I-0.1081 J0.0627
G1 X2.2632 Y2.5494
G3 X2.2668 Y2.5577 I-0.1131 J0.0533
G1 X2.2708 Y2.5682
G3 X2.2733 Y2.5752 I-0.1166 J0.045
G1 X2.2768 Y2.5862
G3 X2.2785 Y2.592 I-0.1191 J0.0379
X2.2953 Y2.6785 I-0.6087 J0.163
G1 X2.2962 Y2.6864
X2.2967 Y2.6944
X2.2966 Y2.7024
X2.2961 Y2.7103
X2.295 Y2.7183
X2.2934 Y2.7261
X2.2913 Y2.7338
X2.2888 Y2.7414
X2.2857 Y2.7488
X2.2822 Y2.756
G3 X2.2229 Y2.8563 I-0.7906 J-0.4
G1 X2.2189 Y2.8612
X2.2089 Y2.8741
G3 X2.2041 Y2.8799 I-0.0987 J-0.0767
G1 X2.1934 Y2.892
G3 X2.1874 Y2.8984 I-0.0939 J-0.0825
G1 X2.176 Y2.9097
G3 X2.1692 Y2.916 I-0.0878 J-0.0889
G1 X2.1571 Y2.9262
G3 X2.1501 Y2.9317 I-0.081 J-0.0952
G1 X2.1373 Y2.9411
G3 X2.1307 Y2.9457 I-0.074 J-0.1007
G1 X2.1172 Y2.9543
G3 X2.1108 Y2.9581 I-0.0674 J-0.1053
G1 X2.0968 Y2.966
G3 X2.0909 Y2.9691 I-0.061 J-0.1091
X1.954 Y3.0176 I-0.2699 J-0.5438
G1 X1.8326 Y3.0464
G3 X1.4703 Y3.0993 I-0.4149 J-1.5751
G1 X1.4522 Y3.1005
X1.4339 Y3.1014
G3 X1.4157 Y3.101 I-0.0062 J-0.1248
X1.16 Y3.0695 I0.267 J-3.2216
X0.9363 Y3.0069 I0.2027 J-1.1554
X0.703 Y2.8865 I0.6041 J-1.4574
X0.5813 Y2.8104 I2.0679 J-3.4408
G1 X0.5758 Y2.8067
X0.5705 Y2.8028
G3 X0.3851 Y2.6448 I1.5117 J-1.9621
X0.3094 Y2.5613 I0.7871 J-0.7892
X0.1862 Y2.3293 I0.5383 J-0.4345
X0.1375 Y2.126 I1.4416 J-0.4529
G1 X0.1311 Y2.0935
G3 X0.1301 Y2.0534 I0.1228 J-0.0232
X0.1633 Y1.8712 I1.3746 J0.1565
X0.1794 Y1.8225 I0.7771 J0.2301
X0.1818 Y1.8162 I0.1179 J0.0414
G1 X0.1903 Y1.7955
G3 X0.1935 Y1.7886 I0.1155 J0.0477
G1 X0.2032 Y1.7686
G3 X0.2072 Y1.7611 I0.1124 J0.0547
G1 X0.2182 Y1.7419
G3 X0.2228 Y1.7344 I0.1084 J0.0622
G1 X0.2351 Y1.716
G3 X0.2398 Y1.7095 I0.1038 J0.0696
G1 X0.2534 Y1.6918
G3 X0.2579 Y1.6862 I0.0991 J0.0761
G1 X0.2726 Y1.6692
G3 X0.2769 Y1.6645 I0.0946 J0.0817
X0.4194 Y1.5439 I0.6347 J0.6052
G1 X0.4388 Y1.5295
X0.4393 Y1.5291
X0.459 Y1.5152
G3 X0.4787 Y1.5038 I0.0722 J0.102
X0.6817 Y1.4183 I0.9343 J1.9352
X0.9301 Y1.3681 I0.3399 J1.0425
G1 X0.9528 Y1.3655
X0.9539 Y1.3654
X0.9642 Y1.3645
G2 X0.9869 Y1.3373 I-0.0022 J-0.0249
G1 X0.9847 Y1.3124
X0.9843 Y1.3085 Z-0.2497
X0.984 Y1.3047 Z-0.2488
X0.9837 Y1.3011 Z-0.2473
X0.9834 Y1.2978 Z-0.2452
X0.9831 Y1.2948 Z-0.2427
X0.9829 Y1.2923 Z-0.2397
X0.9827 Y1.2902 Z-0.2363
X0.9825 Y1.2888 Z-0.2327
Y1.2878 Z-0.2289
X0.9824 Y1.2875 Z-0.225
X0.9326 Y1.292
Z-0.275
X0.9327 Y1.2923 Z-0.2789
Y1.2932 Z-0.2827
X0.9329 Y1.2947 Z-0.2863
X0.9331 Y1.2968 Z-0.2897
X0.9333 Y1.2993 Z-0.2927
X0.9336 Y1.3023 Z-0.2952
X0.9339 Y1.3056 Z-0.2973
X0.9342 Y1.3092 Z-0.2988
X0.9345 Y1.313 Z-0.2997
X0.9349 Y1.3169 Z-0.3
X0.9371 Y1.3418
G2 X0.9642 Y1.3645 I0.0249 J-0.0022
G3 X1.1481 Y1.3515 I0.4955 J5.6993
G2 X1.3295 Y1.3271 I-0.1014 J-1.4454
X1.5235 Y1.2625 I-0.2838 J-1.1751
G1 X1.5463 Y1.2535
X1.5693 Y1.244
X1.5843 Y1.2377
G2 X1.7032 Y1.1589 I-0.4856 J-0.8624
X1.7517 Y1.1025 I-0.1386 J-0.1683
X1.7849 Y0.9986 I-0.355 J-0.1708
G1 X1.7892 Y0.9792
X1.7928 Y0.9605
G2 X1.7616 Y0.8262 I-1.0269 J0.1679
X1.7253 Y0.7529 I-0.2653 J0.0856
X1.6458 Y0.679 I-0.2869 J0.2292
X1.5309 Y0.6059 I-0.7888 J1.1117
X1.3264 Y0.5272 I-0.7777 J1.7169
X1.1138 Y0.4941 I-0.2597 J0.9675
X1.007 Y0.4884 I-0.1248 J1.3494
X0.8351 Y0.4997 I0.0163 J1.5715
X0.67 Y0.5518 I0.0984 J0.5997
X0.6115 Y0.5785 I0.5082 J1.1875
X0.4875 Y0.717 I0.359 J0.4463
G3 X0.4261 Y0.7993 I-0.8434 J-0.5652
X0.3919 Y0.8337 I-0.3152 J-0.2791
G1 X0.3872 Y0.8376
X0.3806 Y0.8429
G3 X0.3752 Y0.8471 I-0.0788 J-0.097
G1 X0.3684 Y0.852
G3 X0.3622 Y0.8563 I-0.0734 J-0.1012
G1 X0.3552 Y0.8607
G3 X0.3483 Y0.8648 I-0.0672 J-0.1054
G1 X0.341 Y0.8688
G3 X0.3343 Y0.8723 I-0.0603 J-0.1095
G1 X0.3268 Y0.8759
G3 X0.3207 Y0.8786 I-0.0537 J-0.1129
X0.2295 Y0.9041 I-0.1545 J-0.3768
G1 X0.2207 Y0.906
G3 X0.188 Y0.9079 I-0.0235 J-0.1228
X0.0761 Y0.8878 I0.0151 J-0.4051
X-0.0179 Y0.8321 I0.1463 J-0.3542
G1 X-0.0249 Y0.8267
X-0.0315 Y0.8209
X-0.0377 Y0.8146
G3 X-0.0967 Y0.7336 I0.2769 J-0.2639
G1 X-0.0993 Y0.7273
X-0.1017 Y0.7218
G3 X-0.1044 Y0.7154 I0.1142 J-0.0508
G1 X-0.1065 Y0.7098
G3 X-0.1087 Y0.7036 I0.1168 J-0.0444
X-0.1241 Y0.6121 I0.3166 J-0.1003
G1 X-0.1247 Y0.6058
G3 X-0.1217 Y0.5693 I0.1247 J-0.0081
X-0.0757 Y0.4001 I1.5485 J0.3306
X-0.0544 Y0.3476 I0.7462 J0.2724
X-0.0516 Y0.3415 I0.1149 J0.0493
X0.0599 Y0.1881 I0.4351 J0.1989
G1 X0.0651 Y0.1833
X0.084 Y0.1667
G3 X0.0888 Y0.1628 I0.0822 J0.0942
X0.2377 Y0.0655 I0.5822 J0.7287
X0.311 Y0.0261 I1.0604 J1.8845
G1 X0.3174 Y0.023
X0.324 Y0.0202
G3 X0.5746 Y-0.0683 I1.1139 J2.7568
X0.8744 Y-0.1168 I0.3754 J1.3691
X1.0178 Y-0.1247 I0.2535 J3.283
G1 X1.0242 Y-0.1249
X1.0305 Y-0.1248
G3 X1.3067 Y-0.1028 I-0.186 J4.0835
X1.5491 Y-0.0516 I-0.1764 J1.4339
X1.8097 Y0.0583 I-0.5403 J1.6457
X1.9474 Y0.13 I-1.9715 J3.9511
G1 X1.9537 Y0.1336
X1.9598 Y0.1375
X1.9657 Y0.1418
G3 X2.1521 Y0.2963 I-1.7075 J2.2493
X2.2884 Y0.4517 I-0.6747 J0.7293
X2.3932 Y0.6909 I-0.6322 J0.4196
X2.4315 Y0.8889 I-1.4915 J0.391
G1 X2.437 Y0.9269
X2.4371 Y0.9275
X2.4422 Y0.9657
G3 X2.4428 Y0.9938 I-0.1239 J0.0167
X2.4186 Y1.188 I-1.9909 J-0.1496
X2.3778 Y1.3281 I-0.7877 J-0.1532
G1 X2.3752 Y1.334
G3 X2.2686 Y1.5106 I-0.7307 J-0.3203
X2.1834 Y1.6155 I-1.5809 J-1.1975
G1 X2.1789 Y1.6206
X2.1742 Y1.6255
X2.1692 Y1.6301
X2.1639 Y1.6344
G3 X1.9696 Y1.774 I-1.6118 J-2.0381
X1.7734 Y1.8687 I-0.5127 J-0.8118
X1.5354 Y1.9227 I-0.414 J-1.272
X1.4041 Y1.9404 I-0.5031 J-3.2489
G1 X1.397 Y1.9411
G2 X1.1276 Y1.965 I0.2318 J4.1482
X0.9826 Y1.9888 I0.6909 J4.6683
X0.8864 Y2.0156 I0.1694 J0.7937
X0.8448 Y2.0413 I0.0414 J0.1134
X0.8126 Y2.1051 I0.2097 J0.146
X0.8415 Y2.2186 I0.4824 J-0.0626
X0.9007 Y2.2928 I0.2201 J-0.1147
X0.972 Y2.3526 I0.6449 J-0.6968
X1.1318 Y2.4335 I0.7451 J-1.2747
X1.3178 Y2.474 I0.2298 J-0.6076
X1.4267 Y2.4822 I0.1672 J-1.4961
X1.6844 Y2.4473 I-0.0444 J-1.298
G3 X1.8266 Y2.4187 I1.2929 J6.0555
X1.9861 Y2.401 I0.2672 J1.6805
G1 X1.9928 Y2.4006
X1.9995 Y2.4005
X2.0062 Y2.4008
X2.0129 Y2.4015
G3 X2.1164 Y2.4215 I-0.0725 J0.654
G1 X2.1232 Y2.4241
X2.1338 Y2.4279
G3 X2.1419 Y2.4312 I-0.0424 J0.1176
G1 X2.152 Y2.4356
G3 X2.1613 Y2.4402 I-0.0506 J0.1143
G1 X2.1707 Y2.4453
G3 X2.1811 Y2.4517 I-0.0599 J0.1097
G1 X2.1897 Y2.4576
G3 X2.2008 Y2.4661 I-0.0704 J0.1033
G1 X2.2086 Y2.4727
G3 X2.2195 Y2.4833 I-0.0814 J0.0948
G1 X2.2264 Y2.4909
G3 X2.2354 Y2.5019 I-0.0923 J0.0843
G1 X2.2415 Y2.5104
G3 X2.2483 Y2.5209 I-0.1013 J0.0732
G1 X2.2536 Y2.5301
G3 X2.2586 Y2.5395 I-0.1081 J0.0627
G1 X2.2632 Y2.5494
G3 X2.2668 Y2.5577 I-0.1131 J0.0533
G1 X2.2708 Y2.5682
G3 X2.2733 Y2.5752 I-0.1166 J0.045
G1 X2.2768 Y2.5862
G3 X2.2785 Y2.592 I-0.1191 J0.0379
X2.2953 Y2.6785 I-0.6087 J0.163
G1 X2.2962 Y2.6864
X2.2967 Y2.6944
X2.2966 Y2.7024
X2.2961 Y2.7103
X2.295 Y2.7183
X2.2934 Y2.7261
X2.2913 Y2.7338
X2.2888 Y2.7414
X2.2857 Y2.7488
X2.2822 Y2.756
G3 X2.2229 Y2.8563 I-0.7906 J-0.4
G1 X2.2189 Y2.8612
X2.2089 Y2.8741
G3 X2.2041 Y2.8799 I-0.0987 J-0.0767
G1 X2.1934 Y2.892
G3 X2.1874 Y2.8984 I-0.0939 J-0.0825
G1 X2.176 Y2.9097
G3 X2.1692 Y2.916 I-0.0878 J-0.0889
G1 X2.1571 Y2.9262
G3 X2.1501 Y2.9317 I-0.081 J-0.0952
G1 X2.1373 Y2.9411
G3 X2.1307 Y2.9457 I-0.074 J-0.1007
G1 X2.1172 Y2.9543
G3 X2.1108 Y2.9581 I-0.0674 J-0.1053
G1 X2.0968 Y2.966
G3 X2.0909 Y2.9691 I-0.061 J-0.1091
X1.954 Y3.0176 I-0.2699 J-0.5438
G1 X1.8326 Y3.0464
G3 X1.4703 Y3.0993 I-0.4149 J-1.5751
G1 X1.4522 Y3.1005
X1.4339 Y3.1014
G3 X1.4157 Y3.101 I-0.0062 J-0.1248
X1.16 Y3.0695 I0.267 J-3.2216
X0.9363 Y3.0069 I0.2027 J-1.1554
X0.703 Y2.8865 I0.6041 J-1.4574
X0.5813 Y2.8104 I2.0679 J-3.4408
G1 X0.5758 Y2.8067
X0.5705 Y2.8028
G3 X0.3851 Y2.6448 I1.5117 J-1.9621
X0.3094 Y2.5613 I0.7871 J-0.7892
X0.1862 Y2.3293 I0.5383 J-0.4345
X0.1375 Y2.126 I1.4416 J-0.4529
G1 X0.1311 Y2.0935
G3 X0.1301 Y2.0534 I0.1228 J-0.0232
X0.1633 Y1.8712 I1.3746 J0.1565
X0.1794 Y1.8225 I0.7771 J0.2301
X0.1818 Y1.8162 I0.1179 J0.0414
G1 X0.1903 Y1.7955
G3 X0.1935 Y1.7886 I0.1155 J0.0477
G1 X0.2032 Y1.7686
G3 X0.2072 Y1.7611 I0.1124 J0.0547
G1 X0.2182 Y1.7419
G3 X0.2228 Y1.7344 I0.1084 J0.0622
G1 X0.2351 Y1.716
G3 X0.2398 Y1.7095 I0.1038 J0.0696
G1 X0.2534 Y1.6918
G3 X0.2579 Y1.6862 I0.0991 J0.0761
G1 X0.2726 Y1.6692
G3 X0.2769 Y1.6645 I0.0946 J0.0817
X0.4194 Y1.5439 I0.6347 J0.6052
G1 X0.4388 Y1.5295
X0.4393 Y1.5291
X0.459 Y1.5152
G3 X0.4787 Y1.5038 I0.0722 J0.102
X0.6817 Y1.4183 I0.9343 J1.9352
X0.9301 Y1.3681 I0.3399 J1.0425
G1 X0.9528 Y1.3655
X0.9539 Y1.3654
X0.9642 Y1.3645
G2 X0.9869 Y1.3373 I-0.0022 J-0.0249
G1 X0.9847 Y1.3124
X0.9843 Y1.3085 Z-0.2997
X0.984 Y1.3047 Z-0.2988
X0.9837 Y1.3011 Z-0.2973
X0.9834 Y1.2978 Z-0.2952
X0.9831 Y1.2948 Z-0.2927
X0.9829 Y1.2923 Z-0.2897
X0.9827 Y1.2902 Z-0.2863
X0.9825 Y1.2888 Z-0.2827
Y1.2878 Z-0.2789
X0.9824 Y1.2875 Z-0.275
X0.9326 Y1.292
Z-0.325
X0.9327 Y1.2922 Z-0.3285
Y1.293 Z-0.3319
X0.9328 Y1.2941 Z-0.3351
X0.933 Y1.2958 Z-0.3382
X0.9332 Y1.2978 Z-0.341
X0.9349 Y1.3169
X0.9371 Y1.3418
G2 X0.9642 Y1.3645 I0.0249 J-0.0022
G3 X1.1481 Y1.3515 I0.4955 J5.6993
G2 X1.2961 Y1.3336 I-0.1227 J-1.6431
G1 Y1.3335 Z-0.35
G2 X1.5011 Y1.2714 I-0.1835 J-0.9748
X1.5843 Y1.2376 I-0.7729 J-2.0246
X1.7032 Y1.1589 I-0.478 J-0.8514
X1.7517 Y1.1025 I-0.1383 J-0.168
X1.7849 Y0.9986 I-0.3548 J-0.1707
G1 X1.7892 Y0.9792
X1.7928 Y0.9605
G2 X1.7616 Y0.8262 I-1.0269 J0.1679
X1.7253 Y0.7529 I-0.2653 J0.0856
X1.6458 Y0.679 I-0.2869 J0.2292
X1.5309 Y0.6059 I-0.7888 J1.1117
X1.3264 Y0.5272 I-0.7777 J1.7169
X1.1138 Y0.4941 I-0.2597 J0.9675
X1.007 Y0.4884 I-0.1248 J1.3494
X0.8351 Y0.4997 I0.0163 J1.5715
X0.67 Y0.5518 I0.0984 J0.5997
X0.6115 Y0.5785 I0.5082 J1.1875
X0.4875 Y0.717 I0.359 J0.4463
G3 X0.4261 Y0.7993 I-0.8434 J-0.5652
X0.3919 Y0.8337 I-0.3152 J-0.2791
G1 X0.3872 Y0.8376
X0.3806 Y0.8429
G3 X0.3752 Y0.8471 I-0.0788 J-0.097
G1 X0.3684 Y0.852
G3 X0.3622 Y0.8563 I-0.0734 J-0.1012
G1 X0.3552 Y0.8607
G3 X0.3483 Y0.8648 I-0.0672 J-0.1054
G1 X0.341 Y0.8688
G3 X0.3343 Y0.8723 I-0.0603 J-0.1095
G1 X0.3268 Y0.8759
G3 X0.3207 Y0.8786 I-0.0537 J-0.1129
X0.2295 Y0.9041 I-0.1545 J-0.3768
G1 X0.2207 Y0.906
G3 X0.188 Y0.9079 I-0.0235 J-0.1228
X0.0761 Y0.8878 I0.0151 J-0.4051
X0.0036 Y0.8479 I0.1341 J-0.3302
G1 Y0.848 Z-0.341
G3 X-0.0181 Y0.8323 I0.5339 J-0.7655
X-0.0377 Y0.8146 I0.0738 J-0.1009
X-0.0967 Y0.7336 I0.2769 J-0.2639
G1 X-0.0993 Y0.7273
X-0.1017 Y0.7218
G3 X-0.1044 Y0.7154 I0.1142 J-0.0508
G1 X-0.1065 Y0.7098
G3 X-0.1087 Y0.7036 I0.1168 J-0.0444
X-0.1241 Y0.6121 I0.3166 J-0.1003
G1 X-0.1247 Y0.6058
G3 X-0.1217 Y0.5693 I0.1247 J-0.0081
X-0.0757 Y0.4001 I1.5485 J0.3306
X-0.0557 Y0.3508 I0.7066 J0.2571
G1 Z-0.35
X-0.0544 Y0.3476
G3 X-0.0516 Y0.3415 I0.1149 J0.0493
X0.0599 Y0.1881 I0.4351 J0.1989
G1 X0.0651 Y0.1833
X0.084 Y0.1667
G3 X0.0888 Y0.1628 I0.0822 J0.0942
X0.2377 Y0.0655 I0.5822 J0.7287
X0.311 Y0.0261 I1.0604 J1.8845
G1 X0.3174 Y0.023
X0.324 Y0.0202
G3 X0.5746 Y-0.0683 I1.1139 J2.7568
X0.7792 Y-0.1083 I0.3565 J1.2809
G1 Z-0.341
G3 X1.0178 Y-0.1245 I0.3194 J2.9257
G1 X1.0242 Y-0.1248
X1.0305
G3 X1.2799 Y-0.106 I-0.2171 J4.5492
G1 X1.2798 Y-0.1058 Z-0.35
G3 X1.5866 Y-0.0394 I-0.143 J1.4019
X1.8793 Y0.0942 I-0.7442 J2.018
G1 X1.9133 Y0.1117
X1.9136 Y0.1119
X1.9474 Y0.1299
G3 X1.9657 Y0.1418 I-0.0587 J0.1103
X2.1521 Y0.2963 I-1.7075 J2.2493
X2.2884 Y0.4517 I-0.6747 J0.7293
X2.3932 Y0.6909 I-0.6322 J0.4196
X2.4052 Y0.7393 I-0.6481 J0.1864
G1 Z-0.341
G3 X2.4421 Y0.9657 I-2.5083 J0.5246
G1 X2.4428 Y0.9727
X2.4432 Y0.9798
Y0.9868
X2.4428 Y0.9938
G3 X2.4186 Y1.188 I-1.9909 J-0.1496
X2.4063 Y1.2415 I-1.145 J-0.2363
G1 Z-0.35
G3 X2.405 Y1.2461 I-0.1214 J-0.0297
X2.3776 Y1.3281 I-0.6525 J-0.1726
X2.3752 Y1.334 I-0.1166 J-0.0451
X2.2686 Y1.5106 I-0.7307 J-0.3203
X2.1834 Y1.6155 I-1.5809 J-1.1975
G1 X2.1789 Y1.6206
X2.1742 Y1.6255
X2.1692 Y1.6301
X2.1639 Y1.6344
G3 X1.9696 Y1.774 I-1.6118 J-2.0381
X1.7734 Y1.8687 I-0.5127 J-0.8118
X1.5354 Y1.9227 I-0.414 J-1.272
X1.4041 Y1.9404 I-0.5031 J-3.2489
G1 X1.397 Y1.9411
G2 X1.1276 Y1.965 I0.2318 J4.1482
X0.9826 Y1.9888 I0.6909 J4.6683
X0.8864 Y2.0156 I0.1694 J0.7937
X0.8448 Y2.0413 I0.0414 J0.1134
X0.8126 Y2.1051 I0.2097 J0.146
X0.8415 Y2.2186 I0.4824 J-0.0626
X0.9007 Y2.2928 I0.2201 J-0.1147
X0.972 Y2.3526 I0.6449 J-0.6968
X1.1318 Y2.4335 I0.7451 J-1.2747
G1 X1.1493 Y2.4398
X1.1619 Y2.4441
Z-0.341
G2 X1.3178 Y2.4741 I0.2052 J-0.6473
X1.4267 Y2.4822 I0.1746 J-1.6143
X1.6006 Y2.4646 I-0.046 J-1.3236
X1.6629 Y2.4522 I-1.804 J-9.2276
G1 Z-0.35
G3 X1.8518 Y2.4145 I0.8711 J3.8761
X1.9861 Y2.4009 I0.2879 J2.1647
G1 X1.9928 Y2.4005
X1.9995
X2.0062 Y2.4008
X2.0129 Y2.4015
G3 X2.1164 Y2.4215 I-0.0725 J0.654
G1 X2.1232 Y2.4241
X2.1338 Y2.4279
G3 X2.1419 Y2.4312 I-0.0424 J0.1176
G1 X2.152 Y2.4356
G3 X2.1613 Y2.4402 I-0.0506 J0.1143
G1 X2.1707 Y2.4453
G3 X2.1811 Y2.4517 I-0.0599 J0.1097
G1 X2.1897 Y2.4576
G3 X2.2008 Y2.4661 I-0.0704 J0.1033
G1 X2.2086 Y2.4727
G3 X2.2195 Y2.4833 I-0.0814 J0.0948
G1 X2.2264 Y2.4909
G3 X2.2354 Y2.5019 I-0.0923 J0.0843
G1 X2.2415 Y2.5104
G3 X2.2483 Y2.5209 I-0.1013 J0.0732
G1 X2.2536 Y2.5301
G3 X2.2586 Y2.5395 I-0.1081 J0.0627
G1 X2.2632 Y2.5494
G3 X2.2668 Y2.5577 I-0.1131 J0.0533
G1 X2.2708 Y2.5682
G3 X2.2733 Y2.5752 I-0.1166 J0.045
G1 X2.2768 Y2.5862
G3 X2.2785 Y2.592 I-0.1191 J0.0379
X2.2953 Y2.6785 I-0.6087 J0.163
G1 X2.2962 Y2.6864
X2.2967 Y2.6944
X2.2966 Y2.7024
X2.2961 Y2.7103
X2.295 Y2.7183
X2.2934 Y2.7261
X2.2913 Y2.7338
X2.2888 Y2.7414
X2.2857 Y2.7488
X2.2822 Y2.756
G3 X2.2229 Y2.8563 I-0.7906 J-0.4
G1 X2.2189 Y2.8612
X2.2089 Y2.8741
G3 X2.2041 Y2.8799 I-0.0987 J-0.0767
G1 X2.1934 Y2.892
G3 X2.1874 Y2.8984 I-0.0939 J-0.0825
G1 X2.176 Y2.9097
G3 X2.1692 Y2.916 I-0.0878 J-0.0889
G1 X2.1571 Y2.9262
G3 X2.1501 Y2.9317 I-0.081 J-0.0952
G1 X2.1373 Y2.9411
G3 X2.1307 Y2.9457 I-0.074 J-0.1007
G1 X2.1172 Y2.9543
G3 X2.1108 Y2.9581 I-0.0674 J-0.1053
G1 X2.0968 Y2.966
G3 X2.0909 Y2.9691 I-0.061 J-0.1091
X1.954 Y3.0176 I-0.2699 J-0.5438
G1 X1.8326 Y3.0464
G3 X1.6689 Y3.081 I-0.4922 J-1.9263
G1 X1.6688 Y3.0809 Z-0.341
G3 X1.452 Y3.1002 I-0.2726 J-1.8323
G1 X1.4339 Y3.1014
G3 X1.4157 Y3.101 I-0.0062 J-0.1248
X1.1675 Y3.0709 I0.2914 J-3.4471
G1 Y3.0705 Z-0.35
G3 X0.7991 Y2.9417 I0.1841 J-1.1177
X0.6112 Y2.8293 I1.2323 J-2.2747
G1 X0.5812 Y2.8105
G3 X0.5705 Y2.8028 I0.0672 J-0.1054
X0.3851 Y2.6448 I1.5117 J-1.9621
X0.3094 Y2.5613 I0.7871 J-0.7892
X0.1812 Y2.3126 I0.5405 J-0.4358
G1 X0.1809 Y2.3127 Z-0.341
G3 X0.1374 Y2.126 I1.5623 J-0.4624
G1 X0.1311 Y2.0935
G3 X0.1301 Y2.0534 I0.1228 J-0.0232
X0.1633 Y1.8712 I1.3746 J0.1565
X0.1794 Y1.8225 I0.7771 J0.2301
X0.1818 Y1.8162 I0.1179 J0.0414
G1 X0.185 Y1.8086
Z-0.35
X0.1903 Y1.7955
G3 X0.1935 Y1.7886 I0.1155 J0.0477
G1 X0.2032 Y1.7686
G3 X0.2072 Y1.7611 I0.1124 J0.0547
G1 X0.2182 Y1.7419
G3 X0.2228 Y1.7344 I0.1084 J0.0622
G1 X0.2351 Y1.716
G3 X0.2398 Y1.7095 I0.1038 J0.0696
G1 X0.2534 Y1.6918
G3 X0.2579 Y1.6862 I0.0991 J0.0761
G1 X0.2726 Y1.6692
G3 X0.2769 Y1.6645 I0.0946 J0.0817
X0.4194 Y1.5439 I0.6347 J0.6052
G1 X0.4388 Y1.5295
X0.4393 Y1.5291
X0.459 Y1.5152
G3 X0.4787 Y1.5038 I0.0722 J0.102
X0.6817 Y1.4183 I0.9343 J1.9352
X0.7987 Y1.3871 I0.3269 J0.9902
G1 Y1.3872 Z-0.341
G3 X0.9643 Y1.3646 I0.276 J1.4059
G1 X0.9681 Y1.3639
X0.9719 Y1.3627
X0.9754 Y1.3608
X0.9785 Y1.3585
X0.9813 Y1.3556
X0.9835 Y1.3524
X0.9852 Y1.3489
X0.9864 Y1.3451
X0.987 Y1.3413
X0.9869 Y1.3373
X0.9847 Y1.3124
X0.983 Y1.2933
X0.9828 Y1.2913 Z-0.3382
X0.9826 Y1.2897 Z-0.3351
X0.9825 Y1.2885 Z-0.3319
Y1.2878 Z-0.3285
X0.9824 Y1.2875 Z-0.325
X0.9326 Y1.292
Z-0.341
X0.9349 Y1.3169
X0.9371 Y1.3418
G2 X0.9642 Y1.3645 I0.0249 J-0.0022
G3 X1.1481 Y1.3515 I0.4955 J5.6993
G2 X1.2961 Y1.3336 I-0.1227 J-1.6431
G1 Y1.3335 Z-0.4
G2 X1.5011 Y1.2714 I-0.1835 J-0.9748
X1.5843 Y1.2376 I-0.7729 J-2.0246
X1.7032 Y1.1589 I-0.478 J-0.8514
X1.7517 Y1.1025 I-0.1383 J-0.168
X1.7849 Y0.9986 I-0.3548 J-0.1707
G1 X1.7892 Y0.9792
X1.7928 Y0.9605
G2 X1.7616 Y0.8262 I-1.0269 J0.1679
X1.7253 Y0.7529 I-0.2653 J0.0856
X1.6458 Y0.679 I-0.2869 J0.2292
X1.5309 Y0.6059 I-0.7888 J1.1117
X1.3264 Y0.5272 I-0.7777 J1.7169
X1.1138 Y0.4941 I-0.2597 J0.9675
X1.007 Y0.4884 I-0.1248 J1.3494
X0.8351 Y0.4997 I0.0163 J1.5715
X0.67 Y0.5518 I0.0984 J0.5997
X0.6115 Y0.5785 I0.5082 J1.1875
X0.4875 Y0.717 I0.359 J0.4463
G3 X0.4261 Y0.7993 I-0.8434 J-0.5652
X0.3919 Y0.8337 I-0.3152 J-0.2791
G1 X0.3872 Y0.8376
X0.3806 Y0.8429
G3 X0.3752 Y0.8471 I-0.0788 J-0.097
G1 X0.3684 Y0.852
G3 X0.3622 Y0.8563 I-0.0734 J-0.1012
G1 X0.3552 Y0.8607
G3 X0.3483 Y0.8648 I-0.0672 J-0.1054
G1 X0.341 Y0.8688
G3 X0.3343 Y0.8723 I-0.0603 J-0.1095
G1 X0.3268 Y0.8759
G3 X0.3207 Y0.8786 I-0.0537 J-0.1129
X0.2295 Y0.9041 I-0.1545 J-0.3768
G1 X0.2207 Y0.906
G3 X0.188 Y0.9079 I-0.0235 J-0.1228
X0.0761 Y0.8878 I0.0151 J-0.4051
X0.0036 Y0.8479 I0.1341 J-0.3302
G1 Y0.848 Z-0.341
G3 X-0.0181 Y0.8323 I0.5339 J-0.7655
X-0.0377 Y0.8146 I0.0738 J-0.1009
X-0.0967 Y0.7336 I0.2769 J-0.2639
G1 X-0.0993 Y0.7273
X-0.1017 Y0.7218
G3 X-0.1044 Y0.7154 I0.1142 J-0.0508
G1 X-0.1065 Y0.7098
G3 X-0.1087 Y0.7036 I0.1168 J-0.0444
X-0.1241 Y0.6121 I0.3166 J-0.1003
G1 X-0.1247 Y0.6058
G3 X-0.1217 Y0.5693 I0.1247 J-0.0081
X-0.0757 Y0.4001 I1.5485 J0.3306
X-0.0557 Y0.3508 I0.7066 J0.2571
G1 Z-0.4
X-0.0544 Y0.3476
G3 X-0.0516 Y0.3415 I0.1149 J0.0493
X0.0599 Y0.1881 I0.4351 J0.1989
G1 X0.0651 Y0.1833
X0.084 Y0.1667
G3 X0.0888 Y0.1628 I0.0822 J0.0942
X0.2377 Y0.0655 I0.5822 J0.7287
X0.311 Y0.0261 I1.0604 J1.8845
G1 X0.3174 Y0.023
X0.324 Y0.0202
G3 X0.5746 Y-0.0683 I1.1139 J2.7568
X0.7792 Y-0.1083 I0.3565 J1.2809
G1 Z-0.341
G3 X1.0178 Y-0.1245 I0.3194 J2.9257
G1 X1.0242 Y-0.1248
X1.0305
G3 X1.2799 Y-0.106 I-0.2171 J4.5492
G1 X1.2798 Y-0.1058 Z-0.4
G3 X1.5866 Y-0.0394 I-0.143 J1.4019
X1.8793 Y0.0942 I-0.7442 J2.018
G1 X1.9133 Y0.1117
X1.9136 Y0.1119
X1.9474 Y0.1299
G3 X1.9657 Y0.1418 I-0.0587 J0.1103
X2.1521 Y0.2963 I-1.7075 J2.2493
X2.2884 Y0.4517 I-0.6747 J0.7293
X2.3932 Y0.6909 I-0.6322 J0.4196
X2.4052 Y0.7393 I-0.6481 J0.1864
G1 Z-0.341
G3 X2.4421 Y0.9657 I-2.5083 J0.5246
G1 X2.4428 Y0.9727
X2.4432 Y0.9798
Y0.9868
X2.4428 Y0.9938
G3 X2.4186 Y1.188 I-1.9909 J-0.1496
X2.4063 Y1.2415 I-1.145 J-0.2363
G1 Z-0.4
G3 X2.405 Y1.2461 I-0.1214 J-0.0297
X2.3776 Y1.3281 I-0.6525 J-0.1726
X2.3752 Y1.334 I-0.1166 J-0.0451
X2.2686 Y1.5106 I-0.7307 J-0.3203
X2.1834 Y1.6155 I-1.5809 J-1.1975
G1 X2.1789 Y1.6206
X2.1742 Y1.6255
X2.1692 Y1.6301
X2.1639 Y1.6344
G3 X1.9696 Y1.774 I-1.6118 J-2.0381
X1.7734 Y1.8687 I-0.5127 J-0.8118
X1.5354 Y1.9227 I-0.414 J-1.272
X1.4041 Y1.9404 I-0.5031 J-3.2489
G1 X1.397 Y1.9411
G2 X1.1276 Y1.965 I0.2318 J4.1482
X0.9826 Y1.9888 I0.6909 J4.6683
X0.8864 Y2.0156 I0.1694 J0.7937
X0.8448 Y2.0413 I0.0414 J0.1134
X0.8126 Y2.1051 I0.2097 J0.146
X0.8415 Y2.2186 I0.4824 J-0.0626
X0.9007 Y2.2928 I0.2201 J-0.1147
X0.972 Y2.3526 I0.6449 J-0.6968
X1.1318 Y2.4335 I0.7451 J-1.2747
G1 X1.1493 Y2.4398
X1.1619 Y2.4441
Z-0.341
G2 X1.3178 Y2.4741 I0.2052 J-0.6473
X1.4267 Y2.4822 I0.1746 J-1.6143
X1.6006 Y2.4646 I-0.046 J-1.3236
X1.6629 Y2.4522 I-1.804 J-9.2276
G1 Z-0.4
G3 X1.8518 Y2.4145 I0.8711 J3.8761
X1.9861 Y2.4009 I0.2879 J2.1647
G1 X1.9928 Y2.4005
X1.9995
X2.0062 Y2.4008
X2.0129 Y2.4015
G3 X2.1164 Y2.4215 I-0.0725 J0.654
G1 X2.1232 Y2.4241
X2.1338 Y2.4279
G3 X2.1419 Y2.4312 I-0.0424 J0.1176
G1 X2.152 Y2.4356
G3 X2.1613 Y2.4402 I-0.0506 J0.1143
G1 X2.1707 Y2.4453
G3 X2.1811 Y2.4517 I-0.0599 J0.1097
G1 X2.1897 Y2.4576
G3 X2.2008 Y2.4661 I-0.0704 J0.1033
G1 X2.2086 Y2.4727
G3 X2.2195 Y2.4833 I-0.0814 J0.0948
G1 X2.2264 Y2.4909
G3 X2.2354 Y2.5019 I-0.0923 J0.0843
G1 X2.2415 Y2.5104
G3 X2.2483 Y2.5209 I-0.1013 J0.0732
G1 X2.2536 Y2.5301
G3 X2.2586 Y2.5395 I-0.1081 J0.0627
G1 X2.2632 Y2.5494
G3 X2.2668 Y2.5577 I-0.1131 J0.0533
G1 X2.2708 Y2.5682
G3 X2.2733 Y2.5752 I-0.1166 J0.045
G1 X2.2768 Y2.5862
G3 X2.2785 Y2.592 I-0.1191 J0.0379
X2.2953 Y2.6785 I-0.6087 J0.163
G1 X2.2962 Y2.6864
X2.2967 Y2.6944
X2.2966 Y2.7024
X2.2961 Y2.7103
X2.295 Y2.7183
X2.2934 Y2.7261
X2.2913 Y2.7338
X2.2888 Y2.7414
X2.2857 Y2.7488
X2.2822 Y2.756
G3 X2.2229 Y2.8563 I-0.7906 J-0.4
G1 X2.2189 Y2.8612
X2.2089 Y2.8741
G3 X2.2041 Y2.8799 I-0.0987 J-0.0767
G1 X2.1934 Y2.892
G3 X2.1874 Y2.8984 I-0.0939 J-0.0825
G1 X2.176 Y2.9097
G3 X2.1692 Y2.916 I-0.0878 J-0.0889
G1 X2.1571 Y2.9262
G3 X2.1501 Y2.9317 I-0.081 J-0.0952
G1 X2.1373 Y2.9411
G3 X2.1307 Y2.9457 I-0.074 J-0.1007
G1 X2.1172 Y2.9543
G3 X2.1108 Y2.9581 I-0.0674 J-0.1053
G1 X2.0968 Y2.966
G3 X2.0909 Y2.9691 I-0.061 J-0.1091
X1.954 Y3.0176 I-0.2699 J-0.5438
G1 X1.8326 Y3.0464
G3 X1.6689 Y3.081 I-0.4922 J-1.9263
G1 X1.6688 Y3.0809 Z-0.341
G3 X1.452 Y3.1002 I-0.2726 J-1.8323
G1 X1.4339 Y3.1014
G3 X1.4157 Y3.101 I-0.0062 J-0.1248
X1.1675 Y3.0709 I0.2914 J-3.4471
G1 Y3.0705 Z-0.4
G3 X0.7991 Y2.9417 I0.1841 J-1.1177
X0.6112 Y2.8293 I1.2323 J-2.2747
G1 X0.5812 Y2.8105
G3 X0.5705 Y2.8028 I0.0672 J-0.1054
X0.3851 Y2.6448 I1.5117 J-1.9621
X0.3094 Y2.5613 I0.7871 J-0.7892
X0.1812 Y2.3126 I0.5405 J-0.4358
G1 X0.1809 Y2.3127 Z-0.341
G3 X0.1374 Y2.126 I1.5623 J-0.4624
G1 X0.1311 Y2.0935
G3 X0.1301 Y2.0534 I0.1228 J-0.0232
X0.1633 Y1.8712 I1.3746 J0.1565
X0.1794 Y1.8225 I0.7771 J0.2301
X0.1818 Y1.8162 I0.1179 J0.0414
G1 X0.185 Y1.8086
Z-0.4
X0.1903 Y1.7955
G3 X0.1935 Y1.7886 I0.1155 J0.0477
G1 X0.2032 Y1.7686
G3 X0.2072 Y1.7611 I0.1124 J0.0547
G1 X0.2182 Y1.7419
G3 X0.2228 Y1.7344 I0.1084 J0.0622
G1 X0.2351 Y1.716
G3 X0.2398 Y1.7095 I0.1038 J0.0696
G1 X0.2534 Y1.6918
G3 X0.2579 Y1.6862 I0.0991 J0.0761
G1 X0.2726 Y1.6692
G3 X0.2769 Y1.6645 I0.0946 J0.0817
X0.4194 Y1.5439 I0.6347 J0.6052
G1 X0.4388 Y1.5295
X0.4393 Y1.5291
X0.459 Y1.5152
G3 X0.4787 Y1.5038 I0.0722 J0.102
X0.6817 Y1.4183 I0.9343 J1.9352
X0.7987 Y1.3871 I0.3269 J0.9902
G1 Y1.3872 Z-0.341
G3 X0.9643 Y1.3646 I0.276 J1.4059
G1 X0.9681 Y1.3639
X0.9719 Y1.3627
X0.9754 Y1.3608
X0.9785 Y1.3585
X0.9813 Y1.3556
X0.9835 Y1.3524
X0.9852 Y1.3489
X0.9864 Y1.3451
X0.987 Y1.3413
X0.9869 Y1.3373
X0.9824 Y1.2875
X0.9326 Y1.292
X0.9349 Y1.3169
X0.9371 Y1.3418
G2 X0.9642 Y1.3645 I0.0249 J-0.0022
G3 X1.1481 Y1.3515 I0.4955 J5.6993
G2 X1.2961 Y1.3336 I-0.1227 J-1.6431
G1 Y1.3335 Z-0.441
G2 X1.5011 Y1.2714 I-0.1835 J-0.9748
X1.5843 Y1.2376 I-0.7729 J-2.0246
X1.7032 Y1.1589 I-0.478 J-0.8514
X1.7517 Y1.1025 I-0.1383 J-0.168
X1.7849 Y0.9986 I-0.3548 J-0.1707
G1 X1.7892 Y0.9792
X1.7928 Y0.9605
G2 X1.7616 Y0.8262 I-1.0269 J0.1679
X1.7253 Y0.7529 I-0.2653 J0.0856
X1.6458 Y0.679 I-0.2869 J0.2292
X1.5309 Y0.6059 I-0.7888 J1.1117
X1.3264 Y0.5272 I-0.7777 J1.7169
X1.1138 Y0.4941 I-0.2597 J0.9675
X1.007 Y0.4884 I-0.1248 J1.3494
X0.8351 Y0.4997 I0.0163 J1.5715
X0.67 Y0.5518 I0.0984 J0.5997
X0.6115 Y0.5785 I0.5082 J1.1875
X0.4875 Y0.717 I0.359 J0.4463
G3 X0.4261 Y0.7993 I-0.8434 J-0.5652
X0.3919 Y0.8337 I-0.3152 J-0.2791
G1 X0.3872 Y0.8376
X0.3806 Y0.8429
G3 X0.3752 Y0.8471 I-0.0788 J-0.097
G1 X0.3684 Y0.852
G3 X0.3622 Y0.8563 I-0.0734 J-0.1012
G1 X0.3552 Y0.8607
G3 X0.3483 Y0.8648 I-0.0672 J-0.1054
G1 X0.341 Y0.8688
G3 X0.3343 Y0.8723 I-0.0603 J-0.1095
G1 X0.3268 Y0.8759
G3 X0.3207 Y0.8786 I-0.0537 J-0.1129
X0.2295 Y0.9041 I-0.1545 J-0.3768
G1 X0.2207 Y0.906
G3 X0.188 Y0.9079 I-0.0235 J-0.1228
X0.0761 Y0.8878 I0.0151 J-0.4051
X0.0036 Y0.8479 I0.1341 J-0.3302
G1 Y0.848 Z-0.341
G3 X-0.0181 Y0.8323 I0.5339 J-0.7655
X-0.0377 Y0.8146 I0.0738 J-0.1009
X-0.0967 Y0.7336 I0.2769 J-0.2639
G1 X-0.0993 Y0.7273
X-0.1017 Y0.7218
G3 X-0.1044 Y0.7154 I0.1142 J-0.0508
G1 X-0.1065 Y0.7098
G3 X-0.1087 Y0.7036 I0.1168 J-0.0444
X-0.1241 Y0.6121 I0.3166 J-0.1003
G1 X-0.1247 Y0.6058
G3 X-0.1217 Y0.5693 I0.1247 J-0.0081
X-0.0757 Y0.4001 I1.5485 J0.3306
X-0.0557 Y0.3508 I0.7066 J0.2571
G1 Z-0.441
X-0.0544 Y0.3476
G3 X-0.0516 Y0.3415 I0.1149 J0.0493
X0.0599 Y0.1881 I0.4351 J0.1989
G1 X0.0651 Y0.1833
X0.084 Y0.1667
G3 X0.0888 Y0.1628 I0.0822 J0.0942
X0.2377 Y0.0655 I0.5822 J0.7287
X0.311 Y0.0261 I1.0604 J1.8845
G1 X0.3174 Y0.023
X0.324 Y0.0202
G3 X0.5746 Y-0.0683 I1.1139 J2.7568
X0.7792 Y-0.1083 I0.3565 J1.2809
G1 Z-0.341
G3 X1.0178 Y-0.1245 I0.3194 J2.9257
G1 X1.0242 Y-0.1248
X1.0305
G3 X1.2799 Y-0.106 I-0.2171 J4.5492
G1 X1.2798 Y-0.1058 Z-0.441
G3 X1.5866 Y-0.0394 I-0.143 J1.4019
X1.8793 Y0.0942 I-0.7442 J2.018
G1 X1.9133 Y0.1117
X1.9136 Y0.1119
X1.9474 Y0.1299
G3 X1.9657 Y0.1418 I-0.0587 J0.1103
X2.1521 Y0.2963 I-1.7075 J2.2493
X2.2884 Y0.4517 I-0.6747 J0.7293
X2.3932 Y0.6909 I-0.6322 J0.4196
X2.4052 Y0.7393 I-0.6481 J0.1864
G1 Z-0.341
G3 X2.4421 Y0.9657 I-2.5083 J0.5246
G1 X2.4428 Y0.9727
X2.4432 Y0.9798
Y0.9868
X2.4428 Y0.9938
G3 X2.4186 Y1.188 I-1.9909 J-0.1496
X2.4063 Y1.2415 I-1.145 J-0.2363
G1 Z-0.441
G3 X2.405 Y1.2461 I-0.1214 J-0.0297
X2.3776 Y1.3281 I-0.6525 J-0.1726
X2.3752 Y1.334 I-0.1166 J-0.0451
X2.2686 Y1.5106 I-0.7307 J-0.3203
X2.1834 Y1.6155 I-1.5809 J-1.1975
G1 X2.1789 Y1.6206
X2.1742 Y1.6255
X2.1692 Y1.6301
X2.1639 Y1.6344
G3 X1.9696 Y1.774 I-1.6118 J-2.0381
X1.7734 Y1.8687 I-0.5127 J-0.8118
X1.5354 Y1.9227 I-0.414 J-1.272
X1.4041 Y1.9404 I-0.5031 J-3.2489
G1 X1.397 Y1.9411
G2 X1.1276 Y1.965 I0.2318 J4.1482
X0.9826 Y1.9888 I0.6909 J4.6683
X0.8864 Y2.0156 I0.1694 J0.7937
X0.8448 Y2.0413 I0.0414 J0.1134
X0.8126 Y2.1051 I0.2097 J0.146
X0.8415 Y2.2186 I0.4824 J-0.0626
X0.9007 Y2.2928 I0.2201 J-0.1147
X0.972 Y2.3526 I0.6449 J-0.6968
X1.1318 Y2.4335 I0.7451 J-1.2747
G1 X1.1493 Y2.4398
X1.1619 Y2.4441
Z-0.341
G2 X1.3178 Y2.4741 I0.2052 J-0.6473
X1.4267 Y2.4822 I0.1746 J-1.6143
X1.6006 Y2.4646 I-0.046 J-1.3236
X1.6629 Y2.4522 I-1.804 J-9.2276
G1 Z-0.441
G3 X1.8518 Y2.4145 I0.8711 J3.8761
X1.9861 Y2.4009 I0.2879 J2.1647
G1 X1.9928 Y2.4005
X1.9995
X2.0062 Y2.4008
X2.0129 Y2.4015
G3 X2.1164 Y2.4215 I-0.0725 J0.654
G1 X2.1232 Y2.4241
X2.1338 Y2.4279
G3 X2.1419 Y2.4312 I-0.0424 J0.1176
G1 X2.152 Y2.4356
G3 X2.1613 Y2.4402 I-0.0506 J0.1143
G1 X2.1707 Y2.4453
G3 X2.1811 Y2.4517 I-0.0599 J0.1097
G1 X2.1897 Y2.4576
G3 X2.2008 Y2.4661 I-0.0704 J0.1033
G1 X2.2086 Y2.4727
G3 X2.2195 Y2.4833 I-0.0814 J0.0948
G1 X2.2264 Y2.4909
G3 X2.2354 Y2.5019 I-0.0923 J0.0843
G1 X2.2415 Y2.5104
G3 X2.2483 Y2.5209 I-0.1013 J0.0732
G1 X2.2536 Y2.5301
G3 X2.2586 Y2.5395 I-0.1081 J0.0627
G1 X2.2632 Y2.5494
G3 X2.2668 Y2.5577 I-0.1131 J0.0533
G1 X2.2708 Y2.5682
G3 X2.2733 Y2.5752 I-0.1166 J0.045
G1 X2.2768 Y2.5862
G3 X2.2785 Y2.592 I-0.1191 J0.0379
X2.2953 Y2.6785 I-0.6087 J0.163
G1 X2.2962 Y2.6864
X2.2967 Y2.6944
X2.2966 Y2.7024
X2.2961 Y2.7103
X2.295 Y2.7183
X2.2934 Y2.7261
X2.2913 Y2.7338
X2.2888 Y2.7414
X2.2857 Y2.7488
X2.2822 Y2.756
G3 X2.2229 Y2.8563 I-0.7906 J-0.4
G1 X2.2189 Y2.8612
X2.2089 Y2.8741
G3 X2.2041 Y2.8799 I-0.0987 J-0.0767
G1 X2.1934 Y2.892
G3 X2.1874 Y2.8984 I-0.0939 J-0.0825
G1 X2.176 Y2.9097
G3 X2.1692 Y2.916 I-0.0878 J-0.0889
G1 X2.1571 Y2.9262
G3 X2.1501 Y2.9317 I-0.081 J-0.0952
G1 X2.1373 Y2.9411
G3 X2.1307 Y2.9457 I-0.074 J-0.1007
G1 X2.1172 Y2.9543
G3 X2.1108 Y2.9581 I-0.0674 J-0.1053
G1 X2.0968 Y2.966
G3 X2.0909 Y2.9691 I-0.061 J-0.1091
X1.954 Y3.0176 I-0.2699 J-0.5438
G1 X1.8326 Y3.0464
G3 X1.6689 Y3.081 I-0.4922 J-1.9263
G1 X1.6688 Y3.0809 Z-0.341
G3 X1.452 Y3.1002 I-0.2726 J-1.8323
G1 X1.4339 Y3.1014
G3 X1.4157 Y3.101 I-0.0062 J-0.1248
X1.1675 Y3.0709 I0.2914 J-3.4471
G1 Y3.0705 Z-0.441
G3 X0.7991 Y2.9417 I0.1841 J-1.1177
X0.6112 Y2.8293 I1.2323 J-2.2747
G1 X0.5812 Y2.8105
G3 X0.5705 Y2.8028 I0.0672 J-0.1054
X0.3851 Y2.6448 I1.5117 J-1.9621
X0.3094 Y2.5613 I0.7871 J-0.7892
X0.1812 Y2.3126 I0.5405 J-0.4358
G1 X0.1809 Y2.3127 Z-0.341
G3 X0.1374 Y2.126 I1.5623 J-0.4624
G1 X0.1311 Y2.0935
G3 X0.1301 Y2.0534 I0.1228 J-0.0232
X0.1633 Y1.8712 I1.3746 J0.1565
X0.1794 Y1.8225 I0.7771 J0.2301
X0.1818 Y1.8162 I0.1179 J0.0414
G1 X0.185 Y1.8086
Z-0.441
X0.1903 Y1.7955
G3 X0.1935 Y1.7886 I0.1155 J0.0477
G1 X0.2032 Y1.7686
G3 X0.2072 Y1.7611 I0.1124 J0.0547
G1 X0.2182 Y1.7419
G3 X0.2228 Y1.7344 I0.1084 J0.0622
G1 X0.2351 Y1.716
G3 X0.2398 Y1.7095 I0.1038 J0.0696
G1 X0.2534 Y1.6918
G3 X0.2579 Y1.6862 I0.0991 J0.0761
G1 X0.2726 Y1.6692
G3 X0.2769 Y1.6645 I0.0946 J0.0817
X0.4194 Y1.5439 I0.6347 J0.6052
G1 X0.4388 Y1.5295
X0.4393 Y1.5291
X0.459 Y1.5152
G3 X0.4787 Y1.5038 I0.0722 J0.102
X0.6817 Y1.4183 I0.9343 J1.9352
X0.7987 Y1.3871 I0.3269 J0.9902
G1 Y1.3872 Z-0.341
G3 X0.9643 Y1.3646 I0.276 J1.4059
G1 X0.9681 Y1.3639
X0.9719 Y1.3627
X0.9754 Y1.3608
X0.9785 Y1.3585
X0.9813 Y1.3556
X0.9835 Y1.3524
X0.9852 Y1.3489
X0.9864 Y1.3451
X0.987 Y1.3413
X0.9869 Y1.3373
X0.9824 Y1.2875
G0 Z0.6
M9
M30
%
