%
(1001)
(T6  D=0.25 CR=0 - ZMIN=-0.441 - flat end mill)
G90 G94
G17
G20

(2D Contour1)
M9
T6 M6
S5514 M3
G54
M8
G0 X1.9425 Y2.6203
Z0.6
Z0.2
G1 Z0.0894 F21.36
Z-0.025
X1.9429 Z-0.0289
X1.9438 Z-0.0327
X1.9453 Z-0.0363
X1.9473 Z-0.0397
X1.9499 Z-0.0427
X1.9528 Z-0.0452
X1.9562 Z-0.0473
X1.9598 Z-0.0488
X1.9636 Z-0.0497
X1.9675 Y2.6202 Z-0.05
X1.9925
G2 X2.0175 Y2.5952 J-0.025
X2.0023 Y1.9511 I-11.494 J-0.0512
G3 X1.3942 Y1.8819 I0.2111 J-4.5614
X1.2522 Y1.8572 I1.458 J-8.8158
G1 X0.559 Y1.7263
X0.5508 Y2.0705
G2 X0.5752 Y2.5886 I8.4752 J-0.1396
G3 X0.5918 Y3.0034 I-8.466 J0.5454
X0.5914 Y3.0158 I-0.125 J0.0025
X0.5738 Y3.1165 I-0.405 J-0.0187
G1 X0.5715 Y3.1222
G3 X0.5692 Y3.1279 I-0.1176 J-0.0424
X0.5146 Y3.2153 I-0.3018 J-0.1281
G1 X0.5108 Y3.2205
G3 X0.4929 Y3.2387 I-0.0978 J-0.0779
X0.4131 Y3.2939 I-0.2687 J-0.3039
G1 X0.4075 Y3.2961
X0.402 Y3.2985
G3 X0.396 Y3.3009 I-0.05 J-0.1146
X0.2962 Y3.321 I-0.1135 J-0.3071
G1 X0.2899 Y3.3218
G3 X0.2687 I-0.0106 J-0.1245
X0.1681 Y3.3033 I0.02 J-0.3919
G1 X0.1625 Y3.3009
G3 X0.1567 Y3.2985 I0.0441 J-0.117
G1 X0.1512 Y3.2961
G3 X0.1457 Y3.2936 I0.0499 J-0.1146
X0.0659 Y3.2384 I0.1574 J-0.3132
G1 X0.0594 Y3.2329
X0.0534 Y3.2269
X0.0478 Y3.2205
G3 X-0.0086 Y3.1337 I0.3004 J-0.2567
G1 X-0.0106 Y3.1279
G3 X-0.0129 Y3.1222 I0.1153 J-0.0482
X-0.032 Y3.0222 I0.3177 J-0.1125
G1 X-0.0328 Y3.0158
G3 X-0.0332 Y3.0083 I0.1246 J-0.0099
G2 X-0.0564 Y2.4917 I-8.8232 J0.1385
G3 X-0.0724 Y2.0632 I8.5818 J-0.5342
X-0.0603 Y1.64 I14.5201 J0.2022
G2 X-0.0566 Y1.4286 I-15.8447 J-0.3841
X-0.0885 Y0.8455 I-8.0208 J0.1467
G3 X-0.1179 Y0.4288 I13.5224 J-1.1625
X-0.125 Y0.1946 I21.0528 J-0.7518
X-0.1246 Y0.1809 I0.125 J-0.0032
X-0.1066 Y0.0808 I0.4032 J0.0206
G1 X-0.1042 Y0.0752
G3 X-0.102 Y0.0695 I0.1174 J0.0429
X-0.0479 Y-0.0169 I0.3044 J0.1306
G1 X-0.0442 Y-0.0221
G3 X-0.0271 Y-0.0397 I0.0979 J0.0777
X0.0527 Y-0.0958 I0.2708 J0.3002
G1 X0.0584 Y-0.0981
X0.0639 Y-0.1006
G3 X0.0699 Y-0.103 I0.0508 J0.1142
G1 X0.0755 Y-0.1052
G3 X0.0811 Y-0.1072 I0.0448 J0.1167
X0.1766 Y-0.1241 I0.1089 J0.3373
G1 X0.1838 Y-0.1247
X0.1911 Y-0.1248
X0.1985 Y-0.1245
G3 X0.294 Y-0.1076 I-0.0235 J0.41
G1 X0.2995 Y-0.1052
X0.3051 Y-0.103
G3 X0.3111 Y-0.1006 I-0.0448 J0.1167
G1 X0.3166 Y-0.0981
G3 X0.3222 Y-0.0955 I-0.0508 J0.1142
X0.4018 Y-0.0394 I-0.1593 J0.3109
G1 X0.408 Y-0.034
X0.4138 Y-0.0282
X0.4192 Y-0.0221
G3 X0.4749 Y0.0637 I-0.3027 J0.2576
G1 X0.477 Y0.0695
G3 X0.4792 Y0.0752 I-0.1152 J0.0486
X0.4987 Y0.1745 I-0.3161 J0.1135
G1 X0.4996 Y0.1809
G3 X0.4999 Y0.1876 I-0.1246 J0.0105
G2 X0.5348 Y0.6791 I4.9077 J-0.1016
G3 X0.5619 Y0.9757 I-8.9563 J0.9662
X0.567 Y1.0878 I-10.8454 J0.5467
G1 X1.2888 Y1.2287
G2 X1.6921 Y1.2947 I1.4783 J-7.7651
X1.9598 Y1.3182 I0.5621 J-4.8738
G3 X1.9629 Y0.9708 I3.9453 J-0.1394
X1.9819 Y0.6707 I7.5335 J0.3263
G2 X2 Y0.2668 I-7.207 J-0.5267
G3 X2.0005 Y0.2588 I0.125 J0.0027
X2.0189 Y0.1582 I0.3976 J0.021
G1 X2.0213 Y0.1526
G3 X2.0237 Y0.1468 I0.1171 J0.0438
G1 X2.0261 Y0.1412
G3 X2.0286 Y0.1357 I0.1147 J0.0497
X2.0833 Y0.0557 I0.3181 J0.1588
G1 X2.0885 Y0.0496
X2.094 Y0.0439
X2.1 Y0.0385
G3 X2.1844 Y-0.0186 I0.2593 J0.2925
G1 X2.19 Y-0.0207
G3 X2.1958 Y-0.0231 I0.0504 J0.1144
X2.295 Y-0.0435 I0.1146 J0.3052
G1 X2.3012 Y-0.0444
G3 X2.3232 Y-0.0445 I0.0113 J0.1245
X2.4237 Y-0.026 I-0.0204 J0.3936
G1 X2.4292 Y-0.0236
G3 X2.4351 Y-0.0212 I-0.0441 J0.117
G1 X2.4406 Y-0.0188
G3 X2.4462 Y-0.0162 I-0.0499 J0.1146
X2.5259 Y0.0389 I-0.1575 J0.3133
G1 X2.5322 Y0.0444
X2.5382 Y0.0502
X2.5437 Y0.0564
G3 X2.5999 Y0.142 I-0.2965 J0.2558
G1 X2.6019 Y0.1477
G3 X2.6042 Y0.1535 I-0.115 J0.0489
X2.6237 Y0.2528 I-0.3128 J0.1129
G1 X2.6246 Y0.2591
G3 X2.625 Y0.2723 I-0.1246 J0.0104
X2.6029 Y0.7257 I-6.8913 J-0.1082
G2 X2.583 Y1.1094 I7.8534 J0.5996
X2.5849 Y1.2554 I2.0028 J0.0475
X2.6118 Y1.6849 I6.2302 J-0.1758
G3 X2.6421 Y2.0771 I-14.9634 J1.3511
X2.6506 Y2.342 I-11.3047 J0.4949
X2.643 Y2.6109 I-16.2522 J-0.3229
G2 X2.6439 Y2.7483 I3.3156 J0.0466
X2.6769 Y2.9093 I0.6124 J-0.0415
G3 X2.6889 Y2.9826 I-0.4106 J0.1048
G1 X2.6894 Y2.9902
Y2.9978
X2.6889 Y3.0054
G3 X2.671 Y3.1033 I-0.4071 J-0.0241
G1 X2.6685 Y3.109
X2.6662 Y3.1148
G3 X2.6636 Y3.1209 I-0.1161 J-0.0463
G1 X2.661 Y3.1265
G3 X2.6582 Y3.1321 I-0.1135 J-0.0524
X2.6034 Y3.2079 I-0.299 J-0.1585
G1 X2.5993 Y3.2129
G3 X2.583 Y3.2282 I-0.0934 J-0.083
X2.4893 Y3.2868 I-0.2493 J-0.2945
X2.3855 Y3.3076 I-0.1236 J-0.3471
G1 X2.3774 Y3.3082
X2.3694 Y3.3083
X2.3614 Y3.3079
X2.3534 Y3.3069
X2.3454 Y3.3054
X2.3376 Y3.3034
X2.33 Y3.3009
G3 X2.2321 Y3.2583 I0.2023 J-0.5971
G1 X2.2262 Y3.2543
X2.2162 Y3.2479
G3 X2.2093 Y3.2432 I0.0674 J-0.1053
G1 X2.2 Y3.2362
G3 X2.1924 Y3.2302 I0.0743 J-0.1005
G1 X2.1837 Y3.2226
G3 X2.1763 Y3.2157 I0.0819 J-0.0945
G1 X2.1683 Y3.2075
G3 X2.162 Y3.2006 I0.0892 J-0.0876
G1 X2.1545 Y3.1918
G3 X2.1492 Y3.185 I0.0955 J-0.0806
G1 X2.1423 Y3.1756
G3 X2.138 Y3.1693 I0.1008 J-0.0739
G1 X2.1316 Y3.1594
G3 X2.128 Y3.1535 I0.1052 J-0.0675
X2.0797 Y3.036 I0.4456 J-0.2519
X2.0291 Y2.8304 I1.3784 J-0.4488
X2.0176 Y2.5952 I1.6304 J-0.1971
G1 X2.0173 Y2.5912
X2.0164 Y2.5874
X2.0148 Y2.5838
X2.0128 Y2.5804
X2.0102 Y2.5775
X2.0072 Y2.5749
X2.0038 Y2.5729
X2.0002 Y2.5714
X1.9964 Y2.5705
X1.9925 Y2.5702
X1.9675
X1.9635 Y2.5703 Z-0.0497
X1.9597 Z-0.0488
X1.9561 Z-0.0473
X1.9528 Z-0.0452
X1.9498 Z-0.0427
X1.9472 Z-0.0397
X1.9452 Z-0.0363
X1.9437 Z-0.0327
X1.9428 Z-0.0289
X1.9425 Z-0.025
Y2.6203
Z-0.075
X1.9429 Z-0.0789
X1.9438 Z-0.0827
X1.9453 Z-0.0863
X1.9473 Z-0.0897
X1.9499 Z-0.0927
X1.9528 Z-0.0952
X1.9562 Z-0.0973
X1.9598 Z-0.0988
X1.9636 Z-0.0997
X1.9675 Y2.6202 Z-0.1
X1.9925
G2 X2.0175 Y2.5952 J-0.025
X2.0023 Y1.9511 I-11.494 J-0.0512
G3 X1.3942 Y1.8819 I0.2111 J-4.5614
X1.2522 Y1.8572 I1.458 J-8.8158
G1 X0.559 Y1.7263
X0.5508 Y2.0705
G2 X0.5752 Y2.5886 I8.4752 J-0.1396
G3 X0.5918 Y3.0034 I-8.466 J0.5454
X0.5914 Y3.0158 I-0.125 J0.0025
X0.5738 Y3.1165 I-0.405 J-0.0187
G1 X0.5715 Y3.1222
G3 X0.5692 Y3.1279 I-0.1176 J-0.0424
X0.5146 Y3.2153 I-0.3018 J-0.1281
G1 X0.5108 Y3.2205
G3 X0.4929 Y3.2387 I-0.0978 J-0.0779
X0.4131 Y3.2939 I-0.2687 J-0.3039
G1 X0.4075 Y3.2961
X0.402 Y3.2985
G3 X0.396 Y3.3009 I-0.05 J-0.1146
X0.2962 Y3.321 I-0.1135 J-0.3071
G1 X0.2899 Y3.3218
G3 X0.2687 I-0.0106 J-0.1245
X0.1681 Y3.3033 I0.02 J-0.3919
G1 X0.1625 Y3.3009
G3 X0.1567 Y3.2985 I0.0441 J-0.117
G1 X0.1512 Y3.2961
G3 X0.1457 Y3.2936 I0.0499 J-0.1146
X0.0659 Y3.2384 I0.1574 J-0.3132
G1 X0.0594 Y3.2329
X0.0534 Y3.2269
X0.0478 Y3.2205
G3 X-0.0086 Y3.1337 I0.3004 J-0.2567
G1 X-0.0106 Y3.1279
G3 X-0.0129 Y3.1222 I0.1153 J-0.0482
X-0.032 Y3.0222 I0.3177 J-0.1125
G1 X-0.0328 Y3.0158
G3 X-0.0332 Y3.0083 I0.1246 J-0.0099
G2 X-0.0564 Y2.4917 I-8.8232 J0.1385
G3 X-0.0724 Y2.0632 I8.5818 J-0.5342
X-0.0603 Y1.64 I14.5201 J0.2022
G2 X-0.0566 Y1.4286 I-15.8447 J-0.3841
X-0.0885 Y0.8455 I-8.0208 J0.1467
G3 X-0.1179 Y0.4288 I13.5224 J-1.1625
X-0.125 Y0.1946 I21.0528 J-0.7518
X-0.1246 Y0.1809 I0.125 J-0.0032
X-0.1066 Y0.0808 I0.4032 J0.0206
G1 X-0.1042 Y0.0752
G3 X-0.102 Y0.0695 I0.1174 J0.0429
X-0.0479 Y-0.0169 I0.3044 J0.1306
G1 X-0.0442 Y-0.0221
G3 X-0.0271 Y-0.0397 I0.0979 J0.0777
X0.0527 Y-0.0958 I0.2708 J0.3002
G1 X0.0584 Y-0.0981
X0.0639 Y-0.1006
G3 X0.0699 Y-0.103 I0.0508 J0.1142
G1 X0.0755 Y-0.1052
G3 X0.0811 Y-0.1072 I0.0448 J0.1167
X0.1766 Y-0.1241 I0.1089 J0.3373
G1 X0.1838 Y-0.1247
X0.1911 Y-0.1248
X0.1985 Y-0.1245
G3 X0.294 Y-0.1076 I-0.0235 J0.41
G1 X0.2995 Y-0.1052
X0.3051 Y-0.103
G3 X0.3111 Y-0.1006 I-0.0448 J0.1167
G1 X0.3166 Y-0.0981
G3 X0.3222 Y-0.0955 I-0.0508 J0.1142
X0.4018 Y-0.0394 I-0.1593 J0.3109
G1 X0.408 Y-0.034
X0.4138 Y-0.0282
X0.4192 Y-0.0221
G3 X0.4749 Y0.0637 I-0.3027 J0.2576
G1 X0.477 Y0.0695
G3 X0.4792 Y0.0752 I-0.1152 J0.0486
X0.4987 Y0.1745 I-0.3161 J0.1135
G1 X0.4996 Y0.1809
G3 X0.4999 Y0.1876 I-0.1246 J0.0105
G2 X0.5348 Y0.6791 I4.9077 J-0.1016
G3 X0.5619 Y0.9757 I-8.9563 J0.9662
X0.567 Y1.0878 I-10.8454 J0.5467
G1 X1.2888 Y1.2287
G2 X1.6921 Y1.2947 I1.4783 J-7.7651
X1.9598 Y1.3182 I0.5621 J-4.8738
G3 X1.9629 Y0.9708 I3.9453 J-0.1394
X1.9819 Y0.6707 I7.5335 J0.3263
G2 X2 Y0.2668 I-7.207 J-0.5267
G3 X2.0005 Y0.2588 I0.125 J0.0027
X2.0189 Y0.1582 I0.3976 J0.021
G1 X2.0213 Y0.1526
G3 X2.0237 Y0.1468 I0.1171 J0.0438
G1 X2.0261 Y0.1412
G3 X2.0286 Y0.1357 I0.1147 J0.0497
X2.0833 Y0.0557 I0.3181 J0.1588
G1 X2.0885 Y0.0496
X2.094 Y0.0439
X2.1 Y0.0385
G3 X2.1844 Y-0.0186 I0.2593 J0.2925
G1 X2.19 Y-0.0207
G3 X2.1958 Y-0.0231 I0.0504 J0.1144
X2.295 Y-0.0435 I0.1146 J0.3052
G1 X2.3012 Y-0.0444
G3 X2.3232 Y-0.0445 I0.0113 J0.1245
X2.4237 Y-0.026 I-0.0204 J0.3936
G1 X2.4292 Y-0.0236
G3 X2.4351 Y-0.0212 I-0.0441 J0.117
G1 X2.4406 Y-0.0188
G3 X2.4462 Y-0.0162 I-0.0499 J0.1146
X2.5259 Y0.0389 I-0.1575 J0.3133
G1 X2.5322 Y0.0444
X2.5382 Y0.0502
X2.5437 Y0.0564
G3 X2.5999 Y0.142 I-0.2965 J0.2558
G1 X2.6019 Y0.1477
G3 X2.6042 Y0.1535 I-0.115 J0.0489
X2.6237 Y0.2528 I-0.3128 J0.1129
G1 X2.6246 Y0.2591
G3 X2.625 Y0.2723 I-0.1246 J0.0104
X2.6029 Y0.7257 I-6.8913 J-0.1082
G2 X2.583 Y1.1094 I7.8534 J0.5996
X2.5849 Y1.2554 I2.0028 J0.0475
X2.6118 Y1.6849 I6.2302 J-0.1758
G3 X2.6421 Y2.0771 I-14.9634 J1.3511
X2.6506 Y2.342 I-11.3047 J0.4949
X2.643 Y2.6109 I-16.2522 J-0.3229
G2 X2.6439 Y2.7483 I3.3156 J0.0466
X2.6769 Y2.9093 I0.6124 J-0.0415
G3 X2.6889 Y2.9826 I-0.4106 J0.1048
G1 X2.6894 Y2.9902
Y2.9978
X2.6889 Y3.0054
G3 X2.671 Y3.1033 I-0.4071 J-0.0241
G1 X2.6685 Y3.109
X2.6662 Y3.1148
G3 X2.6636 Y3.1209 I-0.1161 J-0.0463
G1 X2.661 Y3.1265
G3 X2.6582 Y3.1321 I-0.1135 J-0.0524
X2.6034 Y3.2079 I-0.299 J-0.1585
G1 X2.5993 Y3.2129
G3 X2.583 Y3.2282 I-0.0934 J-0.083
X2.4893 Y3.2868 I-0.2493 J-0.2945
X2.3855 Y3.3076 I-0.1236 J-0.3471
G1 X2.3774 Y3.3082
X2.3694 Y3.3083
X2.3614 Y3.3079
X2.3534 Y3.3069
X2.3454 Y3.3054
X2.3376 Y3.3034
X2.33 Y3.3009
G3 X2.2321 Y3.2583 I0.2023 J-0.5971
G1 X2.2262 Y3.2543
X2.2162 Y3.2479
G3 X2.2093 Y3.2432 I0.0674 J-0.1053
G1 X2.2 Y3.2362
G3 X2.1924 Y3.2302 I0.0743 J-0.1005
G1 X2.1837 Y3.2226
G3 X2.1763 Y3.2157 I0.0819 J-0.0945
G1 X2.1683 Y3.2075
G3 X2.162 Y3.2006 I0.0892 J-0.0876
G1 X2.1545 Y3.1918
G3 X2.1492 Y3.185 I0.0955 J-0.0806
G1 X2.1423 Y3.1756
G3 X2.138 Y3.1693 I0.1008 J-0.0739
G1 X2.1316 Y3.1594
G3 X2.128 Y3.1535 I0.1052 J-0.0675
X2.0797 Y3.036 I0.4456 J-0.2519
X2.0291 Y2.8304 I1.3784 J-0.4488
X2.0176 Y2.5952 I1.6304 J-0.1971
G1 X2.0173 Y2.5912
X2.0164 Y2.5874
X2.0148 Y2.5838
X2.0128 Y2.5804
X2.0102 Y2.5775
X2.0072 Y2.5749
X2.0038 Y2.5729
X2.0002 Y2.5714
X1.9964 Y2.5705
X1.9925 Y2.5702
X1.9675
X1.9635 Y2.5703 Z-0.0997
X1.9597 Z-0.0988
X1.9561 Z-0.0973
X1.9528 Z-0.0952
X1.9498 Z-0.0927
X1.9472 Z-0.0897
X1.9452 Z-0.0863
X1.9437 Z-0.0827
X1.9428 Z-0.0789
X1.9425 Z-0.075
Y2.6203
Z-0.125
X1.9429 Z-0.1289
X1.9438 Z-0.1327
X1.9453 Z-0.1363
X1.9473 Z-0.1397
X1.9499 Z-0.1427
X1.9528 Z-0.1452
X1.9562 Z-0.1473
X1.9598 Z-0.1488
X1.9636 Z-0.1497
X1.9675 Y2.6202 Z-0.15
X1.9925
G2 X2.0175 Y2.5952 J-0.025
X2.0023 Y1.9511 I-11.494 J-0.0512
G3 X1.3942 Y1.8819 I0.2111 J-4.5614
X1.2522 Y1.8572 I1.458 J-8.8158
G1 X0.559 Y1.7263
X0.5508 Y2.0705
G2 X0.5752 Y2.5886 I8.4752 J-0.1396
G3 X0.5918 Y3.0034 I-8.466 J0.5454
X0.5914 Y3.0158 I-0.125 J0.0025
X0.5738 Y3.1165 I-0.405 J-0.0187
G1 X0.5715 Y3.1222
G3 X0.5692 Y3.1279 I-0.1176 J-0.0424
X0.5146 Y3.2153 I-0.3018 J-0.1281
G1 X0.5108 Y3.2205
G3 X0.4929 Y3.2387 I-0.0978 J-0.0779
X0.4131 Y3.2939 I-0.2687 J-0.3039
G1 X0.4075 Y3.2961
X0.402 Y3.2985
G3 X0.396 Y3.3009 I-0.05 J-0.1146
X0.2962 Y3.321 I-0.1135 J-0.3071
G1 X0.2899 Y3.3218
G3 X0.2687 I-0.0106 J-0.1245
X0.1681 Y3.3033 I0.02 J-0.3919
G1 X0.1625 Y3.3009
G3 X0.1567 Y3.2985 I0.0441 J-0.117
G1 X0.1512 Y3.2961
G3 X0.1457 Y3.2936 I0.0499 J-0.1146
X0.0659 Y3.2384 I0.1574 J-0.3132
G1 X0.0594 Y3.2329
X0.0534 Y3.2269
X0.0478 Y3.2205
G3 X-0.0086 Y3.1337 I0.3004 J-0.2567
G1 X-0.0106 Y3.1279
G3 X-0.0129 Y3.1222 I0.1153 J-0.0482
X-0.032 Y3.0222 I0.3177 J-0.1125
G1 X-0.0328 Y3.0158
G3 X-0.0332 Y3.0083 I0.1246 J-0.0099
G2 X-0.0564 Y2.4917 I-8.8232 J0.1385
G3 X-0.0724 Y2.0632 I8.5818 J-0.5342
X-0.0603 Y1.64 I14.5201 J0.2022
G2 X-0.0566 Y1.4286 I-15.8447 J-0.3841
X-0.0885 Y0.8455 I-8.0208 J0.1467
G3 X-0.1179 Y0.4288 I13.5224 J-1.1625
X-0.125 Y0.1946 I21.0528 J-0.7518
X-0.1246 Y0.1809 I0.125 J-0.0032
X-0.1066 Y0.0808 I0.4032 J0.0206
G1 X-0.1042 Y0.0752
G3 X-0.102 Y0.0695 I0.1174 J0.0429
X-0.0479 Y-0.0169 I0.3044 J0.1306
G1 X-0.0442 Y-0.0221
G3 X-0.0271 Y-0.0397 I0.0979 J0.0777
X0.0527 Y-0.0958 I0.2708 J0.3002
G1 X0.0584 Y-0.0981
X0.0639 Y-0.1006
G3 X0.0699 Y-0.103 I0.0508 J0.1142
G1 X0.0755 Y-0.1052
G3 X0.0811 Y-0.1072 I0.0448 J0.1167
X0.1766 Y-0.1241 I0.1089 J0.3373
G1 X0.1838 Y-0.1247
X0.1911 Y-0.1248
X0.1985 Y-0.1245
G3 X0.294 Y-0.1076 I-0.0235 J0.41
G1 X0.2995 Y-0.1052
X0.3051 Y-0.103
G3 X0.3111 Y-0.1006 I-0.0448 J0.1167
G1 X0.3166 Y-0.0981
G3 X0.3222 Y-0.0955 I-0.0508 J0.1142
X0.4018 Y-0.0394 I-0.1593 J0.3109
G1 X0.408 Y-0.034
X0.4138 Y-0.0282
X0.4192 Y-0.0221
G3 X0.4749 Y0.0637 I-0.3027 J0.2576
G1 X0.477 Y0.0695
G3 X0.4792 Y0.0752 I-0.1152 J0.0486
X0.4987 Y0.1745 I-0.3161 J0.1135
G1 X0.4996 Y0.1809
G3 X0.4999 Y0.1876 I-0.1246 J0.0105
G2 X0.5348 Y0.6791 I4.9077 J-0.1016
G3 X0.5619 Y0.9757 I-8.9563 J0.9662
X0.567 Y1.0878 I-10.8454 J0.5467
G1 X1.2888 Y1.2287
G2 X1.6921 Y1.2947 I1.4783 J-7.7651
X1.9598 Y1.3182 I0.5621 J-4.8738
G3 X1.9629 Y0.9708 I3.9453 J-0.1394
X1.9819 Y0.6707 I7.5335 J0.3263
G2 X2 Y0.2668 I-7.207 J-0.5267
G3 X2.0005 Y0.2588 I0.125 J0.0027
X2.0189 Y0.1582 I0.3976 J0.021
G1 X2.0213 Y0.1526
G3 X2.0237 Y0.1468 I0.1171 J0.0438
G1 X2.0261 Y0.1412
G3 X2.0286 Y0.1357 I0.1147 J0.0497
X2.0833 Y0.0557 I0.3181 J0.1588
G1 X2.0885 Y0.0496
X2.094 Y0.0439
X2.1 Y0.0385
G3 X2.1844 Y-0.0186 I0.2593 J0.2925
G1 X2.19 Y-0.0207
G3 X2.1958 Y-0.0231 I0.0504 J0.1144
X2.295 Y-0.0435 I0.1146 J0.3052
G1 X2.3012 Y-0.0444
G3 X2.3232 Y-0.0445 I0.0113 J0.1245
X2.4237 Y-0.026 I-0.0204 J0.3936
G1 X2.4292 Y-0.0236
G3 X2.4351 Y-0.0212 I-0.0441 J0.117
G1 X2.4406 Y-0.0188
G3 X2.4462 Y-0.0162 I-0.0499 J0.1146
X2.5259 Y0.0389 I-0.1575 J0.3133
G1 X2.5322 Y0.0444
X2.5382 Y0.0502
X2.5437 Y0.0564
G3 X2.5999 Y0.142 I-0.2965 J0.2558
G1 X2.6019 Y0.1477
G3 X2.6042 Y0.1535 I-0.115 J0.0489
X2.6237 Y0.2528 I-0.3128 J0.1129
G1 X2.6246 Y0.2591
G3 X2.625 Y0.2723 I-0.1246 J0.0104
X2.6029 Y0.7257 I-6.8913 J-0.1082
G2 X2.583 Y1.1094 I7.8534 J0.5996
X2.5849 Y1.2554 I2.0028 J0.0475
X2.6118 Y1.6849 I6.2302 J-0.1758
G3 X2.6421 Y2.0771 I-14.9634 J1.3511
X2.6506 Y2.342 I-11.3047 J0.4949
X2.643 Y2.6109 I-16.2522 J-0.3229
G2 X2.6439 Y2.7483 I3.3156 J0.0466
X2.6769 Y2.9093 I0.6124 J-0.0415
G3 X2.6889 Y2.9826 I-0.4106 J0.1048
G1 X2.6894 Y2.9902
Y2.9978
X2.6889 Y3.0054
G3 X2.671 Y3.1033 I-0.4071 J-0.0241
G1 X2.6685 Y3.109
X2.6662 Y3.1148
G3 X2.6636 Y3.1209 I-0.1161 J-0.0463
G1 X2.661 Y3.1265
G3 X2.6582 Y3.1321 I-0.1135 J-0.0524
X2.6034 Y3.2079 I-0.299 J-0.1585
G1 X2.5993 Y3.2129
G3 X2.583 Y3.2282 I-0.0934 J-0.083
X2.4893 Y3.2868 I-0.2493 J-0.2945
X2.3855 Y3.3076 I-0.1236 J-0.3471
G1 X2.3774 Y3.3082
X2.3694 Y3.3083
X2.3614 Y3.3079
X2.3534 Y3.3069
X2.3454 Y3.3054
X2.3376 Y3.3034
X2.33 Y3.3009
G3 X2.2321 Y3.2583 I0.2023 J-0.5971
G1 X2.2262 Y3.2543
X2.2162 Y3.2479
G3 X2.2093 Y3.2432 I0.0674 J-0.1053
G1 X2.2 Y3.2362
G3 X2.1924 Y3.2302 I0.0743 J-0.1005
G1 X2.1837 Y3.2226
G3 X2.1763 Y3.2157 I0.0819 J-0.0945
G1 X2.1683 Y3.2075
G3 X2.162 Y3.2006 I0.0892 J-0.0876
G1 X2.1545 Y3.1918
G3 X2.1492 Y3.185 I0.0955 J-0.0806
G1 X2.1423 Y3.1756
G3 X2.138 Y3.1693 I0.1008 J-0.0739
G1 X2.1316 Y3.1594
G3 X2.128 Y3.1535 I0.1052 J-0.0675
X2.0797 Y3.036 I0.4456 J-0.2519
X2.0291 Y2.8304 I1.3784 J-0.4488
X2.0176 Y2.5952 I1.6304 J-0.1971
G1 X2.0173 Y2.5912
X2.0164 Y2.5874
X2.0148 Y2.5838
X2.0128 Y2.5804
X2.0102 Y2.5775
X2.0072 Y2.5749
X2.0038 Y2.5729
X2.0002 Y2.5714
X1.9964 Y2.5705
X1.9925 Y2.5702
X1.9675
X1.9635 Y2.5703 Z-0.1497
X1.9597 Z-0.1488
X1.9561 Z-0.1473
X1.9528 Z-0.1452
X1.9498 Z-0.1427
X1.9472 Z-0.1397
X1.9452 Z-0.1363
X1.9437 Z-0.1327
X1.9428 Z-0.1289
X1.9425 Z-0.125
Y2.6203
Z-0.175
X1.9429 Z-0.1789
X1.9438 Z-0.1827
X1.9453 Z-0.1863
X1.9473 Z-0.1897
X1.9499 Z-0.1927
X1.9528 Z-0.1952
X1.9562 Z-0.1973
X1.9598 Z-0.1988
X1.9636 Z-0.1997
X1.9675 Y2.6202 Z-0.2
X1.9925
G2 X2.0175 Y2.5952 J-0.025
X2.0023 Y1.9511 I-11.494 J-0.0512
G3 X1.3942 Y1.8819 I0.2111 J-4.5614
X1.2522 Y1.8572 I1.458 J-8.8158
G1 X0.559 Y1.7263
X0.5508 Y2.0705
G2 X0.5752 Y2.5886 I8.4752 J-0.1396
G3 X0.5918 Y3.0034 I-8.466 J0.5454
X0.5914 Y3.0158 I-0.125 J0.0025
X0.5738 Y3.1165 I-0.405 J-0.0187
G1 X0.5715 Y3.1222
G3 X0.5692 Y3.1279 I-0.1176 J-0.0424
X0.5146 Y3.2153 I-0.3018 J-0.1281
G1 X0.5108 Y3.2205
G3 X0.4929 Y3.2387 I-0.0978 J-0.0779
X0.4131 Y3.2939 I-0.2687 J-0.3039
G1 X0.4075 Y3.2961
X0.402 Y3.2985
G3 X0.396 Y3.3009 I-0.05 J-0.1146
X0.2962 Y3.321 I-0.1135 J-0.3071
G1 X0.2899 Y3.3218
G3 X0.2687 I-0.0106 J-0.1245
X0.1681 Y3.3033 I0.02 J-0.3919
G1 X0.1625 Y3.3009
G3 X0.1567 Y3.2985 I0.0441 J-0.117
G1 X0.1512 Y3.2961
G3 X0.1457 Y3.2936 I0.0499 J-0.1146
X0.0659 Y3.2384 I0.1574 J-0.3132
G1 X0.0594 Y3.2329
X0.0534 Y3.2269
X0.0478 Y3.2205
G3 X-0.0086 Y3.1337 I0.3004 J-0.2567
G1 X-0.0106 Y3.1279
G3 X-0.0129 Y3.1222 I0.1153 J-0.0482
X-0.032 Y3.0222 I0.3177 J-0.1125
G1 X-0.0328 Y3.0158
G3 X-0.0332 Y3.0083 I0.1246 J-0.0099
G2 X-0.0564 Y2.4917 I-8.8232 J0.1385
G3 X-0.0724 Y2.0632 I8.5818 J-0.5342
X-0.0603 Y1.64 I14.5201 J0.2022
G2 X-0.0566 Y1.4286 I-15.8447 J-0.3841
X-0.0885 Y0.8455 I-8.0208 J0.1467
G3 X-0.1179 Y0.4288 I13.5224 J-1.1625
X-0.125 Y0.1946 I21.0528 J-0.7518
X-0.1246 Y0.1809 I0.125 J-0.0032
X-0.1066 Y0.0808 I0.4032 J0.0206
G1 X-0.1042 Y0.0752
G3 X-0.102 Y0.0695 I0.1174 J0.0429
X-0.0479 Y-0.0169 I0.3044 J0.1306
G1 X-0.0442 Y-0.0221
G3 X-0.0271 Y-0.0397 I0.0979 J0.0777
X0.0527 Y-0.0958 I0.2708 J0.3002
G1 X0.0584 Y-0.0981
X0.0639 Y-0.1006
G3 X0.0699 Y-0.103 I0.0508 J0.1142
G1 X0.0755 Y-0.1052
G3 X0.0811 Y-0.1072 I0.0448 J0.1167
X0.1766 Y-0.1241 I0.1089 J0.3373
G1 X0.1838 Y-0.1247
X0.1911 Y-0.1248
X0.1985 Y-0.1245
G3 X0.294 Y-0.1076 I-0.0235 J0.41
G1 X0.2995 Y-0.1052
X0.3051 Y-0.103
G3 X0.3111 Y-0.1006 I-0.0448 J0.1167
G1 X0.3166 Y-0.0981
G3 X0.3222 Y-0.0955 I-0.0508 J0.1142
X0.4018 Y-0.0394 I-0.1593 J0.3109
G1 X0.408 Y-0.034
X0.4138 Y-0.0282
X0.4192 Y-0.0221
G3 X0.4749 Y0.0637 I-0.3027 J0.2576
G1 X0.477 Y0.0695
G3 X0.4792 Y0.0752 I-0.1152 J0.0486
X0.4987 Y0.1745 I-0.3161 J0.1135
G1 X0.4996 Y0.1809
G3 X0.4999 Y0.1876 I-0.1246 J0.0105
G2 X0.5348 Y0.6791 I4.9077 J-0.1016
G3 X0.5619 Y0.9757 I-8.9563 J0.9662
X0.567 Y1.0878 I-10.8454 J0.5467
G1 X1.2888 Y1.2287
G2 X1.6921 Y1.2947 I1.4783 J-7.7651
X1.9598 Y1.3182 I0.5621 J-4.8738
G3 X1.9629 Y0.9708 I3.9453 J-0.1394
X1.9819 Y0.6707 I7.5335 J0.3263
G2 X2 Y0.2668 I-7.207 J-0.5267
G3 X2.0005 Y0.2588 I0.125 J0.0027
X2.0189 Y0.1582 I0.3976 J0.021
G1 X2.0213 Y0.1526
G3 X2.0237 Y0.1468 I0.1171 J0.0438
G1 X2.0261 Y0.1412
G3 X2.0286 Y0.1357 I0.1147 J0.0497
X2.0833 Y0.0557 I0.3181 J0.1588
G1 X2.0885 Y0.0496
X2.094 Y0.0439
X2.1 Y0.0385
G3 X2.1844 Y-0.0186 I0.2593 J0.2925
G1 X2.19 Y-0.0207
G3 X2.1958 Y-0.0231 I0.0504 J0.1144
X2.295 Y-0.0435 I0.1146 J0.3052
G1 X2.3012 Y-0.0444
G3 X2.3232 Y-0.0445 I0.0113 J0.1245
X2.4237 Y-0.026 I-0.0204 J0.3936
G1 X2.4292 Y-0.0236
G3 X2.4351 Y-0.0212 I-0.0441 J0.117
G1 X2.4406 Y-0.0188
G3 X2.4462 Y-0.0162 I-0.0499 J0.1146
X2.5259 Y0.0389 I-0.1575 J0.3133
G1 X2.5322 Y0.0444
X2.5382 Y0.0502
X2.5437 Y0.0564
G3 X2.5999 Y0.142 I-0.2965 J0.2558
G1 X2.6019 Y0.1477
G3 X2.6042 Y0.1535 I-0.115 J0.0489
X2.6237 Y0.2528 I-0.3128 J0.1129
G1 X2.6246 Y0.2591
G3 X2.625 Y0.2723 I-0.1246 J0.0104
X2.6029 Y0.7257 I-6.8913 J-0.1082
G2 X2.583 Y1.1094 I7.8534 J0.5996
X2.5849 Y1.2554 I2.0028 J0.0475
X2.6118 Y1.6849 I6.2302 J-0.1758
G3 X2.6421 Y2.0771 I-14.9634 J1.3511
X2.6506 Y2.342 I-11.3047 J0.4949
X2.643 Y2.6109 I-16.2522 J-0.3229
G2 X2.6439 Y2.7483 I3.3156 J0.0466
X2.6769 Y2.9093 I0.6124 J-0.0415
G3 X2.6889 Y2.9826 I-0.4106 J0.1048
G1 X2.6894 Y2.9902
Y2.9978
X2.6889 Y3.0054
G3 X2.671 Y3.1033 I-0.4071 J-0.0241
G1 X2.6685 Y3.109
X2.6662 Y3.1148
G3 X2.6636 Y3.1209 I-0.1161 J-0.0463
G1 X2.661 Y3.1265
G3 X2.6582 Y3.1321 I-0.1135 J-0.0524
X2.6034 Y3.2079 I-0.299 J-0.1585
G1 X2.5993 Y3.2129
G3 X2.583 Y3.2282 I-0.0934 J-0.083
X2.4893 Y3.2868 I-0.2493 J-0.2945
X2.3855 Y3.3076 I-0.1236 J-0.3471
G1 X2.3774 Y3.3082
X2.3694 Y3.3083
X2.3614 Y3.3079
X2.3534 Y3.3069
X2.3454 Y3.3054
X2.3376 Y3.3034
X2.33 Y3.3009
G3 X2.2321 Y3.2583 I0.2023 J-0.5971
G1 X2.2262 Y3.2543
X2.2162 Y3.2479
G3 X2.2093 Y3.2432 I0.0674 J-0.1053
G1 X2.2 Y3.2362
G3 X2.1924 Y3.2302 I0.0743 J-0.1005
G1 X2.1837 Y3.2226
G3 X2.1763 Y3.2157 I0.0819 J-0.0945
G1 X2.1683 Y3.2075
G3 X2.162 Y3.2006 I0.0892 J-0.0876
G1 X2.1545 Y3.1918
G3 X2.1492 Y3.185 I0.0955 J-0.0806
G1 X2.1423 Y3.1756
G3 X2.138 Y3.1693 I0.1008 J-0.0739
G1 X2.1316 Y3.1594
G3 X2.128 Y3.1535 I0.1052 J-0.0675
X2.0797 Y3.036 I0.4456 J-0.2519
X2.0291 Y2.8304 I1.3784 J-0.4488
X2.0176 Y2.5952 I1.6304 J-0.1971
G1 X2.0173 Y2.5912
X2.0164 Y2.5874
X2.0148 Y2.5838
X2.0128 Y2.5804
X2.0102 Y2.5775
X2.0072 Y2.5749
X2.0038 Y2.5729
X2.0002 Y2.5714
X1.9964 Y2.5705
X1.9925 Y2.5702
X1.9675
X1.9635 Y2.5703 Z-0.1997
X1.9597 Z-0.1988
X1.9561 Z-0.1973
X1.9528 Z-0.1952
X1.9498 Z-0.1927
X1.9472 Z-0.1897
X1.9452 Z-0.1863
X1.9437 Z-0.1827
X1.9428 Z-0.1789
X1.9425 Z-0.175
Y2.6203
Z-0.225
X1.9429 Z-0.2289
X1.9438 Z-0.2327
X1.9453 Z-0.2363
X1.9473 Z-0.2397
X1.9499 Z-0.2427
X1.9528 Z-0.2452
X1.9562 Z-0.2473
X1.9598 Z-0.2488
X1.9636 Z-0.2497
X1.9675 Y2.6202 Z-0.25
X1.9925
G2 X2.0175 Y2.5952 J-0.025
X2.0023 Y1.9511 I-11.494 J-0.0512
G3 X1.3942 Y1.8819 I0.2111 J-4.5614
X1.2522 Y1.8572 I1.458 J-8.8158
G1 X0.559 Y1.7263
X0.5508 Y2.0705
G2 X0.5752 Y2.5886 I8.4752 J-0.1396
G3 X0.5918 Y3.0034 I-8.466 J0.5454
X0.5914 Y3.0158 I-0.125 J0.0025
X0.5738 Y3.1165 I-0.405 J-0.0187
G1 X0.5715 Y3.1222
G3 X0.5692 Y3.1279 I-0.1176 J-0.0424
X0.5146 Y3.2153 I-0.3018 J-0.1281
G1 X0.5108 Y3.2205
G3 X0.4929 Y3.2387 I-0.0978 J-0.0779
X0.4131 Y3.2939 I-0.2687 J-0.3039
G1 X0.4075 Y3.2961
X0.402 Y3.2985
G3 X0.396 Y3.3009 I-0.05 J-0.1146
X0.2962 Y3.321 I-0.1135 J-0.3071
G1 X0.2899 Y3.3218
G3 X0.2687 I-0.0106 J-0.1245
X0.1681 Y3.3033 I0.02 J-0.3919
G1 X0.1625 Y3.3009
G3 X0.1567 Y3.2985 I0.0441 J-0.117
G1 X0.1512 Y3.2961
G3 X0.1457 Y3.2936 I0.0499 J-0.1146
X0.0659 Y3.2384 I0.1574 J-0.3132
G1 X0.0594 Y3.2329
X0.0534 Y3.2269
X0.0478 Y3.2205
G3 X-0.0086 Y3.1337 I0.3004 J-0.2567
G1 X-0.0106 Y3.1279
G3 X-0.0129 Y3.1222 I0.1153 J-0.0482
X-0.032 Y3.0222 I0.3177 J-0.1125
G1 X-0.0328 Y3.0158
G3 X-0.0332 Y3.0083 I0.1246 J-0.0099
G2 X-0.0564 Y2.4917 I-8.8232 J0.1385
G3 X-0.0724 Y2.0632 I8.5818 J-0.5342
X-0.0603 Y1.64 I14.5201 J0.2022
G2 X-0.0566 Y1.4286 I-15.8447 J-0.3841
X-0.0885 Y0.8455 I-8.0208 J0.1467
G3 X-0.1179 Y0.4288 I13.5224 J-1.1625
X-0.125 Y0.1946 I21.0528 J-0.7518
X-0.1246 Y0.1809 I0.125 J-0.0032
X-0.1066 Y0.0808 I0.4032 J0.0206
G1 X-0.1042 Y0.0752
G3 X-0.102 Y0.0695 I0.1174 J0.0429
X-0.0479 Y-0.0169 I0.3044 J0.1306
G1 X-0.0442 Y-0.0221
G3 X-0.0271 Y-0.0397 I0.0979 J0.0777
X0.0527 Y-0.0958 I0.2708 J0.3002
G1 X0.0584 Y-0.0981
X0.0639 Y-0.1006
G3 X0.0699 Y-0.103 I0.0508 J0.1142
G1 X0.0755 Y-0.1052
G3 X0.0811 Y-0.1072 I0.0448 J0.1167
X0.1766 Y-0.1241 I0.1089 J0.3373
G1 X0.1838 Y-0.1247
X0.1911 Y-0.1248
X0.1985 Y-0.1245
G3 X0.294 Y-0.1076 I-0.0235 J0.41
G1 X0.2995 Y-0.1052
X0.3051 Y-0.103
G3 X0.3111 Y-0.1006 I-0.0448 J0.1167
G1 X0.3166 Y-0.0981
G3 X0.3222 Y-0.0955 I-0.0508 J0.1142
X0.4018 Y-0.0394 I-0.1593 J0.3109
G1 X0.408 Y-0.034
X0.4138 Y-0.0282
X0.4192 Y-0.0221
G3 X0.4749 Y0.0637 I-0.3027 J0.2576
G1 X0.477 Y0.0695
G3 X0.4792 Y0.0752 I-0.1152 J0.0486
X0.4987 Y0.1745 I-0.3161 J0.1135
G1 X0.4996 Y0.1809
G3 X0.4999 Y0.1876 I-0.1246 J0.0105
G2 X0.5348 Y0.6791 I4.9077 J-0.1016
G3 X0.5619 Y0.9757 I-8.9563 J0.9662
X0.567 Y1.0878 I-10.8454 J0.5467
G1 X1.2888 Y1.2287
G2 X1.6921 Y1.2947 I1.4783 J-7.7651
X1.9598 Y1.3182 I0.5621 J-4.8738
G3 X1.9629 Y0.9708 I3.9453 J-0.1394
X1.9819 Y0.6707 I7.5335 J0.3263
G2 X2 Y0.2668 I-7.207 J-0.5267
G3 X2.0005 Y0.2588 I0.125 J0.0027
X2.0189 Y0.1582 I0.3976 J0.021
G1 X2.0213 Y0.1526
G3 X2.0237 Y0.1468 I0.1171 J0.0438
G1 X2.0261 Y0.1412
G3 X2.0286 Y0.1357 I0.1147 J0.0497
X2.0833 Y0.0557 I0.3181 J0.1588
G1 X2.0885 Y0.0496
X2.094 Y0.0439
X2.1 Y0.0385
G3 X2.1844 Y-0.0186 I0.2593 J0.2925
G1 X2.19 Y-0.0207
G3 X2.1958 Y-0.0231 I0.0504 J0.1144
X2.295 Y-0.0435 I0.1146 J0.3052
G1 X2.3012 Y-0.0444
G3 X2.3232 Y-0.0445 I0.0113 J0.1245
X2.4237 Y-0.026 I-0.0204 J0.3936
G1 X2.4292 Y-0.0236
G3 X2.4351 Y-0.0212 I-0.0441 J0.117
G1 X2.4406 Y-0.0188
G3 X2.4462 Y-0.0162 I-0.0499 J0.1146
X2.5259 Y0.0389 I-0.1575 J0.3133
G1 X2.5322 Y0.0444
X2.5382 Y0.0502
X2.5437 Y0.0564
G3 X2.5999 Y0.142 I-0.2965 J0.2558
G1 X2.6019 Y0.1477
G3 X2.6042 Y0.1535 I-0.115 J0.0489
X2.6237 Y0.2528 I-0.3128 J0.1129
G1 X2.6246 Y0.2591
G3 X2.625 Y0.2723 I-0.1246 J0.0104
X2.6029 Y0.7257 I-6.8913 J-0.1082
G2 X2.583 Y1.1094 I7.8534 J0.5996
X2.5849 Y1.2554 I2.0028 J0.0475
X2.6118 Y1.6849 I6.2302 J-0.1758
G3 X2.6421 Y2.0771 I-14.9634 J1.3511
X2.6506 Y2.342 I-11.3047 J0.4949
X2.643 Y2.6109 I-16.2522 J-0.3229
G2 X2.6439 Y2.7483 I3.3156 J0.0466
X2.6769 Y2.9093 I0.6124 J-0.0415
G3 X2.6889 Y2.9826 I-0.4106 J0.1048
G1 X2.6894 Y2.9902
Y2.9978
X2.6889 Y3.0054
G3 X2.671 Y3.1033 I-0.4071 J-0.0241
G1 X2.6685 Y3.109
X2.6662 Y3.1148
G3 X2.6636 Y3.1209 I-0.1161 J-0.0463
G1 X2.661 Y3.1265
G3 X2.6582 Y3.1321 I-0.1135 J-0.0524
X2.6034 Y3.2079 I-0.299 J-0.1585
G1 X2.5993 Y3.2129
G3 X2.583 Y3.2282 I-0.0934 J-0.083
X2.4893 Y3.2868 I-0.2493 J-0.2945
X2.3855 Y3.3076 I-0.1236 J-0.3471
G1 X2.3774 Y3.3082
X2.3694 Y3.3083
X2.3614 Y3.3079
X2.3534 Y3.3069
X2.3454 Y3.3054
X2.3376 Y3.3034
X2.33 Y3.3009
G3 X2.2321 Y3.2583 I0.2023 J-0.5971
G1 X2.2262 Y3.2543
X2.2162 Y3.2479
G3 X2.2093 Y3.2432 I0.0674 J-0.1053
G1 X2.2 Y3.2362
G3 X2.1924 Y3.2302 I0.0743 J-0.1005
G1 X2.1837 Y3.2226
G3 X2.1763 Y3.2157 I0.0819 J-0.0945
G1 X2.1683 Y3.2075
G3 X2.162 Y3.2006 I0.0892 J-0.0876
G1 X2.1545 Y3.1918
G3 X2.1492 Y3.185 I0.0955 J-0.0806
G1 X2.1423 Y3.1756
G3 X2.138 Y3.1693 I0.1008 J-0.0739
G1 X2.1316 Y3.1594
G3 X2.128 Y3.1535 I0.1052 J-0.0675
X2.0797 Y3.036 I0.4456 J-0.2519
X2.0291 Y2.8304 I1.3784 J-0.4488
X2.0176 Y2.5952 I1.6304 J-0.1971
G1 X2.0173 Y2.5912
X2.0164 Y2.5874
X2.0148 Y2.5838
X2.0128 Y2.5804
X2.0102 Y2.5775
X2.0072 Y2.5749
X2.0038 Y2.5729
X2.0002 Y2.5714
X1.9964 Y2.5705
X1.9925 Y2.5702
X1.9675
X1.9635 Y2.5703 Z-0.2497
X1.9597 Z-0.2488
X1.9561 Z-0.2473
X1.9528 Z-0.2452
X1.9498 Z-0.2427
X1.9472 Z-0.2397
X1.9452 Z-0.2363
X1.9437 Z-0.2327
X1.9428 Z-0.2289
X1.9425 Z-0.225
Y2.6203
Z-0.275
X1.9429 Z-0.2789
X1.9438 Z-0.2827
X1.9453 Z-0.2863
X1.9473 Z-0.2897
X1.9499 Z-0.2927
X1.9528 Z-0.2952
X1.9562 Z-0.2973
X1.9598 Z-0.2988
X1.9636 Z-0.2997
X1.9675 Y2.6202 Z-0.3
X1.9925
G2 X2.0175 Y2.5952 J-0.025
X2.0023 Y1.9511 I-11.494 J-0.0512
G3 X1.3942 Y1.8819 I0.2111 J-4.5614
X1.2522 Y1.8572 I1.458 J-8.8158
G1 X0.559 Y1.7263
X0.5508 Y2.0705
G2 X0.5752 Y2.5886 I8.4752 J-0.1396
G3 X0.5918 Y3.0034 I-8.466 J0.5454
X0.5914 Y3.0158 I-0.125 J0.0025
X0.5738 Y3.1165 I-0.405 J-0.0187
G1 X0.5715 Y3.1222
G3 X0.5692 Y3.1279 I-0.1176 J-0.0424
X0.5146 Y3.2153 I-0.3018 J-0.1281
G1 X0.5108 Y3.2205
G3 X0.4929 Y3.2387 I-0.0978 J-0.0779
X0.4131 Y3.2939 I-0.2687 J-0.3039
G1 X0.4075 Y3.2961
X0.402 Y3.2985
G3 X0.396 Y3.3009 I-0.05 J-0.1146
X0.2962 Y3.321 I-0.1135 J-0.3071
G1 X0.2899 Y3.3218
G3 X0.2687 I-0.0106 J-0.1245
X0.1681 Y3.3033 I0.02 J-0.3919
G1 X0.1625 Y3.3009
G3 X0.1567 Y3.2985 I0.0441 J-0.117
G1 X0.1512 Y3.2961
G3 X0.1457 Y3.2936 I0.0499 J-0.1146
X0.0659 Y3.2384 I0.1574 J-0.3132
G1 X0.0594 Y3.2329
X0.0534 Y3.2269
X0.0478 Y3.2205
G3 X-0.0086 Y3.1337 I0.3004 J-0.2567
G1 X-0.0106 Y3.1279
G3 X-0.0129 Y3.1222 I0.1153 J-0.0482
X-0.032 Y3.0222 I0.3177 J-0.1125
G1 X-0.0328 Y3.0158
G3 X-0.0332 Y3.0083 I0.1246 J-0.0099
G2 X-0.0564 Y2.4917 I-8.8232 J0.1385
G3 X-0.0724 Y2.0632 I8.5818 J-0.5342
X-0.0603 Y1.64 I14.5201 J0.2022
G2 X-0.0566 Y1.4286 I-15.8447 J-0.3841
X-0.0885 Y0.8455 I-8.0208 J0.1467
G3 X-0.1179 Y0.4288 I13.5224 J-1.1625
X-0.125 Y0.1946 I21.0528 J-0.7518
X-0.1246 Y0.1809 I0.125 J-0.0032
X-0.1066 Y0.0808 I0.4032 J0.0206
G1 X-0.1042 Y0.0752
G3 X-0.102 Y0.0695 I0.1174 J0.0429
X-0.0479 Y-0.0169 I0.3044 J0.1306
G1 X-0.0442 Y-0.0221
G3 X-0.0271 Y-0.0397 I0.0979 J0.0777
X0.0527 Y-0.0958 I0.2708 J0.3002
G1 X0.0584 Y-0.0981
X0.0639 Y-0.1006
G3 X0.0699 Y-0.103 I0.0508 J0.1142
G1 X0.0755 Y-0.1052
G3 X0.0811 Y-0.1072 I0.0448 J0.1167
X0.1766 Y-0.1241 I0.1089 J0.3373
G1 X0.1838 Y-0.1247
X0.1911 Y-0.1248
X0.1985 Y-0.1245
G3 X0.294 Y-0.1076 I-0.0235 J0.41
G1 X0.2995 Y-0.1052
X0.3051 Y-0.103
G3 X0.3111 Y-0.1006 I-0.0448 J0.1167
G1 X0.3166 Y-0.0981
G3 X0.3222 Y-0.0955 I-0.0508 J0.1142
X0.4018 Y-0.0394 I-0.1593 J0.3109
G1 X0.408 Y-0.034
X0.4138 Y-0.0282
X0.4192 Y-0.0221
G3 X0.4749 Y0.0637 I-0.3027 J0.2576
G1 X0.477 Y0.0695
G3 X0.4792 Y0.0752 I-0.1152 J0.0486
X0.4987 Y0.1745 I-0.3161 J0.1135
G1 X0.4996 Y0.1809
G3 X0.4999 Y0.1876 I-0.1246 J0.0105
G2 X0.5348 Y0.6791 I4.9077 J-0.1016
G3 X0.5619 Y0.9757 I-8.9563 J0.9662
X0.567 Y1.0878 I-10.8454 J0.5467
G1 X1.2888 Y1.2287
G2 X1.6921 Y1.2947 I1.4783 J-7.7651
X1.9598 Y1.3182 I0.5621 J-4.8738
G3 X1.9629 Y0.9708 I3.9453 J-0.1394
X1.9819 Y0.6707 I7.5335 J0.3263
G2 X2 Y0.2668 I-7.207 J-0.5267
G3 X2.0005 Y0.2588 I0.125 J0.0027
X2.0189 Y0.1582 I0.3976 J0.021
G1 X2.0213 Y0.1526
G3 X2.0237 Y0.1468 I0.1171 J0.0438
G1 X2.0261 Y0.1412
G3 X2.0286 Y0.1357 I0.1147 J0.0497
X2.0833 Y0.0557 I0.3181 J0.1588
G1 X2.0885 Y0.0496
X2.094 Y0.0439
X2.1 Y0.0385
G3 X2.1844 Y-0.0186 I0.2593 J0.2925
G1 X2.19 Y-0.0207
G3 X2.1958 Y-0.0231 I0.0504 J0.1144
X2.295 Y-0.0435 I0.1146 J0.3052
G1 X2.3012 Y-0.0444
G3 X2.3232 Y-0.0445 I0.0113 J0.1245
X2.4237 Y-0.026 I-0.0204 J0.3936
G1 X2.4292 Y-0.0236
G3 X2.4351 Y-0.0212 I-0.0441 J0.117
G1 X2.4406 Y-0.0188
G3 X2.4462 Y-0.0162 I-0.0499 J0.1146
X2.5259 Y0.0389 I-0.1575 J0.3133
G1 X2.5322 Y0.0444
X2.5382 Y0.0502
X2.5437 Y0.0564
G3 X2.5999 Y0.142 I-0.2965 J0.2558
G1 X2.6019 Y0.1477
G3 X2.6042 Y0.1535 I-0.115 J0.0489
X2.6237 Y0.2528 I-0.3128 J0.1129
G1 X2.6246 Y0.2591
G3 X2.625 Y0.2723 I-0.1246 J0.0104
X2.6029 Y0.7257 I-6.8913 J-0.1082
G2 X2.583 Y1.1094 I7.8534 J0.5996
X2.5849 Y1.2554 I2.0028 J0.0475
X2.6118 Y1.6849 I6.2302 J-0.1758
G3 X2.6421 Y2.0771 I-14.9634 J1.3511
X2.6506 Y2.342 I-11.3047 J0.4949
X2.643 Y2.6109 I-16.2522 J-0.3229
G2 X2.6439 Y2.7483 I3.3156 J0.0466
X2.6769 Y2.9093 I0.6124 J-0.0415
G3 X2.6889 Y2.9826 I-0.4106 J0.1048
G1 X2.6894 Y2.9902
Y2.9978
X2.6889 Y3.0054
G3 X2.671 Y3.1033 I-0.4071 J-0.0241
G1 X2.6685 Y3.109
X2.6662 Y3.1148
G3 X2.6636 Y3.1209 I-0.1161 J-0.0463
G1 X2.661 Y3.1265
G3 X2.6582 Y3.1321 I-0.1135 J-0.0524
X2.6034 Y3.2079 I-0.299 J-0.1585
G1 X2.5993 Y3.2129
G3 X2.583 Y3.2282 I-0.0934 J-0.083
X2.4893 Y3.2868 I-0.2493 J-0.2945
X2.3855 Y3.3076 I-0.1236 J-0.3471
G1 X2.3774 Y3.3082
X2.3694 Y3.3083
X2.3614 Y3.3079
X2.3534 Y3.3069
X2.3454 Y3.3054
X2.3376 Y3.3034
X2.33 Y3.3009
G3 X2.2321 Y3.2583 I0.2023 J-0.5971
G1 X2.2262 Y3.2543
X2.2162 Y3.2479
G3 X2.2093 Y3.2432 I0.0674 J-0.1053
G1 X2.2 Y3.2362
G3 X2.1924 Y3.2302 I0.0743 J-0.1005
G1 X2.1837 Y3.2226
G3 X2.1763 Y3.2157 I0.0819 J-0.0945
G1 X2.1683 Y3.2075
G3 X2.162 Y3.2006 I0.0892 J-0.0876
G1 X2.1545 Y3.1918
G3 X2.1492 Y3.185 I0.0955 J-0.0806
G1 X2.1423 Y3.1756
G3 X2.138 Y3.1693 I0.1008 J-0.0739
G1 X2.1316 Y3.1594
G3 X2.128 Y3.1535 I0.1052 J-0.0675
X2.0797 Y3.036 I0.4456 J-0.2519
X2.0291 Y2.8304 I1.3784 J-0.4488
X2.0176 Y2.5952 I1.6304 J-0.1971
G1 X2.0173 Y2.5912
X2.0164 Y2.5874
X2.0148 Y2.5838
X2.0128 Y2.5804
X2.0102 Y2.5775
X2.0072 Y2.5749
X2.0038 Y2.5729
X2.0002 Y2.5714
X1.9964 Y2.5705
X1.9925 Y2.5702
X1.9675
X1.9635 Y2.5703 Z-0.2997
X1.9597 Z-0.2988
X1.9561 Z-0.2973
X1.9528 Z-0.2952
X1.9498 Z-0.2927
X1.9472 Z-0.2897
X1.9452 Z-0.2863
X1.9437 Z-0.2827
X1.9428 Z-0.2789
X1.9425 Z-0.275
Y2.6203
Z-0.325
X1.9429 Z-0.3289
X1.9438 Z-0.3327
X1.9453 Z-0.3363
X1.9473 Z-0.3397
X1.9499 Z-0.3427
X1.9528 Z-0.3452
X1.9562 Z-0.3473
X1.9598 Z-0.3488
X1.9636 Z-0.3497
X1.9675 Y2.6202 Z-0.35
X1.9925
G2 X2.0175 Y2.5952 J-0.025
X2.0023 Y1.9511 I-11.494 J-0.0512
G3 X1.3942 Y1.8819 I0.2111 J-4.5614
X1.2522 Y1.8572 I1.458 J-8.8158
G1 X0.559 Y1.7263
X0.5508 Y2.0705
G2 X0.5752 Y2.5886 I8.4752 J-0.1396
G3 X0.5918 Y3.0034 I-8.466 J0.5454
X0.5914 Y3.0158 I-0.125 J0.0025
X0.5738 Y3.1165 I-0.405 J-0.0187
G1 X0.5715 Y3.1222
G3 X0.5692 Y3.1279 I-0.1176 J-0.0424
X0.5146 Y3.2153 I-0.3018 J-0.1281
G1 X0.5108 Y3.2205
G3 X0.4929 Y3.2387 I-0.0978 J-0.0779
X0.4131 Y3.2939 I-0.2687 J-0.3039
G1 X0.4075 Y3.2961
X0.402 Y3.2985
G3 X0.396 Y3.3009 I-0.05 J-0.1146
X0.2962 Y3.321 I-0.1135 J-0.3071
G1 X0.2899 Y3.3218
G3 X0.2687 I-0.0106 J-0.1245
X0.1681 Y3.3033 I0.02 J-0.3919
G1 X0.1625 Y3.3009
G3 X0.1567 Y3.2985 I0.0441 J-0.117
G1 X0.1512 Y3.2961
G3 X0.1457 Y3.2936 I0.0499 J-0.1146
X0.0659 Y3.2384 I0.1574 J-0.3132
G1 X0.0594 Y3.2329
X0.0534 Y3.2269
X0.0478 Y3.2205
G3 X-0.0086 Y3.1337 I0.3004 J-0.2567
G1 X-0.0106 Y3.1279
G3 X-0.0129 Y3.1222 I0.1153 J-0.0482
X-0.032 Y3.0222 I0.3177 J-0.1125
G1 X-0.0328 Y3.0158
G3 X-0.0332 Y3.0083 I0.1246 J-0.0099
G2 X-0.0564 Y2.4917 I-8.8232 J0.1385
G3 X-0.0724 Y2.0632 I8.5818 J-0.5342
X-0.0603 Y1.64 I14.5201 J0.2022
G2 X-0.0566 Y1.4286 I-15.8447 J-0.3841
X-0.0885 Y0.8455 I-8.0208 J0.1467
G3 X-0.1179 Y0.4288 I13.5224 J-1.1625
X-0.125 Y0.1946 I21.0528 J-0.7518
X-0.1246 Y0.1809 I0.125 J-0.0032
X-0.1066 Y0.0808 I0.4032 J0.0206
G1 X-0.1042 Y0.0752
G3 X-0.102 Y0.0695 I0.1174 J0.0429
X-0.0479 Y-0.0169 I0.3044 J0.1306
G1 X-0.0442 Y-0.0221
G3 X-0.0271 Y-0.0397 I0.0979 J0.0777
X0.0527 Y-0.0958 I0.2708 J0.3002
G1 X0.0584 Y-0.0981
X0.0639 Y-0.1006
G3 X0.0699 Y-0.103 I0.0508 J0.1142
G1 X0.0755 Y-0.1052
G3 X0.0811 Y-0.1072 I0.0448 J0.1167
X0.1766 Y-0.1241 I0.1089 J0.3373
G1 X0.1838 Y-0.1247
X0.1911 Y-0.1248
X0.1985 Y-0.1245
G3 X0.294 Y-0.1076 I-0.0235 J0.41
G1 X0.2995 Y-0.1052
X0.3051 Y-0.103
G3 X0.3111 Y-0.1006 I-0.0448 J0.1167
G1 X0.3166 Y-0.0981
G3 X0.3222 Y-0.0955 I-0.0508 J0.1142
X0.4018 Y-0.0394 I-0.1593 J0.3109
G1 X0.408 Y-0.034
X0.4138 Y-0.0282
X0.4192 Y-0.0221
G3 X0.4749 Y0.0637 I-0.3027 J0.2576
G1 X0.477 Y0.0695
G3 X0.4792 Y0.0752 I-0.1152 J0.0486
X0.4987 Y0.1745 I-0.3161 J0.1135
G1 X0.4996 Y0.1809
G3 X0.4999 Y0.1876 I-0.1246 J0.0105
G2 X0.5348 Y0.6791 I4.9077 J-0.1016
G3 X0.5619 Y0.9757 I-8.9563 J0.9662
X0.567 Y1.0878 I-10.8454 J0.5467
G1 X1.2888 Y1.2287
G2 X1.6921 Y1.2947 I1.4783 J-7.7651
X1.9598 Y1.3182 I0.5621 J-4.8738
G3 X1.9629 Y0.9708 I3.9453 J-0.1394
X1.9819 Y0.6707 I7.5335 J0.3263
G2 X2 Y0.2668 I-7.207 J-0.5267
G3 X2.0005 Y0.2588 I0.125 J0.0027
X2.0189 Y0.1582 I0.3976 J0.021
G1 X2.0213 Y0.1526
G3 X2.0237 Y0.1468 I0.1171 J0.0438
G1 X2.0261 Y0.1412
G3 X2.0286 Y0.1357 I0.1147 J0.0497
X2.0833 Y0.0557 I0.3181 J0.1588
G1 X2.0885 Y0.0496
X2.094 Y0.0439
X2.1 Y0.0385
G3 X2.1844 Y-0.0186 I0.2593 J0.2925
G1 X2.19 Y-0.0207
G3 X2.1958 Y-0.0231 I0.0504 J0.1144
X2.295 Y-0.0435 I0.1146 J0.3052
G1 X2.3012 Y-0.0444
G3 X2.3232 Y-0.0445 I0.0113 J0.1245
X2.4237 Y-0.026 I-0.0204 J0.3936
G1 X2.4292 Y-0.0236
G3 X2.4351 Y-0.0212 I-0.0441 J0.117
G1 X2.4406 Y-0.0188
G3 X2.4462 Y-0.0162 I-0.0499 J0.1146
X2.5259 Y0.0389 I-0.1575 J0.3133
G1 X2.5322 Y0.0444
X2.5382 Y0.0502
X2.5437 Y0.0564
G3 X2.5999 Y0.142 I-0.2965 J0.2558
G1 X2.6019 Y0.1477
G3 X2.6042 Y0.1535 I-0.115 J0.0489
X2.6237 Y0.2528 I-0.3128 J0.1129
G1 X2.6246 Y0.2591
G3 X2.625 Y0.2723 I-0.1246 J0.0104
X2.6029 Y0.7257 I-6.8913 J-0.1082
G2 X2.583 Y1.1094 I7.8534 J0.5996
X2.5849 Y1.2554 I2.0028 J0.0475
X2.6118 Y1.6849 I6.2302 J-0.1758
G3 X2.6421 Y2.0771 I-14.9634 J1.3511
X2.6506 Y2.342 I-11.3047 J0.4949
X2.643 Y2.6109 I-16.2522 J-0.3229
G2 X2.6439 Y2.7483 I3.3156 J0.0466
X2.6769 Y2.9093 I0.6124 J-0.0415
G3 X2.6889 Y2.9826 I-0.4106 J0.1048
G1 X2.6894 Y2.9902
Y2.9978
X2.6889 Y3.0054
G3 X2.671 Y3.1033 I-0.4071 J-0.0241
G1 X2.6685 Y3.109
X2.6662 Y3.1148
G3 X2.6636 Y3.1209 I-0.1161 J-0.0463
G1 X2.661 Y3.1265
G3 X2.6582 Y3.1321 I-0.1135 J-0.0524
X2.6034 Y3.2079 I-0.299 J-0.1585
G1 X2.5993 Y3.2129
G3 X2.583 Y3.2282 I-0.0934 J-0.083
X2.4893 Y3.2868 I-0.2493 J-0.2945
X2.3855 Y3.3076 I-0.1236 J-0.3471
G1 X2.3774 Y3.3082
X2.3694 Y3.3083
X2.3614 Y3.3079
X2.3534 Y3.3069
X2.3454 Y3.3054
X2.3376 Y3.3034
X2.33 Y3.3009
G3 X2.2321 Y3.2583 I0.2023 J-0.5971
G1 X2.2262 Y3.2543
X2.2162 Y3.2479
G3 X2.2093 Y3.2432 I0.0674 J-0.1053
G1 X2.2 Y3.2362
G3 X2.1924 Y3.2302 I0.0743 J-0.1005
G1 X2.1837 Y3.2226
G3 X2.1763 Y3.2157 I0.0819 J-0.0945
G1 X2.1683 Y3.2075
G3 X2.162 Y3.2006 I0.0892 J-0.0876
G1 X2.1545 Y3.1918
G3 X2.1492 Y3.185 I0.0955 J-0.0806
G1 X2.1423 Y3.1756
G3 X2.138 Y3.1693 I0.1008 J-0.0739
G1 X2.1316 Y3.1594
G3 X2.128 Y3.1535 I0.1052 J-0.0675
X2.0797 Y3.036 I0.4456 J-0.2519
X2.0291 Y2.8304 I1.3784 J-0.4488
X2.0176 Y2.5952 I1.6304 J-0.1971
G1 X2.0173 Y2.5912
X2.0164 Y2.5874
X2.0148 Y2.5838
X2.0128 Y2.5804
X2.0102 Y2.5775
X2.0072 Y2.5749
X2.0038 Y2.5729
X2.0002 Y2.5714
X1.9964 Y2.5705
X1.9925 Y2.5702
X1.9675
X1.9635 Y2.5703 Z-0.3497
X1.9597 Z-0.3488
X1.9561 Z-0.3473
X1.9528 Z-0.3452
X1.9498 Z-0.3427
X1.9472 Z-0.3397
X1.9452 Z-0.3363
X1.9437 Z-0.3327
X1.9428 Z-0.3289
X1.9425 Z-0.325
Y2.6203
Z-0.375
X1.9428 Z-0.3785
X1.9435 Z-0.3819
X1.9447 Z-0.3851
X1.9463 Z-0.3882
X1.9483 Z-0.391
X1.9675 Y2.6202
X1.9925
G2 X2.0175 Y2.5952 J-0.025
X2.0167 Y2.4239 I-23.7295 J0.0197
G1 Z-0.4
G2 X2.0021 Y1.9511 I-9.8416 J0.068
G3 X1.3942 Y1.8819 I0.2123 J-4.5689
X1.2522 Y1.8572 I1.476 J-8.917
G1 X0.559 Y1.7263
X0.5508 Y2.0705
G2 X0.5752 Y2.5886 I8.4752 J-0.1396
G3 X0.5918 Y3.0034 I-8.466 J0.5454
X0.5914 Y3.0158 I-0.125 J0.0025
X0.5738 Y3.1165 I-0.405 J-0.0187
G1 X0.5715 Y3.1222
G3 X0.5692 Y3.1279 I-0.1176 J-0.0424
X0.5146 Y3.2153 I-0.3018 J-0.1281
G1 X0.5108 Y3.2205
G3 X0.4929 Y3.2387 I-0.0978 J-0.0779
X0.4131 Y3.2939 I-0.2687 J-0.3039
G1 X0.4075 Y3.2961
X0.402 Y3.2985
G3 X0.396 Y3.3009 I-0.05 J-0.1146
X0.2962 Y3.321 I-0.1135 J-0.3071
G1 X0.2899 Y3.3218
G3 X0.2687 I-0.0106 J-0.1245
X0.1681 Y3.3033 I0.02 J-0.3919
G1 X0.1625 Y3.3009
G3 X0.1567 Y3.2985 I0.0441 J-0.117
G1 X0.1512 Y3.2961
G3 X0.1457 Y3.2936 I0.0499 J-0.1146
X0.0659 Y3.2384 I0.1574 J-0.3132
G1 X0.0594 Y3.2329
X0.0534 Y3.2269
X0.0478 Y3.2205
G3 X-0.0086 Y3.1337 I0.3004 J-0.2567
G1 X-0.0106 Y3.1279
G3 X-0.0129 Y3.1222 I0.1153 J-0.0482
X-0.032 Y3.0222 I0.3177 J-0.1125
G1 X-0.0328 Y3.0158
G3 X-0.0332 Y3.0083 I0.1246 J-0.0099
G2 X-0.0386 Y2.7994 I-10.5137 J0.17
G1 X-0.0387 Z-0.391
G2 X-0.0622 Y2.3941 I-23.4318 J1.1527
G1 X-0.0663 Y2.3002
Z-0.4
G3 X-0.0721 Y2.0358 I6.6501 J-0.278
X-0.0599 Y1.6267 I16.5153 J0.2882
G2 X-0.0566 Y1.4286 I-19.0712 J-0.4166
X-0.0885 Y0.8455 I-8.0278 J0.1471
G3 X-0.1179 Y0.4288 I13.5122 J-1.1618
X-0.124 Y0.2327 I22.9226 J-0.8128
G1 Z-0.391
X-0.1243 Y0.2204
X-0.125 Y0.1946
G3 X-0.1246 Y0.1809 I0.125 J-0.0032
X-0.1066 Y0.0808 I0.4032 J0.0206
G1 X-0.1042 Y0.0752
G3 X-0.102 Y0.0695 I0.1174 J0.0429
X-0.0479 Y-0.0169 I0.3044 J0.1306
G1 X-0.0442 Y-0.0221
G3 X-0.0271 Y-0.0397 I0.0979 J0.0777
X0.0527 Y-0.0958 I0.2708 J0.3002
G1 X0.0584 Y-0.0981
X0.0639 Y-0.1006
G3 X0.0699 Y-0.103 I0.0508 J0.1142
G1 X0.0755 Y-0.1052
G3 X0.0811 Y-0.1072 I0.0448 J0.1167
X0.1766 Y-0.1241 I0.1089 J0.3373
G1 X0.1838 Y-0.1247
X0.1911 Y-0.1248
X0.1985 Y-0.1245
G3 X0.2316 Y-0.1212 I-0.0681 J0.8344
G1 Y-0.1211 Z-0.4
G3 X0.2939 Y-0.1073 I-0.0375 J0.3164
G1 X0.2995 Y-0.1052
X0.3051 Y-0.103
G3 X0.3111 Y-0.1006 I-0.0448 J0.1167
G1 X0.3166 Y-0.0981
G3 X0.3222 Y-0.0955 I-0.0508 J0.1142
X0.4018 Y-0.0394 I-0.1593 J0.3109
G1 X0.408 Y-0.034
X0.4138 Y-0.0282
X0.4192 Y-0.0221
G3 X0.4749 Y0.0637 I-0.3027 J0.2576
G1 X0.477 Y0.0695
G3 X0.4792 Y0.0752 I-0.1152 J0.0486
X0.4987 Y0.1745 I-0.3161 J0.1135
G1 X0.4996 Y0.1809
G3 X0.4999 Y0.1876 I-0.1246 J0.0105
G2 X0.5348 Y0.6791 I4.9077 J-0.1016
G3 X0.5619 Y0.9757 I-8.9563 J0.9662
X0.567 Y1.0878 I-10.8454 J0.5467
G1 X1.0426 Y1.1807
Z-0.391
X1.2888 Y1.2287
G2 X1.5343 Y1.2717 I2.1226 J-11.4123
G1 Y1.2716 Z-0.4
G2 X1.9599 Y1.3181 I0.6426 J-3.9169
G3 X1.9629 Y0.9708 I3.9332 J-0.1395
X1.9819 Y0.6707 I7.5151 J0.3251
G2 X2 Y0.2668 I-7.2103 J-0.5268
G3 X2.0005 Y0.2588 I0.125 J0.0027
X2.0189 Y0.1582 I0.3976 J0.021
G1 X2.0213 Y0.1526
G3 X2.0237 Y0.1468 I0.1171 J0.0438
G1 X2.0261 Y0.1412
G3 X2.0286 Y0.1357 I0.1147 J0.0497
X2.0833 Y0.0557 I0.3181 J0.1588
G1 X2.0885 Y0.0496
X2.094 Y0.0439
X2.1 Y0.0385
G3 X2.1844 Y-0.0186 I0.2593 J0.2925
G1 X2.19 Y-0.0207
G3 X2.1958 Y-0.0231 I0.0504 J0.1144
X2.2654 Y-0.0405 I0.1047 J0.2705
G1 Y-0.0406 Z-0.391
G3 X2.3012 Y-0.0444 I0.0927 J0.7009
G1 X2.3085 Y-0.0448
X2.3159 Y-0.0449
X2.3232 Y-0.0445
G3 X2.4237 Y-0.026 I-0.0204 J0.3936
G1 X2.4292 Y-0.0236
G3 X2.4351 Y-0.0212 I-0.0441 J0.117
G1 X2.4406 Y-0.0188
G3 X2.4462 Y-0.0162 I-0.0499 J0.1146
X2.5259 Y0.0389 I-0.1575 J0.3133
G1 X2.5322 Y0.0444
X2.5382 Y0.0502
X2.5437 Y0.0564
G3 X2.5999 Y0.142 I-0.2965 J0.2558
G1 X2.6019 Y0.1477
G3 X2.6042 Y0.1535 I-0.115 J0.0489
X2.6237 Y0.2528 I-0.3128 J0.1129
G1 X2.6246 Y0.2591
G3 X2.625 Y0.2723 I-0.1246 J0.0104
X2.6241 Y0.3126 I-32.1044 J-0.69
G1 Z-0.4
G3 X2.6028 Y0.7257 I-6.5963 J-0.1322
G2 X2.585 Y1.0361 I10.0426 J0.7334
X2.5823 Y1.183 I6.7547 J0.1987
X2.5954 Y1.4841 I8.7972 J-0.2321
G1 X2.5956 Z-0.391
G2 X2.6305 Y1.904 I31.2902 J-2.3923
X2.636 Y1.9824 I24.2544 J-1.6442
G1 Z-0.4
G3 X2.6505 Y2.3567 I-6.6829 J0.4464
X2.6428 Y2.625 I-32.3755 J-0.7948
G2 X2.645 Y2.7652 I2.3246 J0.0335
X2.6772 Y2.9108 I0.659 J-0.0697
G3 X2.6889 Y2.9826 I-0.4044 J0.1023
G1 X2.6893 Y2.9902
X2.6894 Y2.9978
X2.6889 Y3.0054
G3 X2.671 Y3.1033 I-0.4071 J-0.0241
G1 X2.6685 Y3.109
X2.6662 Y3.1148
G3 X2.6636 Y3.1209 I-0.1161 J-0.0463
G1 X2.661 Y3.1265
G3 X2.6582 Y3.1321 I-0.1135 J-0.0524
X2.6034 Y3.2079 I-0.299 J-0.1585
G1 X2.5993 Y3.2129
G3 X2.583 Y3.2282 I-0.0934 J-0.083
X2.4893 Y3.2868 I-0.2493 J-0.2945
X2.3855 Y3.3076 I-0.1236 J-0.3471
G1 X2.3774 Y3.3082
X2.3694 Y3.3083
X2.3614 Y3.3079
X2.3534 Y3.3069
X2.3454 Y3.3054
X2.3376 Y3.3034
X2.33 Y3.3009
G3 X2.2321 Y3.2583 I0.2023 J-0.5971
G1 X2.2262 Y3.2543
X2.2162 Y3.2479
G3 X2.2093 Y3.2432 I0.0674 J-0.1053
G1 X2.2 Y3.2362
G3 X2.1924 Y3.2302 I0.0743 J-0.1005
G1 X2.1837 Y3.2226
G3 X2.1763 Y3.2157 I0.0819 J-0.0945
G1 X2.1683 Y3.2075
G3 X2.162 Y3.2006 I0.0892 J-0.0876
G1 X2.1545 Y3.1918
G3 X2.1492 Y3.185 I0.0955 J-0.0806
G1 X2.1423 Y3.1756
G3 X2.138 Y3.1693 I0.1008 J-0.0739
G1 X2.1316 Y3.1594
G3 X2.128 Y3.1535 I0.1052 J-0.0675
X2.0797 Y3.036 I0.4456 J-0.2519
X2.0482 Y2.9239 I1.6335 J-0.5203
G1 X2.0481 Z-0.391
G3 X2.0198 Y2.7182 I0.9192 J-0.2314
X2.0175 Y2.6388 I0.8075 J-0.0626
G1 Y2.6038
Y2.5952
G2 X1.9925 Y2.5702 I-0.025
G1 X1.9675
X1.9482 Y2.5703
X1.9462 Z-0.3882
X1.9446 Z-0.3851
X1.9434 Z-0.3819
X1.9427 Z-0.3785
X1.9425 Z-0.375
Y2.6203
Z-0.391
X1.9675 Y2.6202
X1.9925
G2 X2.0175 Y2.5952 J-0.025
X2.0167 Y2.4239 I-23.7295 J0.0197
G1 Z-0.441
G2 X2.0021 Y1.9511 I-9.8416 J0.068
G3 X1.3942 Y1.8819 I0.2123 J-4.5689
X1.2522 Y1.8572 I1.476 J-8.917
G1 X0.559 Y1.7263
X0.5508 Y2.0705
G2 X0.5752 Y2.5886 I8.4752 J-0.1396
G3 X0.5918 Y3.0034 I-8.466 J0.5454
X0.5914 Y3.0158 I-0.125 J0.0025
X0.5738 Y3.1165 I-0.405 J-0.0187
G1 X0.5715 Y3.1222
G3 X0.5692 Y3.1279 I-0.1176 J-0.0424
X0.5146 Y3.2153 I-0.3018 J-0.1281
G1 X0.5108 Y3.2205
G3 X0.4929 Y3.2387 I-0.0978 J-0.0779
X0.4131 Y3.2939 I-0.2687 J-0.3039
G1 X0.4075 Y3.2961
X0.402 Y3.2985
G3 X0.396 Y3.3009 I-0.05 J-0.1146
X0.2962 Y3.321 I-0.1135 J-0.3071
G1 X0.2899 Y3.3218
G3 X0.2687 I-0.0106 J-0.1245
X0.1681 Y3.3033 I0.02 J-0.3919
G1 X0.1625 Y3.3009
G3 X0.1567 Y3.2985 I0.0441 J-0.117
G1 X0.1512 Y3.2961
G3 X0.1457 Y3.2936 I0.0499 J-0.1146
X0.0659 Y3.2384 I0.1574 J-0.3132
G1 X0.0594 Y3.2329
X0.0534 Y3.2269
X0.0478 Y3.2205
G3 X-0.0086 Y3.1337 I0.3004 J-0.2567
G1 X-0.0106 Y3.1279
G3 X-0.0129 Y3.1222 I0.1153 J-0.0482
X-0.032 Y3.0222 I0.3177 J-0.1125
G1 X-0.0328 Y3.0158
G3 X-0.0332 Y3.0083 I0.1246 J-0.0099
G2 X-0.0386 Y2.7994 I-10.5137 J0.17
G1 X-0.0387 Z-0.391
G2 X-0.0622 Y2.3941 I-23.4318 J1.1527
G1 X-0.0663 Y2.3002
Z-0.441
G3 X-0.0721 Y2.0358 I6.6501 J-0.278
X-0.0599 Y1.6267 I16.5153 J0.2882
G2 X-0.0566 Y1.4286 I-19.0712 J-0.4166
X-0.0885 Y0.8455 I-8.0278 J0.1471
G3 X-0.1179 Y0.4288 I13.5122 J-1.1618
X-0.124 Y0.2327 I22.9226 J-0.8128
G1 Z-0.391
X-0.1243 Y0.2204
X-0.125 Y0.1946
G3 X-0.1246 Y0.1809 I0.125 J-0.0032
X-0.1066 Y0.0808 I0.4032 J0.0206
G1 X-0.1042 Y0.0752
G3 X-0.102 Y0.0695 I0.1174 J0.0429
X-0.0479 Y-0.0169 I0.3044 J0.1306
G1 X-0.0442 Y-0.0221
G3 X-0.0271 Y-0.0397 I0.0979 J0.0777
X0.0527 Y-0.0958 I0.2708 J0.3002
G1 X0.0584 Y-0.0981
X0.0639 Y-0.1006
G3 X0.0699 Y-0.103 I0.0508 J0.1142
G1 X0.0755 Y-0.1052
G3 X0.0811 Y-0.1072 I0.0448 J0.1167
X0.1766 Y-0.1241 I0.1089 J0.3373
G1 X0.1838 Y-0.1247
X0.1911 Y-0.1248
X0.1985 Y-0.1245
G3 X0.2316 Y-0.1212 I-0.0681 J0.8344
G1 Y-0.1211 Z-0.441
G3 X0.2939 Y-0.1073 I-0.0375 J0.3164
G1 X0.2995 Y-0.1052
X0.3051 Y-0.103
G3 X0.3111 Y-0.1006 I-0.0448 J0.1167
G1 X0.3166 Y-0.0981
G3 X0.3222 Y-0.0955 I-0.0508 J0.1142
X0.4018 Y-0.0394 I-0.1593 J0.3109
G1 X0.408 Y-0.034
X0.4138 Y-0.0282
X0.4192 Y-0.0221
G3 X0.4749 Y0.0637 I-0.3027 J0.2576
G1 X0.477 Y0.0695
G3 X0.4792 Y0.0752 I-0.1152 J0.0486
X0.4987 Y0.1745 I-0.3161 J0.1135
G1 X0.4996 Y0.1809
G3 X0.4999 Y0.1876 I-0.1246 J0.0105
G2 X0.5348 Y0.6791 I4.9077 J-0.1016
G3 X0.5619 Y0.9757 I-8.9563 J0.9662
X0.567 Y1.0878 I-10.8454 J0.5467
G1 X1.0426 Y1.1807
Z-0.391
X1.2888 Y1.2287
G2 X1.5343 Y1.2717 I2.1226 J-11.4123
G1 Y1.2716 Z-0.441
G2 X1.9599 Y1.3181 I0.6426 J-3.9169
G3 X1.9629 Y0.9708 I3.9332 J-0.1395
X1.9819 Y0.6707 I7.5151 J0.3251
G2 X2 Y0.2668 I-7.2103 J-0.5268
G3 X2.0005 Y0.2588 I0.125 J0.0027
X2.0189 Y0.1582 I0.3976 J0.021
G1 X2.0213 Y0.1526
G3 X2.0237 Y0.1468 I0.1171 J0.0438
G1 X2.0261 Y0.1412
G3 X2.0286 Y0.1357 I0.1147 J0.0497
X2.0833 Y0.0557 I0.3181 J0.1588
G1 X2.0885 Y0.0496
X2.094 Y0.0439
X2.1 Y0.0385
G3 X2.1844 Y-0.0186 I0.2593 J0.2925
G1 X2.19 Y-0.0207
G3 X2.1958 Y-0.0231 I0.0504 J0.1144
X2.2654 Y-0.0405 I0.1047 J0.2705
G1 Y-0.0406 Z-0.391
G3 X2.3012 Y-0.0444 I0.0927 J0.7009
G1 X2.3085 Y-0.0448
X2.3159 Y-0.0449
X2.3232 Y-0.0445
G3 X2.4237 Y-0.026 I-0.0204 J0.3936
G1 X2.4292 Y-0.0236
G3 X2.4351 Y-0.0212 I-0.0441 J0.117
G1 X2.4406 Y-0.0188
G3 X2.4462 Y-0.0162 I-0.0499 J0.1146
X2.5259 Y0.0389 I-0.1575 J0.3133
G1 X2.5322 Y0.0444
X2.5382 Y0.0502
X2.5437 Y0.0564
G3 X2.5999 Y0.142 I-0.2965 J0.2558
G1 X2.6019 Y0.1477
G3 X2.6042 Y0.1535 I-0.115 J0.0489
X2.6237 Y0.2528 I-0.3128 J0.1129
G1 X2.6246 Y0.2591
G3 X2.625 Y0.2723 I-0.1246 J0.0104
X2.6241 Y0.3126 I-32.1044 J-0.69
G1 Z-0.441
G3 X2.6028 Y0.7257 I-6.5963 J-0.1322
G2 X2.585 Y1.0361 I10.0426 J0.7334
X2.5823 Y1.183 I6.7547 J0.1987
X2.5954 Y1.4841 I8.7972 J-0.2321
G1 X2.5956 Z-0.391
G2 X2.6305 Y1.904 I31.2902 J-2.3923
X2.636 Y1.9824 I24.2544 J-1.6442
G1 Z-0.441
G3 X2.6505 Y2.3567 I-6.6829 J0.4464
X2.6428 Y2.625 I-32.3755 J-0.7948
G2 X2.645 Y2.7652 I2.3246 J0.0335
X2.6772 Y2.9108 I0.659 J-0.0697
G3 X2.6889 Y2.9826 I-0.4044 J0.1023
G1 X2.6893 Y2.9902
X2.6894 Y2.9978
X2.6889 Y3.0054
G3 X2.671 Y3.1033 I-0.4071 J-0.0241
G1 X2.6685 Y3.109
X2.6662 Y3.1148
G3 X2.6636 Y3.1209 I-0.1161 J-0.0463
G1 X2.661 Y3.1265
G3 X2.6582 Y3.1321 I-0.1135 J-0.0524
X2.6034 Y3.2079 I-0.299 J-0.1585
G1 X2.5993 Y3.2129
G3 X2.583 Y3.2282 I-0.0934 J-0.083
X2.4893 Y3.2868 I-0.2493 J-0.2945
X2.3855 Y3.3076 I-0.1236 J-0.3471
G1 X2.3774 Y3.3082
X2.3694 Y3.3083
X2.3614 Y3.3079
X2.3534 Y3.3069
X2.3454 Y3.3054
X2.3376 Y3.3034
X2.33 Y3.3009
G3 X2.2321 Y3.2583 I0.2023 J-0.5971
G1 X2.2262 Y3.2543
X2.2162 Y3.2479
G3 X2.2093 Y3.2432 I0.0674 J-0.1053
G1 X2.2 Y3.2362
G3 X2.1924 Y3.2302 I0.0743 J-0.1005
G1 X2.1837 Y3.2226
G3 X2.1763 Y3.2157 I0.0819 J-0.0945
G1 X2.1683 Y3.2075
G3 X2.162 Y3.2006 I0.0892 J-0.0876
G1 X2.1545 Y3.1918
G3 X2.1492 Y3.185 I0.0955 J-0.0806
G1 X2.1423 Y3.1756
G3 X2.138 Y3.1693 I0.1008 J-0.0739
G1 X2.1316 Y3.1594
G3 X2.128 Y3.1535 I0.1052 J-0.0675
X2.0797 Y3.036 I0.4456 J-0.2519
X2.0482 Y2.9239 I1.6335 J-0.5203
G1 X2.0481 Z-0.391
G3 X2.0198 Y2.7182 I0.9192 J-0.2314
X2.0175 Y2.6388 I0.8075 J-0.0626
G1 Y2.6038
Y2.5952
G2 X1.9925 Y2.5702 I-0.025
G1 X1.9425 Y2.5703
G0 Z0.6
M9
M30
%
