%
(1001)
(T3  D=0.125 CR=0.0625 - ZMIN=-0.441 - ball end mill)
G90 G94
G17
G20

(Contour3)
M9
T3 M6
S11028 M3
G54
M8
G0 X-0.0366 Y0.774
Z0.6
Z0.0342
G1 Z-0.0075 F35
X-0.0363 Z-0.0103
X-0.0355 Y0.7743 Z-0.0129
X-0.034 Y0.7747 Z-0.0153
X-0.0321 Y0.7752 Z-0.0173
X-0.0298 Y0.7759 Z-0.0188
X-0.0273 Y0.7766 Z-0.0197
X-0.0246 Y0.7774 Z-0.02
G2 X-0.0092 Y0.7688 I0.0034 J-0.012
G3 X0.0244 Y0.6981 I0.2429 J0.0719 F35.38
X0.0641 Y0.6577 I0.3227 J0.2778
X0.1361 Y0.6244 I0.113 J0.1499
X0.1941 Y0.6106 I0.1247 J0.3973
G2 X0.644 Y0.5007 I-2.0811 J-9.4923
G3 X1.0842 Y0.3976 I1.9797 J7.4582
X1.4859 Y0.3312 I3.2864 J18.6386
G2 X1.7376 Y0.2853 I-0.8783 J-5.527
X1.9746 Y0.2296 I-2.3865 J-10.6946
X2.4221 Y0.1064 I-4.4428 J-17.0164
G3 X2.9035 Y-0.0112 I2.1466 J7.7441
X2.9665 Y-0.013 I0.0429 J0.3803
X3.0586 Y0.0242 I-0.0372 J0.2243
X3.1071 Y0.0728 I-0.1617 J0.2102
X3.1389 Y0.1599 I-0.2023 J0.1231
X3.1382 Y0.2277 I-0.2693 J0.031
X3.1021 Y0.3057 I-0.2404 J-0.0637
X3.049 Y0.3564 I-0.2269 J-0.1849
X2.9567 Y0.3887 I-0.1443 J-0.2638
G2 X2.7052 Y0.451 I1.2969 J5.7745
X2.3908 Y0.5461 I4.8203 J16.5084
G3 X2.0176 Y0.6432 I-1.4335 J-4.7445
G1 Y0.8419
X2.0175 Y1.1739
X2.0179 Y1.5058
G2 X2.0285 Y1.8517 I7.9938 J-0.0716
X2.0599 Y2.161 I4.477 J-0.2975
G1 X2.076 Y2.2806
G3 X2.381 Y2.2126 I1.042 J3.9569
X2.8262 Y2.1502 I1.3385 J7.9399
G2 X3.2325 Y2.0896 I-0.8314 J-6.9593
G3 X3.3004 Y2.0881 I0.0415 J0.3543
X3.3876 Y2.1255 I-0.0462 J0.2284
X3.4366 Y2.1754 I-0.1726 J0.2186
X3.4664 Y2.2529 I-0.2205 J0.1292
X3.4676 Y2.3254 I-0.2864 J0.0409
X3.4312 Y2.4072 I-0.2335 J-0.0548
X3.3828 Y2.4546 I-0.2383 J-0.1952
X3.2761 Y2.4903 I-0.136 J-0.2292
X2.8213 Y2.5549 I-1.2263 J-6.9972
G2 X2.41 Y2.6166 I0.8133 J6.8227
G3 X2.2649 Y2.6498 I-2.7241 J-11.5624
G2 X1.9214 Y2.7409 I1.5482 J6.531
G3 X1.5972 Y2.8321 I-6.7541 J-23.3808
X1.2731 Y2.9081 I-1.7068 J-6.5511
X1.0166 Y2.9511 I-4.0375 J-23.3179
G2 X0.8665 Y2.9815 I0.4181 J2.45
X0.6926 Y3.0535 I0.1855 J0.6939
G3 X0.6392 Y3.0718 I-0.1255 J-0.2804
X0.5714 Y3.073 I-0.0404 J-0.3442
X0.499 Y3.0433 I0.0378 J-0.1949
X0.47 Y3.021 I0.0501 J-0.0953
X0.4111 Y2.9295 I0.1124 J-0.1371
X0.4047 Y2.9006 I0.0662 J-0.0299
X0.4244 Y2.8135 I0.5306 J0.0745
X0.4893 Y2.7308 I0.1722 J0.0684
X0.5764 Y2.6786 I0.3135 J0.4242
X0.7407 Y2.6038 I0.5862 J1.0704
X0.944 Y2.5545 I0.459 J1.4469
G2 X1.4569 Y2.4448 I-2.5081 J-12.9803
X1.6808 Y2.3892 I-6.8347 J-28.0163
G3 X1.6339 Y2.0112 I6.6595 J-1.0167
X1.6173 Y1.5907 I6.1887 J-0.4561
G1 X1.6165 Y1.5718
X1.6162 Y1.552
X1.6161 Y1.5472
X1.611 Y0.7146
X1.6109 Y0.7145
X1.1424 Y0.7945
G2 X0.6441 Y0.9157 I1.7948 J8.4701
G3 X0.2232 Y1.0156 I-1.9992 J-7.4816
X0.165 Y1.0181 I-0.0477 J-0.4403
X0.0829 Y0.9897 I0.024 J-0.2019
X0.0587 Y0.9722 I0.0333 J-0.0717
X-0.003 Y0.8801 I0.1012 J-0.1345
X-0.0133 Y0.8173 I0.1606 J-0.0586
X-0.0092 Y0.7688 I0.1478 J-0.012
G1 X-0.0069 Y0.7603
X-0.0039 Y0.7518
X-0.0005 Y0.7434 Z-0.0201
X0.0031 Y0.7352 Z-0.0202
X0.0071 Y0.7268
X0.0113 Y0.7182 Z-0.0204
X0.0159 Y0.7094 Z-0.0205
X0.0175 Y0.7063
X0.0193 Y0.7034 Z-0.0206
X0.0204 Y0.7017
X0.0216 Y0.7001 Z-0.0207
X0.0241 Y0.697
X0.0304 Y0.6893 Z-0.0209
X0.0366 Y0.682 Z-0.0211
X0.0428 Y0.6748 Z-0.0213
X0.049 Y0.6682 Z-0.0215
X0.0553 Y0.6619 Z-0.0218
X0.0616 Y0.656 Z-0.022
X0.0692 Y0.6498 Z-0.0223
X0.0761 Y0.6447 Z-0.0225
X0.0835 Y0.64 Z-0.0228
X0.0912 Y0.6356 Z-0.0231
X0.0991 Y0.6316 Z-0.0234
X0.1077 Y0.6279 Z-0.0237
X0.1161 Y0.6244 Z-0.024
X0.1251 Y0.621 Z-0.0243
X0.1343 Y0.6178 Z-0.0247
X0.1435 Y0.6147 Z-0.025
X0.1522 Y0.6119 Z-0.0253
X0.1807 Y0.6045 Z-0.0264
X0.1904 Y0.602 Z-0.0267
X0.2 Y0.5995 Z-0.0271
X0.2096 Y0.5969 Z-0.0274
X0.2191 Y0.5944 Z-0.0278
X0.2287 Y0.5919 Z-0.0281
X0.2383 Y0.5894 Z-0.0285
X0.2479 Y0.5869 Z-0.0288
X0.2575 Y0.5844 Z-0.0291
X0.2671 Y0.582 Z-0.0295
X0.2719 Y0.5807 Z-0.0297
X0.2768 Y0.5794 Z-0.0298
X0.2863 Y0.5768 Z-0.0302
X0.3533 Y0.5589 Z-0.0326
X0.3581 Y0.5576 Z-0.0328
X0.3629 Y0.5562 Z-0.033
X0.382 Y0.5508 Z-0.0336
X0.3915 Y0.5481 Z-0.034
X0.4011 Y0.5454 Z-0.0343
X0.4106 Y0.5427 Z-0.0347
X0.4201 Y0.54 Z-0.035
X0.4297 Y0.5374 Z-0.0354
X0.4392 Y0.5347 Z-0.0357
X0.4488 Y0.5319 Z-0.0361
X0.4583 Y0.5292 Z-0.0364
X0.4678 Y0.5264 Z-0.0367
X0.4773 Y0.5237 Z-0.0371
X0.4868 Y0.521 Z-0.0374
X0.4964 Y0.5183 Z-0.0377
X0.5059 Y0.5156 Z-0.0379
X0.5154 Y0.5129 Z-0.0382
X0.525 Y0.5103 Z-0.0385
X0.5345 Y0.5076 Z-0.0387
X0.544 Y0.5049 Z-0.0389
X0.5536 Y0.5022 Z-0.0391
X0.5631 Y0.4996 Z-0.0393
X0.5727 Y0.4969 Z-0.0395
X0.5822 Y0.4943 Z-0.0396
X0.5918 Y0.4917 Z-0.0397
X0.6013 Y0.4891 Z-0.0398
X0.6109 Y0.4866 Z-0.0399
X0.6205 Y0.4841 Z-0.04
X0.63 Y0.4816
X0.6386 Y0.4795
G3 X1.0736 Y0.3771 I2.0139 J7.5803
X1.4811 Y0.3096 I3.2268 J18.2227
G2 X1.7037 Y0.27 I-1.4437 J-8.7582
X2.289 Y0.1209 I-1.7472 J-8.0848
G3 X2.6423 Y0.0257 I3.5487 J12.4669
X2.8987 Y-0.0329 I2.6126 J10.8383
X2.9616 Y-0.0355 I0.0524 J0.4914
X3.0485 Y-0.0071 I-0.0212 J0.2118
X3.0814 Y0.0151 I-0.0377 J0.0909
X3.1502 Y0.1149 I-0.1115 J0.1506
X3.162 Y0.1793 I-0.1702 J0.0645
X3.1392 Y0.2855 I-0.1785 J0.0172
X3.1018 Y0.3385 I-0.1463 J-0.0635
X3.0051 Y0.3986 I-0.143 J-0.1222
X2.9374 Y0.4159 I-0.1492 J-0.4437
G2 X2.5166 Y0.5307 I1.0389 J4.638
X2.3375 Y0.5847 I6.552 J22.051
G3 X2.0397 Y0.6607 I-1.2822 J-4.4019
G1 Y1.1413
G2 X2.0404 Y1.5375 I34.8166 J0.1396
X2.0538 Y1.9001 I6.5583 J-0.0621
X2.0946 Y2.2532 I5.6675 J-0.4752
G3 X2.4633 Y2.1767 I0.9249 J3.5303
X2.8214 Y2.1286 I1.2904 J8.2535
G2 X3.2277 Y2.068 I-0.8033 J-6.7823
G3 X3.3052 Y2.0665 I0.0455 J0.3545
X3.3971 Y2.105 I-0.0547 J0.2596
X3.4567 Y2.1657 I-0.1734 J0.2298
X3.4888 Y2.2528 I-0.2477 J0.1409
X3.4899 Y2.3254 I-0.3391 J0.0411
X3.4504 Y2.4184 I-0.2508 J-0.0515
X3.3911 Y2.4755 I-0.2378 J-0.1876
X3.2713 Y2.5134 I-0.1507 J-0.2684
X2.8261 Y2.5765 I-1.1801 J-6.7226
G2 X2.4148 Y2.6381 I0.8009 J6.748
X2.11 Y2.7111 I1.7165 J7.84
G1 X1.9648 Y2.7517
X1.8197 Y2.7927
X1.6747 Y2.8341
G3 X1.2779 Y2.9298 I-1.8693 J-6.8807
G1 X0.9662 Y2.9825
G2 X0.8326 Y3.014 I0.2561 J1.3821
X0.6988 Y3.0749 I0.2881 J0.8105
G3 X0.6441 Y3.0934 I-0.1402 J-0.3261
X0.5666 Y3.0947 I-0.0449 J-0.3641
X0.4837 Y3.0598 I0.0479 J-0.2301
X0.4556 Y3.0376 I0.0555 J-0.099
X0.3896 Y2.9343 I0.1257 J-0.153
X0.3825 Y2.8987 I0.0675 J-0.0319
X0.4028 Y2.8087 I0.5721 J0.0815
X0.4774 Y2.7123 I0.192 J0.0715
X0.575 Y2.6543 I0.3579 J0.492
X0.7358 Y2.5823 I0.5691 J1.0544
X0.9365 Y2.5332 I0.468 J1.4798
G2 X1.6561 Y2.3727 I-2.1886 J-11.5015
G3 X1.609 Y1.9774 I5.959 J-0.9103
X1.5943 Y1.552 I7.7822 J-0.4825
G1 X1.5941 Y1.5472
X1.5891 Y0.7408
X1.589 Y0.7407
X1.1472 Y0.8161
G2 X0.6876 Y0.927 I1.5686 J7.5097
G3 X0.3683 Y1.0068 I-2.4965 J-9.3177
X0.228 Y1.0371 I-1.3021 J-5.6717
X0.1505 Y1.0387 I-0.0458 J-0.3445
X0.0584 Y1.0011 I0.0546 J-0.2649
X0.0042 Y0.948 I0.1989 J-0.2573
X-0.0288 Y0.8704 I0.2005 J-0.131
X-0.0341 Y0.8367 I0.1014 J-0.0334
X-0.0086 Y0.7112 I0.1892 J-0.0269
X0.0201 Y0.6706 I0.1081 J0.0461
X0.1215 Y0.6056 I0.1485 J0.1203
X0.1892 Y0.589 I0.1409 J0.4275
G2 X0.6385 Y0.4792 I-1.8885 J-8.6997
G1 X0.6482 Y0.4769
X0.6578 Y0.4744
X0.6673 Y0.4719 Z-0.0401
X0.6769 Y0.4694 Z-0.0402
X0.6865 Y0.4668 Z-0.0403
X0.696 Y0.4642 Z-0.0404
X0.7056 Y0.4617 Z-0.0406
X0.7151 Y0.4591 Z-0.0407
X0.7247 Y0.4564 Z-0.0409
X0.7342 Y0.4538 Z-0.0411
X0.7438 Y0.4512 Z-0.0413
X0.7532 Y0.4486 Z-0.0416
X0.7628 Y0.446 Z-0.0418
X0.7723 Y0.4434 Z-0.0421
X0.7819 Y0.4408 Z-0.0424
X0.7914 Y0.4381 Z-0.0427
X0.801 Y0.4355 Z-0.043
X0.8105 Y0.433 Z-0.0433
X0.82 Y0.4304 Z-0.0436
X0.8296 Y0.4278 Z-0.044
X0.8392 Y0.4253 Z-0.0443
X0.8487 Y0.4227 Z-0.0447
X0.8583 Y0.4201 Z-0.045
X0.8678 Y0.4177 Z-0.0453
X0.8774 Y0.4152 Z-0.0457
X0.887 Y0.4128 Z-0.046
X0.8966 Y0.4103 Z-0.0464
X0.9062 Y0.4079 Z-0.0467
X0.9158 Y0.4054 Z-0.0471
X0.9253 Y0.4031 Z-0.0474
X0.9734 Y0.3912 Z-0.0491
X0.983 Y0.3889 Z-0.0495
X1.0022 Y0.3842 Z-0.0502
X1.0119 Y0.3819 Z-0.0505
X1.0215 Y0.3796 Z-0.0509
X1.0311 Y0.3772 Z-0.0512
X1.0407 Y0.3749 Z-0.0516
X1.0503 Y0.3727 Z-0.0519
X1.0599 Y0.3707 Z-0.0522
X1.0696 Y0.3687 Z-0.0526
X1.0793 Y0.3667 Z-0.0529
X1.089 Y0.3647 Z-0.0533
X1.0987 Y0.3627 Z-0.0536
X1.1084 Y0.3607 Z-0.054
X1.1181 Y0.3587 Z-0.0543
X1.1278 Y0.3568 Z-0.0547
X1.1375 Y0.3548 Z-0.055
X1.1472 Y0.3529 Z-0.0554
X1.157 Y0.351 Z-0.0557
X1.1667 Y0.3491 Z-0.056
X1.1764 Y0.3472 Z-0.0564
X1.1861 Y0.3453 Z-0.0567
X1.1958 Y0.3434 Z-0.057
X1.2055 Y0.3416 Z-0.0574
X1.2153 Y0.3399 Z-0.0576
X1.225 Y0.3381 Z-0.0579
X1.2348 Y0.3364 Z-0.0582
X1.2445 Y0.3346 Z-0.0584
X1.2543 Y0.3329 Z-0.0587
X1.264 Y0.3312 Z-0.0589
X1.2738 Y0.3294 Z-0.0591
X1.2835 Y0.3277 Z-0.0593
X1.2933 Y0.326 Z-0.0594
X1.303 Y0.3244 Z-0.0596
X1.3128 Y0.3227 Z-0.0597
X1.3226 Y0.321 Z-0.0598
X1.3323 Y0.3194 Z-0.0599
X1.3421 Y0.3178 Z-0.06
X1.3519 Y0.3163
X1.3613 Y0.3147
G2 X1.7086 Y0.2552 I-1.4021 J-9.2167
X2.0182 Y0.1818 I-2.1818 J-9.8964
G1 X2.1747 Y0.1388
X2.3311 Y0.0954
X2.4874 Y0.0516
G3 X2.8939 Y-0.0457 I2.1734 J8.1817
X2.9762 Y-0.0478 I0.0503 J0.3597
X3.078 Y-0.0061 I-0.0532 J0.2751
X3.1175 Y0.0293 I-0.386 J0.4697
X3.1633 Y0.1117 I-0.1441 J0.1342
X3.1756 Y0.1793 I-0.1747 J0.0666
X3.1501 Y0.2939 I-0.1916 J0.0175
X3.1114 Y0.3481 I-0.15 J-0.0661
X3.0115 Y0.411 I-0.1516 J-0.1302
X2.9374 Y0.4298 I-0.1754 J-0.5345
G2 X2.5214 Y0.5434 I1.0467 J4.6529
G1 X2.5117 Y0.5461
G3 X2.1537 Y0.6484 I-1.8894 J-5.939
G1 X2.0532 Y0.6716
X2.0533 Y1.2765
G2 X2.0609 Y1.7937 I11.2469 J0.0932
X2.1062 Y2.2362 I4.6736 J-0.2548
G3 X2.4584 Y2.1637 I0.8971 J3.4663
X2.8214 Y2.1149 I1.2776 J8.1301
G2 X3.2277 Y2.0543 I-0.8279 J-6.9378
G3 X3.3004 Y2.0523 I0.0473 J0.4012
X3.3878 Y2.0841 I-0.0346 J0.2315
X3.4163 Y2.1036 I-0.0344 J0.0806
X3.4953 Y2.224 I-0.1268 J0.1694
X3.5036 Y2.2722 I-0.1267 J0.0467
X3.4778 Y2.3977 I-0.1966 J0.0249
X3.4439 Y2.446 I-0.1327 J-0.057
X3.339 Y2.5125 I-0.1555 J-0.1293
X3.2713 Y2.5273 I-0.0994 J-0.2935
X2.8261 Y2.5902 I-1.1861 J-6.787
G2 X2.4148 Y2.652 I0.7992 J6.7143
X2.1149 Y2.7239 I1.791 J8.1329
G1 X1.9696 Y2.7645
X1.8245 Y2.8055
X1.6795 Y2.847
G3 X1.2827 Y2.9427 I-1.9221 J-7.1004
G1 X0.973 Y2.9952
G2 X0.8375 Y3.0268 I0.2461 J1.3597
X0.707 Y3.086 I0.2726 J0.7742
G3 X0.6441 Y3.1072 I-0.1307 J-0.2845
X0.5763 Y3.1094 I-0.0493 J-0.4665
X0.4894 Y3.0788 I0.023 J-0.2038
X0.4439 Y3.0454 I0.0667 J-0.1386
X0.3768 Y2.9392 I0.1349 J-0.1594
X0.3685 Y2.9006 I0.0861 J-0.0386
X0.3884 Y2.8087 I0.6376 J0.0895
X0.4749 Y2.6974 I0.2073 J0.0719
X0.5425 Y2.656 I0.2762 J0.3755
X0.6985 Y2.5814 I0.7601 J1.39
X0.9344 Y2.5202 I0.4517 J1.2539
G2 X1.4472 Y2.4104 I-2.6049 J-13.4312
X1.6409 Y2.3624 I-6.065 J-24.8767
G3 X1.5951 Y1.9726 I5.6223 J-0.8577
X1.5805 Y1.5472 I8.3109 J-0.4997
G1 X1.5756 Y0.7568
X1.5755
X1.1472 Y0.8299
G2 X0.6538 Y0.9501 I1.767 J8.3246
G3 X0.2328 Y1.0502 I-2.139 J-8.0656
X0.1505 Y1.0525 I-0.0516 J-0.3705
X0.0487 Y1.0109 I0.0519 J-0.2723
X-0.0046 Y0.959 I0.2265 J-0.286
X-0.043 Y0.8704 I0.2091 J-0.1431
X-0.0477 Y0.8385 I0.1111 J-0.0329
X-0.0215 Y0.7063 I0.2036 J-0.0284
X0.0131 Y0.6581 I0.1354 J0.0608
X0.1167 Y0.5929 I0.1538 J0.1295
X0.1844 Y0.5762 I0.1408 J0.4248
G2 X0.6343 Y0.4662 I-1.9983 J-9.1499
G3 X1.0649 Y0.365 I2.1241 J8.0666
X1.3613 Y0.3148 I2.2281 J12.2564
G1 X1.3711 Y0.3132
X1.3808 Y0.3116
X1.3906 Y0.3101 Z-0.0601
X1.4004 Y0.3085 Z-0.0602
X1.4102 Y0.3069 Z-0.0603
X1.4199 Y0.3052 Z-0.0604
X1.4297 Y0.3036 Z-0.0606
X1.4394 Y0.3019 Z-0.0607
X1.4492 Y0.3003 Z-0.0609
X1.459 Y0.2986 Z-0.0611
X1.4687 Y0.2969 Z-0.0613
X1.4785 Y0.2952 Z-0.0616
X1.4883 Y0.2934 Z-0.0618
X1.498 Y0.2916 Z-0.0621
X1.5077 Y0.2899 Z-0.0624
X1.5175 Y0.2881 Z-0.0627
X1.5272 Y0.2863 Z-0.063
X1.537 Y0.2845 Z-0.0633
X1.5467 Y0.2827 Z-0.0636
X1.5565 Y0.2809 Z-0.064
X1.5662 Y0.279 Z-0.0643
X1.5759 Y0.2771 Z-0.0647
X1.5857 Y0.2752 Z-0.065
X1.5954 Y0.2733 Z-0.0654
X1.6051 Y0.2714 Z-0.0657
X1.6148 Y0.2696 Z-0.066
X1.6245 Y0.2677 Z-0.0664
X1.6343 Y0.2658 Z-0.0667
X1.644 Y0.2639 Z-0.0671
X1.6878 Y0.2551 Z-0.0686
X1.6927 Y0.254 Z-0.0688
X1.7312 Y0.2449 Z-0.0702
X1.7408 Y0.2426 Z-0.0705
X1.7601 Y0.238 Z-0.0712
X1.7697 Y0.2356 Z-0.0716
X1.7793 Y0.2333 Z-0.0719
X1.789 Y0.231 Z-0.0723
X1.7986 Y0.2287 Z-0.0726
X1.8082 Y0.2264 Z-0.073
X1.8178 Y0.224 Z-0.0733
X1.8275 Y0.2217 Z-0.0737
X1.8371 Y0.2194 Z-0.074
X1.8467 Y0.2171 Z-0.0743
X1.8564 Y0.2148 Z-0.0747
X1.866 Y0.2124 Z-0.075
X1.8756 Y0.21 Z-0.0754
X1.8852 Y0.2076 Z-0.0757
X1.8948 Y0.2052 Z-0.0761
X1.9044 Y0.2028 Z-0.0764
X1.914 Y0.2004 Z-0.0768
X1.9236 Y0.1979 Z-0.0771
X1.9332 Y0.1954 Z-0.0774
X1.9428 Y0.193 Z-0.0777
X1.9524 Y0.1905 Z-0.078
X1.962 Y0.1881 Z-0.0782
X1.9715 Y0.1856 Z-0.0785
X1.9811 Y0.183 Z-0.0787
X1.9907 Y0.1805 Z-0.0789
X2.0003 Y0.178 Z-0.0791
X2.0098 Y0.1755 Z-0.0793
X2.0194 Y0.173 Z-0.0795
X2.029 Y0.1704 Z-0.0796
X2.0385 Y0.1678 Z-0.0797
X2.0481 Y0.1653 Z-0.0798
X2.0577 Y0.1627 Z-0.0799
X2.0672 Y0.1601 Z-0.08
X2.0768 Y0.1576
X2.0852 Y0.1553
X2.2854 Y0.0997
X2.4856 Y0.0439
G3 X2.8939 Y-0.0541 I2.0018 J7.439
X2.9762 Y-0.0561 I0.0507 J0.382
X3.0807 Y-0.0142 I-0.0536 J0.2845
X3.1409 Y0.0445 I-0.2009 J0.2667
X3.1791 Y0.1359 I-0.2343 J0.1516
X3.1829 Y0.1648 I-0.1316 J0.032
X3.1536 Y0.3048 I-0.2114 J0.0288
X3.1268 Y0.3435 I-0.1128 J-0.0494
X3.01 Y0.4202 I-0.1741 J-0.1379
X2.9423 Y0.4372 I-0.1637 J-0.5077
G2 X2.5166 Y0.5535 I1.0336 J4.6188
G3 X2.2166 Y0.641 I-2.6606 J-8.565
X2.0615 Y0.6781 I-1.9236 J-7.7022
G1 Y1.0303
X2.0611 Y1.1784
X2.0612 Y1.3266
X2.0617 Y1.4747
G2 X2.0722 Y1.8469 I7.6949 J-0.03
X2.113 Y2.226 I4.7766 J-0.323
G3 X2.4584 Y2.1554 I0.8913 J3.48
X2.8214 Y2.1066 I1.2845 J8.1817
G2 X3.2277 Y2.046 I-0.8228 J-6.9062
G3 X3.3004 Y2.044 I0.0475 J0.4145
X3.3921 Y2.077 I-0.0344 J0.2395
X3.4228 Y2.0984 I-0.039 J0.0889
X3.4997 Y2.2094 I-0.1294 J0.1717
X3.5123 Y2.2771 I-0.1823 J0.0692
X3.4871 Y2.3978 I-0.2033 J0.0204
X3.4502 Y2.4515 I-0.1513 J-0.0644
X3.339 Y2.521 I-0.1627 J-0.1364
X3.3052 Y2.5302 I-0.0646 J-0.1712
X2.8261 Y2.5986 I-1.3134 J-7.4935
G2 X2.4197 Y2.6594 I0.7835 J6.6167
X2.1197 Y2.7311 I1.7041 J7.7927
G1 X1.9729 Y2.7721
X1.8261 Y2.8136
X1.6795 Y2.8555
G3 X1.2924 Y2.9491 I-1.9519 J-7.2247
X1.0262 Y2.9939 I-2.9022 J-16.4498
G2 X0.852 Y3.0308 I0.3247 J1.9636
X0.7119 Y3.0928 I0.2423 J0.7368
G3 X0.6489 Y3.1147 I-0.1482 J-0.3243
X0.5617 Y3.116 I-0.0491 J-0.3679
X0.4701 Y3.0771 I0.0535 J-0.2534
X0.4458 Y3.0582 I0.0423 J-0.0795
X0.3696 Y2.9441 I0.14 J-0.176
X0.36 Y2.9055 I0.1311 J-0.0531
X0.3831 Y2.799 I0.5322 J0.0597
X0.4651 Y2.6942 I0.2123 J0.0817
X0.5571 Y2.6391 I0.3332 J0.4519
X0.7262 Y2.5625 I0.6095 J1.1199
X0.9343 Y2.5115 I0.4763 J1.4924
G2 X1.6317 Y2.3562 I-2.1521 J-11.3122
G3 X1.5869 Y1.9726 I5.5105 J-0.8378
X1.5725 Y1.552 I7.6869 J-0.4739
G1 X1.5722 Y1.5472
X1.5674 Y0.7666
X1.5673 Y0.7665
X1.1521 Y0.8374
G2 X0.6586 Y0.9573 I1.6932 J8.0435
G3 X0.2328 Y1.0585 I-2.1209 J-7.9752
X0.1505 Y1.0608 I-0.0519 J-0.3944
X0.0539 Y1.024 I0.0511 J-0.279
X0.0304 Y1.0057 I0.0634 J-0.106
X-0.0444 Y0.8946 I0.1292 J-0.1678
X-0.0569 Y0.8222 I0.1917 J-0.0703
X-0.0307 Y0.7063 I0.199 J-0.0158
X0.0063 Y0.6532 I0.1434 J0.0604
X0.1167 Y0.5843 I0.1622 J0.137
X0.1795 Y0.5687 I0.1318 J0.396
G2 X0.6343 Y0.4578 I-1.9074 J-8.8058
G3 X1.0553 Y0.3585 I2.161 J8.2248
X1.4811 Y0.2876 I2.821 J15.625
G2 X1.6988 Y0.2487 I-1.4419 J-8.7014
X2.0762 Y0.1578 I-1.6897 J-7.8468
G1 X2.0852 Y0.1553
X2.0947 Y0.1526
X2.1042 Y0.15
X2.1138 Y0.1474 Z-0.0801
X2.1233 Y0.1447 Z-0.0802
X2.1329 Y0.1421 Z-0.0803
X2.1424 Y0.1394 Z-0.0804
X2.1519 Y0.1367 Z-0.0806
X2.1615 Y0.1341 Z-0.0807
X2.171 Y0.1314 Z-0.0809
X2.1805 Y0.1287 Z-0.0811
X2.1901 Y0.126 Z-0.0813
X2.1996 Y0.1232 Z-0.0816
X2.2091 Y0.1205 Z-0.0818
X2.2186 Y0.1178 Z-0.0821
X2.2281 Y0.115 Z-0.0824
X2.2376 Y0.1123 Z-0.0827
X2.2471 Y0.1095 Z-0.083
X2.2567 Y0.1068 Z-0.0833
X2.2662 Y0.1041 Z-0.0836
X2.2757 Y0.1013 Z-0.084
X2.2852 Y0.0985 Z-0.0843
X2.3137 Y0.0901 Z-0.0853
X2.3232 Y0.0873 Z-0.0857
X2.3327 Y0.0845 Z-0.086
X2.3422 Y0.0818 Z-0.0864
X2.3517 Y0.0791 Z-0.0867
X2.3612 Y0.0763 Z-0.0871
X2.3707 Y0.0736 Z-0.0874
X2.3802 Y0.0708 Z-0.0878
X2.3898 Y0.0681 Z-0.0881
X2.3993 Y0.0654 Z-0.0885
X2.4088 Y0.0627 Z-0.0888
X2.4755 Y0.0439 Z-0.0912
X2.485 Y0.0412 Z-0.0916
X2.5519 Y0.023 Z-0.094
X2.5614 Y0.0204 Z-0.0943
X2.571 Y0.0179 Z-0.0947
X2.5806 Y0.0154 Z-0.095
X2.5902 Y0.0129 Z-0.0954
X2.5997 Y0.0105 Z-0.0957
X2.6093 Y0.008 Z-0.0961
X2.6189 Y0.0055 Z-0.0964
X2.6285 Y0.003 Z-0.0967
X2.6381 Y0.0006 Z-0.0971
X2.6477 Y-0.0018 Z-0.0974
X2.6573 Y-0.0041 Z-0.0977
X2.6669 Y-0.0065 Z-0.0979
X2.6766 Y-0.0088 Z-0.0982
X2.6862 Y-0.0112 Z-0.0985
X2.6958 Y-0.0135 Z-0.0987
X2.7054 Y-0.0158 Z-0.0989
X2.7151 Y-0.0181 Z-0.0991
X2.7247 Y-0.0203 Z-0.0993
X2.7343 Y-0.0226 Z-0.0995
X2.744 Y-0.0248 Z-0.0996
X2.7536 Y-0.027 Z-0.0997
X2.7633 Y-0.0292 Z-0.0998
X2.7729 Y-0.0315 Z-0.0999
X2.7826 Y-0.0337 Z-0.1
X2.7922 Y-0.0359
X2.8012 Y-0.0378
G3 X2.8939 Y-0.0583 I1.4882 J6.5284
X2.9762 Y-0.0603 I0.0508 J0.3947
X3.0827 Y-0.0177 I-0.0516 J0.2836
X3.1455 Y0.0437 I-0.1957 J0.263
X3.1861 Y0.1502 I-0.2433 J0.1538
X3.1868 Y0.2276 I-0.3568 J0.0419
X3.1452 Y0.3278 I-0.2711 J-0.0539
X3.0731 Y0.3978 I-0.2444 J-0.1796
X2.969 Y0.4351 I-0.1641 J-0.2939
G2 X2.7197 Y0.4967 I1.4045 J6.2215
X2.3424 Y0.6106 I10.5955 J35.7647
G3 X2.0663 Y0.6812 I-1.3037 J-4.5285
G1 X2.0656 Y0.682
Y1.0687
Y1.465
G2 X2.0762 Y1.8469 I8.394 J-0.0428
X2.1165 Y2.2209 I4.8033 J-0.3276
G3 X2.4577 Y2.1514 I0.8954 J3.5225
X2.8214 Y2.1025 I1.3136 J8.394
G2 X3.2229 Y2.0425 I-0.8031 J-6.756
G3 X3.3101 Y2.041 I0.0498 J0.3624
X3.4119 Y2.0837 I-0.0598 J0.2859
X3.4749 Y2.1464 I-0.2026 J0.2665
X3.515 Y2.2528 I-0.243 J0.1523
X3.5154 Y2.3303 I-0.3522 J0.0405
X3.4699 Y2.4357 I-0.2739 J-0.0556
X3.4089 Y2.4948 I-0.2675 J-0.2152
X3.2955 Y2.5358 I-0.1567 J-0.2561
X2.8261 Y2.6027 I-1.2624 J-7.1832
G2 X2.4246 Y2.6627 I0.8168 J6.8399
X2.0665 Y2.7498 I1.5401 J7.1111
G1 X1.6795 Y2.8596
G3 X1.2827 Y2.9552 I-1.8008 J-6.5992
X1.0263 Y2.9982 I-5.2163 J-30.319
G2 X0.852 Y3.0351 I0.3068 J1.8803
X0.7119 Y3.0974 I0.248 J0.746
G3 X0.6489 Y3.1189 I-0.1464 J-0.3268
X0.5617 Y3.1202 I-0.0491 J-0.3661
X0.47 Y3.0819 I0.0514 J-0.252
X0.4362 Y3.055 I0.0677 J-0.1198
X0.3654 Y2.944 I0.1419 J-0.1686
X0.3561 Y2.9006 I0.1013 J-0.0445
X0.3753 Y2.8087 I0.7199 J0.1025
X0.4603 Y2.6926 I0.2198 J0.0718
X0.5571 Y2.6346 I0.3442 J0.4645
X0.7262 Y2.5582 I0.5812 J1.0608
X0.9344 Y2.5074 I0.4715 J1.481
G2 X1.4459 Y2.3981 I-2.4512 J-12.7196
X1.6271 Y2.3532 I-5.4877 J-22.5358
G3 X1.5828 Y1.9726 I5.4884 J-0.832
X1.5682 Y1.5472 I8.2935 J-0.498
G1 X1.5634 Y0.7714
X1.5633 Y0.7713
X1.1521 Y0.8415
G2 X0.6586 Y0.9615 I1.7415 J8.2393
G3 X0.2328 Y1.0627 I-2.0495 J-7.6794
X0.1456 Y1.0643 I-0.0504 J-0.3639
X0.044 Y1.0227 I0.0612 J-0.2948
X-0.0207 Y0.9577 I0.2003 J-0.2638
X-0.0588 Y0.856 I0.2567 J-0.1542
X-0.0595 Y0.7738 I0.3442 J-0.0441
X-0.0143 Y0.6696 I0.2765 J0.0581
X0.0439 Y0.6127 I0.2934 J0.242
X0.1361 Y0.5744 I0.1504 J0.232
X0.1844 Y0.5635 I0.1607 J0.5964
G2 X0.6295 Y0.4549 I-1.9502 J-8.9563
G3 X1.0746 Y0.3506 I2.0139 J7.5941
X1.4811 Y0.2834 I3.2899 J18.6346
G2 X1.7037 Y0.2436 I-1.4658 J-8.8467
X2.0182 Y0.169 I-2.056 J-9.3669
G1 X2.1731 Y0.1265
X2.3279 Y0.0836
X2.4826 Y0.0402
G3 X2.8011 Y-0.0378 I1.9756 J7.38
G2 X2.8106 Y-0.0528 I-0.0027 J-0.0122 F35
G1 X2.81 Y-0.0555 Z-0.0997
X2.8094 Y-0.058 Z-0.0988
X2.8089 Y-0.0604 Z-0.0973
X2.8085 Y-0.0623 Z-0.0953
X2.8082 Y-0.0637 Z-0.0929
X2.808 Y-0.0646 Z-0.0903
X2.8079 Y-0.065 Z-0.0875
G0 Z0.2
X1.4407 Y2.9688
Z-0.0482
G1 Z-0.1075 F35
X1.4406 Y2.9685 Z-0.1103
X1.4404 Y2.9676 Z-0.1129
X1.4401 Y2.9661 Z-0.1153
X1.4397 Y2.9642 Z-0.1173
X1.4391 Y2.9619 Z-0.1188
X1.4386 Y2.9593 Z-0.1197
X1.4379 Y2.9566 Z-0.12
X1.4331 Y2.9353
G2 X1.4182 Y2.9259 I-0.0122 J0.0028
G1 X1.3376 Y2.9441 F35.38
G2 X1.3282 Y2.959 I0.0028 J0.0122 F35
X1.3412 Y2.9688 I0.0122 J-0.0028 F35.38
G1 X1.4243 Y2.9631
G2 X1.4385 Y2.9441 I-0.0011 J-0.0156
X1.4286 Y2.9329 I-0.0152 J0.0034 F35
G1 X1.4282 Y2.9327
G2 X1.4198 Y2.9323 Z-0.1203 I-0.0049 J0.0148
X1.4267 Y2.9628 Z-0.122 I0.0034 J0.0152
X1.4198 Y2.9323 Z-0.1237 I-0.0034 J-0.0152
X1.4267 Y2.9628 Z-0.1254 I0.0034 J0.0152
X1.4198 Y2.9323 Z-0.1272 I-0.0034 J-0.0152
X1.4267 Y2.9628 Z-0.1289 I0.0034 J0.0152
X1.4198 Y2.9323 Z-0.1306 I-0.0034 J-0.0152
X1.4267 Y2.9628 Z-0.1323 I0.0034 J0.0152
X1.4198 Y2.9323 Z-0.134 I-0.0034 J-0.0152
X1.4267 Y2.9628 Z-0.1357 I0.0034 J0.0152
X1.4198 Y2.9323 Z-0.1374 I-0.0034 J-0.0152
X1.4267 Y2.9628 Z-0.1392 I0.0034 J0.0152
X1.4386 Y2.9445 Z-0.14 I-0.0034 J-0.0152
G1 X1.4385 Y2.9441
X1.4371 Y2.9378
G2 X1.4182 Y2.9259 I-0.0154 J0.0035
G1 X1.3376 Y2.9441 F35.38
G2 X1.3282 Y2.959 I0.0028 J0.0122 F35
X1.3412 Y2.9688 I0.0122 J-0.0028 F35.38
G1 X1.4243 Y2.9631
G2 X1.4385 Y2.9441 I-0.0011 J-0.0156
X1.4286 Y2.9329 I-0.0152 J0.0034 F35
G1 X1.4282 Y2.9327
G2 X1.4198 Y2.9323 Z-0.1403 I-0.0049 J0.0148
X1.4267 Y2.9628 Z-0.142 I0.0034 J0.0152
X1.4198 Y2.9323 Z-0.1437 I-0.0034 J-0.0152
X1.4267 Y2.9628 Z-0.1454 I0.0034 J0.0152
X1.4198 Y2.9323 Z-0.1472 I-0.0034 J-0.0152
X1.4267 Y2.9628 Z-0.1489 I0.0034 J0.0152
X1.4198 Y2.9323 Z-0.1506 I-0.0034 J-0.0152
X1.4267 Y2.9628 Z-0.1523 I0.0034 J0.0152
X1.4198 Y2.9323 Z-0.154 I-0.0034 J-0.0152
X1.4267 Y2.9628 Z-0.1557 I0.0034 J0.0152
X1.4198 Y2.9323 Z-0.1574 I-0.0034 J-0.0152
X1.4267 Y2.9628 Z-0.1592 I0.0034 J0.0152
X1.4386 Y2.9445 Z-0.16 I-0.0034 J-0.0152
G1 X1.4385 Y2.9441
X1.4371 Y2.9378
G2 X1.4182 Y2.9259 I-0.0154 J0.0035
G1 X1.3376 Y2.9441 F35.38
G2 X1.3282 Y2.959 I0.0028 J0.0122 F35
X1.3412 Y2.9688 I0.0122 J-0.0028 F35.38
G1 X1.4243 Y2.9631
G2 X1.4385 Y2.9441 I-0.0011 J-0.0156
X1.4286 Y2.9329 I-0.0152 J0.0034 F35
G1 X1.4282 Y2.9327
G2 X1.4198 Y2.9323 Z-0.1603 I-0.0049 J0.0148
X1.4267 Y2.9628 Z-0.162 I0.0034 J0.0152
X1.4198 Y2.9323 Z-0.1637 I-0.0034 J-0.0152
X1.4267 Y2.9628 Z-0.1654 I0.0034 J0.0152
X1.4198 Y2.9323 Z-0.1672 I-0.0034 J-0.0152
X1.4267 Y2.9628 Z-0.1689 I0.0034 J0.0152
X1.4198 Y2.9323 Z-0.1706 I-0.0034 J-0.0152
X1.4267 Y2.9628 Z-0.1723 I0.0034 J0.0152
X1.4198 Y2.9323 Z-0.174 I-0.0034 J-0.0152
X1.4267 Y2.9628 Z-0.1757 I0.0034 J0.0152
X1.4198 Y2.9323 Z-0.1774 I-0.0034 J-0.0152
X1.4267 Y2.9628 Z-0.1792 I0.0034 J0.0152
X1.4386 Y2.9445 Z-0.18 I-0.0034 J-0.0152
G1 X1.4385 Y2.9441
X1.4371 Y2.9378
G2 X1.4182 Y2.9259 I-0.0154 J0.0035
G1 X1.3376 Y2.9441 F35.38
G2 X1.3282 Y2.959 I0.0028 J0.0122 F35
X1.3412 Y2.9688 I0.0122 J-0.0028 F35.38
G1 X1.4243 Y2.9631
G2 X1.4385 Y2.9441 I-0.0011 J-0.0156
X1.4286 Y2.9329 I-0.0152 J0.0034 F35
G1 X1.4282 Y2.9327
G2 X1.4198 Y2.9323 Z-0.1803 I-0.0049 J0.0148
X1.4267 Y2.9628 Z-0.182 I0.0034 J0.0152
X1.4198 Y2.9323 Z-0.1837 I-0.0034 J-0.0152
X1.4267 Y2.9628 Z-0.1854 I0.0034 J0.0152
X1.4198 Y2.9323 Z-0.1872 I-0.0034 J-0.0152
X1.4267 Y2.9628 Z-0.1889 I0.0034 J0.0152
X1.4198 Y2.9323 Z-0.1906 I-0.0034 J-0.0152
X1.4267 Y2.9628 Z-0.1923 I0.0034 J0.0152
X1.4198 Y2.9323 Z-0.194 I-0.0034 J-0.0152
X1.4267 Y2.9628 Z-0.1957 I0.0034 J0.0152
X1.4198 Y2.9323 Z-0.1974 I-0.0034 J-0.0152
X1.4267 Y2.9628 Z-0.1992 I0.0034 J0.0152
X1.4386 Y2.9445 Z-0.2 I-0.0034 J-0.0152
G1 X1.4385 Y2.9441
X1.4371 Y2.9378
G2 X1.4182 Y2.9259 I-0.0154 J0.0035
G1 X1.3376 Y2.9441 F35.38
G2 X1.3282 Y2.959 I0.0028 J0.0122 F35
X1.3412 Y2.9688 I0.0122 J-0.0028 F35.38
G1 X1.4243 Y2.9631
G2 X1.4385 Y2.9441 I-0.0011 J-0.0156
X1.4286 Y2.9329 I-0.0152 J0.0034 F35
G1 X1.4282 Y2.9327
G2 X1.4198 Y2.9323 Z-0.2003 I-0.0049 J0.0148
X1.4267 Y2.9628 Z-0.202 I0.0034 J0.0152
X1.4198 Y2.9323 Z-0.2037 I-0.0034 J-0.0152
X1.4267 Y2.9628 Z-0.2054 I0.0034 J0.0152
X1.4198 Y2.9323 Z-0.2072 I-0.0034 J-0.0152
X1.4267 Y2.9628 Z-0.2089 I0.0034 J0.0152
X1.4198 Y2.9323 Z-0.2106 I-0.0034 J-0.0152
X1.4267 Y2.9628 Z-0.2123 I0.0034 J0.0152
X1.4198 Y2.9323 Z-0.214 I-0.0034 J-0.0152
X1.4267 Y2.9628 Z-0.2157 I0.0034 J0.0152
X1.4198 Y2.9323 Z-0.2174 I-0.0034 J-0.0152
X1.4267 Y2.9628 Z-0.2192 I0.0034 J0.0152
X1.4386 Y2.9445 Z-0.22 I-0.0034 J-0.0152
G1 X1.4385 Y2.9441
X1.4371 Y2.9378
G2 X1.4182 Y2.9259 I-0.0154 J0.0035
G1 X1.3376 Y2.9441 F35.38
G2 X1.3282 Y2.959 I0.0028 J0.0122 F35
X1.3412 Y2.9688 I0.0122 J-0.0028 F35.38
G1 X1.4243 Y2.9631
G2 X1.4385 Y2.9441 I-0.0011 J-0.0156
X1.4286 Y2.9329 I-0.0152 J0.0034 F35
G1 X1.4282 Y2.9327
G2 X1.4198 Y2.9323 Z-0.2203 I-0.0049 J0.0148
X1.4267 Y2.9628 Z-0.222 I0.0034 J0.0152
X1.4198 Y2.9323 Z-0.2237 I-0.0034 J-0.0152
X1.4267 Y2.9628 Z-0.2254 I0.0034 J0.0152
X1.4198 Y2.9323 Z-0.2272 I-0.0034 J-0.0152
X1.4267 Y2.9628 Z-0.2289 I0.0034 J0.0152
X1.4198 Y2.9323 Z-0.2306 I-0.0034 J-0.0152
X1.4267 Y2.9628 Z-0.2323 I0.0034 J0.0152
X1.4198 Y2.9323 Z-0.234 I-0.0034 J-0.0152
X1.4267 Y2.9628 Z-0.2357 I0.0034 J0.0152
X1.4198 Y2.9323 Z-0.2374 I-0.0034 J-0.0152
X1.4267 Y2.9628 Z-0.2392 I0.0034 J0.0152
X1.4386 Y2.9445 Z-0.24 I-0.0034 J-0.0152
G1 X1.4385 Y2.9441
X1.4371 Y2.9378
G2 X1.4182 Y2.9259 I-0.0154 J0.0035
G1 X1.3376 Y2.9441 F35.38
G2 X1.3282 Y2.959 I0.0028 J0.0122 F35
X1.3412 Y2.9688 I0.0122 J-0.0028 F35.38
G1 X1.4243 Y2.9631
G2 X1.4385 Y2.9441 I-0.0011 J-0.0156
X1.4286 Y2.9329 I-0.0152 J0.0034 F35
G1 X1.4282 Y2.9327
G2 X1.4198 Y2.9323 Z-0.2403 I-0.0049 J0.0148
X1.4267 Y2.9628 Z-0.242 I0.0034 J0.0152
X1.4198 Y2.9323 Z-0.2437 I-0.0034 J-0.0152
X1.4267 Y2.9628 Z-0.2454 I0.0034 J0.0152
X1.4198 Y2.9323 Z-0.2472 I-0.0034 J-0.0152
X1.4267 Y2.9628 Z-0.2489 I0.0034 J0.0152
X1.4198 Y2.9323 Z-0.2506 I-0.0034 J-0.0152
X1.4267 Y2.9628 Z-0.2523 I0.0034 J0.0152
X1.4198 Y2.9323 Z-0.254 I-0.0034 J-0.0152
X1.4267 Y2.9628 Z-0.2557 I0.0034 J0.0152
X1.4198 Y2.9323 Z-0.2574 I-0.0034 J-0.0152
X1.4267 Y2.9628 Z-0.2592 I0.0034 J0.0152
X1.4386 Y2.9445 Z-0.26 I-0.0034 J-0.0152
G1 X1.4385 Y2.9441
X1.4371 Y2.9378
G2 X1.4182 Y2.9259 I-0.0154 J0.0035
G1 X1.3376 Y2.9441 F35.38
G2 X1.3282 Y2.959 I0.0028 J0.0122 F35
X1.3412 Y2.9688 I0.0122 J-0.0028 F35.38
G1 X1.4243 Y2.9631
G2 X1.4385 Y2.9441 I-0.0011 J-0.0156
X1.4286 Y2.9329 I-0.0152 J0.0034 F35
G1 X1.4282 Y2.9327
G2 X1.4198 Y2.9323 Z-0.2603 I-0.0049 J0.0148
X1.4267 Y2.9628 Z-0.262 I0.0034 J0.0152
X1.4198 Y2.9323 Z-0.2637 I-0.0034 J-0.0152
X1.4267 Y2.9628 Z-0.2654 I0.0034 J0.0152
X1.4198 Y2.9323 Z-0.2672 I-0.0034 J-0.0152
X1.4267 Y2.9628 Z-0.2689 I0.0034 J0.0152
X1.4198 Y2.9323 Z-0.2706 I-0.0034 J-0.0152
X1.4267 Y2.9628 Z-0.2723 I0.0034 J0.0152
X1.4198 Y2.9323 Z-0.274 I-0.0034 J-0.0152
X1.4267 Y2.9628 Z-0.2757 I0.0034 J0.0152
X1.4198 Y2.9323 Z-0.2774 I-0.0034 J-0.0152
X1.4267 Y2.9628 Z-0.2792 I0.0034 J0.0152
X1.4386 Y2.9445 Z-0.28 I-0.0034 J-0.0152
G1 X1.4385 Y2.9441
X1.4371 Y2.9378
G2 X1.4182 Y2.9259 I-0.0154 J0.0035
G1 X1.3376 Y2.9441 F35.38
G2 X1.3282 Y2.959 I0.0028 J0.0122 F35
X1.3412 Y2.9688 I0.0122 J-0.0028 F35.38
G1 X1.4243 Y2.9631
G2 X1.4385 Y2.9441 I-0.0011 J-0.0156
X1.4286 Y2.9329 I-0.0152 J0.0034 F35
G1 X1.4282 Y2.9327
G2 X1.4198 Y2.9323 Z-0.2803 I-0.0049 J0.0148
X1.4267 Y2.9628 Z-0.282 I0.0034 J0.0152
X1.4198 Y2.9323 Z-0.2837 I-0.0034 J-0.0152
X1.4267 Y2.9628 Z-0.2854 I0.0034 J0.0152
X1.4198 Y2.9323 Z-0.2872 I-0.0034 J-0.0152
X1.4267 Y2.9628 Z-0.2889 I0.0034 J0.0152
X1.4198 Y2.9323 Z-0.2906 I-0.0034 J-0.0152
X1.4267 Y2.9628 Z-0.2923 I0.0034 J0.0152
X1.4198 Y2.9323 Z-0.294 I-0.0034 J-0.0152
X1.4267 Y2.9628 Z-0.2957 I0.0034 J0.0152
X1.4198 Y2.9323 Z-0.2974 I-0.0034 J-0.0152
X1.4267 Y2.9628 Z-0.2992 I0.0034 J0.0152
X1.4386 Y2.9445 Z-0.3 I-0.0034 J-0.0152
G1 X1.4385 Y2.9441
X1.4371 Y2.9378
G2 X1.4182 Y2.9259 I-0.0154 J0.0035
G1 X1.3376 Y2.9441 F35.38
G2 X1.3282 Y2.959 I0.0028 J0.0122 F35
X1.3412 Y2.9688 I0.0122 J-0.0028 F35.38
G1 X1.4243 Y2.9631
G2 X1.4385 Y2.9441 I-0.0011 J-0.0156
X1.4286 Y2.9329 I-0.0152 J0.0034 F35
G1 X1.4282 Y2.9327
G2 X1.4198 Y2.9323 Z-0.3003 I-0.0049 J0.0148
X1.4267 Y2.9628 Z-0.302 I0.0034 J0.0152
X1.4198 Y2.9323 Z-0.3037 I-0.0034 J-0.0152
X1.4267 Y2.9628 Z-0.3054 I0.0034 J0.0152
X1.4198 Y2.9323 Z-0.3072 I-0.0034 J-0.0152
X1.4267 Y2.9628 Z-0.3089 I0.0034 J0.0152
X1.4198 Y2.9323 Z-0.3106 I-0.0034 J-0.0152
X1.4267 Y2.9628 Z-0.3123 I0.0034 J0.0152
X1.4198 Y2.9323 Z-0.314 I-0.0034 J-0.0152
X1.4267 Y2.9628 Z-0.3157 I0.0034 J0.0152
X1.4198 Y2.9323 Z-0.3174 I-0.0034 J-0.0152
X1.4267 Y2.9628 Z-0.3192 I0.0034 J0.0152
X1.4386 Y2.9445 Z-0.32 I-0.0034 J-0.0152
G1 X1.4385 Y2.9441
X1.4371 Y2.9378
G2 X1.4182 Y2.9259 I-0.0154 J0.0035
G1 X1.3376 Y2.9441 F35.38
G2 X1.3282 Y2.959 I0.0028 J0.0122 F35
X1.3412 Y2.9688 I0.0122 J-0.0028 F35.38
G1 X1.4243 Y2.9631
G2 X1.4385 Y2.9441 I-0.0011 J-0.0156
X1.4286 Y2.9329 I-0.0152 J0.0034 F35
G1 X1.4282 Y2.9327
G2 X1.4198 Y2.9323 Z-0.3203 I-0.0049 J0.0148
X1.4267 Y2.9628 Z-0.322 I0.0034 J0.0152
X1.4198 Y2.9323 Z-0.3237 I-0.0034 J-0.0152
X1.4267 Y2.9628 Z-0.3254 I0.0034 J0.0152
X1.4198 Y2.9323 Z-0.3272 I-0.0034 J-0.0152
X1.4267 Y2.9628 Z-0.3289 I0.0034 J0.0152
X1.4198 Y2.9323 Z-0.3306 I-0.0034 J-0.0152
X1.4267 Y2.9628 Z-0.3323 I0.0034 J0.0152
X1.4198 Y2.9323 Z-0.334 I-0.0034 J-0.0152
X1.4267 Y2.9628 Z-0.3357 I0.0034 J0.0152
X1.4198 Y2.9323 Z-0.3374 I-0.0034 J-0.0152
X1.4267 Y2.9628 Z-0.3392 I0.0034 J0.0152
X1.4386 Y2.9445 Z-0.34 I-0.0034 J-0.0152
G1 X1.4385 Y2.9441
X1.4371 Y2.9378
G2 X1.4182 Y2.9259 I-0.0154 J0.0035
G1 X1.3376 Y2.9441 F35.38
G2 X1.3282 Y2.959 I0.0028 J0.0122 F35
X1.3412 Y2.9688 I0.0122 J-0.0028 F35.38
G1 X1.4243 Y2.9631
G2 X1.4385 Y2.9441 I-0.0011 J-0.0156
X1.4286 Y2.9329 I-0.0152 J0.0034 F35
G1 X1.4282 Y2.9327
G2 X1.4198 Y2.9323 Z-0.3403 I-0.0049 J0.0148
X1.4267 Y2.9628 Z-0.342 I0.0034 J0.0152
X1.4198 Y2.9323 Z-0.3437 I-0.0034 J-0.0152
X1.4267 Y2.9628 Z-0.3454 I0.0034 J0.0152
X1.4198 Y2.9323 Z-0.3472 I-0.0034 J-0.0152
X1.4267 Y2.9628 Z-0.3489 I0.0034 J0.0152
X1.4198 Y2.9323 Z-0.3506 I-0.0034 J-0.0152
X1.4267 Y2.9628 Z-0.3523 I0.0034 J0.0152
X1.4198 Y2.9323 Z-0.354 I-0.0034 J-0.0152
X1.4267 Y2.9628 Z-0.3557 I0.0034 J0.0152
X1.4198 Y2.9323 Z-0.3574 I-0.0034 J-0.0152
X1.4267 Y2.9628 Z-0.3592 I0.0034 J0.0152
X1.4386 Y2.9445 Z-0.36 I-0.0034 J-0.0152
G1 X1.4385 Y2.9441
X1.4371 Y2.9378
G2 X1.4182 Y2.9259 I-0.0154 J0.0035
G1 X1.3376 Y2.9441 F35.38
G2 X1.3282 Y2.959 I0.0028 J0.0122 F35
X1.3412 Y2.9688 I0.0122 J-0.0028 F35.38
G1 X1.4243 Y2.9631
G2 X1.4385 Y2.9441 I-0.0011 J-0.0156
X1.4286 Y2.9329 I-0.0152 J0.0034 F35
G1 X1.4282 Y2.9327
G2 X1.4198 Y2.9323 Z-0.3603 I-0.0049 J0.0148
X1.4267 Y2.9628 Z-0.362 I0.0034 J0.0152
X1.4198 Y2.9323 Z-0.3637 I-0.0034 J-0.0152
X1.4267 Y2.9628 Z-0.3654 I0.0034 J0.0152
X1.4198 Y2.9323 Z-0.3672 I-0.0034 J-0.0152
X1.4267 Y2.9628 Z-0.3689 I0.0034 J0.0152
X1.4198 Y2.9323 Z-0.3706 I-0.0034 J-0.0152
X1.4267 Y2.9628 Z-0.3723 I0.0034 J0.0152
X1.4198 Y2.9323 Z-0.374 I-0.0034 J-0.0152
X1.4267 Y2.9628 Z-0.3757 I0.0034 J0.0152
X1.4198 Y2.9323 Z-0.3774 I-0.0034 J-0.0152
X1.4267 Y2.9628 Z-0.3792 I0.0034 J0.0152
X1.4386 Y2.9445 Z-0.38 I-0.0034 J-0.0152
G1 X1.4385 Y2.9441
X1.4371 Y2.9378
G2 X1.4182 Y2.9259 I-0.0154 J0.0035
G1 X1.3376 Y2.9441 F35.38
G2 X1.3282 Y2.959 I0.0028 J0.0122 F35
X1.3412 Y2.9688 I0.0122 J-0.0028 F35.38
G1 X1.4243 Y2.9631
G2 X1.4385 Y2.9441 I-0.0011 J-0.0156
X1.4286 Y2.9329 I-0.0152 J0.0034 F35
G1 X1.4282 Y2.9327
G2 X1.4198 Y2.9323 Z-0.3803 I-0.0049 J0.0148
X1.4267 Y2.9628 Z-0.382 I0.0034 J0.0152
X1.4198 Y2.9323 Z-0.3837 I-0.0034 J-0.0152
X1.4267 Y2.9628 Z-0.3854 I0.0034 J0.0152
X1.4198 Y2.9323 Z-0.3872 I-0.0034 J-0.0152
X1.4267 Y2.9628 Z-0.3889 I0.0034 J0.0152
X1.4198 Y2.9323 Z-0.3906 I-0.0034 J-0.0152
X1.4267 Y2.9628 Z-0.3923 I0.0034 J0.0152
X1.4198 Y2.9323 Z-0.394 I-0.0034 J-0.0152
X1.4267 Y2.9628 Z-0.3957 I0.0034 J0.0152
X1.4198 Y2.9323 Z-0.3974 I-0.0034 J-0.0152
X1.4267 Y2.9628 Z-0.3992 I0.0034 J0.0152
X1.4386 Y2.9445 Z-0.4 I-0.0034 J-0.0152
G1 X1.4385 Y2.9441
X1.4371 Y2.9378
G2 X1.4182 Y2.9259 I-0.0154 J0.0035
G1 X1.3376 Y2.9441 F35.38
G2 X1.3282 Y2.959 I0.0028 J0.0122 F35
X1.3412 Y2.9688 I0.0122 J-0.0028 F35.38
G1 X1.4243 Y2.9631
G2 X1.4385 Y2.9441 I-0.0011 J-0.0156
X1.4286 Y2.9329 I-0.0152 J0.0034 F35
G1 X1.4282 Y2.9327
G2 X1.4198 Y2.9323 Z-0.4003 I-0.0049 J0.0148
X1.4267 Y2.9628 Z-0.402 I0.0034 J0.0152
X1.4198 Y2.9323 Z-0.4037 I-0.0034 J-0.0152
X1.4267 Y2.9628 Z-0.4054 I0.0034 J0.0152
X1.4198 Y2.9323 Z-0.4072 I-0.0034 J-0.0152
X1.4267 Y2.9628 Z-0.4089 I0.0034 J0.0152
X1.4198 Y2.9323 Z-0.4106 I-0.0034 J-0.0152
X1.4267 Y2.9628 Z-0.4123 I0.0034 J0.0152
X1.4198 Y2.9323 Z-0.414 I-0.0034 J-0.0152
X1.4267 Y2.9628 Z-0.4157 I0.0034 J0.0152
X1.4198 Y2.9323 Z-0.4174 I-0.0034 J-0.0152
X1.4267 Y2.9628 Z-0.4192 I0.0034 J0.0152
X1.4386 Y2.9445 Z-0.42 I-0.0034 J-0.0152
G1 X1.4385 Y2.9441
X1.4371 Y2.9378
G2 X1.4182 Y2.9259 I-0.0154 J0.0035
G1 X1.3376 Y2.9441 F35.38
G2 X1.3282 Y2.959 I0.0028 J0.0122 F35
X1.3412 Y2.9688 I0.0122 J-0.0028 F35.38
G1 X1.4243 Y2.9631
G2 X1.4386 Y2.9508 I-0.0011 J-0.0156
G1 X1.4387 Y2.9503 F35
G2 X1.4079 Y2.9448 Z-0.4217 I-0.0154 J-0.0028
X1.4387 Y2.9503 Z-0.4234 I0.0154 J0.0028
X1.4079 Y2.9448 Z-0.4251 I-0.0154 J-0.0028
X1.4387 Y2.9503 Z-0.4269 I0.0154 J0.0028
X1.4079 Y2.9448 Z-0.4286 I-0.0154 J-0.0028
X1.4387 Y2.9503 Z-0.4303 I0.0154 J0.0028
X1.4386 Y2.9445 Z-0.4305 I-0.0154 J-0.0028
G1 X1.4385 Y2.9441
X1.4371 Y2.9378
G2 X1.4182 Y2.9259 I-0.0154 J0.0035
G1 X1.3376 Y2.9441 F35.38
G2 X1.3282 Y2.959 I0.0028 J0.0122 F35
X1.3412 Y2.9688 I0.0122 J-0.0028 F35.38
G1 X1.4243 Y2.9631
G2 X1.4386 Y2.9508 I-0.0011 J-0.0156
G1 X1.4387 Y2.9503 F35
G2 X1.4079 Y2.9448 Z-0.4322 I-0.0154 J-0.0028
X1.4387 Y2.9503 Z-0.4339 I0.0154 J0.0028
X1.4079 Y2.9448 Z-0.4356 I-0.0154 J-0.0028
X1.4387 Y2.9503 Z-0.4374 I0.0154 J0.0028
X1.4079 Y2.9448 Z-0.4391 I-0.0154 J-0.0028
X1.4387 Y2.9503 Z-0.4408 I0.0154 J0.0028
X1.4386 Y2.9445 Z-0.441 I-0.0154 J-0.0028
G1 X1.4385 Y2.9441
X1.4371 Y2.9378
G2 X1.4182 Y2.9259 I-0.0154 J0.0035
G1 X1.3376 Y2.9441 F35.38
G2 X1.3282 Y2.959 I0.0028 J0.0122 F35
G1 X1.3288 Y2.9618 Z-0.4407
X1.3294 Y2.9643 Z-0.4398
X1.3299 Y2.9666 Z-0.4383
X1.3303 Y2.9686 Z-0.4363
X1.3307 Y2.97 Z-0.4339
X1.3309 Y2.9709 Z-0.4313
Y2.9712 Z-0.4285
G0 Z0.2
X2.736 Y-0.0718
Z-0.0483
G1 Z-0.1075 F35
Y-0.0715 Z-0.1103
X2.7362 Y-0.0706 Z-0.1129
X2.7366 Y-0.0692 Z-0.1153
X2.737 Y-0.0672 Z-0.1173
X2.7375 Y-0.0649 Z-0.1188
X2.7381 Y-0.0623 Z-0.1197
X2.7387 Y-0.0596 Z-0.12
X2.7435 Y-0.0383
G2 X2.7584 Y-0.0288 I0.0122 J-0.0027
G1 X2.8455 Y-0.0484 F35.38
G2 X2.855 Y-0.0633 I-0.0027 J-0.0122 F35
X2.8418 Y-0.0731 I-0.0122 J0.0027 F35.38
G1 X2.7521 Y-0.0661
G2 X2.7381 Y-0.0471 I0.0012 J0.0156
X2.748 Y-0.0359 I0.0152 J-0.0034 F35
G1 X2.7484 Y-0.0357
G2 X2.7583 Y-0.0654 Z-0.1217 I0.0049 J-0.0148
X2.7484 Y-0.0357 Z-0.1234 I-0.0049 J0.0148
X2.7583 Y-0.0654 Z-0.1251 I0.0049 J-0.0148
X2.7484 Y-0.0357 Z-0.1269 I-0.0049 J0.0148
X2.7583 Y-0.0654 Z-0.1286 I0.0049 J-0.0148
X2.7484 Y-0.0357 Z-0.1303 I-0.0049 J0.0148
X2.7583 Y-0.0654 Z-0.132 I0.0049 J-0.0148
X2.7484 Y-0.0357 Z-0.1337 I-0.0049 J0.0148
X2.7583 Y-0.0654 Z-0.1354 I0.0049 J-0.0148
X2.7484 Y-0.0357 Z-0.1371 I-0.0049 J0.0148
X2.7583 Y-0.0654 Z-0.1389 I0.0049 J-0.0148
X2.738 Y-0.0475 Z-0.14 I-0.0049 J0.0148
G1 X2.7381 Y-0.0471
X2.7395 Y-0.0408
G2 X2.7584 Y-0.0288 I0.0154 J-0.0035
G1 X2.8455 Y-0.0484 F35.38
G2 X2.855 Y-0.0633 I-0.0027 J-0.0122 F35
X2.8418 Y-0.0731 I-0.0122 J0.0027 F35.38
G1 X2.7521 Y-0.0661
G2 X2.7381 Y-0.0471 I0.0012 J0.0156
X2.748 Y-0.0359 I0.0152 J-0.0034 F35
G1 X2.7484 Y-0.0357
G2 X2.7583 Y-0.0654 Z-0.1417 I0.0049 J-0.0148
X2.7484 Y-0.0357 Z-0.1434 I-0.0049 J0.0148
X2.7583 Y-0.0654 Z-0.1451 I0.0049 J-0.0148
X2.7484 Y-0.0357 Z-0.1469 I-0.0049 J0.0148
X2.7583 Y-0.0654 Z-0.1486 I0.0049 J-0.0148
X2.7484 Y-0.0357 Z-0.1503 I-0.0049 J0.0148
X2.7583 Y-0.0654 Z-0.152 I0.0049 J-0.0148
X2.7484 Y-0.0357 Z-0.1537 I-0.0049 J0.0148
X2.7583 Y-0.0654 Z-0.1554 I0.0049 J-0.0148
X2.7484 Y-0.0357 Z-0.1571 I-0.0049 J0.0148
X2.7583 Y-0.0654 Z-0.1589 I0.0049 J-0.0148
X2.738 Y-0.0475 Z-0.16 I-0.0049 J0.0148
G1 X2.7381 Y-0.0471
X2.7395 Y-0.0408
G2 X2.7584 Y-0.0288 I0.0154 J-0.0035
G1 X2.8455 Y-0.0484 F35.38
G2 X2.855 Y-0.0633 I-0.0027 J-0.0122 F35
X2.8418 Y-0.0731 I-0.0122 J0.0027 F35.38
G1 X2.7521 Y-0.0661
G2 X2.7381 Y-0.0471 I0.0012 J0.0156
X2.748 Y-0.0359 I0.0152 J-0.0034 F35
G1 X2.7484 Y-0.0357
G2 X2.7583 Y-0.0654 Z-0.1617 I0.0049 J-0.0148
X2.7484 Y-0.0357 Z-0.1634 I-0.0049 J0.0148
X2.7583 Y-0.0654 Z-0.1651 I0.0049 J-0.0148
X2.7484 Y-0.0357 Z-0.1669 I-0.0049 J0.0148
X2.7583 Y-0.0654 Z-0.1686 I0.0049 J-0.0148
X2.7484 Y-0.0357 Z-0.1703 I-0.0049 J0.0148
X2.7583 Y-0.0654 Z-0.172 I0.0049 J-0.0148
X2.7484 Y-0.0357 Z-0.1737 I-0.0049 J0.0148
X2.7583 Y-0.0654 Z-0.1754 I0.0049 J-0.0148
X2.7484 Y-0.0357 Z-0.1771 I-0.0049 J0.0148
X2.7583 Y-0.0654 Z-0.1789 I0.0049 J-0.0148
X2.738 Y-0.0475 Z-0.18 I-0.0049 J0.0148
G1 X2.7381 Y-0.0471
X2.7395 Y-0.0408
G2 X2.7584 Y-0.0288 I0.0154 J-0.0035
G1 X2.8455 Y-0.0484 F35.38
G2 X2.855 Y-0.0633 I-0.0027 J-0.0122 F35
X2.8418 Y-0.0731 I-0.0122 J0.0027 F35.38
G1 X2.7521 Y-0.0661
G2 X2.7381 Y-0.0471 I0.0012 J0.0156
X2.748 Y-0.0359 I0.0152 J-0.0034 F35
G1 X2.7484 Y-0.0357
G2 X2.7583 Y-0.0654 Z-0.1817 I0.0049 J-0.0148
X2.7484 Y-0.0357 Z-0.1834 I-0.0049 J0.0148
X2.7583 Y-0.0654 Z-0.1851 I0.0049 J-0.0148
X2.7484 Y-0.0357 Z-0.1869 I-0.0049 J0.0148
X2.7583 Y-0.0654 Z-0.1886 I0.0049 J-0.0148
X2.7484 Y-0.0357 Z-0.1903 I-0.0049 J0.0148
X2.7583 Y-0.0654 Z-0.192 I0.0049 J-0.0148
X2.7484 Y-0.0357 Z-0.1937 I-0.0049 J0.0148
X2.7583 Y-0.0654 Z-0.1954 I0.0049 J-0.0148
X2.7484 Y-0.0357 Z-0.1971 I-0.0049 J0.0148
X2.7583 Y-0.0654 Z-0.1989 I0.0049 J-0.0148
X2.738 Y-0.0475 Z-0.2 I-0.0049 J0.0148
G1 X2.7381 Y-0.0471
X2.7395 Y-0.0408
G2 X2.7584 Y-0.0288 I0.0154 J-0.0035
G1 X2.8455 Y-0.0484 F35.38
G2 X2.855 Y-0.0633 I-0.0027 J-0.0122 F35
X2.8418 Y-0.0731 I-0.0122 J0.0027 F35.38
G1 X2.7521 Y-0.0661
G2 X2.7381 Y-0.0471 I0.0012 J0.0156
X2.748 Y-0.0359 I0.0152 J-0.0034 F35
G1 X2.7484 Y-0.0357
G2 X2.7583 Y-0.0654 Z-0.2017 I0.0049 J-0.0148
X2.7484 Y-0.0357 Z-0.2034 I-0.0049 J0.0148
X2.7583 Y-0.0654 Z-0.2051 I0.0049 J-0.0148
X2.7484 Y-0.0357 Z-0.2069 I-0.0049 J0.0148
X2.7583 Y-0.0654 Z-0.2086 I0.0049 J-0.0148
X2.7484 Y-0.0357 Z-0.2103 I-0.0049 J0.0148
X2.7583 Y-0.0654 Z-0.212 I0.0049 J-0.0148
X2.7484 Y-0.0357 Z-0.2137 I-0.0049 J0.0148
X2.7583 Y-0.0654 Z-0.2154 I0.0049 J-0.0148
X2.7484 Y-0.0357 Z-0.2171 I-0.0049 J0.0148
X2.7583 Y-0.0654 Z-0.2189 I0.0049 J-0.0148
X2.738 Y-0.0475 Z-0.22 I-0.0049 J0.0148
G1 X2.7381 Y-0.0471
X2.7395 Y-0.0408
G2 X2.7584 Y-0.0288 I0.0154 J-0.0035
G1 X2.8455 Y-0.0484 F35.38
G2 X2.855 Y-0.0633 I-0.0027 J-0.0122 F35
X2.8418 Y-0.0731 I-0.0122 J0.0027 F35.38
G1 X2.7521 Y-0.0661
G2 X2.7381 Y-0.0471 I0.0012 J0.0156
X2.748 Y-0.0359 I0.0152 J-0.0034 F35
G1 X2.7484 Y-0.0357
G2 X2.7583 Y-0.0654 Z-0.2217 I0.0049 J-0.0148
X2.7484 Y-0.0357 Z-0.2234 I-0.0049 J0.0148
X2.7583 Y-0.0654 Z-0.2251 I0.0049 J-0.0148
X2.7484 Y-0.0357 Z-0.2269 I-0.0049 J0.0148
X2.7583 Y-0.0654 Z-0.2286 I0.0049 J-0.0148
X2.7484 Y-0.0357 Z-0.2303 I-0.0049 J0.0148
X2.7583 Y-0.0654 Z-0.232 I0.0049 J-0.0148
X2.7484 Y-0.0357 Z-0.2337 I-0.0049 J0.0148
X2.7583 Y-0.0654 Z-0.2354 I0.0049 J-0.0148
X2.7484 Y-0.0357 Z-0.2371 I-0.0049 J0.0148
X2.7583 Y-0.0654 Z-0.2389 I0.0049 J-0.0148
X2.738 Y-0.0475 Z-0.24 I-0.0049 J0.0148
G1 X2.7381 Y-0.0471
X2.7395 Y-0.0408
G2 X2.7584 Y-0.0288 I0.0154 J-0.0035
G1 X2.8455 Y-0.0484 F35.38
G2 X2.855 Y-0.0633 I-0.0027 J-0.0122 F35
X2.8418 Y-0.0731 I-0.0122 J0.0027 F35.38
G1 X2.7521 Y-0.0661
G2 X2.7381 Y-0.0471 I0.0012 J0.0156
X2.748 Y-0.0359 I0.0152 J-0.0034 F35
G1 X2.7484 Y-0.0357
G2 X2.7583 Y-0.0654 Z-0.2417 I0.0049 J-0.0148
X2.7484 Y-0.0357 Z-0.2434 I-0.0049 J0.0148
X2.7583 Y-0.0654 Z-0.2451 I0.0049 J-0.0148
X2.7484 Y-0.0357 Z-0.2469 I-0.0049 J0.0148
X2.7583 Y-0.0654 Z-0.2486 I0.0049 J-0.0148
X2.7484 Y-0.0357 Z-0.2503 I-0.0049 J0.0148
X2.7583 Y-0.0654 Z-0.252 I0.0049 J-0.0148
X2.7484 Y-0.0357 Z-0.2537 I-0.0049 J0.0148
X2.7583 Y-0.0654 Z-0.2554 I0.0049 J-0.0148
X2.7484 Y-0.0357 Z-0.2571 I-0.0049 J0.0148
X2.7583 Y-0.0654 Z-0.2589 I0.0049 J-0.0148
X2.738 Y-0.0475 Z-0.26 I-0.0049 J0.0148
G1 X2.7381 Y-0.0471
X2.7395 Y-0.0408
G2 X2.7584 Y-0.0288 I0.0154 J-0.0035
G1 X2.8455 Y-0.0484 F35.38
G2 X2.855 Y-0.0633 I-0.0027 J-0.0122 F35
X2.8418 Y-0.0731 I-0.0122 J0.0027 F35.38
G1 X2.7521 Y-0.0661
G2 X2.7381 Y-0.0471 I0.0012 J0.0156
X2.748 Y-0.0359 I0.0152 J-0.0034 F35
G1 X2.7484 Y-0.0357
G2 X2.7583 Y-0.0654 Z-0.2617 I0.0049 J-0.0148
X2.7484 Y-0.0357 Z-0.2634 I-0.0049 J0.0148
X2.7583 Y-0.0654 Z-0.2651 I0.0049 J-0.0148
X2.7484 Y-0.0357 Z-0.2669 I-0.0049 J0.0148
X2.7583 Y-0.0654 Z-0.2686 I0.0049 J-0.0148
X2.7484 Y-0.0357 Z-0.2703 I-0.0049 J0.0148
X2.7583 Y-0.0654 Z-0.272 I0.0049 J-0.0148
X2.7484 Y-0.0357 Z-0.2737 I-0.0049 J0.0148
X2.7583 Y-0.0654 Z-0.2754 I0.0049 J-0.0148
X2.7484 Y-0.0357 Z-0.2771 I-0.0049 J0.0148
X2.7583 Y-0.0654 Z-0.2789 I0.0049 J-0.0148
X2.738 Y-0.0475 Z-0.28 I-0.0049 J0.0148
G1 X2.7381 Y-0.0471
X2.7395 Y-0.0408
G2 X2.7584 Y-0.0288 I0.0154 J-0.0035
G1 X2.8455 Y-0.0484 F35.38
G2 X2.855 Y-0.0633 I-0.0027 J-0.0122 F35
X2.8418 Y-0.0731 I-0.0122 J0.0027 F35.38
G1 X2.7521 Y-0.0661
G2 X2.7381 Y-0.0471 I0.0012 J0.0156
X2.748 Y-0.0359 I0.0152 J-0.0034 F35
G1 X2.7484 Y-0.0357
G2 X2.7583 Y-0.0654 Z-0.2817 I0.0049 J-0.0148
X2.7484 Y-0.0357 Z-0.2834 I-0.0049 J0.0148
X2.7583 Y-0.0654 Z-0.2851 I0.0049 J-0.0148
X2.7484 Y-0.0357 Z-0.2869 I-0.0049 J0.0148
X2.7583 Y-0.0654 Z-0.2886 I0.0049 J-0.0148
X2.7484 Y-0.0357 Z-0.2903 I-0.0049 J0.0148
X2.7583 Y-0.0654 Z-0.292 I0.0049 J-0.0148
X2.7484 Y-0.0357 Z-0.2937 I-0.0049 J0.0148
X2.7583 Y-0.0654 Z-0.2954 I0.0049 J-0.0148
X2.7484 Y-0.0357 Z-0.2971 I-0.0049 J0.0148
X2.7583 Y-0.0654 Z-0.2989 I0.0049 J-0.0148
X2.738 Y-0.0475 Z-0.3 I-0.0049 J0.0148
G1 X2.7381 Y-0.0471
X2.7395 Y-0.0408
G2 X2.7584 Y-0.0288 I0.0154 J-0.0035
G1 X2.8455 Y-0.0484 F35.38
G2 X2.855 Y-0.0633 I-0.0027 J-0.0122 F35
X2.8418 Y-0.0731 I-0.0122 J0.0027 F35.38
G1 X2.7521 Y-0.0661
G2 X2.7381 Y-0.0471 I0.0012 J0.0156
X2.748 Y-0.0359 I0.0152 J-0.0034 F35
G1 X2.7484 Y-0.0357
G2 X2.7583 Y-0.0654 Z-0.3017 I0.0049 J-0.0148
X2.7484 Y-0.0357 Z-0.3034 I-0.0049 J0.0148
X2.7583 Y-0.0654 Z-0.3051 I0.0049 J-0.0148
X2.7484 Y-0.0357 Z-0.3069 I-0.0049 J0.0148
X2.7583 Y-0.0654 Z-0.3086 I0.0049 J-0.0148
X2.7484 Y-0.0357 Z-0.3103 I-0.0049 J0.0148
X2.7583 Y-0.0654 Z-0.312 I0.0049 J-0.0148
X2.7484 Y-0.0357 Z-0.3137 I-0.0049 J0.0148
X2.7583 Y-0.0654 Z-0.3154 I0.0049 J-0.0148
X2.7484 Y-0.0357 Z-0.3171 I-0.0049 J0.0148
X2.7583 Y-0.0654 Z-0.3189 I0.0049 J-0.0148
X2.738 Y-0.0475 Z-0.32 I-0.0049 J0.0148
G1 X2.7381 Y-0.0471
X2.7395 Y-0.0408
G2 X2.7584 Y-0.0288 I0.0154 J-0.0035
G1 X2.8455 Y-0.0484 F35.38
G2 X2.855 Y-0.0633 I-0.0027 J-0.0122 F35
X2.8418 Y-0.0731 I-0.0122 J0.0027 F35.38
G1 X2.7521 Y-0.0661
G2 X2.7381 Y-0.0471 I0.0012 J0.0156
X2.748 Y-0.0359 I0.0152 J-0.0034 F35
G1 X2.7484 Y-0.0357
G2 X2.7583 Y-0.0654 Z-0.3217 I0.0049 J-0.0148
X2.7484 Y-0.0357 Z-0.3234 I-0.0049 J0.0148
X2.7583 Y-0.0654 Z-0.3251 I0.0049 J-0.0148
X2.7484 Y-0.0357 Z-0.3269 I-0.0049 J0.0148
X2.7583 Y-0.0654 Z-0.3286 I0.0049 J-0.0148
X2.7484 Y-0.0357 Z-0.3303 I-0.0049 J0.0148
X2.7583 Y-0.0654 Z-0.332 I0.0049 J-0.0148
X2.7484 Y-0.0357 Z-0.3337 I-0.0049 J0.0148
X2.7583 Y-0.0654 Z-0.3354 I0.0049 J-0.0148
X2.7484 Y-0.0357 Z-0.3371 I-0.0049 J0.0148
X2.7583 Y-0.0654 Z-0.3389 I0.0049 J-0.0148
X2.738 Y-0.0475 Z-0.34 I-0.0049 J0.0148
G1 X2.7381 Y-0.0471
X2.7395 Y-0.0408
G2 X2.7584 Y-0.0288 I0.0154 J-0.0035
G1 X2.8455 Y-0.0484 F35.38
G2 X2.855 Y-0.0633 I-0.0027 J-0.0122 F35
X2.8418 Y-0.0731 I-0.0122 J0.0027 F35.38
G1 X2.7521 Y-0.0661
G2 X2.7381 Y-0.0471 I0.0012 J0.0156
X2.748 Y-0.0359 I0.0152 J-0.0034 F35
G1 X2.7484 Y-0.0357
G2 X2.7583 Y-0.0654 Z-0.3417 I0.0049 J-0.0148
X2.7484 Y-0.0357 Z-0.3434 I-0.0049 J0.0148
X2.7583 Y-0.0654 Z-0.3451 I0.0049 J-0.0148
X2.7484 Y-0.0357 Z-0.3469 I-0.0049 J0.0148
X2.7583 Y-0.0654 Z-0.3486 I0.0049 J-0.0148
X2.7484 Y-0.0357 Z-0.3503 I-0.0049 J0.0148
X2.7583 Y-0.0654 Z-0.352 I0.0049 J-0.0148
X2.7484 Y-0.0357 Z-0.3537 I-0.0049 J0.0148
X2.7583 Y-0.0654 Z-0.3554 I0.0049 J-0.0148
X2.7484 Y-0.0357 Z-0.3571 I-0.0049 J0.0148
X2.7583 Y-0.0654 Z-0.3589 I0.0049 J-0.0148
X2.738 Y-0.0475 Z-0.36 I-0.0049 J0.0148
G1 X2.7381 Y-0.0471
X2.7395 Y-0.0408
G2 X2.7584 Y-0.0288 I0.0154 J-0.0035
G1 X2.8455 Y-0.0484 F35.38
G2 X2.855 Y-0.0633 I-0.0027 J-0.0122 F35
X2.8418 Y-0.0731 I-0.0122 J0.0027 F35.38
G1 X2.7521 Y-0.0661
G2 X2.7381 Y-0.0471 I0.0012 J0.0156
X2.748 Y-0.0359 I0.0152 J-0.0034 F35
G1 X2.7484 Y-0.0357
G2 X2.7583 Y-0.0654 Z-0.3617 I0.0049 J-0.0148
X2.7484 Y-0.0357 Z-0.3634 I-0.0049 J0.0148
X2.7583 Y-0.0654 Z-0.3651 I0.0049 J-0.0148
X2.7484 Y-0.0357 Z-0.3669 I-0.0049 J0.0148
X2.7583 Y-0.0654 Z-0.3686 I0.0049 J-0.0148
X2.7484 Y-0.0357 Z-0.3703 I-0.0049 J0.0148
X2.7583 Y-0.0654 Z-0.372 I0.0049 J-0.0148
X2.7484 Y-0.0357 Z-0.3737 I-0.0049 J0.0148
X2.7583 Y-0.0654 Z-0.3754 I0.0049 J-0.0148
X2.7484 Y-0.0357 Z-0.3771 I-0.0049 J0.0148
X2.7583 Y-0.0654 Z-0.3789 I0.0049 J-0.0148
X2.738 Y-0.0475 Z-0.38 I-0.0049 J0.0148
G1 X2.7381 Y-0.0471
X2.7395 Y-0.0408
G2 X2.7584 Y-0.0288 I0.0154 J-0.0035
G1 X2.8455 Y-0.0484 F35.38
G2 X2.855 Y-0.0633 I-0.0027 J-0.0122 F35
X2.8418 Y-0.0731 I-0.0122 J0.0027 F35.38
G1 X2.7521 Y-0.0661
G2 X2.7381 Y-0.0471 I0.0012 J0.0156
X2.748 Y-0.0359 I0.0152 J-0.0034 F35
G1 X2.7484 Y-0.0357
G2 X2.7583 Y-0.0654 Z-0.3817 I0.0049 J-0.0148
X2.7484 Y-0.0357 Z-0.3834 I-0.0049 J0.0148
X2.7583 Y-0.0654 Z-0.3851 I0.0049 J-0.0148
X2.7484 Y-0.0357 Z-0.3869 I-0.0049 J0.0148
X2.7583 Y-0.0654 Z-0.3886 I0.0049 J-0.0148
X2.7484 Y-0.0357 Z-0.3903 I-0.0049 J0.0148
X2.7583 Y-0.0654 Z-0.392 I0.0049 J-0.0148
X2.7484 Y-0.0357 Z-0.3937 I-0.0049 J0.0148
X2.7583 Y-0.0654 Z-0.3954 I0.0049 J-0.0148
X2.7484 Y-0.0357 Z-0.3971 I-0.0049 J0.0148
X2.7583 Y-0.0654 Z-0.3989 I0.0049 J-0.0148
X2.738 Y-0.0475 Z-0.4 I-0.0049 J0.0148
G1 X2.7381 Y-0.0471
X2.7395 Y-0.0408
G2 X2.7584 Y-0.0288 I0.0154 J-0.0035
G1 X2.8455 Y-0.0484 F35.38
G2 X2.855 Y-0.0633 I-0.0027 J-0.0122 F35
X2.8418 Y-0.0731 I-0.0122 J0.0027 F35.38
G1 X2.7521 Y-0.0661
G2 X2.7381 Y-0.0471 I0.0012 J0.0156
X2.748 Y-0.0359 I0.0152 J-0.0034 F35
G1 X2.7484 Y-0.0357
G2 X2.7583 Y-0.0654 Z-0.4017 I0.0049 J-0.0148
X2.7484 Y-0.0357 Z-0.4034 I-0.0049 J0.0148
X2.7583 Y-0.0654 Z-0.4051 I0.0049 J-0.0148
X2.7484 Y-0.0357 Z-0.4069 I-0.0049 J0.0148
X2.7583 Y-0.0654 Z-0.4086 I0.0049 J-0.0148
X2.7484 Y-0.0357 Z-0.4103 I-0.0049 J0.0148
X2.7583 Y-0.0654 Z-0.412 I0.0049 J-0.0148
X2.7484 Y-0.0357 Z-0.4137 I-0.0049 J0.0148
X2.7583 Y-0.0654 Z-0.4154 I0.0049 J-0.0148
X2.7484 Y-0.0357 Z-0.4171 I-0.0049 J0.0148
X2.7583 Y-0.0654 Z-0.4189 I0.0049 J-0.0148
X2.738 Y-0.0475 Z-0.42 I-0.0049 J0.0148
G1 X2.7381 Y-0.0471
X2.7395 Y-0.0408
G2 X2.7584 Y-0.0288 I0.0154 J-0.0035
G1 X2.8455 Y-0.0484 F35.38
G2 X2.855 Y-0.0633 I-0.0027 J-0.0122 F35
X2.8418 Y-0.0731 I-0.0122 J0.0027 F35.38
G1 X2.7521 Y-0.0661
G2 X2.7381 Y-0.0538 I0.0012 J0.0156
G1 X2.738 Y-0.0534 F35
G2 X2.7381 Y-0.0471 Z-0.4202 I0.0154 J0.0028
X2.7686 Y-0.054 Z-0.4219 I0.0152 J-0.0034
X2.7381 Y-0.0471 Z-0.4237 I-0.0152 J0.0034
X2.7686 Y-0.054 Z-0.4254 I0.0152 J-0.0034
X2.7381 Y-0.0471 Z-0.4271 I-0.0152 J0.0034
X2.7686 Y-0.054 Z-0.4288 I0.0152 J-0.0034
X2.738 Y-0.0475 Z-0.4305 I-0.0152 J0.0034
G1 X2.7381 Y-0.0471
X2.7395 Y-0.0408
G2 X2.7584 Y-0.0288 I0.0154 J-0.0035
G1 X2.8455 Y-0.0484 F35.38
G2 X2.855 Y-0.0633 I-0.0027 J-0.0122 F35
X2.8418 Y-0.0731 I-0.0122 J0.0027 F35.38
G1 X2.7521 Y-0.0661
G2 X2.7381 Y-0.0538 I0.0012 J0.0156
G1 X2.738 Y-0.0534 F35
G2 X2.7381 Y-0.0471 Z-0.4307 I0.0154 J0.0028
X2.7686 Y-0.054 Z-0.4324 I0.0152 J-0.0034
X2.7381 Y-0.0471 Z-0.4342 I-0.0152 J0.0034
X2.7686 Y-0.054 Z-0.4359 I0.0152 J-0.0034
X2.7381 Y-0.0471 Z-0.4376 I-0.0152 J0.0034
X2.7686 Y-0.054 Z-0.4393 I0.0152 J-0.0034
X2.738 Y-0.0475 Z-0.441 I-0.0152 J0.0034
G1 X2.7381 Y-0.0471
X2.7395 Y-0.0408
G2 X2.7584 Y-0.0288 I0.0154 J-0.0035
G1 X2.8455 Y-0.0484 F35.38
G2 X2.855 Y-0.0633 I-0.0027 J-0.0122 F35
G1 X2.8544 Y-0.066 Z-0.4407
X2.8538 Y-0.0686 Z-0.4398
X2.8533 Y-0.0709 Z-0.4383
X2.8528 Y-0.0729 Z-0.4363
X2.8525 Y-0.0743 Z-0.4339
X2.8523 Y-0.0752 Z-0.4313
X2.8522 Y-0.0755 Z-0.4285
G0 Z0.6
M9
M30
%
