%
(1001)
(T3  D=0.125 CR=0.0625 - ZMIN=-0.441 - ball end mill)
G90 G94
G17
G20

(Contour3)
M9
T3 M6
S11028 M3
G54
M8
G0 X-0.036 Y0.1573
Z0.6
Z0.0344
G1 Z-0.0075 F35
X-0.0357 Z-0.0103
X-0.0348 Y0.1575 Z-0.0129
X-0.0333 Y0.1577 Z-0.0153
X-0.0314 Y0.1581 Z-0.0173
X-0.029 Y0.1585 Z-0.0188
X-0.0264 Y0.159 Z-0.0197
X-0.0237 Y0.1595 Z-0.02
G2 X-0.0092 Y0.1494 I0.0022 J-0.0123
G3 X0.0304 Y0.0635 I0.168 J0.0255 F35.38
X0.0684 Y0.0262 I0.1078 J0.0718
X0.1601 Y-0.0108 I0.1015 J0.1192
X0.2229 Y-0.0098 I0.0287 J0.1614
X0.3098 Y0.0287 I-0.0161 J0.1537
X0.3482 Y0.0683 I-0.0723 J0.1085
X0.3861 Y0.1649 I-0.1309 J0.1071
X0.39 Y0.2374 I-0.5598 J0.0662
G2 X0.4249 Y0.6967 I5.0591 J-0.154
X0.4352 Y0.7983 I3.6784 J-0.3195
G3 X0.4588 Y1.18 I-4.7482 J0.486
G1 X0.6539 Y1.2181
X0.9796 Y1.2817
X1.3055 Y1.345
G2 X1.645 Y1.4006 I1.494 J-8.0509
X1.9545 Y1.4292 I0.5669 J-4.442
G1 X2.0771 Y1.4365
G3 X2.0711 Y1.0401 I3.8003 J-0.2551
X2.0927 Y0.6775 I8.9505 J0.3499
G2 X2.1111 Y0.2664 I-6.8625 J-0.5144
G3 X2.1235 Y0.1959 I0.3257 J0.0207
X2.1742 Y0.1213 I0.2198 J0.0947
X2.2349 Y0.0807 I0.1786 J0.2017
X2.3221 Y0.0667 I0.0821 J0.2337
X2.3851 Y0.0784 I-0.0223 J0.2963
X2.4612 Y0.1308 I-0.0891 J0.2106
X2.499 Y0.1889 I-0.2196 J0.1844
X2.5128 Y0.3002 I-0.2566 J0.0883
X2.489 Y0.7596 I-7.1113 J-0.1384
G2 X2.4709 Y1.1755 I6.7624 J0.5021
G3 X2.4756 Y1.3206 I-8.7306 J0.3574
G2 X2.5085 Y1.7799 I8.3855 J-0.3689
G3 X2.5342 Y2.1571 I-8.4676 J0.7663
X2.5393 Y2.3409 I-12.0781 J0.4301
X2.5323 Y2.5972 I-23.3722 J-0.5109
G2 X2.5351 Y2.7858 I2.1016 J0.0628
X2.5713 Y2.9452 I0.8258 J-0.1034
G3 X2.5782 Y2.9985 I-0.2856 J0.0642
X2.5661 Y3.0663 I-0.3304 J-0.0241
X2.5202 Y3.134 I-0.1949 J-0.0827
X2.501 Y3.1509 I-0.0599 J-0.0489
X2.3947 Y3.195 I-0.1198 J-0.1386
X2.3656 Y3.1958 I-0.0164 J-0.0709
X2.2819 Y3.1584 I0.1605 J-0.4721
X2.213 Y3.0758 I0.1014 J-0.1547
X2.1787 Y2.9791 I0.5069 J-0.2339
X2.1351 Y2.781 I1.0292 J-0.3305
X2.1289 Y2.602 I1.6502 J-0.1471
G2 X2.1195 Y2.0749 I-12.954 J-0.0341
X2.1079 Y1.8452 I-26.8715 J1.2437
G3 X1.7297 Y1.8189 I0.2795 J-6.7522
X1.3161 Y1.7554 I0.7904 J-6.5271
G1 X1.2967 Y1.7522
X1.2774 Y1.7488
X1.2726 Y1.7479
X0.451 Y1.5928
X0.4509 Y1.5929
X0.4396 Y2.0701
G2 X0.4629 Y2.5778 I8.7672 J-0.1476
G3 X0.4805 Y3.0082 I-7.9176 J0.5398
X0.4685 Y3.0808 I-0.3159 J-0.0149
X0.4167 Y3.158 I-0.2218 J-0.0931
X0.3634 Y3.1943 I-0.1968 J-0.2318
X0.2713 Y3.2105 I-0.0857 J-0.2164
X0.1987 Y3.1959 I0.0133 J-0.2538
X0.1308 Y3.1469 I0.1147 J-0.2303
X0.0963 Y3.0954 I0.2954 J-0.2355
X0.0793 Y3.0179 I0.1901 J-0.0823
X0.0774 Y2.9647 I0.4546 J-0.0428
G2 X0.0557 Y2.5005 I-9.5341 J0.2124
G3 X0.0389 Y2.0508 I7.747 J-0.5152
X0.0508 Y1.6397 I18.7703 J0.3374
G2 X0.0539 Y1.3883 I-5.7105 J-0.1971
X0.0446 Y1.1417 I-10.6622 J0.2808
X0.0097 Y0.6823 I-17.4964 J1.0966
G3 X-0.0136 Y0.1842 I7.9289 J-0.6211
X-0.0092 Y0.1493 I1.4075 J0.1586
G1 X-0.0078 Y0.1401
X-0.0058 Y0.1315
X-0.0036 Y0.1232 Z-0.0201
X-0.0008 Y0.115 Z-0.0202
X0.0023 Y0.1069
X0.006 Y0.0991 Z-0.0203
X0.0099 Y0.0915 Z-0.0204
X0.0144 Y0.0839 Z-0.0206
X0.0196 Y0.0757 Z-0.0207
X0.0247 Y0.0681 Z-0.0209
X0.0302 Y0.0604 Z-0.0211
X0.0358 Y0.0526 Z-0.0213
X0.0386 Y0.049 Z-0.0214
X0.0414 Y0.0454 Z-0.0215
X0.0437 Y0.0429 Z-0.0216
X0.0461 Y0.0406 Z-0.0217
X0.0533 Y0.0341 Z-0.022
X0.0605 Y0.0278 Z-0.0222
X0.0676 Y0.0217 Z-0.0225
X0.0747 Y0.016 Z-0.0228
X0.0824 Y0.0103 Z-0.0231
X0.09 Y0.0053 Z-0.0234
X0.0977 Y0.0007 Z-0.0237
X0.1054 Y-0.0034 Z-0.024
X0.1135 Y-0.007 Z-0.0243
X0.1218 Y-0.0101 Z-0.0246
X0.1304 Y-0.0128 Z-0.0249
X0.1396 Y-0.0151 Z-0.0253
X0.1485 Y-0.0172 Z-0.0256
X0.1578 Y-0.0189 Z-0.0259
X0.1676 Y-0.0204 Z-0.0263
X0.1772 Y-0.0218 Z-0.0266
X0.1816 Y-0.0224 Z-0.0267
X0.1838 Y-0.0226 Z-0.0268
X0.186 Y-0.0229 Z-0.0269
X0.1902 Y-0.023 Z-0.027
X0.1944 Y-0.0228 Z-0.0272
X0.2044 Y-0.0223 Z-0.0275
X0.214 Y-0.0216 Z-0.0279
X0.2235 Y-0.0208 Z-0.0282
X0.2329 Y-0.0197 Z-0.0285
X0.2424 Y-0.0182 Z-0.0289
X0.2516 Y-0.0163 Z-0.0292
X0.2606 Y-0.0139 Z-0.0295
X0.2695 Y-0.011 Z-0.0299
X0.278 Y-0.0076 Z-0.0302
X0.2865 Y-0.0036 Z-0.0305
X0.2949 Y0.001 Z-0.0308
X0.303 Y0.006 Z-0.0312
X0.311 Y0.0113 Z-0.0315
X0.3188 Y0.0169 Z-0.0318
X0.3267 Y0.0228 Z-0.0322
X0.3345 Y0.0288 Z-0.0325
X0.3381 Y0.0316 Z-0.0327
X0.3417 Y0.0345 Z-0.0329
X0.3433 Y0.0361
X0.3449 Y0.0378 Z-0.033
X0.3479 Y0.0413 Z-0.0332
X0.3542 Y0.0489 Z-0.0335
X0.3605 Y0.0566 Z-0.0339
X0.3665 Y0.0642 Z-0.0342
X0.3723 Y0.0721 Z-0.0345
X0.3778 Y0.0801 Z-0.0349
X0.3829 Y0.0884 Z-0.0352
X0.3875 Y0.0969 Z-0.0356
X0.3917 Y0.1056 Z-0.0359
X0.3953 Y0.1146 Z-0.0362
X0.3984 Y0.1238 Z-0.0366
X0.401 Y0.1332 Z-0.0369
X0.4031 Y0.1428 Z-0.0372
X0.4049 Y0.1525 Z-0.0375
X0.4064 Y0.1622 Z-0.0378
X0.4077 Y0.172 Z-0.038
X0.4088 Y0.1818 Z-0.0383
X0.4097 Y0.1916 Z-0.0385
X0.4103 Y0.2015 Z-0.0388
X0.4107 Y0.2114 Z-0.039
X0.4112 Y0.2213 Z-0.0392
X0.4116 Y0.2312 Z-0.0393
X0.4121 Y0.2411 Z-0.0395
X0.4126 Y0.251 Z-0.0396
X0.413 Y0.2609 Z-0.0398
X0.4135 Y0.2707
X0.4139 Y0.2806 Z-0.0399
X0.4143 Y0.2905 Z-0.04
X0.4147 Y0.3004
X0.4148 Y0.3061
G2 X0.4376 Y0.6097 I4.2069 J-0.1629
G3 X0.4681 Y0.9144 I-18.8198 J2.0412
X0.4803 Y1.1617 I-5.5259 J0.3955
G1 X0.9583 Y1.255
G2 X1.3451 Y1.3298 I7.0922 J-35.6218
X1.6982 Y1.3851 I1.2022 J-6.5187
X2.0537 Y1.4129 I0.6181 J-5.6222
G3 X2.0492 Y1.0401 I3.6467 J-0.2312
X2.0708 Y0.6744 I8.3467 J0.3109
G2 X2.0891 Y0.2664 I-6.7889 J-0.5088
G3 X2.101 Y0.1938 I0.3791 J0.0247
X2.1486 Y0.1168 I0.2184 J0.0817
X2.1691 Y0.0972 I0.0646 J0.0473
X2.2543 Y0.0516 I0.1371 J0.1538
X2.3173 Y0.0441 I0.0834 J0.435
X2.3851 Y0.0551 I-0.033 J0.4184
X2.4568 Y0.0974 I-0.0681 J0.1973
X2.4886 Y0.1312 I-0.0662 J0.0943
X2.5332 Y0.2423 I-0.1448 J0.1225
X2.5357 Y0.2809 I-0.2121 J0.0334
X2.5111 Y0.7596 I-7.5769 J-0.1497
G2 X2.4929 Y1.1755 I6.6283 J0.4978
X2.5061 Y1.485 I8.2465 J-0.1963
G1 X2.5183 Y1.6365
X2.5308 Y1.788
X2.5437 Y1.9395
G3 X2.5614 Y2.3409 I-7.2765 J0.5211
G1 X2.5537 Y2.6455
G2 X2.5588 Y2.7987 I1.3495 J0.0309
X2.5928 Y2.9404 I0.855 J-0.1301
G3 X2.6004 Y2.9985 I-0.3381 J0.0735
X2.5884 Y3.0688 I-0.3966 J-0.0313
X2.5395 Y3.1453 I-0.1984 J-0.073
X2.5089 Y3.1723 I-0.088 J-0.0689
X2.3947 Y3.2169 I-0.1253 J-0.1523
X2.3657 Y3.2186 I-0.0194 J-0.085
X2.2688 Y3.1761 I0.1372 J-0.4443
X2.191 Y3.0806 I0.1154 J-0.1733
X2.1658 Y3.013 I0.4037 J-0.1892
X2.117 Y2.8149 I1.3509 J-0.4381
X2.1067 Y2.602 I1.552 J-0.1814
G2 X2.087 Y1.8662 I-11.7341 J-0.0538
G3 X1.6885 Y1.8365 I0.2481 J-6.0202
X1.2724 Y1.7701 I1.0294 J-7.79
G1 X1.2677 Y1.7695
X0.4724 Y1.6193
Y1.6194
X0.4617 Y2.0701
G2 X0.4851 Y2.5778 I8.2772 J-0.1273
G3 X0.5027 Y3.0082 I-8.3296 J0.5553
X0.4885 Y3.0905 I-0.3361 J-0.0155
X0.4333 Y3.1729 I-0.2537 J-0.1104
X0.3779 Y3.2117 I-0.2493 J-0.2967
X0.2955 Y3.2315 I-0.0905 J-0.1957
X0.2569 Y3.2309 I-0.0179 J-0.1081
X0.1361 Y3.1808 I0.0094 J-0.1931
X0.1024 Y3.145 I0.0681 J-0.0978
X0.0587 Y3.0356 I0.1463 J-0.1218
X0.0553 Y2.9647 I0.4794 J-0.0589
G2 X0.0337 Y2.5053 I-8.6737 J0.1768
G3 X0.0168 Y2.0701 I8.6703 J-0.5552
X0.0288 Y1.6397 I16.0631 J0.2316
G2 X0.0323 Y1.4125 I-8.5793 J-0.2483
X-0.0018 Y0.8129 I-8.3106 J0.1724
G3 X-0.0274 Y0.4502 I12.9588 J-1.0971
X-0.0359 Y0.1891 I12.0648 J-0.5228
X-0.0229 Y0.1116 I0.3533 J0.0193
X0.0341 Y0.0248 I0.2463 J0.0996
X0.0805 Y-0.0094 I0.3055 J0.3661
X0.1553 Y-0.0326 I0.091 J0.1615
X0.2229 Y-0.0321 I0.0325 J0.1813
X0.3222 Y0.0103 I-0.0172 J0.1778
X0.3679 Y0.0578 I-0.0911 J0.1331
X0.4081 Y0.1649 I-0.1489 J0.1171
X0.412 Y0.2326 I-0.468 J0.0606
G1 X0.4148 Y0.3061
X0.4153 Y0.316
X0.4155 Y0.321
X0.4157 Y0.326
X0.4162 Y0.336 Z-0.0401
X0.4167 Y0.3459 Z-0.0402
X0.4173 Y0.3557 Z-0.0403
X0.4179 Y0.3656 Z-0.0404
X0.4182 Y0.3706 Z-0.0405
X0.4185 Y0.3757 Z-0.0406
X0.4193 Y0.3855 Z-0.0407
X0.42 Y0.3954 Z-0.0409
X0.4208 Y0.4053 Z-0.0411
X0.4216 Y0.4151 Z-0.0413
X0.422 Y0.4202 Z-0.0415
X0.4225 Y0.4252 Z-0.0416
X0.4234 Y0.435 Z-0.0418
X0.4244 Y0.4449 Z-0.0421
X0.4253 Y0.4547 Z-0.0424
X0.4263 Y0.4646 Z-0.0427
X0.4268 Y0.4696 Z-0.0428
X0.4274 Y0.4746 Z-0.043
X0.4285 Y0.4844 Z-0.0433
X0.4296 Y0.4942 Z-0.0436
X0.4307 Y0.5041 Z-0.044
X0.4312 Y0.5091 Z-0.0442
X0.4318 Y0.514 Z-0.0443
X0.4331 Y0.5239 Z-0.0447
X0.4343 Y0.5337 Z-0.045
X0.4355 Y0.5435 Z-0.0454
X0.4367 Y0.5534 Z-0.0457
X0.4379 Y0.5632 Z-0.0461
X0.4391 Y0.573 Z-0.0464
X0.4403 Y0.5829 Z-0.0468
X0.4427 Y0.6025 Z-0.0474
X0.4439 Y0.6124 Z-0.0478
X0.4516 Y0.6713 Z-0.0499
X0.4529 Y0.6811 Z-0.0502
X0.458 Y0.7204 Z-0.0516
X0.4592 Y0.7302 Z-0.0519
X0.4605 Y0.7401 Z-0.0523
X0.4617 Y0.7499 Z-0.0526
X0.463 Y0.7597 Z-0.053
X0.4642 Y0.7695 Z-0.0533
X0.4654 Y0.7794 Z-0.0537
X0.4667 Y0.7892 Z-0.054
X0.4678 Y0.799 Z-0.0544
X0.469 Y0.8088 Z-0.0547
X0.4701 Y0.8187 Z-0.0551
X0.4713 Y0.8285 Z-0.0554
X0.4724 Y0.8383 Z-0.0557
X0.4736 Y0.8482 Z-0.0561
X0.4747 Y0.858 Z-0.0564
X0.4757 Y0.8678 Z-0.0568
X0.4767 Y0.8777 Z-0.0571
X0.4777 Y0.8875 Z-0.0574
X0.4787 Y0.8974 Z-0.0577
X0.4797 Y0.9072 Z-0.058
X0.4807 Y0.9171 Z-0.0582
X0.4816 Y0.9269 Z-0.0585
X0.4824 Y0.9368 Z-0.0587
X0.4832 Y0.9467 Z-0.0589
X0.484 Y0.9565 Z-0.0591
X0.4848 Y0.9664 Z-0.0593
X0.4856 Y0.9763 Z-0.0595
X0.4862 Y0.9862 Z-0.0596
X0.4868 Y0.996 Z-0.0597
X0.4874 Y1.0059 Z-0.0598
X0.488 Y1.0158 Z-0.0599
X0.4885 Y1.0257 Z-0.06
X0.4891 Y1.0356
X0.4895 Y1.0439
G3 X0.4935 Y1.1505 I-9.2923 J0.4049
G1 X1.0927 Y1.2674
G2 X1.6014 Y1.3586 I2.1752 J-10.6633
X2.0393 Y1.3983 I0.638 J-4.6077
G3 X2.0358 Y1.0353 I3.592 J-0.2165
X2.0573 Y0.6726 I8.3914 J0.3166
G2 X2.0756 Y0.2616 I-6.9324 J-0.5149
G3 X2.0849 Y0.2006 I0.4964 J0.0446
X2.1311 Y0.1168 I0.2054 J0.0584
X2.1676 Y0.0814 I0.1051 J0.072
X2.2835 Y0.0336 I0.1301 J0.1507
X2.3506 Y0.0346 I0.0307 J0.1825
X2.4574 Y0.0805 I-0.0193 J0.1923
X2.5022 Y0.1263 I-0.0888 J0.1316
X2.5464 Y0.2374 I-0.1559 J0.1263
X2.5483 Y0.3099 I-0.3163 J0.0446
X2.5247 Y0.7596 I-6.9225 J-0.1375
G2 X2.5066 Y1.1755 I6.7015 J0.5005
X2.5198 Y1.485 I8.3238 J-0.2001
G1 X2.5317 Y1.6349
X2.5442 Y1.7848
X2.5571 Y1.9347
G3 X2.5749 Y2.3457 I-7.2156 J0.5193
G1 X2.5669 Y2.66
G2 X2.5722 Y2.7955 I1.4142 J0.0127
X2.6056 Y2.9356 I0.8291 J-0.1237
G3 X2.614 Y2.9985 I-0.3311 J0.0764
X2.6005 Y3.076 I-0.3872 J-0.0278
X2.5492 Y3.155 I-0.2175 J-0.085
X2.5188 Y3.1821 I-0.0906 J-0.0711
X2.3995 Y3.2303 I-0.1359 J-0.1648
X2.3579 Y3.231 I-0.0225 J-0.1006
X2.2737 Y3.1948 I0.1936 J-0.5665
X2.1828 Y3.0951 I0.105 J-0.1871
X2.1482 Y3.0019 I0.4665 J-0.2259
X2.1032 Y2.8148 I1.262 J-0.4025
X2.0932 Y2.602 I1.5501 J-0.18
G2 X2.0791 Y1.9734 I-11.9097 J-0.0478
G1 X2.074 Y1.8792
G3 X1.6885 Y1.8502 I0.253 J-5.928
X1.2678 Y1.7829 I0.9775 J-7.4672
G1 X1.2629 Y1.7824
X0.4857 Y1.6356
X0.4856 Y1.6357
X0.4753 Y2.0701
G2 X0.4988 Y2.5778 I8.4851 J-0.1382
G3 X0.5162 Y3.013 I-8.1595 J0.545
X0.5071 Y3.076 I-0.5191 J-0.0433
X0.4673 Y3.1532 I-0.2041 J-0.0563
X0.4211 Y3.1993 I-0.1354 J-0.0894
X0.31 Y3.2436 I-0.1244 J-0.1501
X0.2424 Y3.2429 I-0.0318 J-0.1846
X0.1361 Y3.1982 I0.0184 J-0.1923
X0.0878 Y3.1483 I0.0925 J-0.1377
X0.0453 Y3.0372 I0.1569 J-0.1237
X0.0418 Y2.9647 I0.4804 J-0.06
G2 X0.0202 Y2.5053 I-9.3445 J0.209
G3 X0.0032 Y2.0604 I8.2586 J-0.5378
X0.0151 Y1.6397 I17.4899 J0.2855
G2 X0.0186 Y1.4028 I-6.9382 J-0.2198
X0.0062 Y1.0933 I-9.5223 J0.2265
G1 X-0.006 Y0.9305
X-0.0187 Y0.7677
X-0.0319 Y0.6049
G3 X-0.0494 Y0.1842 I8.3145 J-0.5567
X-0.0372 Y0.1116 I0.4064 J0.0306
X0.0117 Y0.0297 I0.2343 J0.0844
X0.037 Y0.0056 I0.0754 J0.0537
X0.1553 Y-0.0463 I0.1353 J0.1478
X0.2277 Y-0.0451 I0.033 J0.1949
X0.3319 Y0.0007 I-0.021 J0.189
X0.3775 Y0.048 I-0.0926 J0.1348
X0.4214 Y0.1601 I-0.1583 J0.1267
X0.4255 Y0.2326 I-0.5419 J0.0671
G2 X0.4575 Y0.6677 I4.8021 J-0.1345
G1 X0.4765 Y0.8564
G3 X0.4895 Y1.0439 I-3.9214 J0.3664
G1 X0.4899 Y1.0537
X0.4903 Y1.0636
X0.4908 Y1.0735 Z-0.0601
X0.4912 Y1.0834 Z-0.0602
X0.4917 Y1.0933 Z-0.0603
X0.4921 Y1.1032 Z-0.0604
X0.4926 Y1.113 Z-0.0606
X0.493 Y1.1229 Z-0.0607
X0.4934 Y1.1328 Z-0.0609
X0.4941 Y1.1483 Z-0.0612
Y1.1492
Y1.1498
X0.4942 Y1.1499
X0.4945 Y1.15
X0.4962 Y1.1503 Z-0.0613
X0.4991 Y1.1508
X0.5086 Y1.1525 Z-0.0616
X0.5183 Y1.1543 Z-0.0618
X0.5281 Y1.1561 Z-0.0621
X0.5378 Y1.1578 Z-0.0624
X0.5476 Y1.1596 Z-0.0627
X0.5573 Y1.1613 Z-0.063
X0.5671 Y1.163 Z-0.0633
X0.5768 Y1.1648 Z-0.0637
X0.5866 Y1.1665 Z-0.064
X0.6158 Y1.1717 Z-0.065
X0.6255 Y1.1735 Z-0.0654
X0.6353 Y1.1752 Z-0.0657
X0.645 Y1.1769 Z-0.0661
X0.6548 Y1.1787 Z-0.0664
X0.6645 Y1.1804 Z-0.0668
X0.6743 Y1.1822 Z-0.0671
X0.684 Y1.1839 Z-0.0675
X0.6938 Y1.1857 Z-0.0678
X0.7035 Y1.1874 Z-0.0682
X0.7132 Y1.1892 Z-0.0685
X0.8009 Y1.205 Z-0.0716
X0.8107 Y1.2068 Z-0.072
X0.8204 Y1.2086 Z-0.0723
X0.8302 Y1.2103 Z-0.0727
X0.8399 Y1.2121 Z-0.073
X0.8497 Y1.2139 Z-0.0733
X0.8594 Y1.2156 Z-0.0737
X0.9276 Y1.2281 Z-0.0761
X0.9373 Y1.2299 Z-0.0764
X0.947 Y1.2316 Z-0.0768
X0.9568 Y1.2334 Z-0.0771
X0.9665 Y1.2352 Z-0.0774
X0.9763 Y1.237 Z-0.0777
X0.986 Y1.2388 Z-0.078
X0.9957 Y1.2406 Z-0.0782
X1.0055 Y1.2425 Z-0.0785
X1.0152 Y1.2443 Z-0.0787
X1.0249 Y1.2461 Z-0.0789
X1.0346 Y1.248 Z-0.0791
X1.0444 Y1.2498 Z-0.0793
X1.0541 Y1.2516 Z-0.0795
X1.0638 Y1.2535 Z-0.0796
X1.0735 Y1.2554 Z-0.0797
X1.0833 Y1.2572 Z-0.0798
X1.093 Y1.2591 Z-0.0799
X1.1027 Y1.261 Z-0.08
X1.1124 Y1.2629
X1.1201 Y1.2644
G2 X1.6014 Y1.3503 I2.0204 J-9.9278
X2.0306 Y1.3896 I0.6274 J-4.488
G3 X2.0276 Y1.0353 I3.595 J-0.2082
X2.0491 Y0.6726 I8.2759 J0.3092
G2 X2.0675 Y0.2616 I-6.9235 J-0.516
G3 X2.0812 Y0.1841 I0.3861 J0.0283
X2.1432 Y0.0901 I0.2601 J0.1041
X2.2214 Y0.0388 I0.2049 J0.2272
X2.3221 Y0.0227 I0.0986 J0.2923
X2.3851 Y0.0325 I-0.0427 J0.4787
X2.4675 Y0.0781 I-0.0607 J0.2072
X2.5057 Y0.1175 I-0.0782 J0.1138
X2.555 Y0.2423 I-0.1631 J0.1366
X2.5575 Y0.2809 I-0.19 J0.0315
X2.533 Y0.7596 I-7.5121 J-0.1445
G2 X2.5148 Y1.1707 I6.6859 J0.5024
X2.5277 Y1.4802 I7.8668 J-0.1733
G1 X2.5397 Y1.6317
X2.5522 Y1.7832
X2.5653 Y1.9347
G3 X2.5831 Y2.3361 I-7.511 J0.5341
X2.5752 Y2.6407 I-33.1207 J-0.7049
G2 X2.5798 Y2.7906 I1.6393 J0.0253
X2.6127 Y2.9308 I0.8154 J-0.1174
G3 X2.6222 Y2.9985 I-0.3091 J0.078
X2.6091 Y3.076 I-0.4042 J-0.0286
X2.5589 Y3.1564 I-0.2142 J-0.0779
X2.5252 Y3.1876 I-0.1024 J-0.077
X2.3995 Y3.2385 I-0.1425 J-0.1712
X2.3608 Y3.2402 I-0.0248 J-0.1237
X2.2591 Y3.1958 I0.1554 J-0.4947
X2.1715 Y3.0903 I0.1244 J-0.1925
X2.1445 Y3.0178 I0.4132 J-0.1952
X2.0997 Y2.8438 I1.4787 J-0.4736
X2.0851 Y2.602 I1.3629 J-0.2036
G2 X2.0759 Y2.0798 I-13.0727 J-0.0308
X2.0662 Y1.887 I-22.8607 J1.0506
G3 X1.6837 Y1.8577 I0.236 J-5.6067
X1.2678 Y1.7914 I0.9946 J-7.5737
G1 X1.2629 Y1.7907
X0.4936 Y1.6455
Y1.6456
X0.4835 Y2.0701
G2 X0.507 Y2.5778 I8.5019 J-0.1384
G3 X0.5244 Y3.013 I-8.1329 J0.5446
X0.513 Y3.0857 I-0.466 J-0.0362
X0.4626 Y3.1724 I-0.2359 J-0.0792
X0.4356 Y3.1983 I-0.0769 J-0.0531
X0.31 Y3.252 I-0.1419 J-0.1579
X0.2376 Y3.2504 I-0.0318 J-0.1966
X0.1313 Y3.2048 I0.0212 J-0.196
X0.0829 Y3.1556 I0.0932 J-0.1399
X0.037 Y3.0372 I0.1656 J-0.1323
X0.0335 Y2.9647 I0.4672 J-0.0593
G2 X0.012 Y2.5053 I-9.0699 J0.1943
G3 X-0.005 Y2.0701 I8.5071 J-0.5491
X0.007 Y1.6397 I15.7515 J0.2219
G2 X0.0106 Y1.4173 I-8.8032 J-0.2537
X-0.0059 Y1.0353 I-8.1596 J0.1592
G1 X-0.0397 Y0.6049
G3 X-0.0576 Y0.1842 I7.6313 J-0.535
X-0.0443 Y0.1068 I0.4047 J0.0292
X0.0056 Y0.0241 I0.249 J0.094
X0.0345 Y-0.0029 I0.0916 J0.0689
X0.1553 Y-0.0545 I0.1372 J0.1541
X0.2277 Y-0.0533 I0.0332 J0.1918
X0.3388 Y-0.0042 I-0.0212 J0.198
X0.3848 Y0.0442 I-0.0937 J0.1351
X0.4296 Y0.1601 I-0.1637 J0.13
X0.4338 Y0.2326 I-0.4954 J0.0651
G2 X0.4664 Y0.6726 I4.7414 J-0.1299
G3 X0.4947 Y0.9821 I-9.0316 J0.9819
X0.5015 Y1.1436 I-7.503 J0.3967
G1 X0.8518 Y1.212
X0.992 Y1.2394
X1.1201 Y1.2644
X1.1299 Y1.2663
X1.1396 Y1.2682
X1.1493 Y1.27 Z-0.0801
X1.159 Y1.2719 Z-0.0802
X1.1687 Y1.2738 Z-0.0803
X1.1785 Y1.2756 Z-0.0804
X1.1882 Y1.2775 Z-0.0806
X1.1979 Y1.2793 Z-0.0807
X1.2076 Y1.2812 Z-0.0809
X1.2174 Y1.283 Z-0.0811
X1.2271 Y1.2849 Z-0.0813
X1.2368 Y1.2867 Z-0.0816
X1.2466 Y1.2885 Z-0.0818
X1.2563 Y1.2904 Z-0.0821
X1.266 Y1.2922 Z-0.0824
X1.2758 Y1.294 Z-0.0827
X1.2855 Y1.2957 Z-0.083
X1.2953 Y1.2974 Z-0.0833
X1.3051 Y1.2991 Z-0.0836
X1.3148 Y1.3007 Z-0.084
X1.3441 Y1.3058 Z-0.085
X1.3636 Y1.309 Z-0.0857
X1.3734 Y1.3107 Z-0.086
X1.3832 Y1.3123 Z-0.0864
X1.3929 Y1.314 Z-0.0867
X1.4027 Y1.3156 Z-0.0871
X1.4124 Y1.3173 Z-0.0874
X1.4222 Y1.3189 Z-0.0878
X1.432 Y1.3206 Z-0.0881
X1.4417 Y1.3222 Z-0.0885
X1.4515 Y1.3239 Z-0.0888
X1.4906 Y1.3302 Z-0.0902
X1.5004 Y1.3318 Z-0.0905
X1.5395 Y1.3378 Z-0.0919
X1.5493 Y1.3393 Z-0.0923
X1.5983 Y1.3463 Z-0.094
X1.6081 Y1.3477 Z-0.0943
X1.618 Y1.349 Z-0.0947
X1.6278 Y1.3503 Z-0.095
X1.6376 Y1.3516 Z-0.0954
X1.6474 Y1.3529 Z-0.0957
X1.6572 Y1.3541 Z-0.0961
X1.6671 Y1.3553 Z-0.0964
X1.6769 Y1.3565 Z-0.0967
X1.6867 Y1.3577 Z-0.0971
X1.6965 Y1.3589 Z-0.0974
X1.7064 Y1.36 Z-0.0977
X1.7162 Y1.3611 Z-0.0979
X1.7261 Y1.3621 Z-0.0982
X1.7359 Y1.3632 Z-0.0985
X1.7457 Y1.3643 Z-0.0987
X1.7556 Y1.3653 Z-0.0989
X1.7655 Y1.3662 Z-0.0991
X1.7753 Y1.3672 Z-0.0993
X1.7852 Y1.3681 Z-0.0995
X1.795 Y1.369 Z-0.0996
X1.8049 Y1.37 Z-0.0997
X1.8147 Y1.3708 Z-0.0998
X1.8246 Y1.3716 Z-0.0999
X1.8345 Y1.3725 Z-0.1
X1.8443 Y1.3733
X1.8532 Y1.3741
G2 X2.0262 Y1.3854 I0.5291 J-6.7342
G3 X2.0234 Y1.0353 I3.6414 J-0.2041
X2.0449 Y0.6726 I8.5633 J0.3258
G2 X2.0633 Y0.2616 I-6.9494 J-0.5173
G3 X2.0768 Y0.1841 I0.3907 J0.028
X2.129 Y0.0998 I0.2427 J0.0919
X2.153 Y0.0771 I0.0744 J0.0545
X2.2936 Y0.0202 I0.1491 J0.1664
X2.3462 Y0.0217 I0.022 J0.152
X2.4681 Y0.0733 I-0.0163 J0.2083
X2.5105 Y0.117 I-0.0857 J0.1255
X2.5587 Y0.2374 I-0.1646 J0.1359
X2.5605 Y0.3099 I-0.3253 J0.0443
X2.5371 Y0.7596 I-6.9824 J-0.1387
G2 X2.5188 Y1.1755 I6.7431 J0.5039
X2.5318 Y1.4802 I8.7256 J-0.2181
X2.5635 Y1.8622 I24.1599 J-1.8159
G3 X2.5872 Y2.3457 I-6.9256 J0.5813
X2.5802 Y2.602 I-22.7562 J-0.4965
G2 X2.5829 Y2.781 I2.0277 J0.0585
X2.6171 Y2.9308 I0.7717 J-0.0972
G3 X2.6263 Y2.9985 I-0.3287 J0.0793
X2.6118 Y3.0808 I-0.3752 J-0.0238
X2.5631 Y3.1579 I-0.2158 J-0.0825
X2.5251 Y3.1927 I-0.1131 J-0.0852
X2.3995 Y3.2426 I-0.1413 J-0.1726
X2.3559 Y3.2433 I-0.0235 J-0.1041
X2.2688 Y3.2064 I0.2227 J-0.6467
X2.1713 Y3.1 I0.1125 J-0.2009
X2.133 Y2.9936 I0.5285 J-0.2506
X2.0874 Y2.7858 I1.0756 J-0.345
X2.0808 Y2.602 I1.7204 J-0.1535
G2 X2.0668 Y1.9734 I-11.8394 J-0.0497
G1 X2.0623 Y1.891
G3 X1.6837 Y1.8619 I0.2461 J-5.6846
X1.2629 Y1.7949 I1.0875 J-8.181
G1 X0.4976 Y1.6504
X0.4975 Y1.6505
X0.4876 Y2.0701
G2 X0.5107 Y2.573 I8.5959 J-0.1426
G3 X0.5285 Y3.013 I-7.8452 J0.5384
X0.5173 Y3.0856 I-0.4537 J-0.0329
X0.4678 Y3.1724 I-0.2342 J-0.0761
X0.4384 Y3.2014 I-0.0869 J-0.0586
X0.31 Y3.2562 I-0.1451 J-0.162
X0.2424 Y3.2554 I-0.0314 J-0.1976
X0.1264 Y3.2063 I0.0192 J-0.2068
X0.0796 Y3.1579 I0.0921 J-0.1359
X0.0329 Y3.0372 I0.1668 J-0.134
X0.0295 Y2.9647 I0.4945 J-0.0597
G2 X0.0079 Y2.5053 I-9.5135 J0.2162
G3 X-0.009 Y2.0459 I7.721 J-0.5154
X0.0028 Y1.6397 I19.3263 J0.3589
G2 X0.0064 Y1.4076 I-8.0542 J-0.2422
X-0.0065 Y1.0885 I-9.6686 J0.2307
G1 X-0.0185 Y0.9273
X-0.0311 Y0.7661
X-0.0442 Y0.6049
G3 X-0.0616 Y0.1842 I8.3027 J-0.5546
X-0.0471 Y0.1019 I0.3712 J0.0234
X0.0148 Y0.0073 I0.2749 J0.1123
X0.0826 Y-0.04 I0.2366 J0.2667
X0.1746 Y-0.0605 I0.1016 J0.2388
X0.2132 Y-0.0594 I0.0157 J0.1192
X0.3456 Y-0.0041 I-0.0119 J0.2145
X0.3871 Y0.0403 I-0.0906 J0.1264
X0.4338 Y0.1601 I-0.1678 J0.1343
X0.4378 Y0.2326 I-0.5341 J0.0662
G2 X0.47 Y0.6674 I4.7994 J-0.136
G1 X0.4889 Y0.8564
G3 X0.5055 Y1.1402 I-4.4212 J0.4021
G1 X0.8808 Y1.2135
X1.2725 Y1.29
G2 X1.6546 Y1.3535 I1.5621 J-8.2088
X1.8532 Y1.3741 I0.5381 J-4.2343
X1.8667 Y1.3626 I0.0009 J-0.0125 F35
G1 X1.8669 Y1.3598 Z-0.0997
X1.8671 Y1.3571 Z-0.0988
X1.8672 Y1.3548 Z-0.0973
X1.8674 Y1.3528 Z-0.0953
X1.8675 Y1.3513 Z-0.0929
X1.8676 Y1.3504 Z-0.0903
Y1.3501 Z-0.0875
G0 Z0.2
X-0.1054 Y0.3334
Z-0.0482
G1 Z-0.1075 F35
X-0.1051 Z-0.1103
X-0.1042 Z-0.1129
X-0.1027 Y0.3333 Z-0.1153
X-0.1007 Z-0.1173
X-0.0983 Y0.3332 Z-0.1188
X-0.0957 Y0.3331 Z-0.1197
X-0.0929 Z-0.12
X-0.0711 Y0.3325
G2 X-0.0589 Y0.3196 I-0.0004 J-0.0125
G1 X-0.0614 Y0.2326 F35.38
G2 X-0.0742 Y0.2204 I-0.0125 J0.0004 F35
X-0.0863 Y0.2314 I0.0004 J0.0125 F35.38
G1 X-0.0967 Y0.3186
G2 X-0.0808 Y0.3361 I0.0155 J0.0019
X-0.0678 Y0.3285 I-0.0004 J-0.0156 F35
G1 X-0.0676 Y0.3281
G2 X-0.0948 Y0.3128 Z-0.1217 I-0.0136 J-0.0077
X-0.0676 Y0.3281 Z-0.1234 I0.0136 J0.0077
X-0.0948 Y0.3128 Z-0.1251 I-0.0136 J-0.0077
X-0.0676 Y0.3281 Z-0.1269 I0.0136 J0.0077
X-0.0948 Y0.3128 Z-0.1286 I-0.0136 J-0.0077
X-0.0676 Y0.3281 Z-0.1303 I0.0136 J0.0077
X-0.0948 Y0.3128 Z-0.132 I-0.0136 J-0.0077
X-0.0676 Y0.3281 Z-0.1337 I0.0136 J0.0077
X-0.0948 Y0.3128 Z-0.1354 I-0.0136 J-0.0077
X-0.0676 Y0.3281 Z-0.1371 I0.0136 J0.0077
X-0.0948 Y0.3128 Z-0.1389 I-0.0136 J-0.0077
X-0.0812 Y0.3361 Z-0.14 I0.0136 J0.0077
G1 X-0.0808
X-0.0743 Y0.3359
G2 X-0.0589 Y0.3196 I-0.0004 J-0.0158
G1 X-0.0614 Y0.2326 F35.38
G2 X-0.0742 Y0.2204 I-0.0125 J0.0004 F35
X-0.0863 Y0.2314 I0.0004 J0.0125 F35.38
G1 X-0.0967 Y0.3186
G2 X-0.0808 Y0.3361 I0.0155 J0.0019
X-0.0678 Y0.3285 I-0.0004 J-0.0156 F35
G1 X-0.0676 Y0.3281
G2 X-0.0948 Y0.3128 Z-0.1417 I-0.0136 J-0.0077
X-0.0676 Y0.3281 Z-0.1434 I0.0136 J0.0077
X-0.0948 Y0.3128 Z-0.1451 I-0.0136 J-0.0077
X-0.0676 Y0.3281 Z-0.1469 I0.0136 J0.0077
X-0.0948 Y0.3128 Z-0.1486 I-0.0136 J-0.0077
X-0.0676 Y0.3281 Z-0.1503 I0.0136 J0.0077
X-0.0948 Y0.3128 Z-0.152 I-0.0136 J-0.0077
X-0.0676 Y0.3281 Z-0.1537 I0.0136 J0.0077
X-0.0948 Y0.3128 Z-0.1554 I-0.0136 J-0.0077
X-0.0676 Y0.3281 Z-0.1571 I0.0136 J0.0077
X-0.0948 Y0.3128 Z-0.1589 I-0.0136 J-0.0077
X-0.0812 Y0.3361 Z-0.16 I0.0136 J0.0077
G1 X-0.0808
X-0.0743 Y0.3359
G2 X-0.0589 Y0.3196 I-0.0004 J-0.0158
G1 X-0.0614 Y0.2326 F35.38
G2 X-0.0742 Y0.2204 I-0.0125 J0.0004 F35
X-0.0863 Y0.2314 I0.0004 J0.0125 F35.38
G1 X-0.0967 Y0.3186
G2 X-0.0808 Y0.3361 I0.0155 J0.0019
X-0.0678 Y0.3285 I-0.0004 J-0.0156 F35
G1 X-0.0676 Y0.3281
G2 X-0.0948 Y0.3128 Z-0.1617 I-0.0136 J-0.0077
X-0.0676 Y0.3281 Z-0.1634 I0.0136 J0.0077
X-0.0948 Y0.3128 Z-0.1651 I-0.0136 J-0.0077
X-0.0676 Y0.3281 Z-0.1669 I0.0136 J0.0077
X-0.0948 Y0.3128 Z-0.1686 I-0.0136 J-0.0077
X-0.0676 Y0.3281 Z-0.1703 I0.0136 J0.0077
X-0.0948 Y0.3128 Z-0.172 I-0.0136 J-0.0077
X-0.0676 Y0.3281 Z-0.1737 I0.0136 J0.0077
X-0.0948 Y0.3128 Z-0.1754 I-0.0136 J-0.0077
X-0.0676 Y0.3281 Z-0.1771 I0.0136 J0.0077
X-0.0948 Y0.3128 Z-0.1789 I-0.0136 J-0.0077
X-0.0812 Y0.3361 Z-0.18 I0.0136 J0.0077
G1 X-0.0808
X-0.0743 Y0.3359
G2 X-0.0589 Y0.3196 I-0.0004 J-0.0158
G1 X-0.0614 Y0.2326 F35.38
G2 X-0.0742 Y0.2204 I-0.0125 J0.0004 F35
X-0.0863 Y0.2314 I0.0004 J0.0125 F35.38
G1 X-0.0967 Y0.3186
G2 X-0.0808 Y0.3361 I0.0155 J0.0019
X-0.0678 Y0.3285 I-0.0004 J-0.0156 F35
G1 X-0.0676 Y0.3281
G2 X-0.0948 Y0.3128 Z-0.1817 I-0.0136 J-0.0077
X-0.0676 Y0.3281 Z-0.1834 I0.0136 J0.0077
X-0.0948 Y0.3128 Z-0.1851 I-0.0136 J-0.0077
X-0.0676 Y0.3281 Z-0.1869 I0.0136 J0.0077
X-0.0948 Y0.3128 Z-0.1886 I-0.0136 J-0.0077
X-0.0676 Y0.3281 Z-0.1903 I0.0136 J0.0077
X-0.0948 Y0.3128 Z-0.192 I-0.0136 J-0.0077
X-0.0676 Y0.3281 Z-0.1937 I0.0136 J0.0077
X-0.0948 Y0.3128 Z-0.1954 I-0.0136 J-0.0077
X-0.0676 Y0.3281 Z-0.1971 I0.0136 J0.0077
X-0.0948 Y0.3128 Z-0.1989 I-0.0136 J-0.0077
X-0.0812 Y0.3361 Z-0.2 I0.0136 J0.0077
G1 X-0.0808
X-0.0743 Y0.3359
G2 X-0.0589 Y0.3196 I-0.0004 J-0.0158
G1 X-0.0614 Y0.2326 F35.38
G2 X-0.0742 Y0.2204 I-0.0125 J0.0004 F35
X-0.0863 Y0.2314 I0.0004 J0.0125 F35.38
G1 X-0.0967 Y0.3186
G2 X-0.0808 Y0.3361 I0.0155 J0.0019
X-0.0678 Y0.3285 I-0.0004 J-0.0156 F35
G1 X-0.0676 Y0.3281
G2 X-0.0948 Y0.3128 Z-0.2017 I-0.0136 J-0.0077
X-0.0676 Y0.3281 Z-0.2034 I0.0136 J0.0077
X-0.0948 Y0.3128 Z-0.2051 I-0.0136 J-0.0077
X-0.0676 Y0.3281 Z-0.2069 I0.0136 J0.0077
X-0.0948 Y0.3128 Z-0.2086 I-0.0136 J-0.0077
X-0.0676 Y0.3281 Z-0.2103 I0.0136 J0.0077
X-0.0948 Y0.3128 Z-0.212 I-0.0136 J-0.0077
X-0.0676 Y0.3281 Z-0.2137 I0.0136 J0.0077
X-0.0948 Y0.3128 Z-0.2154 I-0.0136 J-0.0077
X-0.0676 Y0.3281 Z-0.2171 I0.0136 J0.0077
X-0.0948 Y0.3128 Z-0.2189 I-0.0136 J-0.0077
X-0.0812 Y0.3361 Z-0.22 I0.0136 J0.0077
G1 X-0.0808
X-0.0743 Y0.3359
G2 X-0.0589 Y0.3196 I-0.0004 J-0.0158
G1 X-0.0614 Y0.2326 F35.38
G2 X-0.0742 Y0.2204 I-0.0125 J0.0004 F35
X-0.0863 Y0.2314 I0.0004 J0.0125 F35.38
G1 X-0.0967 Y0.3186
G2 X-0.0808 Y0.3361 I0.0155 J0.0019
X-0.0678 Y0.3285 I-0.0004 J-0.0156 F35
G1 X-0.0676 Y0.3281
G2 X-0.0948 Y0.3128 Z-0.2217 I-0.0136 J-0.0077
X-0.0676 Y0.3281 Z-0.2234 I0.0136 J0.0077
X-0.0948 Y0.3128 Z-0.2251 I-0.0136 J-0.0077
X-0.0676 Y0.3281 Z-0.2269 I0.0136 J0.0077
X-0.0948 Y0.3128 Z-0.2286 I-0.0136 J-0.0077
X-0.0676 Y0.3281 Z-0.2303 I0.0136 J0.0077
X-0.0948 Y0.3128 Z-0.232 I-0.0136 J-0.0077
X-0.0676 Y0.3281 Z-0.2337 I0.0136 J0.0077
X-0.0948 Y0.3128 Z-0.2354 I-0.0136 J-0.0077
X-0.0676 Y0.3281 Z-0.2371 I0.0136 J0.0077
X-0.0948 Y0.3128 Z-0.2389 I-0.0136 J-0.0077
X-0.0812 Y0.3361 Z-0.24 I0.0136 J0.0077
G1 X-0.0808
X-0.0743 Y0.3359
G2 X-0.0589 Y0.3196 I-0.0004 J-0.0158
G1 X-0.0614 Y0.2326 F35.38
G2 X-0.0742 Y0.2204 I-0.0125 J0.0004 F35
X-0.0863 Y0.2314 I0.0004 J0.0125 F35.38
G1 X-0.0967 Y0.3186
G2 X-0.0808 Y0.3361 I0.0155 J0.0019
X-0.0678 Y0.3285 I-0.0004 J-0.0156 F35
G1 X-0.0676 Y0.3281
G2 X-0.0948 Y0.3128 Z-0.2417 I-0.0136 J-0.0077
X-0.0676 Y0.3281 Z-0.2434 I0.0136 J0.0077
X-0.0948 Y0.3128 Z-0.2451 I-0.0136 J-0.0077
X-0.0676 Y0.3281 Z-0.2469 I0.0136 J0.0077
X-0.0948 Y0.3128 Z-0.2486 I-0.0136 J-0.0077
X-0.0676 Y0.3281 Z-0.2503 I0.0136 J0.0077
X-0.0948 Y0.3128 Z-0.252 I-0.0136 J-0.0077
X-0.0676 Y0.3281 Z-0.2537 I0.0136 J0.0077
X-0.0948 Y0.3128 Z-0.2554 I-0.0136 J-0.0077
X-0.0676 Y0.3281 Z-0.2571 I0.0136 J0.0077
X-0.0948 Y0.3128 Z-0.2589 I-0.0136 J-0.0077
X-0.0812 Y0.3361 Z-0.26 I0.0136 J0.0077
G1 X-0.0808
X-0.0743 Y0.3359
G2 X-0.0589 Y0.3196 I-0.0004 J-0.0158
G1 X-0.0614 Y0.2326 F35.38
G2 X-0.0742 Y0.2204 I-0.0125 J0.0004 F35
X-0.0863 Y0.2314 I0.0004 J0.0125 F35.38
G1 X-0.0967 Y0.3186
G2 X-0.0808 Y0.3361 I0.0155 J0.0019
X-0.0678 Y0.3285 I-0.0004 J-0.0156 F35
G1 X-0.0676 Y0.3281
G2 X-0.0948 Y0.3128 Z-0.2617 I-0.0136 J-0.0077
X-0.0676 Y0.3281 Z-0.2634 I0.0136 J0.0077
X-0.0948 Y0.3128 Z-0.2651 I-0.0136 J-0.0077
X-0.0676 Y0.3281 Z-0.2669 I0.0136 J0.0077
X-0.0948 Y0.3128 Z-0.2686 I-0.0136 J-0.0077
X-0.0676 Y0.3281 Z-0.2703 I0.0136 J0.0077
X-0.0948 Y0.3128 Z-0.272 I-0.0136 J-0.0077
X-0.0676 Y0.3281 Z-0.2737 I0.0136 J0.0077
X-0.0948 Y0.3128 Z-0.2754 I-0.0136 J-0.0077
X-0.0676 Y0.3281 Z-0.2771 I0.0136 J0.0077
X-0.0948 Y0.3128 Z-0.2789 I-0.0136 J-0.0077
X-0.0812 Y0.3361 Z-0.28 I0.0136 J0.0077
G1 X-0.0808
X-0.0743 Y0.3359
G2 X-0.0589 Y0.3196 I-0.0004 J-0.0158
G1 X-0.0614 Y0.2326 F35.38
G2 X-0.0742 Y0.2204 I-0.0125 J0.0004 F35
X-0.0863 Y0.2314 I0.0004 J0.0125 F35.38
G1 X-0.0967 Y0.3186
G2 X-0.0808 Y0.3361 I0.0155 J0.0019
X-0.0678 Y0.3285 I-0.0004 J-0.0156 F35
G1 X-0.0676 Y0.3281
G2 X-0.0948 Y0.3128 Z-0.2817 I-0.0136 J-0.0077
X-0.0676 Y0.3281 Z-0.2834 I0.0136 J0.0077
X-0.0948 Y0.3128 Z-0.2851 I-0.0136 J-0.0077
X-0.0676 Y0.3281 Z-0.2869 I0.0136 J0.0077
X-0.0948 Y0.3128 Z-0.2886 I-0.0136 J-0.0077
X-0.0676 Y0.3281 Z-0.2903 I0.0136 J0.0077
X-0.0948 Y0.3128 Z-0.292 I-0.0136 J-0.0077
X-0.0676 Y0.3281 Z-0.2937 I0.0136 J0.0077
X-0.0948 Y0.3128 Z-0.2954 I-0.0136 J-0.0077
X-0.0676 Y0.3281 Z-0.2971 I0.0136 J0.0077
X-0.0948 Y0.3128 Z-0.2989 I-0.0136 J-0.0077
X-0.0812 Y0.3361 Z-0.3 I0.0136 J0.0077
G1 X-0.0808
X-0.0743 Y0.3359
G2 X-0.0589 Y0.3196 I-0.0004 J-0.0158
G1 X-0.0614 Y0.2326 F35.38
G2 X-0.0742 Y0.2204 I-0.0125 J0.0004 F35
X-0.0863 Y0.2314 I0.0004 J0.0125 F35.38
G1 X-0.0967 Y0.3186
G2 X-0.0808 Y0.3361 I0.0155 J0.0019
X-0.0678 Y0.3285 I-0.0004 J-0.0156 F35
G1 X-0.0676 Y0.3281
G2 X-0.0948 Y0.3128 Z-0.3017 I-0.0136 J-0.0077
X-0.0676 Y0.3281 Z-0.3034 I0.0136 J0.0077
X-0.0948 Y0.3128 Z-0.3051 I-0.0136 J-0.0077
X-0.0676 Y0.3281 Z-0.3069 I0.0136 J0.0077
X-0.0948 Y0.3128 Z-0.3086 I-0.0136 J-0.0077
X-0.0676 Y0.3281 Z-0.3103 I0.0136 J0.0077
X-0.0948 Y0.3128 Z-0.312 I-0.0136 J-0.0077
X-0.0676 Y0.3281 Z-0.3137 I0.0136 J0.0077
X-0.0948 Y0.3128 Z-0.3154 I-0.0136 J-0.0077
X-0.0676 Y0.3281 Z-0.3171 I0.0136 J0.0077
X-0.0948 Y0.3128 Z-0.3189 I-0.0136 J-0.0077
X-0.0812 Y0.3361 Z-0.32 I0.0136 J0.0077
G1 X-0.0808
X-0.0743 Y0.3359
G2 X-0.0589 Y0.3196 I-0.0004 J-0.0158
G1 X-0.0614 Y0.2326 F35.38
G2 X-0.0742 Y0.2204 I-0.0125 J0.0004 F35
X-0.0863 Y0.2314 I0.0004 J0.0125 F35.38
G1 X-0.0967 Y0.3186
G2 X-0.0808 Y0.3361 I0.0155 J0.0019
X-0.0678 Y0.3285 I-0.0004 J-0.0156 F35
G1 X-0.0676 Y0.3281
G2 X-0.0948 Y0.3128 Z-0.3217 I-0.0136 J-0.0077
X-0.0676 Y0.3281 Z-0.3234 I0.0136 J0.0077
X-0.0948 Y0.3128 Z-0.3251 I-0.0136 J-0.0077
X-0.0676 Y0.3281 Z-0.3269 I0.0136 J0.0077
X-0.0948 Y0.3128 Z-0.3286 I-0.0136 J-0.0077
X-0.0676 Y0.3281 Z-0.3303 I0.0136 J0.0077
X-0.0948 Y0.3128 Z-0.332 I-0.0136 J-0.0077
X-0.0676 Y0.3281 Z-0.3337 I0.0136 J0.0077
X-0.0948 Y0.3128 Z-0.3354 I-0.0136 J-0.0077
X-0.0676 Y0.3281 Z-0.3371 I0.0136 J0.0077
X-0.0948 Y0.3128 Z-0.3389 I-0.0136 J-0.0077
X-0.0812 Y0.3361 Z-0.34 I0.0136 J0.0077
G1 X-0.0808
X-0.0743 Y0.3359
G2 X-0.0589 Y0.3196 I-0.0004 J-0.0158
G1 X-0.0614 Y0.2326 F35.38
G2 X-0.0742 Y0.2204 I-0.0125 J0.0004 F35
X-0.0863 Y0.2314 I0.0004 J0.0125 F35.38
G1 X-0.0967 Y0.3186
G2 X-0.0808 Y0.3361 I0.0155 J0.0019
X-0.0678 Y0.3285 I-0.0004 J-0.0156 F35
G1 X-0.0676 Y0.3281
G2 X-0.0948 Y0.3128 Z-0.3417 I-0.0136 J-0.0077
X-0.0676 Y0.3281 Z-0.3434 I0.0136 J0.0077
X-0.0948 Y0.3128 Z-0.3451 I-0.0136 J-0.0077
X-0.0676 Y0.3281 Z-0.3469 I0.0136 J0.0077
X-0.0948 Y0.3128 Z-0.3486 I-0.0136 J-0.0077
X-0.0676 Y0.3281 Z-0.3503 I0.0136 J0.0077
X-0.0948 Y0.3128 Z-0.352 I-0.0136 J-0.0077
X-0.0676 Y0.3281 Z-0.3537 I0.0136 J0.0077
X-0.0948 Y0.3128 Z-0.3554 I-0.0136 J-0.0077
X-0.0676 Y0.3281 Z-0.3571 I0.0136 J0.0077
X-0.0948 Y0.3128 Z-0.3589 I-0.0136 J-0.0077
X-0.0812 Y0.3361 Z-0.36 I0.0136 J0.0077
G1 X-0.0808
X-0.0743 Y0.3359
G2 X-0.0589 Y0.3196 I-0.0004 J-0.0158
G1 X-0.0614 Y0.2326 F35.38
G2 X-0.0742 Y0.2204 I-0.0125 J0.0004 F35
X-0.0863 Y0.2314 I0.0004 J0.0125 F35.38
G1 X-0.0967 Y0.3186
G2 X-0.0808 Y0.3361 I0.0155 J0.0019
X-0.0678 Y0.3285 I-0.0004 J-0.0156 F35
G1 X-0.0676 Y0.3281
G2 X-0.0948 Y0.3128 Z-0.3617 I-0.0136 J-0.0077
X-0.0676 Y0.3281 Z-0.3634 I0.0136 J0.0077
X-0.0948 Y0.3128 Z-0.3651 I-0.0136 J-0.0077
X-0.0676 Y0.3281 Z-0.3669 I0.0136 J0.0077
X-0.0948 Y0.3128 Z-0.3686 I-0.0136 J-0.0077
X-0.0676 Y0.3281 Z-0.3703 I0.0136 J0.0077
X-0.0948 Y0.3128 Z-0.372 I-0.0136 J-0.0077
X-0.0676 Y0.3281 Z-0.3737 I0.0136 J0.0077
X-0.0948 Y0.3128 Z-0.3754 I-0.0136 J-0.0077
X-0.0676 Y0.3281 Z-0.3771 I0.0136 J0.0077
X-0.0948 Y0.3128 Z-0.3789 I-0.0136 J-0.0077
X-0.0812 Y0.3361 Z-0.38 I0.0136 J0.0077
G1 X-0.0808
X-0.0743 Y0.3359
G2 X-0.0589 Y0.3196 I-0.0004 J-0.0158
G1 X-0.0614 Y0.2326 F35.38
G2 X-0.0742 Y0.2204 I-0.0125 J0.0004 F35
X-0.0863 Y0.2314 I0.0004 J0.0125 F35.38
G1 X-0.0967 Y0.3186
G2 X-0.0808 Y0.3361 I0.0155 J0.0019
X-0.0678 Y0.3285 I-0.0004 J-0.0156 F35
G1 X-0.0676 Y0.3281
G2 X-0.0948 Y0.3128 Z-0.3817 I-0.0136 J-0.0077
X-0.0676 Y0.3281 Z-0.3834 I0.0136 J0.0077
X-0.0948 Y0.3128 Z-0.3851 I-0.0136 J-0.0077
X-0.0676 Y0.3281 Z-0.3869 I0.0136 J0.0077
X-0.0948 Y0.3128 Z-0.3886 I-0.0136 J-0.0077
X-0.0676 Y0.3281 Z-0.3903 I0.0136 J0.0077
X-0.0948 Y0.3128 Z-0.392 I-0.0136 J-0.0077
X-0.0676 Y0.3281 Z-0.3937 I0.0136 J0.0077
X-0.0948 Y0.3128 Z-0.3954 I-0.0136 J-0.0077
X-0.0676 Y0.3281 Z-0.3971 I0.0136 J0.0077
X-0.0948 Y0.3128 Z-0.3989 I-0.0136 J-0.0077
X-0.0812 Y0.3361 Z-0.4 I0.0136 J0.0077
G1 X-0.0808
X-0.0743 Y0.3359
G2 X-0.0589 Y0.3196 I-0.0004 J-0.0158
G1 X-0.0614 Y0.2326 F35.38
G2 X-0.0742 Y0.2204 I-0.0125 J0.0004 F35
X-0.0863 Y0.2314 I0.0004 J0.0125 F35.38
G1 X-0.0967 Y0.3186
G2 X-0.0808 Y0.3361 I0.0155 J0.0019
X-0.0678 Y0.3285 I-0.0004 J-0.0156 F35
G1 X-0.0676 Y0.3281
G2 X-0.0948 Y0.3128 Z-0.4017 I-0.0136 J-0.0077
X-0.0676 Y0.3281 Z-0.4034 I0.0136 J0.0077
X-0.0948 Y0.3128 Z-0.4051 I-0.0136 J-0.0077
X-0.0676 Y0.3281 Z-0.4069 I0.0136 J0.0077
X-0.0948 Y0.3128 Z-0.4086 I-0.0136 J-0.0077
X-0.0676 Y0.3281 Z-0.4103 I0.0136 J0.0077
X-0.0948 Y0.3128 Z-0.412 I-0.0136 J-0.0077
X-0.0676 Y0.3281 Z-0.4137 I0.0136 J0.0077
X-0.0948 Y0.3128 Z-0.4154 I-0.0136 J-0.0077
X-0.0676 Y0.3281 Z-0.4171 I0.0136 J0.0077
X-0.0948 Y0.3128 Z-0.4189 I-0.0136 J-0.0077
X-0.0812 Y0.3361 Z-0.42 I0.0136 J0.0077
G1 X-0.0808
X-0.0743 Y0.3359
G2 X-0.0589 Y0.3196 I-0.0004 J-0.0158
G1 X-0.0614 Y0.2326 F35.38
G2 X-0.0742 Y0.2204 I-0.0125 J0.0004 F35
X-0.0863 Y0.2314 I0.0004 J0.0125 F35.38
G1 X-0.0967 Y0.3186
G2 X-0.0873 Y0.3348 I0.0155 J0.0019
G1 X-0.0869 Y0.335 F35
G2 X-0.0755 Y0.3059 Z-0.4217 I0.0057 J-0.0145
X-0.0869 Y0.335 Z-0.4234 I-0.0057 J0.0145
X-0.0755 Y0.3059 Z-0.4251 I0.0057 J-0.0145
X-0.0869 Y0.335 Z-0.4269 I-0.0057 J0.0145
X-0.0755 Y0.3059 Z-0.4286 I0.0057 J-0.0145
X-0.0869 Y0.335 Z-0.4303 I-0.0057 J0.0145
X-0.0812 Y0.3361 Z-0.4305 I0.0057 J-0.0145
G1 X-0.0808
X-0.0743 Y0.3359
G2 X-0.0589 Y0.3196 I-0.0004 J-0.0158
G1 X-0.0614 Y0.2326 F35.38
G2 X-0.0742 Y0.2204 I-0.0125 J0.0004 F35
X-0.0863 Y0.2314 I0.0004 J0.0125 F35.38
G1 X-0.0967 Y0.3186
G2 X-0.0873 Y0.3348 I0.0155 J0.0019
G1 X-0.0869 Y0.335 F35
G2 X-0.0755 Y0.3059 Z-0.4322 I0.0057 J-0.0145
X-0.0869 Y0.335 Z-0.4339 I-0.0057 J0.0145
X-0.0755 Y0.3059 Z-0.4356 I0.0057 J-0.0145
X-0.0869 Y0.335 Z-0.4374 I-0.0057 J0.0145
X-0.0755 Y0.3059 Z-0.4391 I0.0057 J-0.0145
X-0.0869 Y0.335 Z-0.4408 I-0.0057 J0.0145
X-0.0812 Y0.3361 Z-0.441 I0.0057 J-0.0145
G1 X-0.0808
X-0.0743 Y0.3359
G2 X-0.0589 Y0.3196 I-0.0004 J-0.0158
G1 X-0.0614 Y0.2326 F35.38
G2 X-0.0742 Y0.2204 I-0.0125 J0.0004 F35
G1 X-0.077 Y0.2205 Z-0.4407
X-0.0796 Y0.2206 Z-0.4398
X-0.082 Z-0.4383
X-0.084 Y0.2207 Z-0.4363
X-0.0855 Z-0.4339
X-0.0864 Y0.2208 Z-0.4313
X-0.0867 Z-0.4285
G0 Z0.2
X2.6308 Y2.1916
Z-0.0482
G1 Z-0.1075 F35
X2.6305 Z-0.1103
X2.6296 Y2.1917 Z-0.1129
X2.6281 Z-0.1153
X2.6261 Y2.1918 Z-0.1173
X2.6237 Z-0.1188
X2.6211 Y2.1919 Z-0.1197
X2.6183 Y2.192 Z-0.12
X2.5965 Y2.1926
G2 X2.5843 Y2.2055 I0.0004 J0.0125
G1 X2.5868 Y2.2877 F35.38
G2 X2.5996 Y2.2998 I0.0125 J-0.0004 F35
X2.6117 Y2.2889 I-0.0004 J-0.0125 F35.38
G1 X2.6221 Y2.2066
G2 X2.6061 Y2.189 I-0.0155 J-0.002
X2.5932 Y2.1966 I0.0005 J0.0156 F35
G1 X2.593 Y2.197
G2 X2.591 Y2.2051 Z-0.1203 I0.0136 J0.0076
X2.6222 Y2.2042 Z-0.122 I0.0156 J-0.0005
X2.591 Y2.2051 Z-0.1237 I-0.0156 J0.0005
X2.6222 Y2.2042 Z-0.1254 I0.0156 J-0.0005
X2.591 Y2.2051 Z-0.1272 I-0.0156 J0.0005
X2.6222 Y2.2042 Z-0.1289 I0.0156 J-0.0005
X2.591 Y2.2051 Z-0.1306 I-0.0156 J0.0005
X2.6222 Y2.2042 Z-0.1323 I0.0156 J-0.0005
X2.591 Y2.2051 Z-0.134 I-0.0156 J0.0005
X2.6222 Y2.2042 Z-0.1357 I0.0156 J-0.0005
X2.591 Y2.2051 Z-0.1374 I-0.0156 J0.0005
X2.6222 Y2.2042 Z-0.1392 I0.0156 J-0.0005
X2.6066 Y2.189 Z-0.14 I-0.0156 J0.0005
G1 X2.6061
X2.5997 Y2.1892
G2 X2.5843 Y2.2055 I0.0005 J0.0158
G1 X2.5868 Y2.2877 F35.38
G2 X2.5996 Y2.2998 I0.0125 J-0.0004 F35
X2.6117 Y2.2889 I-0.0004 J-0.0125 F35.38
G1 X2.6221 Y2.2066
G2 X2.6061 Y2.189 I-0.0155 J-0.002
X2.5932 Y2.1966 I0.0005 J0.0156 F35
G1 X2.593 Y2.197
G2 X2.591 Y2.2051 Z-0.1403 I0.0136 J0.0076
X2.6222 Y2.2042 Z-0.142 I0.0156 J-0.0005
X2.591 Y2.2051 Z-0.1437 I-0.0156 J0.0005
X2.6222 Y2.2042 Z-0.1454 I0.0156 J-0.0005
X2.591 Y2.2051 Z-0.1472 I-0.0156 J0.0005
X2.6222 Y2.2042 Z-0.1489 I0.0156 J-0.0005
X2.591 Y2.2051 Z-0.1506 I-0.0156 J0.0005
X2.6222 Y2.2042 Z-0.1523 I0.0156 J-0.0005
X2.591 Y2.2051 Z-0.154 I-0.0156 J0.0005
X2.6222 Y2.2042 Z-0.1557 I0.0156 J-0.0005
X2.591 Y2.2051 Z-0.1574 I-0.0156 J0.0005
X2.6222 Y2.2042 Z-0.1592 I0.0156 J-0.0005
X2.6066 Y2.189 Z-0.16 I-0.0156 J0.0005
G1 X2.6061
X2.5997 Y2.1892
G2 X2.5843 Y2.2055 I0.0005 J0.0158
G1 X2.5868 Y2.2877 F35.38
G2 X2.5996 Y2.2998 I0.0125 J-0.0004 F35
X2.6117 Y2.2889 I-0.0004 J-0.0125 F35.38
G1 X2.6221 Y2.2066
G2 X2.6061 Y2.189 I-0.0155 J-0.002
X2.5932 Y2.1966 I0.0005 J0.0156 F35
G1 X2.593 Y2.197
G2 X2.591 Y2.2051 Z-0.1603 I0.0136 J0.0076
X2.6222 Y2.2042 Z-0.162 I0.0156 J-0.0005
X2.591 Y2.2051 Z-0.1637 I-0.0156 J0.0005
X2.6222 Y2.2042 Z-0.1654 I0.0156 J-0.0005
X2.591 Y2.2051 Z-0.1672 I-0.0156 J0.0005
X2.6222 Y2.2042 Z-0.1689 I0.0156 J-0.0005
X2.591 Y2.2051 Z-0.1706 I-0.0156 J0.0005
X2.6222 Y2.2042 Z-0.1723 I0.0156 J-0.0005
X2.591 Y2.2051 Z-0.174 I-0.0156 J0.0005
X2.6222 Y2.2042 Z-0.1757 I0.0156 J-0.0005
X2.591 Y2.2051 Z-0.1774 I-0.0156 J0.0005
X2.6222 Y2.2042 Z-0.1792 I0.0156 J-0.0005
X2.6066 Y2.189 Z-0.18 I-0.0156 J0.0005
G1 X2.6061
X2.5997 Y2.1892
G2 X2.5843 Y2.2055 I0.0005 J0.0158
G1 X2.5868 Y2.2877 F35.38
G2 X2.5996 Y2.2998 I0.0125 J-0.0004 F35
X2.6117 Y2.2889 I-0.0004 J-0.0125 F35.38
G1 X2.6221 Y2.2066
G2 X2.6061 Y2.189 I-0.0155 J-0.002
X2.5932 Y2.1966 I0.0005 J0.0156 F35
G1 X2.593 Y2.197
G2 X2.591 Y2.2051 Z-0.1803 I0.0136 J0.0076
X2.6222 Y2.2042 Z-0.182 I0.0156 J-0.0005
X2.591 Y2.2051 Z-0.1837 I-0.0156 J0.0005
X2.6222 Y2.2042 Z-0.1854 I0.0156 J-0.0005
X2.591 Y2.2051 Z-0.1872 I-0.0156 J0.0005
X2.6222 Y2.2042 Z-0.1889 I0.0156 J-0.0005
X2.591 Y2.2051 Z-0.1906 I-0.0156 J0.0005
X2.6222 Y2.2042 Z-0.1923 I0.0156 J-0.0005
X2.591 Y2.2051 Z-0.194 I-0.0156 J0.0005
X2.6222 Y2.2042 Z-0.1957 I0.0156 J-0.0005
X2.591 Y2.2051 Z-0.1974 I-0.0156 J0.0005
X2.6222 Y2.2042 Z-0.1992 I0.0156 J-0.0005
X2.6066 Y2.189 Z-0.2 I-0.0156 J0.0005
G1 X2.6061
X2.5997 Y2.1892
G2 X2.5843 Y2.2055 I0.0005 J0.0158
G1 X2.5868 Y2.2877 F35.38
G2 X2.5996 Y2.2998 I0.0125 J-0.0004 F35
X2.6117 Y2.2889 I-0.0004 J-0.0125 F35.38
G1 X2.6221 Y2.2066
G2 X2.6061 Y2.189 I-0.0155 J-0.002
X2.5932 Y2.1966 I0.0005 J0.0156 F35
G1 X2.593 Y2.197
G2 X2.591 Y2.2051 Z-0.2003 I0.0136 J0.0076
X2.6222 Y2.2042 Z-0.202 I0.0156 J-0.0005
X2.591 Y2.2051 Z-0.2037 I-0.0156 J0.0005
X2.6222 Y2.2042 Z-0.2054 I0.0156 J-0.0005
X2.591 Y2.2051 Z-0.2072 I-0.0156 J0.0005
X2.6222 Y2.2042 Z-0.2089 I0.0156 J-0.0005
X2.591 Y2.2051 Z-0.2106 I-0.0156 J0.0005
X2.6222 Y2.2042 Z-0.2123 I0.0156 J-0.0005
X2.591 Y2.2051 Z-0.214 I-0.0156 J0.0005
X2.6222 Y2.2042 Z-0.2157 I0.0156 J-0.0005
X2.591 Y2.2051 Z-0.2174 I-0.0156 J0.0005
X2.6222 Y2.2042 Z-0.2192 I0.0156 J-0.0005
X2.6066 Y2.189 Z-0.22 I-0.0156 J0.0005
G1 X2.6061
X2.5997 Y2.1892
G2 X2.5843 Y2.2055 I0.0005 J0.0158
G1 X2.5868 Y2.2877 F35.38
G2 X2.5996 Y2.2998 I0.0125 J-0.0004 F35
X2.6117 Y2.2889 I-0.0004 J-0.0125 F35.38
G1 X2.6221 Y2.2066
G2 X2.6061 Y2.189 I-0.0155 J-0.002
X2.5932 Y2.1966 I0.0005 J0.0156 F35
G1 X2.593 Y2.197
G2 X2.591 Y2.2051 Z-0.2203 I0.0136 J0.0076
X2.6222 Y2.2042 Z-0.222 I0.0156 J-0.0005
X2.591 Y2.2051 Z-0.2237 I-0.0156 J0.0005
X2.6222 Y2.2042 Z-0.2254 I0.0156 J-0.0005
X2.591 Y2.2051 Z-0.2272 I-0.0156 J0.0005
X2.6222 Y2.2042 Z-0.2289 I0.0156 J-0.0005
X2.591 Y2.2051 Z-0.2306 I-0.0156 J0.0005
X2.6222 Y2.2042 Z-0.2323 I0.0156 J-0.0005
X2.591 Y2.2051 Z-0.234 I-0.0156 J0.0005
X2.6222 Y2.2042 Z-0.2357 I0.0156 J-0.0005
X2.591 Y2.2051 Z-0.2374 I-0.0156 J0.0005
X2.6222 Y2.2042 Z-0.2392 I0.0156 J-0.0005
X2.6066 Y2.189 Z-0.24 I-0.0156 J0.0005
G1 X2.6061
X2.5997 Y2.1892
G2 X2.5843 Y2.2055 I0.0005 J0.0158
G1 X2.5868 Y2.2877 F35.38
G2 X2.5996 Y2.2998 I0.0125 J-0.0004 F35
X2.6117 Y2.2889 I-0.0004 J-0.0125 F35.38
G1 X2.6221 Y2.2066
G2 X2.6061 Y2.189 I-0.0155 J-0.002
X2.5932 Y2.1966 I0.0005 J0.0156 F35
G1 X2.593 Y2.197
G2 X2.591 Y2.2051 Z-0.2403 I0.0136 J0.0076
X2.6222 Y2.2042 Z-0.242 I0.0156 J-0.0005
X2.591 Y2.2051 Z-0.2437 I-0.0156 J0.0005
X2.6222 Y2.2042 Z-0.2454 I0.0156 J-0.0005
X2.591 Y2.2051 Z-0.2472 I-0.0156 J0.0005
X2.6222 Y2.2042 Z-0.2489 I0.0156 J-0.0005
X2.591 Y2.2051 Z-0.2506 I-0.0156 J0.0005
X2.6222 Y2.2042 Z-0.2523 I0.0156 J-0.0005
X2.591 Y2.2051 Z-0.254 I-0.0156 J0.0005
X2.6222 Y2.2042 Z-0.2557 I0.0156 J-0.0005
X2.591 Y2.2051 Z-0.2574 I-0.0156 J0.0005
X2.6222 Y2.2042 Z-0.2592 I0.0156 J-0.0005
X2.6066 Y2.189 Z-0.26 I-0.0156 J0.0005
G1 X2.6061
X2.5997 Y2.1892
G2 X2.5843 Y2.2055 I0.0005 J0.0158
G1 X2.5868 Y2.2877 F35.38
G2 X2.5996 Y2.2998 I0.0125 J-0.0004 F35
X2.6117 Y2.2889 I-0.0004 J-0.0125 F35.38
G1 X2.6221 Y2.2066
G2 X2.6061 Y2.189 I-0.0155 J-0.002
X2.5932 Y2.1966 I0.0005 J0.0156 F35
G1 X2.593 Y2.197
G2 X2.591 Y2.2051 Z-0.2603 I0.0136 J0.0076
X2.6222 Y2.2042 Z-0.262 I0.0156 J-0.0005
X2.591 Y2.2051 Z-0.2637 I-0.0156 J0.0005
X2.6222 Y2.2042 Z-0.2654 I0.0156 J-0.0005
X2.591 Y2.2051 Z-0.2672 I-0.0156 J0.0005
X2.6222 Y2.2042 Z-0.2689 I0.0156 J-0.0005
X2.591 Y2.2051 Z-0.2706 I-0.0156 J0.0005
X2.6222 Y2.2042 Z-0.2723 I0.0156 J-0.0005
X2.591 Y2.2051 Z-0.274 I-0.0156 J0.0005
X2.6222 Y2.2042 Z-0.2757 I0.0156 J-0.0005
X2.591 Y2.2051 Z-0.2774 I-0.0156 J0.0005
X2.6222 Y2.2042 Z-0.2792 I0.0156 J-0.0005
X2.6066 Y2.189 Z-0.28 I-0.0156 J0.0005
G1 X2.6061
X2.5997 Y2.1892
G2 X2.5843 Y2.2055 I0.0005 J0.0158
G1 X2.5868 Y2.2877 F35.38
G2 X2.5996 Y2.2998 I0.0125 J-0.0004 F35
X2.6117 Y2.2889 I-0.0004 J-0.0125 F35.38
G1 X2.6221 Y2.2066
G2 X2.6061 Y2.189 I-0.0155 J-0.002
X2.5932 Y2.1966 I0.0005 J0.0156 F35
G1 X2.593 Y2.197
G2 X2.591 Y2.2051 Z-0.2803 I0.0136 J0.0076
X2.6222 Y2.2042 Z-0.282 I0.0156 J-0.0005
X2.591 Y2.2051 Z-0.2837 I-0.0156 J0.0005
X2.6222 Y2.2042 Z-0.2854 I0.0156 J-0.0005
X2.591 Y2.2051 Z-0.2872 I-0.0156 J0.0005
X2.6222 Y2.2042 Z-0.2889 I0.0156 J-0.0005
X2.591 Y2.2051 Z-0.2906 I-0.0156 J0.0005
X2.6222 Y2.2042 Z-0.2923 I0.0156 J-0.0005
X2.591 Y2.2051 Z-0.294 I-0.0156 J0.0005
X2.6222 Y2.2042 Z-0.2957 I0.0156 J-0.0005
X2.591 Y2.2051 Z-0.2974 I-0.0156 J0.0005
X2.6222 Y2.2042 Z-0.2992 I0.0156 J-0.0005
X2.6066 Y2.189 Z-0.3 I-0.0156 J0.0005
G1 X2.6061
X2.5997 Y2.1892
G2 X2.5843 Y2.2055 I0.0005 J0.0158
G1 X2.5868 Y2.2877 F35.38
G2 X2.5996 Y2.2998 I0.0125 J-0.0004 F35
X2.6117 Y2.2889 I-0.0004 J-0.0125 F35.38
G1 X2.6221 Y2.2066
G2 X2.6061 Y2.189 I-0.0155 J-0.002
X2.5932 Y2.1966 I0.0005 J0.0156 F35
G1 X2.593 Y2.197
G2 X2.591 Y2.2051 Z-0.3003 I0.0136 J0.0076
X2.6222 Y2.2042 Z-0.302 I0.0156 J-0.0005
X2.591 Y2.2051 Z-0.3037 I-0.0156 J0.0005
X2.6222 Y2.2042 Z-0.3054 I0.0156 J-0.0005
X2.591 Y2.2051 Z-0.3072 I-0.0156 J0.0005
X2.6222 Y2.2042 Z-0.3089 I0.0156 J-0.0005
X2.591 Y2.2051 Z-0.3106 I-0.0156 J0.0005
X2.6222 Y2.2042 Z-0.3123 I0.0156 J-0.0005
X2.591 Y2.2051 Z-0.314 I-0.0156 J0.0005
X2.6222 Y2.2042 Z-0.3157 I0.0156 J-0.0005
X2.591 Y2.2051 Z-0.3174 I-0.0156 J0.0005
X2.6222 Y2.2042 Z-0.3192 I0.0156 J-0.0005
X2.6066 Y2.189 Z-0.32 I-0.0156 J0.0005
G1 X2.6061
X2.5997 Y2.1892
G2 X2.5843 Y2.2055 I0.0005 J0.0158
G1 X2.5868 Y2.2877 F35.38
G2 X2.5996 Y2.2998 I0.0125 J-0.0004 F35
X2.6117 Y2.2889 I-0.0004 J-0.0125 F35.38
G1 X2.6221 Y2.2066
G2 X2.6061 Y2.189 I-0.0155 J-0.002
X2.5932 Y2.1966 I0.0005 J0.0156 F35
G1 X2.593 Y2.197
G2 X2.591 Y2.2051 Z-0.3203 I0.0136 J0.0076
X2.6222 Y2.2042 Z-0.322 I0.0156 J-0.0005
X2.591 Y2.2051 Z-0.3237 I-0.0156 J0.0005
X2.6222 Y2.2042 Z-0.3254 I0.0156 J-0.0005
X2.591 Y2.2051 Z-0.3272 I-0.0156 J0.0005
X2.6222 Y2.2042 Z-0.3289 I0.0156 J-0.0005
X2.591 Y2.2051 Z-0.3306 I-0.0156 J0.0005
X2.6222 Y2.2042 Z-0.3323 I0.0156 J-0.0005
X2.591 Y2.2051 Z-0.334 I-0.0156 J0.0005
X2.6222 Y2.2042 Z-0.3357 I0.0156 J-0.0005
X2.591 Y2.2051 Z-0.3374 I-0.0156 J0.0005
X2.6222 Y2.2042 Z-0.3392 I0.0156 J-0.0005
X2.6066 Y2.189 Z-0.34 I-0.0156 J0.0005
G1 X2.6061
X2.5997 Y2.1892
G2 X2.5843 Y2.2055 I0.0005 J0.0158
G1 X2.5868 Y2.2877 F35.38
G2 X2.5996 Y2.2998 I0.0125 J-0.0004 F35
X2.6117 Y2.2889 I-0.0004 J-0.0125 F35.38
G1 X2.6221 Y2.2066
G2 X2.6061 Y2.189 I-0.0155 J-0.002
X2.5932 Y2.1966 I0.0005 J0.0156 F35
G1 X2.593 Y2.197
G2 X2.591 Y2.2051 Z-0.3403 I0.0136 J0.0076
X2.6222 Y2.2042 Z-0.342 I0.0156 J-0.0005
X2.591 Y2.2051 Z-0.3437 I-0.0156 J0.0005
X2.6222 Y2.2042 Z-0.3454 I0.0156 J-0.0005
X2.591 Y2.2051 Z-0.3472 I-0.0156 J0.0005
X2.6222 Y2.2042 Z-0.3489 I0.0156 J-0.0005
X2.591 Y2.2051 Z-0.3506 I-0.0156 J0.0005
X2.6222 Y2.2042 Z-0.3523 I0.0156 J-0.0005
X2.591 Y2.2051 Z-0.354 I-0.0156 J0.0005
X2.6222 Y2.2042 Z-0.3557 I0.0156 J-0.0005
X2.591 Y2.2051 Z-0.3574 I-0.0156 J0.0005
X2.6222 Y2.2042 Z-0.3592 I0.0156 J-0.0005
X2.6066 Y2.189 Z-0.36 I-0.0156 J0.0005
G1 X2.6061
X2.5997 Y2.1892
G2 X2.5843 Y2.2055 I0.0005 J0.0158
G1 X2.5868 Y2.2877 F35.38
G2 X2.5996 Y2.2998 I0.0125 J-0.0004 F35
X2.6117 Y2.2889 I-0.0004 J-0.0125 F35.38
G1 X2.6221 Y2.2066
G2 X2.6061 Y2.189 I-0.0155 J-0.002
X2.5932 Y2.1966 I0.0005 J0.0156 F35
G1 X2.593 Y2.197
G2 X2.591 Y2.2051 Z-0.3603 I0.0136 J0.0076
X2.6222 Y2.2042 Z-0.362 I0.0156 J-0.0005
X2.591 Y2.2051 Z-0.3637 I-0.0156 J0.0005
X2.6222 Y2.2042 Z-0.3654 I0.0156 J-0.0005
X2.591 Y2.2051 Z-0.3672 I-0.0156 J0.0005
X2.6222 Y2.2042 Z-0.3689 I0.0156 J-0.0005
X2.591 Y2.2051 Z-0.3706 I-0.0156 J0.0005
X2.6222 Y2.2042 Z-0.3723 I0.0156 J-0.0005
X2.591 Y2.2051 Z-0.374 I-0.0156 J0.0005
X2.6222 Y2.2042 Z-0.3757 I0.0156 J-0.0005
X2.591 Y2.2051 Z-0.3774 I-0.0156 J0.0005
X2.6222 Y2.2042 Z-0.3792 I0.0156 J-0.0005
X2.6066 Y2.189 Z-0.38 I-0.0156 J0.0005
G1 X2.6061
X2.5997 Y2.1892
G2 X2.5843 Y2.2055 I0.0005 J0.0158
G1 X2.5868 Y2.2877 F35.38
G2 X2.5996 Y2.2998 I0.0125 J-0.0004 F35
X2.6117 Y2.2889 I-0.0004 J-0.0125 F35.38
G1 X2.6221 Y2.2066
G2 X2.6061 Y2.189 I-0.0155 J-0.002
X2.5932 Y2.1966 I0.0005 J0.0156 F35
G1 X2.593 Y2.197
G2 X2.591 Y2.2051 Z-0.3803 I0.0136 J0.0076
X2.6222 Y2.2042 Z-0.382 I0.0156 J-0.0005
X2.591 Y2.2051 Z-0.3837 I-0.0156 J0.0005
X2.6222 Y2.2042 Z-0.3854 I0.0156 J-0.0005
X2.591 Y2.2051 Z-0.3872 I-0.0156 J0.0005
X2.6222 Y2.2042 Z-0.3889 I0.0156 J-0.0005
X2.591 Y2.2051 Z-0.3906 I-0.0156 J0.0005
X2.6222 Y2.2042 Z-0.3923 I0.0156 J-0.0005
X2.591 Y2.2051 Z-0.394 I-0.0156 J0.0005
X2.6222 Y2.2042 Z-0.3957 I0.0156 J-0.0005
X2.591 Y2.2051 Z-0.3974 I-0.0156 J0.0005
X2.6222 Y2.2042 Z-0.3992 I0.0156 J-0.0005
X2.6066 Y2.189 Z-0.4 I-0.0156 J0.0005
G1 X2.6061
X2.5997 Y2.1892
G2 X2.5843 Y2.2055 I0.0005 J0.0158
G1 X2.5868 Y2.2877 F35.38
G2 X2.5996 Y2.2998 I0.0125 J-0.0004 F35
X2.6117 Y2.2889 I-0.0004 J-0.0125 F35.38
G1 X2.6221 Y2.2066
G2 X2.6061 Y2.189 I-0.0155 J-0.002
X2.5932 Y2.1966 I0.0005 J0.0156 F35
G1 X2.593 Y2.197
G2 X2.591 Y2.2051 Z-0.4003 I0.0136 J0.0076
X2.6222 Y2.2042 Z-0.402 I0.0156 J-0.0005
X2.591 Y2.2051 Z-0.4037 I-0.0156 J0.0005
X2.6222 Y2.2042 Z-0.4054 I0.0156 J-0.0005
X2.591 Y2.2051 Z-0.4072 I-0.0156 J0.0005
X2.6222 Y2.2042 Z-0.4089 I0.0156 J-0.0005
X2.591 Y2.2051 Z-0.4106 I-0.0156 J0.0005
X2.6222 Y2.2042 Z-0.4123 I0.0156 J-0.0005
X2.591 Y2.2051 Z-0.414 I-0.0156 J0.0005
X2.6222 Y2.2042 Z-0.4157 I0.0156 J-0.0005
X2.591 Y2.2051 Z-0.4174 I-0.0156 J0.0005
X2.6222 Y2.2042 Z-0.4192 I0.0156 J-0.0005
X2.6066 Y2.189 Z-0.42 I-0.0156 J0.0005
G1 X2.6061
X2.5997 Y2.1892
G2 X2.5843 Y2.2055 I0.0005 J0.0158
G1 X2.5868 Y2.2877 F35.38
G2 X2.5996 Y2.2998 I0.0125 J-0.0004 F35
X2.6117 Y2.2889 I-0.0004 J-0.0125 F35.38
G1 X2.6221 Y2.2066
G2 X2.6127 Y2.1902 I-0.0155 J-0.002
G1 X2.6123 Y2.1901 F35
G2 X2.6009 Y2.2192 Z-0.4217 I-0.0057 J0.0146
X2.6123 Y2.1901 Z-0.4234 I0.0057 J-0.0146
X2.6009 Y2.2192 Z-0.4251 I-0.0057 J0.0146
X2.6123 Y2.1901 Z-0.4269 I0.0057 J-0.0146
X2.6009 Y2.2192 Z-0.4286 I-0.0057 J0.0146
X2.6123 Y2.1901 Z-0.4303 I0.0057 J-0.0146
X2.6066 Y2.189 Z-0.4305 I-0.0057 J0.0146
G1 X2.6061
X2.5997 Y2.1892
G2 X2.5843 Y2.2055 I0.0005 J0.0158
G1 X2.5868 Y2.2877 F35.38
G2 X2.5996 Y2.2998 I0.0125 J-0.0004 F35
X2.6117 Y2.2889 I-0.0004 J-0.0125 F35.38
G1 X2.6221 Y2.2066
G2 X2.6127 Y2.1902 I-0.0155 J-0.002
G1 X2.6123 Y2.1901 F35
G2 X2.6009 Y2.2192 Z-0.4322 I-0.0057 J0.0146
X2.6123 Y2.1901 Z-0.4339 I0.0057 J-0.0146
X2.6009 Y2.2192 Z-0.4356 I-0.0057 J0.0146
X2.6123 Y2.1901 Z-0.4374 I0.0057 J-0.0146
X2.6009 Y2.2192 Z-0.4391 I-0.0057 J0.0146
X2.6123 Y2.1901 Z-0.4408 I0.0057 J-0.0146
X2.6066 Y2.189 Z-0.441 I-0.0057 J0.0146
G1 X2.6061
X2.5997 Y2.1892
G2 X2.5843 Y2.2055 I0.0005 J0.0158
G1 X2.5868 Y2.2877 F35.38
G2 X2.5996 Y2.2998 I0.0125 J-0.0004 F35
G1 X2.6024 Y2.2997 Z-0.4407
X2.6051 Z-0.4398
X2.6074 Y2.2996 Z-0.4383
X2.6094 Y2.2995 Z-0.4363
X2.6109 Z-0.4339
X2.6118 Z-0.4313
X2.6121 Z-0.4285
G0 Z0.6
M9
M30
%
