%
(1001)
(T6  D=0.25 CR=0 - ZMIN=-0.49 - flat end mill)
G90 G94
G17
G20

(2D Contour1)
M9
T6 M6
S5514 M3
G54
M8
G0 X1.9528 Y2.0438
Z0.6
Z0.2
G1 Z0.0894 F21.36
Z-0.025
X1.953 Y2.0441 Z-0.0289
X1.9536 Y2.0448 Z-0.0327
X1.9545 Y2.046 Z-0.0363
X1.9557 Y2.0476 Z-0.0397
X1.9572 Y2.0497 Z-0.0427
X1.959 Y2.0521 Z-0.0452
X1.961 Y2.0547 Z-0.0473
X1.9632 Y2.0576 Z-0.0488
X1.9655 Y2.0607 Z-0.0497
X1.9678 Y2.0638 Z-0.05
X1.9829 Y2.0838
G2 X2.0179 Y2.0887 I0.02 J-0.015
X2.1988 Y1.9445 I-2.5832 J-3.426
X2.3451 Y1.7729 I-2.0196 J-1.8694
X2.4271 Y1.6437 I-0.6754 J-0.5191
X2.479 Y1.4471 I-0.4759 J-0.231
X2.4829 Y1.2603 I-1.3777 J-0.1222
G1 X2.4818 Y1.2202
X2.4808 Y1.1931
G2 X2.4198 Y0.9906 I-2.0162 J0.4968
X2.2896 Y0.7799 I-0.6109 J0.2319
X2.1808 Y0.6655 I-1.5076 J1.3252
X2.0056 Y0.5641 I-0.8355 J1.2412
X1.8085 Y0.523 I-0.1887 J0.4122
X1.6273 Y0.5345 I0.0059 J1.5286
X1.3208 Y0.6293 I0.805 J3.1461
X1.1494 Y0.712 I0.4334 J1.1175
X0.9272 Y0.8773 I0.8553 J1.3815
X0.8062 Y0.984 I3.0275 J3.5556
X0.6617 Y1.1646 I2.26 J1.9556
X0.5806 Y1.3001 I0.7446 J0.5379
X0.5291 Y1.505 I0.5204 J0.2398
X0.5258 Y1.6963 I1.4618 J0.1208
G1 X0.527 Y1.7372
X0.5282 Y1.7683
G2 X0.5792 Y1.9791 I2.3324 J-0.4524
X0.6371 Y2.1158 I0.7107 J-0.2203
X0.7456 Y2.2609 I0.7847 J-0.4738
G1 X0.7643 Y2.2825
X0.7838 Y2.3042
X0.7868 Y2.3075
G2 X0.9413 Y2.372 I0.6706 J-1.3903
X1.1513 Y2.3969 I0.1652 J-0.4952
X1.3151 Y2.3763 I-0.0893 J-1.3771
G1 X1.3442 Y2.3715
X1.3686 Y2.3673
G2 X1.6407 Y2.2894 I-1.0306 J-4.1153
X1.8503 Y2.1989 I-0.424 J-1.2699
X2.0178 Y2.0887 I-0.757 J-1.3335
G1 X2.0208 Y2.0861
X2.0233 Y2.0831
X2.0253 Y2.0797
X2.0267 Y2.0761
X2.0276 Y2.0723
X2.0278 Y2.0684
X2.0275 Y2.0645
X2.0265 Y2.0607
X2.0249 Y2.0571
X2.0228 Y2.0537
X2.0078 Y2.0338
X2.0055 Y2.0306 Z-0.0497
X2.0032 Y2.0276 Z-0.0488
X2.001 Y2.0247 Z-0.0473
X1.999 Y2.022 Z-0.0452
X1.9972 Y2.0196 Z-0.0427
X1.9957 Y2.0176 Z-0.0397
X1.9944 Y2.016 Z-0.0363
X1.9935 Y2.0148 Z-0.0327
X1.993 Y2.014 Z-0.0289
X1.9928 Y2.0138 Z-0.025
X1.9528 Y2.0438
Z-0.075
X1.953 Y2.0441 Z-0.0789
X1.9536 Y2.0448 Z-0.0827
X1.9545 Y2.046 Z-0.0863
X1.9557 Y2.0476 Z-0.0897
X1.9572 Y2.0497 Z-0.0927
X1.959 Y2.0521 Z-0.0952
X1.961 Y2.0547 Z-0.0973
X1.9632 Y2.0576 Z-0.0988
X1.9655 Y2.0607 Z-0.0997
X1.9678 Y2.0638 Z-0.1
X1.9829 Y2.0838
G2 X2.0179 Y2.0887 I0.02 J-0.015
X2.1988 Y1.9445 I-2.5832 J-3.426
X2.3451 Y1.7729 I-2.0196 J-1.8694
X2.4271 Y1.6437 I-0.6754 J-0.5191
X2.479 Y1.4471 I-0.4759 J-0.231
X2.4829 Y1.2603 I-1.3777 J-0.1222
G1 X2.4818 Y1.2202
X2.4808 Y1.1931
G2 X2.4198 Y0.9906 I-2.0162 J0.4968
X2.2896 Y0.7799 I-0.6109 J0.2319
X2.1808 Y0.6655 I-1.5076 J1.3252
X2.0056 Y0.5641 I-0.8355 J1.2412
X1.8085 Y0.523 I-0.1887 J0.4122
X1.6273 Y0.5345 I0.0059 J1.5286
X1.3208 Y0.6293 I0.805 J3.1461
X1.1494 Y0.712 I0.4334 J1.1175
X0.9272 Y0.8773 I0.8553 J1.3815
X0.8062 Y0.984 I3.0275 J3.5556
X0.6617 Y1.1646 I2.26 J1.9556
X0.5806 Y1.3001 I0.7446 J0.5379
X0.5291 Y1.505 I0.5204 J0.2398
X0.5258 Y1.6963 I1.4618 J0.1208
G1 X0.527 Y1.7372
X0.5282 Y1.7683
G2 X0.5792 Y1.9791 I2.3324 J-0.4524
X0.6371 Y2.1158 I0.7107 J-0.2203
X0.7456 Y2.2609 I0.7847 J-0.4738
G1 X0.7643 Y2.2825
X0.7838 Y2.3042
X0.7868 Y2.3075
G2 X0.9413 Y2.372 I0.6706 J-1.3903
X1.1513 Y2.3969 I0.1652 J-0.4952
X1.3151 Y2.3763 I-0.0893 J-1.3771
G1 X1.3442 Y2.3715
X1.3686 Y2.3673
G2 X1.6407 Y2.2894 I-1.0306 J-4.1153
X1.8503 Y2.1989 I-0.424 J-1.2699
X2.0178 Y2.0887 I-0.757 J-1.3335
G1 X2.0208 Y2.0861
X2.0233 Y2.0831
X2.0253 Y2.0797
X2.0267 Y2.0761
X2.0276 Y2.0723
X2.0278 Y2.0684
X2.0275 Y2.0645
X2.0265 Y2.0607
X2.0249 Y2.0571
X2.0228 Y2.0537
X2.0078 Y2.0338
X2.0055 Y2.0306 Z-0.0997
X2.0032 Y2.0276 Z-0.0988
X2.001 Y2.0247 Z-0.0973
X1.999 Y2.022 Z-0.0952
X1.9972 Y2.0196 Z-0.0927
X1.9957 Y2.0176 Z-0.0897
X1.9944 Y2.016 Z-0.0863
X1.9935 Y2.0148 Z-0.0827
X1.993 Y2.014 Z-0.0789
X1.9928 Y2.0138 Z-0.075
X1.9528 Y2.0438
Z-0.125
X1.953 Y2.0441 Z-0.1289
X1.9536 Y2.0448 Z-0.1327
X1.9545 Y2.046 Z-0.1363
X1.9557 Y2.0476 Z-0.1397
X1.9572 Y2.0497 Z-0.1427
X1.959 Y2.0521 Z-0.1452
X1.961 Y2.0547 Z-0.1473
X1.9632 Y2.0576 Z-0.1488
X1.9655 Y2.0607 Z-0.1497
X1.9678 Y2.0638 Z-0.15
X1.9829 Y2.0838
G2 X2.0179 Y2.0887 I0.02 J-0.015
X2.1988 Y1.9445 I-2.5832 J-3.426
X2.3451 Y1.7729 I-2.0196 J-1.8694
X2.4271 Y1.6437 I-0.6754 J-0.5191
X2.479 Y1.4471 I-0.4759 J-0.231
X2.4829 Y1.2603 I-1.3777 J-0.1222
G1 X2.4818 Y1.2202
X2.4808 Y1.1931
G2 X2.4198 Y0.9906 I-2.0162 J0.4968
X2.2896 Y0.7799 I-0.6109 J0.2319
X2.1808 Y0.6655 I-1.5076 J1.3252
X2.0056 Y0.5641 I-0.8355 J1.2412
X1.8085 Y0.523 I-0.1887 J0.4122
X1.6273 Y0.5345 I0.0059 J1.5286
X1.3208 Y0.6293 I0.805 J3.1461
X1.1494 Y0.712 I0.4334 J1.1175
X0.9272 Y0.8773 I0.8553 J1.3815
X0.8062 Y0.984 I3.0275 J3.5556
X0.6617 Y1.1646 I2.26 J1.9556
X0.5806 Y1.3001 I0.7446 J0.5379
X0.5291 Y1.505 I0.5204 J0.2398
X0.5258 Y1.6963 I1.4618 J0.1208
G1 X0.527 Y1.7372
X0.5282 Y1.7683
G2 X0.5792 Y1.9791 I2.3324 J-0.4524
X0.6371 Y2.1158 I0.7107 J-0.2203
X0.7456 Y2.2609 I0.7847 J-0.4738
G1 X0.7643 Y2.2825
X0.7838 Y2.3042
X0.7868 Y2.3075
G2 X0.9413 Y2.372 I0.6706 J-1.3903
X1.1513 Y2.3969 I0.1652 J-0.4952
X1.3151 Y2.3763 I-0.0893 J-1.3771
G1 X1.3442 Y2.3715
X1.3686 Y2.3673
G2 X1.6407 Y2.2894 I-1.0306 J-4.1153
X1.8503 Y2.1989 I-0.424 J-1.2699
X2.0178 Y2.0887 I-0.757 J-1.3335
G1 X2.0208 Y2.0861
X2.0233 Y2.0831
X2.0253 Y2.0797
X2.0267 Y2.0761
X2.0276 Y2.0723
X2.0278 Y2.0684
X2.0275 Y2.0645
X2.0265 Y2.0607
X2.0249 Y2.0571
X2.0228 Y2.0537
X2.0078 Y2.0338
X2.0055 Y2.0306 Z-0.1497
X2.0032 Y2.0276 Z-0.1488
X2.001 Y2.0247 Z-0.1473
X1.999 Y2.022 Z-0.1452
X1.9972 Y2.0196 Z-0.1427
X1.9957 Y2.0176 Z-0.1397
X1.9944 Y2.016 Z-0.1363
X1.9935 Y2.0148 Z-0.1327
X1.993 Y2.014 Z-0.1289
X1.9928 Y2.0138 Z-0.125
X1.9528 Y2.0438
Z-0.175
X1.953 Y2.0441 Z-0.1789
X1.9536 Y2.0448 Z-0.1827
X1.9545 Y2.046 Z-0.1863
X1.9557 Y2.0476 Z-0.1897
X1.9572 Y2.0497 Z-0.1927
X1.959 Y2.0521 Z-0.1952
X1.961 Y2.0547 Z-0.1973
X1.9632 Y2.0576 Z-0.1988
X1.9655 Y2.0607 Z-0.1997
X1.9678 Y2.0638 Z-0.2
X1.9829 Y2.0838
G2 X2.0179 Y2.0887 I0.02 J-0.015
X2.1988 Y1.9445 I-2.5832 J-3.426
X2.3451 Y1.7729 I-2.0196 J-1.8694
X2.4271 Y1.6437 I-0.6754 J-0.5191
X2.479 Y1.4471 I-0.4759 J-0.231
X2.4829 Y1.2603 I-1.3777 J-0.1222
G1 X2.4818 Y1.2202
X2.4808 Y1.1931
G2 X2.4198 Y0.9906 I-2.0162 J0.4968
X2.2896 Y0.7799 I-0.6109 J0.2319
X2.1808 Y0.6655 I-1.5076 J1.3252
X2.0056 Y0.5641 I-0.8355 J1.2412
X1.8085 Y0.523 I-0.1887 J0.4122
X1.6273 Y0.5345 I0.0059 J1.5286
X1.3208 Y0.6293 I0.805 J3.1461
X1.1494 Y0.712 I0.4334 J1.1175
X0.9272 Y0.8773 I0.8553 J1.3815
X0.8062 Y0.984 I3.0275 J3.5556
X0.6617 Y1.1646 I2.26 J1.9556
X0.5806 Y1.3001 I0.7446 J0.5379
X0.5291 Y1.505 I0.5204 J0.2398
X0.5258 Y1.6963 I1.4618 J0.1208
G1 X0.527 Y1.7372
X0.5282 Y1.7683
G2 X0.5792 Y1.9791 I2.3324 J-0.4524
X0.6371 Y2.1158 I0.7107 J-0.2203
X0.7456 Y2.2609 I0.7847 J-0.4738
G1 X0.7643 Y2.2825
X0.7838 Y2.3042
X0.7868 Y2.3075
G2 X0.9413 Y2.372 I0.6706 J-1.3903
X1.1513 Y2.3969 I0.1652 J-0.4952
X1.3151 Y2.3763 I-0.0893 J-1.3771
G1 X1.3442 Y2.3715
X1.3686 Y2.3673
G2 X1.6407 Y2.2894 I-1.0306 J-4.1153
X1.8503 Y2.1989 I-0.424 J-1.2699
X2.0178 Y2.0887 I-0.757 J-1.3335
G1 X2.0208 Y2.0861
X2.0233 Y2.0831
X2.0253 Y2.0797
X2.0267 Y2.0761
X2.0276 Y2.0723
X2.0278 Y2.0684
X2.0275 Y2.0645
X2.0265 Y2.0607
X2.0249 Y2.0571
X2.0228 Y2.0537
X2.0078 Y2.0338
X2.0055 Y2.0306 Z-0.1997
X2.0032 Y2.0276 Z-0.1988
X2.001 Y2.0247 Z-0.1973
X1.999 Y2.022 Z-0.1952
X1.9972 Y2.0196 Z-0.1927
X1.9957 Y2.0176 Z-0.1897
X1.9944 Y2.016 Z-0.1863
X1.9935 Y2.0148 Z-0.1827
X1.993 Y2.014 Z-0.1789
X1.9928 Y2.0138 Z-0.175
X1.9528 Y2.0438
Z-0.225
X1.953 Y2.0441 Z-0.2289
X1.9536 Y2.0448 Z-0.2327
X1.9545 Y2.046 Z-0.2363
X1.9557 Y2.0476 Z-0.2397
X1.9572 Y2.0497 Z-0.2427
X1.959 Y2.0521 Z-0.2452
X1.961 Y2.0547 Z-0.2473
X1.9632 Y2.0576 Z-0.2488
X1.9655 Y2.0607 Z-0.2497
X1.9678 Y2.0638 Z-0.25
X1.9829 Y2.0838
G2 X2.0179 Y2.0887 I0.02 J-0.015
X2.1988 Y1.9445 I-2.5832 J-3.426
X2.3451 Y1.7729 I-2.0196 J-1.8694
X2.4271 Y1.6437 I-0.6754 J-0.5191
X2.479 Y1.4471 I-0.4759 J-0.231
X2.4829 Y1.2603 I-1.3777 J-0.1222
G1 X2.4818 Y1.2202
X2.4808 Y1.1931
G2 X2.4198 Y0.9906 I-2.0162 J0.4968
X2.2896 Y0.7799 I-0.6109 J0.2319
X2.1808 Y0.6655 I-1.5076 J1.3252
X2.0056 Y0.5641 I-0.8355 J1.2412
X1.8085 Y0.523 I-0.1887 J0.4122
X1.6273 Y0.5345 I0.0059 J1.5286
X1.3208 Y0.6293 I0.805 J3.1461
X1.1494 Y0.712 I0.4334 J1.1175
X0.9272 Y0.8773 I0.8553 J1.3815
X0.8062 Y0.984 I3.0275 J3.5556
X0.6617 Y1.1646 I2.26 J1.9556
X0.5806 Y1.3001 I0.7446 J0.5379
X0.5291 Y1.505 I0.5204 J0.2398
X0.5258 Y1.6963 I1.4618 J0.1208
G1 X0.527 Y1.7372
X0.5282 Y1.7683
G2 X0.5792 Y1.9791 I2.3324 J-0.4524
X0.6371 Y2.1158 I0.7107 J-0.2203
X0.7456 Y2.2609 I0.7847 J-0.4738
G1 X0.7643 Y2.2825
X0.7838 Y2.3042
X0.7868 Y2.3075
G2 X0.9413 Y2.372 I0.6706 J-1.3903
X1.1513 Y2.3969 I0.1652 J-0.4952
X1.3151 Y2.3763 I-0.0893 J-1.3771
G1 X1.3442 Y2.3715
X1.3686 Y2.3673
G2 X1.6407 Y2.2894 I-1.0306 J-4.1153
X1.8503 Y2.1989 I-0.424 J-1.2699
X2.0178 Y2.0887 I-0.757 J-1.3335
G1 X2.0208 Y2.0861
X2.0233 Y2.0831
X2.0253 Y2.0797
X2.0267 Y2.0761
X2.0276 Y2.0723
X2.0278 Y2.0684
X2.0275 Y2.0645
X2.0265 Y2.0607
X2.0249 Y2.0571
X2.0228 Y2.0537
X2.0078 Y2.0338
X2.0055 Y2.0306 Z-0.2497
X2.0032 Y2.0276 Z-0.2488
X2.001 Y2.0247 Z-0.2473
X1.999 Y2.022 Z-0.2452
X1.9972 Y2.0196 Z-0.2427
X1.9957 Y2.0176 Z-0.2397
X1.9944 Y2.016 Z-0.2363
X1.9935 Y2.0148 Z-0.2327
X1.993 Y2.014 Z-0.2289
X1.9928 Y2.0138 Z-0.225
X1.9528 Y2.0438
Z-0.275
X1.953 Y2.0441 Z-0.2789
X1.9536 Y2.0448 Z-0.2827
X1.9545 Y2.046 Z-0.2863
X1.9557 Y2.0476 Z-0.2897
X1.9572 Y2.0497 Z-0.2927
X1.959 Y2.0521 Z-0.2952
X1.961 Y2.0547 Z-0.2973
X1.9632 Y2.0576 Z-0.2988
X1.9655 Y2.0607 Z-0.2997
X1.9678 Y2.0638 Z-0.3
X1.9829 Y2.0838
G2 X2.0179 Y2.0887 I0.02 J-0.015
X2.1988 Y1.9445 I-2.5832 J-3.426
X2.3451 Y1.7729 I-2.0196 J-1.8694
X2.4271 Y1.6437 I-0.6754 J-0.5191
X2.479 Y1.4471 I-0.4759 J-0.231
X2.4829 Y1.2603 I-1.3777 J-0.1222
G1 X2.4818 Y1.2202
X2.4808 Y1.1931
G2 X2.4198 Y0.9906 I-2.0162 J0.4968
X2.2896 Y0.7799 I-0.6109 J0.2319
X2.1808 Y0.6655 I-1.5076 J1.3252
X2.0056 Y0.5641 I-0.8355 J1.2412
X1.8085 Y0.523 I-0.1887 J0.4122
X1.6273 Y0.5345 I0.0059 J1.5286
X1.3208 Y0.6293 I0.805 J3.1461
X1.1494 Y0.712 I0.4334 J1.1175
X0.9272 Y0.8773 I0.8553 J1.3815
X0.8062 Y0.984 I3.0275 J3.5556
X0.6617 Y1.1646 I2.26 J1.9556
X0.5806 Y1.3001 I0.7446 J0.5379
X0.5291 Y1.505 I0.5204 J0.2398
X0.5258 Y1.6963 I1.4618 J0.1208
G1 X0.527 Y1.7372
X0.5282 Y1.7683
G2 X0.5792 Y1.9791 I2.3324 J-0.4524
X0.6371 Y2.1158 I0.7107 J-0.2203
X0.7456 Y2.2609 I0.7847 J-0.4738
G1 X0.7643 Y2.2825
X0.7838 Y2.3042
X0.7868 Y2.3075
G2 X0.9413 Y2.372 I0.6706 J-1.3903
X1.1513 Y2.3969 I0.1652 J-0.4952
X1.3151 Y2.3763 I-0.0893 J-1.3771
G1 X1.3442 Y2.3715
X1.3686 Y2.3673
G2 X1.6407 Y2.2894 I-1.0306 J-4.1153
X1.8503 Y2.1989 I-0.424 J-1.2699
X2.0178 Y2.0887 I-0.757 J-1.3335
G1 X2.0208 Y2.0861
X2.0233 Y2.0831
X2.0253 Y2.0797
X2.0267 Y2.0761
X2.0276 Y2.0723
X2.0278 Y2.0684
X2.0275 Y2.0645
X2.0265 Y2.0607
X2.0249 Y2.0571
X2.0228 Y2.0537
X2.0078 Y2.0338
X2.0055 Y2.0306 Z-0.2997
X2.0032 Y2.0276 Z-0.2988
X2.001 Y2.0247 Z-0.2973
X1.999 Y2.022 Z-0.2952
X1.9972 Y2.0196 Z-0.2927
X1.9957 Y2.0176 Z-0.2897
X1.9944 Y2.016 Z-0.2863
X1.9935 Y2.0148 Z-0.2827
X1.993 Y2.014 Z-0.2789
X1.9928 Y2.0138 Z-0.275
X1.9528 Y2.0438
Z-0.325
X1.953 Y2.0441 Z-0.3289
X1.9536 Y2.0448 Z-0.3327
X1.9545 Y2.046 Z-0.3363
X1.9557 Y2.0476 Z-0.3397
X1.9572 Y2.0497 Z-0.3427
X1.959 Y2.0521 Z-0.3452
X1.961 Y2.0547 Z-0.3473
X1.9632 Y2.0576 Z-0.3488
X1.9655 Y2.0607 Z-0.3497
X1.9678 Y2.0638 Z-0.35
X1.9829 Y2.0838
G2 X2.0179 Y2.0887 I0.02 J-0.015
X2.1988 Y1.9445 I-2.5832 J-3.426
X2.3451 Y1.7729 I-2.0196 J-1.8694
X2.4271 Y1.6437 I-0.6754 J-0.5191
X2.479 Y1.4471 I-0.4759 J-0.231
X2.4829 Y1.2603 I-1.3777 J-0.1222
G1 X2.4818 Y1.2202
X2.4808 Y1.1931
G2 X2.4198 Y0.9906 I-2.0162 J0.4968
X2.2896 Y0.7799 I-0.6109 J0.2319
X2.1808 Y0.6655 I-1.5076 J1.3252
X2.0056 Y0.5641 I-0.8355 J1.2412
X1.8085 Y0.523 I-0.1887 J0.4122
X1.6273 Y0.5345 I0.0059 J1.5286
X1.3208 Y0.6293 I0.805 J3.1461
X1.1494 Y0.712 I0.4334 J1.1175
X0.9272 Y0.8773 I0.8553 J1.3815
X0.8062 Y0.984 I3.0275 J3.5556
X0.6617 Y1.1646 I2.26 J1.9556
X0.5806 Y1.3001 I0.7446 J0.5379
X0.5291 Y1.505 I0.5204 J0.2398
X0.5258 Y1.6963 I1.4618 J0.1208
G1 X0.527 Y1.7372
X0.5282 Y1.7683
G2 X0.5792 Y1.9791 I2.3324 J-0.4524
X0.6371 Y2.1158 I0.7107 J-0.2203
X0.7456 Y2.2609 I0.7847 J-0.4738
G1 X0.7643 Y2.2825
X0.7838 Y2.3042
X0.7868 Y2.3075
G2 X0.9413 Y2.372 I0.6706 J-1.3903
X1.1513 Y2.3969 I0.1652 J-0.4952
X1.3151 Y2.3763 I-0.0893 J-1.3771
G1 X1.3442 Y2.3715
X1.3686 Y2.3673
G2 X1.6407 Y2.2894 I-1.0306 J-4.1153
X1.8503 Y2.1989 I-0.424 J-1.2699
X2.0178 Y2.0887 I-0.757 J-1.3335
G1 X2.0208 Y2.0861
X2.0233 Y2.0831
X2.0253 Y2.0797
X2.0267 Y2.0761
X2.0276 Y2.0723
X2.0278 Y2.0684
X2.0275 Y2.0645
X2.0265 Y2.0607
X2.0249 Y2.0571
X2.0228 Y2.0537
X2.0078 Y2.0338
X2.0055 Y2.0306 Z-0.3497
X2.0032 Y2.0276 Z-0.3488
X2.001 Y2.0247 Z-0.3473
X1.999 Y2.022 Z-0.3452
X1.9972 Y2.0196 Z-0.3427
X1.9957 Y2.0176 Z-0.3397
X1.9944 Y2.016 Z-0.3363
X1.9935 Y2.0148 Z-0.3327
X1.993 Y2.014 Z-0.3289
X1.9928 Y2.0138 Z-0.325
X1.9528 Y2.0438
Z-0.375
X1.953 Y2.0441 Z-0.3789
X1.9536 Y2.0448 Z-0.3827
X1.9545 Y2.046 Z-0.3863
X1.9557 Y2.0476 Z-0.3897
X1.9572 Y2.0497 Z-0.3927
X1.959 Y2.0521 Z-0.3952
X1.961 Y2.0547 Z-0.3973
X1.9632 Y2.0576 Z-0.3988
X1.9655 Y2.0607 Z-0.3997
X1.9678 Y2.0638 Z-0.4
X1.9829 Y2.0838
G2 X2.0179 Y2.0887 I0.02 J-0.015
X2.1988 Y1.9445 I-2.5832 J-3.426
X2.3451 Y1.7729 I-2.0196 J-1.8694
X2.4271 Y1.6437 I-0.6754 J-0.5191
X2.479 Y1.4471 I-0.4759 J-0.231
X2.4829 Y1.2603 I-1.3777 J-0.1222
G1 X2.4818 Y1.2202
X2.4808 Y1.1931
G2 X2.4198 Y0.9906 I-2.0162 J0.4968
X2.2896 Y0.7799 I-0.6109 J0.2319
X2.1808 Y0.6655 I-1.5076 J1.3252
X2.0056 Y0.5641 I-0.8355 J1.2412
X1.8085 Y0.523 I-0.1887 J0.4122
X1.6273 Y0.5345 I0.0059 J1.5286
X1.3208 Y0.6293 I0.805 J3.1461
X1.1494 Y0.712 I0.4334 J1.1175
X0.9272 Y0.8773 I0.8553 J1.3815
X0.8062 Y0.984 I3.0275 J3.5556
X0.6617 Y1.1646 I2.26 J1.9556
X0.5806 Y1.3001 I0.7446 J0.5379
X0.5291 Y1.505 I0.5204 J0.2398
X0.5258 Y1.6963 I1.4618 J0.1208
G1 X0.527 Y1.7372
X0.5282 Y1.7683
G2 X0.5792 Y1.9791 I2.3324 J-0.4524
X0.6371 Y2.1158 I0.7107 J-0.2203
X0.7456 Y2.2609 I0.7847 J-0.4738
G1 X0.7643 Y2.2825
X0.7838 Y2.3042
X0.7868 Y2.3075
G2 X0.9413 Y2.372 I0.6706 J-1.3903
X1.1513 Y2.3969 I0.1652 J-0.4952
X1.3151 Y2.3763 I-0.0893 J-1.3771
G1 X1.3442 Y2.3715
X1.3686 Y2.3673
G2 X1.6407 Y2.2894 I-1.0306 J-4.1153
X1.8503 Y2.1989 I-0.424 J-1.2699
X2.0178 Y2.0887 I-0.757 J-1.3335
G1 X2.0208 Y2.0861
X2.0233 Y2.0831
X2.0253 Y2.0797
X2.0267 Y2.0761
X2.0276 Y2.0723
X2.0278 Y2.0684
X2.0275 Y2.0645
X2.0265 Y2.0607
X2.0249 Y2.0571
X2.0228 Y2.0537
X2.0078 Y2.0338
X2.0055 Y2.0306 Z-0.3997
X2.0032 Y2.0276 Z-0.3988
X2.001 Y2.0247 Z-0.3973
X1.999 Y2.022 Z-0.3952
X1.9972 Y2.0196 Z-0.3927
X1.9957 Y2.0176 Z-0.3897
X1.9944 Y2.016 Z-0.3863
X1.9935 Y2.0148 Z-0.3827
X1.993 Y2.014 Z-0.3789
X1.9928 Y2.0138 Z-0.375
X1.9528 Y2.0438
Z-0.425
X1.953 Y2.0441 Z-0.4289
X1.9536 Y2.0448 Z-0.4327
X1.9545 Y2.046 Z-0.4363
X1.9557 Y2.0476 Z-0.4397
X1.9572 Y2.0497 Z-0.4427
X1.959 Y2.0521 Z-0.4452
X1.961 Y2.0547 Z-0.4473
X1.9632 Y2.0576 Z-0.4488
X1.9655 Y2.0607 Z-0.4497
X1.9678 Y2.0638 Z-0.45
X1.9829 Y2.0838
G2 X2.0179 Y2.0887 I0.02 J-0.015
X2.1988 Y1.9445 I-2.5832 J-3.426
X2.3451 Y1.7729 I-2.0196 J-1.8694
X2.4271 Y1.6437 I-0.6754 J-0.5191
X2.479 Y1.4471 I-0.4759 J-0.231
X2.4829 Y1.2603 I-1.3777 J-0.1222
G1 X2.4818 Y1.2202
X2.4808 Y1.1931
G2 X2.4198 Y0.9906 I-2.0162 J0.4968
X2.2896 Y0.7799 I-0.6109 J0.2319
X2.1808 Y0.6655 I-1.5076 J1.3252
X2.0056 Y0.5641 I-0.8355 J1.2412
X1.8085 Y0.523 I-0.1887 J0.4122
X1.6273 Y0.5345 I0.0059 J1.5286
X1.3208 Y0.6293 I0.805 J3.1461
X1.1494 Y0.712 I0.4334 J1.1175
X1.0049 Y0.8131 I0.7164 J1.1774
G1 Z-0.44
G2 X0.8063 Y0.9841 I2.3045 J2.8769
X0.656 Y1.1729 I2.0314 J1.7717
G1 X0.6561 Y1.1731 Z-0.45
G2 X0.5676 Y1.3298 I0.6452 J0.4678
X0.529 Y1.505 I0.5583 J0.2151
X0.5258 Y1.6963 I1.5024 J0.1207
G1 X0.527 Y1.7372
X0.5282 Y1.7683
G2 X0.5792 Y1.9791 I2.3324 J-0.4524
X0.6371 Y2.1158 I0.7107 J-0.2203
X0.7456 Y2.2609 I0.7847 J-0.4738
G1 X0.7643 Y2.2825
X0.7838 Y2.3042
X0.7868 Y2.3075
G2 X0.9413 Y2.372 I0.6706 J-1.3903
X1.1129 Y2.3984 I0.1612 J-0.4761
G1 Z-0.44
G2 X1.3151 Y2.3762 I-0.0328 J-1.231
G1 X1.3442 Y2.3715
X1.3686 Y2.3673
G2 X1.6044 Y2.3012 I-1.173 J-4.6386
G1 X1.6043 Y2.3011 Z-0.45
G2 X1.8174 Y2.2163 I-0.4292 J-1.3891
X2.0178 Y2.0887 I-0.6542 J-1.2482
G1 X2.0207 Y2.0861
X2.0232 Y2.0831
X2.0252 Y2.0797
X2.0267 Y2.0761
X2.0276 Y2.0723
X2.0278 Y2.0684
X2.0274 Y2.0645
X2.0265 Y2.0607
X2.0249 Y2.0571
X2.0228 Y2.0537
X2.0078 Y2.0338
X2.0055 Y2.0306 Z-0.4497
X2.0032 Y2.0276 Z-0.4488
X2.001 Y2.0247 Z-0.4473
X1.999 Y2.022 Z-0.4452
X1.9972 Y2.0196 Z-0.4427
X1.9957 Y2.0176 Z-0.4397
X1.9944 Y2.016 Z-0.4363
X1.9935 Y2.0148 Z-0.4327
X1.993 Y2.014 Z-0.4289
X1.9928 Y2.0138 Z-0.425
X1.9528 Y2.0438
Z-0.465
X1.953 Y2.0441 Z-0.4689
X1.9536 Y2.0448 Z-0.4727
X1.9545 Y2.046 Z-0.4763
X1.9557 Y2.0476 Z-0.4797
X1.9572 Y2.0497 Z-0.4827
X1.959 Y2.0521 Z-0.4852
X1.961 Y2.0547 Z-0.4873
X1.9632 Y2.0576 Z-0.4888
X1.9655 Y2.0607 Z-0.4897
X1.9678 Y2.0638 Z-0.49
X1.9829 Y2.0838
G2 X2.0179 Y2.0887 I0.02 J-0.015
X2.1988 Y1.9445 I-2.5832 J-3.426
X2.3451 Y1.7729 I-2.0196 J-1.8694
X2.4271 Y1.6437 I-0.6754 J-0.5191
X2.479 Y1.4471 I-0.4759 J-0.231
X2.4829 Y1.2603 I-1.3777 J-0.1222
G1 X2.4818 Y1.2202
X2.4808 Y1.1931
G2 X2.4198 Y0.9906 I-2.0162 J0.4968
X2.2896 Y0.7799 I-0.6109 J0.2319
X2.1808 Y0.6655 I-1.5076 J1.3252
X2.0056 Y0.5641 I-0.8355 J1.2412
X1.8085 Y0.523 I-0.1887 J0.4122
X1.6273 Y0.5345 I0.0059 J1.5286
X1.3208 Y0.6293 I0.805 J3.1461
X1.1494 Y0.712 I0.4334 J1.1175
X1.0049 Y0.8131 I0.7164 J1.1774
G1 Z-0.44
G2 X0.8063 Y0.9841 I2.3045 J2.8769
X0.656 Y1.1729 I2.0314 J1.7717
G1 X0.6561 Y1.1731 Z-0.49
G2 X0.5676 Y1.3298 I0.6452 J0.4678
X0.529 Y1.505 I0.5583 J0.2151
X0.5258 Y1.6963 I1.5024 J0.1207
G1 X0.527 Y1.7372
X0.5282 Y1.7683
G2 X0.5792 Y1.9791 I2.3324 J-0.4524
X0.6371 Y2.1158 I0.7107 J-0.2203
X0.7456 Y2.2609 I0.7847 J-0.4738
G1 X0.7643 Y2.2825
X0.7838 Y2.3042
X0.7868 Y2.3075
G2 X0.9413 Y2.372 I0.6706 J-1.3903
X1.1129 Y2.3984 I0.1612 J-0.4761
G1 Z-0.44
G2 X1.3151 Y2.3762 I-0.0328 J-1.231
G1 X1.3442 Y2.3715
X1.3686 Y2.3673
G2 X1.6044 Y2.3012 I-1.173 J-4.6386
G1 X1.6043 Y2.3011 Z-0.49
G2 X1.8174 Y2.2163 I-0.4292 J-1.3891
X2.0178 Y2.0887 I-0.6542 J-1.2482
G1 X2.0207 Y2.0861
X2.0232 Y2.0831
X2.0252 Y2.0797
X2.0267 Y2.0761
X2.0276 Y2.0723
X2.0278 Y2.0684
X2.0274 Y2.0645
X2.0265 Y2.0607
X2.0249 Y2.0571
X2.0228 Y2.0537
X2.0078 Y2.0338
X2.0055 Y2.0306 Z-0.4897
X2.0032 Y2.0276 Z-0.4888
X2.001 Y2.0247 Z-0.4873
X1.999 Y2.022 Z-0.4852
X1.9972 Y2.0196 Z-0.4827
X1.9957 Y2.0176 Z-0.4797
X1.9944 Y2.016 Z-0.4763
X1.9935 Y2.0148 Z-0.4727
X1.993 Y2.014 Z-0.4689
X1.9928 Y2.0138 Z-0.465
G0 Z0.2
X3.2088 Y1.3552
G1 Z0.0894 F21.36
Z-0.025
X3.2084 Z-0.0289
X3.2075 Z-0.0327
X3.206 Z-0.0363
X3.204 Y1.3551 Z-0.0397
X3.2014 Z-0.0427
X3.1985 Y1.355 Z-0.0452
X3.1951 Y1.3549 Z-0.0473
X3.1915 Z-0.0488
X3.1877 Y1.3548 Z-0.0497
X3.1838 Y1.3547 Z-0.05
X3.1588 Y1.3542
G2 X3.1333 Y1.3787 I-0.0005 J0.025
G3 X3.111 Y1.6415 I-1.5227 J0.0032
X2.985 Y1.9741 I-1.0005 J-0.1886
X2.8721 Y2.1445 I-1.3936 J-0.8012
X2.6931 Y2.3666 I-3.4696 J-2.6131
G1 X2.6887 Y2.3718
X2.684 Y2.3767
X2.679 Y2.3813
G3 X2.4228 Y2.5944 I-4.085 J-4.6524
X2.1638 Y2.7669 I-1.2987 J-1.6684
X1.8751 Y2.8924 I-0.8885 J-1.6502
X1.5564 Y2.9871 I-1.3598 J-3.993
G1 X1.5039 Y3.0013
G3 X1.4912 Y3.004 I-0.0322 J-0.1208
X1.2217 Y3.041 I-0.7102 J-4.1796
X0.9664 Y3.0431 I-0.1394 J-1.4247
X0.7098 Y2.9831 I0.1056 J-1.0314
X0.4616 Y2.8735 I0.7922 J-2.1301
G1 X0.4222 Y2.8544
G3 X0.3881 Y2.8297 I0.0553 J-0.1121
X0.2056 Y2.6335 I2.553 J-2.5584
X0.072 Y2.4438 I0.9871 J-0.8366
X-0.0346 Y2.1881 I1.16 J-0.634
X-0.1014 Y1.9301 I2.8876 J-0.8845
G1 X-0.1111 Y1.8879
G3 X-0.114 Y1.8675 I0.1219 J-0.0276
X-0.1251 Y1.5774 I4.8225 J-0.3301
X-0.1041 Y1.3123 I1.6202 J-0.0046
X0.0174 Y0.9749 I1.055 J0.1894
X0.127 Y0.8002 I1.4789 J0.8056
X0.301 Y0.5711 I3.7021 J2.6316
G1 X0.3051 Y0.566
X0.3095 Y0.5611
X0.3142 Y0.5564
G3 X0.5678 Y0.3308 I4.1532 J4.4122
X0.802 Y0.1622 I1.3537 J1.6334
X1.1165 Y0.015 I0.8821 J1.4751
X1.4414 Y-0.0856 I1.3048 J3.6421
G1 X1.4947 Y-0.1006
G3 X1.5156 Y-0.1045 I0.0333 J0.1205
X1.7866 Y-0.1248 I0.4024 J3.5488
X2.0169 Y-0.11 I0.034 J1.2647
X2.2894 Y-0.018 I-0.1833 J0.993
X2.5244 Y0.116 I-1.0267 J2.0726
G1 X2.5616 Y0.139
G3 X2.5819 Y0.1548 I-0.0663 J0.106
X2.7692 Y0.3425 I-2.7787 J2.9595
X2.9218 Y0.5412 I-1.0286 J0.9478
X3.0444 Y0.8124 I-1.1295 J0.6739
X3.1075 Y1.024 I-2.8082 J0.9533
G1 X3.1188 Y1.0653
G3 X3.123 Y1.091 I-0.1207 J0.0326
X3.1334 Y1.3787 I-4.6495 J0.313
G1 X3.1336 Y1.3826
X3.1345 Y1.3864
X3.1359 Y1.3901
X3.1378 Y1.3934
X3.1403 Y1.3965
X3.1432 Y1.3991
X3.1465 Y1.4012
X3.1501 Y1.4028
X3.1539 Y1.4038
X3.1578 Y1.4042
X3.1828 Y1.4047
X3.1867 Y1.4048 Z-0.0497
X3.1905 Y1.4049 Z-0.0488
X3.1941 Z-0.0473
X3.1975 Y1.405 Z-0.0452
X3.2004 Y1.4051 Z-0.0427
X3.203 Z-0.0397
X3.205 Y1.4052 Z-0.0363
X3.2065 Z-0.0327
X3.2074 Z-0.0289
X3.2078 Z-0.025
X3.2088 Y1.3552
Z-0.075
X3.2084 Z-0.0789
X3.2075 Z-0.0827
X3.206 Z-0.0863
X3.204 Y1.3551 Z-0.0897
X3.2014 Z-0.0927
X3.1985 Y1.355 Z-0.0952
X3.1951 Y1.3549 Z-0.0973
X3.1915 Z-0.0988
X3.1877 Y1.3548 Z-0.0997
X3.1838 Y1.3547 Z-0.1
X3.1588 Y1.3542
G2 X3.1333 Y1.3787 I-0.0005 J0.025
G3 X3.111 Y1.6415 I-1.5227 J0.0032
X2.985 Y1.9741 I-1.0005 J-0.1886
X2.8721 Y2.1445 I-1.3936 J-0.8012
X2.6931 Y2.3666 I-3.4696 J-2.6131
G1 X2.6887 Y2.3718
X2.684 Y2.3767
X2.679 Y2.3813
G3 X2.4228 Y2.5944 I-4.085 J-4.6524
X2.1638 Y2.7669 I-1.2987 J-1.6684
X1.8751 Y2.8924 I-0.8885 J-1.6502
X1.5564 Y2.9871 I-1.3598 J-3.993
G1 X1.5039 Y3.0013
G3 X1.4912 Y3.004 I-0.0322 J-0.1208
X1.2217 Y3.041 I-0.7102 J-4.1796
X0.9664 Y3.0431 I-0.1394 J-1.4247
X0.7098 Y2.9831 I0.1056 J-1.0314
X0.4616 Y2.8735 I0.7922 J-2.1301
G1 X0.4222 Y2.8544
G3 X0.3881 Y2.8297 I0.0553 J-0.1121
X0.2056 Y2.6335 I2.553 J-2.5584
X0.072 Y2.4438 I0.9871 J-0.8366
X-0.0346 Y2.1881 I1.16 J-0.634
X-0.1014 Y1.9301 I2.8876 J-0.8845
G1 X-0.1111 Y1.8879
G3 X-0.114 Y1.8675 I0.1219 J-0.0276
X-0.1251 Y1.5774 I4.8225 J-0.3301
X-0.1041 Y1.3123 I1.6202 J-0.0046
X0.0174 Y0.9749 I1.055 J0.1894
X0.127 Y0.8002 I1.4789 J0.8056
X0.301 Y0.5711 I3.7021 J2.6316
G1 X0.3051 Y0.566
X0.3095 Y0.5611
X0.3142 Y0.5564
G3 X0.5678 Y0.3308 I4.1532 J4.4122
X0.802 Y0.1622 I1.3537 J1.6334
X1.1165 Y0.015 I0.8821 J1.4751
X1.4414 Y-0.0856 I1.3048 J3.6421
G1 X1.4947 Y-0.1006
G3 X1.5156 Y-0.1045 I0.0333 J0.1205
X1.7866 Y-0.1248 I0.4024 J3.5488
X2.0169 Y-0.11 I0.034 J1.2647
X2.2894 Y-0.018 I-0.1833 J0.993
X2.5244 Y0.116 I-1.0267 J2.0726
G1 X2.5616 Y0.139
G3 X2.5819 Y0.1548 I-0.0663 J0.106
X2.7692 Y0.3425 I-2.7787 J2.9595
X2.9218 Y0.5412 I-1.0286 J0.9478
X3.0444 Y0.8124 I-1.1295 J0.6739
X3.1075 Y1.024 I-2.8082 J0.9533
G1 X3.1188 Y1.0653
G3 X3.123 Y1.091 I-0.1207 J0.0326
X3.1334 Y1.3787 I-4.6495 J0.313
G1 X3.1336 Y1.3826
X3.1345 Y1.3864
X3.1359 Y1.3901
X3.1378 Y1.3934
X3.1403 Y1.3965
X3.1432 Y1.3991
X3.1465 Y1.4012
X3.1501 Y1.4028
X3.1539 Y1.4038
X3.1578 Y1.4042
X3.1828 Y1.4047
X3.1867 Y1.4048 Z-0.0997
X3.1905 Y1.4049 Z-0.0988
X3.1941 Z-0.0973
X3.1975 Y1.405 Z-0.0952
X3.2004 Y1.4051 Z-0.0927
X3.203 Z-0.0897
X3.205 Y1.4052 Z-0.0863
X3.2065 Z-0.0827
X3.2074 Z-0.0789
X3.2078 Z-0.075
X3.2088 Y1.3552
Z-0.125
X3.2084 Z-0.1289
X3.2075 Z-0.1327
X3.206 Z-0.1363
X3.204 Y1.3551 Z-0.1397
X3.2014 Z-0.1427
X3.1985 Y1.355 Z-0.1452
X3.1951 Y1.3549 Z-0.1473
X3.1915 Z-0.1488
X3.1877 Y1.3548 Z-0.1497
X3.1838 Y1.3547 Z-0.15
X3.1588 Y1.3542
G2 X3.1333 Y1.3787 I-0.0005 J0.025
G3 X3.111 Y1.6415 I-1.5227 J0.0032
X2.985 Y1.9741 I-1.0005 J-0.1886
X2.8721 Y2.1445 I-1.3936 J-0.8012
X2.6931 Y2.3666 I-3.4696 J-2.6131
G1 X2.6887 Y2.3718
X2.684 Y2.3767
X2.679 Y2.3813
G3 X2.4228 Y2.5944 I-4.085 J-4.6524
X2.1638 Y2.7669 I-1.2987 J-1.6684
X1.8751 Y2.8924 I-0.8885 J-1.6502
X1.5564 Y2.9871 I-1.3598 J-3.993
G1 X1.5039 Y3.0013
G3 X1.4912 Y3.004 I-0.0322 J-0.1208
X1.2217 Y3.041 I-0.7102 J-4.1796
X0.9664 Y3.0431 I-0.1394 J-1.4247
X0.7098 Y2.9831 I0.1056 J-1.0314
X0.4616 Y2.8735 I0.7922 J-2.1301
G1 X0.4222 Y2.8544
G3 X0.3881 Y2.8297 I0.0553 J-0.1121
X0.2056 Y2.6335 I2.553 J-2.5584
X0.072 Y2.4438 I0.9871 J-0.8366
X-0.0346 Y2.1881 I1.16 J-0.634
X-0.1014 Y1.9301 I2.8876 J-0.8845
G1 X-0.1111 Y1.8879
G3 X-0.114 Y1.8675 I0.1219 J-0.0276
X-0.1251 Y1.5774 I4.8225 J-0.3301
X-0.1041 Y1.3123 I1.6202 J-0.0046
X0.0174 Y0.9749 I1.055 J0.1894
X0.127 Y0.8002 I1.4789 J0.8056
X0.301 Y0.5711 I3.7021 J2.6316
G1 X0.3051 Y0.566
X0.3095 Y0.5611
X0.3142 Y0.5564
G3 X0.5678 Y0.3308 I4.1532 J4.4122
X0.802 Y0.1622 I1.3537 J1.6334
X1.1165 Y0.015 I0.8821 J1.4751
X1.4414 Y-0.0856 I1.3048 J3.6421
G1 X1.4947 Y-0.1006
G3 X1.5156 Y-0.1045 I0.0333 J0.1205
X1.7866 Y-0.1248 I0.4024 J3.5488
X2.0169 Y-0.11 I0.034 J1.2647
X2.2894 Y-0.018 I-0.1833 J0.993
X2.5244 Y0.116 I-1.0267 J2.0726
G1 X2.5616 Y0.139
G3 X2.5819 Y0.1548 I-0.0663 J0.106
X2.7692 Y0.3425 I-2.7787 J2.9595
X2.9218 Y0.5412 I-1.0286 J0.9478
X3.0444 Y0.8124 I-1.1295 J0.6739
X3.1075 Y1.024 I-2.8082 J0.9533
G1 X3.1188 Y1.0653
G3 X3.123 Y1.091 I-0.1207 J0.0326
X3.1334 Y1.3787 I-4.6495 J0.313
G1 X3.1336 Y1.3826
X3.1345 Y1.3864
X3.1359 Y1.3901
X3.1378 Y1.3934
X3.1403 Y1.3965
X3.1432 Y1.3991
X3.1465 Y1.4012
X3.1501 Y1.4028
X3.1539 Y1.4038
X3.1578 Y1.4042
X3.1828 Y1.4047
X3.1867 Y1.4048 Z-0.1497
X3.1905 Y1.4049 Z-0.1488
X3.1941 Z-0.1473
X3.1975 Y1.405 Z-0.1452
X3.2004 Y1.4051 Z-0.1427
X3.203 Z-0.1397
X3.205 Y1.4052 Z-0.1363
X3.2065 Z-0.1327
X3.2074 Z-0.1289
X3.2078 Z-0.125
X3.2088 Y1.3552
Z-0.175
X3.2084 Z-0.1789
X3.2075 Z-0.1827
X3.206 Z-0.1863
X3.204 Y1.3551 Z-0.1897
X3.2014 Z-0.1927
X3.1985 Y1.355 Z-0.1952
X3.1951 Y1.3549 Z-0.1973
X3.1915 Z-0.1988
X3.1877 Y1.3548 Z-0.1997
X3.1838 Y1.3547 Z-0.2
X3.1588 Y1.3542
G2 X3.1333 Y1.3787 I-0.0005 J0.025
G3 X3.111 Y1.6415 I-1.5227 J0.0032
X2.985 Y1.9741 I-1.0005 J-0.1886
X2.8721 Y2.1445 I-1.3936 J-0.8012
X2.6931 Y2.3666 I-3.4696 J-2.6131
G1 X2.6887 Y2.3718
X2.684 Y2.3767
X2.679 Y2.3813
G3 X2.4228 Y2.5944 I-4.085 J-4.6524
X2.1638 Y2.7669 I-1.2987 J-1.6684
X1.8751 Y2.8924 I-0.8885 J-1.6502
X1.5564 Y2.9871 I-1.3598 J-3.993
G1 X1.5039 Y3.0013
G3 X1.4912 Y3.004 I-0.0322 J-0.1208
X1.2217 Y3.041 I-0.7102 J-4.1796
X0.9664 Y3.0431 I-0.1394 J-1.4247
X0.7098 Y2.9831 I0.1056 J-1.0314
X0.4616 Y2.8735 I0.7922 J-2.1301
G1 X0.4222 Y2.8544
G3 X0.3881 Y2.8297 I0.0553 J-0.1121
X0.2056 Y2.6335 I2.553 J-2.5584
X0.072 Y2.4438 I0.9871 J-0.8366
X-0.0346 Y2.1881 I1.16 J-0.634
X-0.1014 Y1.9301 I2.8876 J-0.8845
G1 X-0.1111 Y1.8879
G3 X-0.114 Y1.8675 I0.1219 J-0.0276
X-0.1251 Y1.5774 I4.8225 J-0.3301
X-0.1041 Y1.3123 I1.6202 J-0.0046
X0.0174 Y0.9749 I1.055 J0.1894
X0.127 Y0.8002 I1.4789 J0.8056
X0.301 Y0.5711 I3.7021 J2.6316
G1 X0.3051 Y0.566
X0.3095 Y0.5611
X0.3142 Y0.5564
G3 X0.5678 Y0.3308 I4.1532 J4.4122
X0.802 Y0.1622 I1.3537 J1.6334
X1.1165 Y0.015 I0.8821 J1.4751
X1.4414 Y-0.0856 I1.3048 J3.6421
G1 X1.4947 Y-0.1006
G3 X1.5156 Y-0.1045 I0.0333 J0.1205
X1.7866 Y-0.1248 I0.4024 J3.5488
X2.0169 Y-0.11 I0.034 J1.2647
X2.2894 Y-0.018 I-0.1833 J0.993
X2.5244 Y0.116 I-1.0267 J2.0726
G1 X2.5616 Y0.139
G3 X2.5819 Y0.1548 I-0.0663 J0.106
X2.7692 Y0.3425 I-2.7787 J2.9595
X2.9218 Y0.5412 I-1.0286 J0.9478
X3.0444 Y0.8124 I-1.1295 J0.6739
X3.1075 Y1.024 I-2.8082 J0.9533
G1 X3.1188 Y1.0653
G3 X3.123 Y1.091 I-0.1207 J0.0326
X3.1334 Y1.3787 I-4.6495 J0.313
G1 X3.1336 Y1.3826
X3.1345 Y1.3864
X3.1359 Y1.3901
X3.1378 Y1.3934
X3.1403 Y1.3965
X3.1432 Y1.3991
X3.1465 Y1.4012
X3.1501 Y1.4028
X3.1539 Y1.4038
X3.1578 Y1.4042
X3.1828 Y1.4047
X3.1867 Y1.4048 Z-0.1997
X3.1905 Y1.4049 Z-0.1988
X3.1941 Z-0.1973
X3.1975 Y1.405 Z-0.1952
X3.2004 Y1.4051 Z-0.1927
X3.203 Z-0.1897
X3.205 Y1.4052 Z-0.1863
X3.2065 Z-0.1827
X3.2074 Z-0.1789
X3.2078 Z-0.175
X3.2088 Y1.3552
Z-0.225
X3.2084 Z-0.2289
X3.2075 Z-0.2327
X3.206 Z-0.2363
X3.204 Y1.3551 Z-0.2397
X3.2014 Z-0.2427
X3.1985 Y1.355 Z-0.2452
X3.1951 Y1.3549 Z-0.2473
X3.1915 Z-0.2488
X3.1877 Y1.3548 Z-0.2497
X3.1838 Y1.3547 Z-0.25
X3.1588 Y1.3542
G2 X3.1333 Y1.3787 I-0.0005 J0.025
G3 X3.111 Y1.6415 I-1.5227 J0.0032
X2.985 Y1.9741 I-1.0005 J-0.1886
X2.8721 Y2.1445 I-1.3936 J-0.8012
X2.6931 Y2.3666 I-3.4696 J-2.6131
G1 X2.6887 Y2.3718
X2.684 Y2.3767
X2.679 Y2.3813
G3 X2.4228 Y2.5944 I-4.085 J-4.6524
X2.1638 Y2.7669 I-1.2987 J-1.6684
X1.8751 Y2.8924 I-0.8885 J-1.6502
X1.5564 Y2.9871 I-1.3598 J-3.993
G1 X1.5039 Y3.0013
G3 X1.4912 Y3.004 I-0.0322 J-0.1208
X1.2217 Y3.041 I-0.7102 J-4.1796
X0.9664 Y3.0431 I-0.1394 J-1.4247
X0.7098 Y2.9831 I0.1056 J-1.0314
X0.4616 Y2.8735 I0.7922 J-2.1301
G1 X0.4222 Y2.8544
G3 X0.3881 Y2.8297 I0.0553 J-0.1121
X0.2056 Y2.6335 I2.553 J-2.5584
X0.072 Y2.4438 I0.9871 J-0.8366
X-0.0346 Y2.1881 I1.16 J-0.634
X-0.1014 Y1.9301 I2.8876 J-0.8845
G1 X-0.1111 Y1.8879
G3 X-0.114 Y1.8675 I0.1219 J-0.0276
X-0.1251 Y1.5774 I4.8225 J-0.3301
X-0.1041 Y1.3123 I1.6202 J-0.0046
X0.0174 Y0.9749 I1.055 J0.1894
X0.127 Y0.8002 I1.4789 J0.8056
X0.301 Y0.5711 I3.7021 J2.6316
G1 X0.3051 Y0.566
X0.3095 Y0.5611
X0.3142 Y0.5564
G3 X0.5678 Y0.3308 I4.1532 J4.4122
X0.802 Y0.1622 I1.3537 J1.6334
X1.1165 Y0.015 I0.8821 J1.4751
X1.4414 Y-0.0856 I1.3048 J3.6421
G1 X1.4947 Y-0.1006
G3 X1.5156 Y-0.1045 I0.0333 J0.1205
X1.7866 Y-0.1248 I0.4024 J3.5488
X2.0169 Y-0.11 I0.034 J1.2647
X2.2894 Y-0.018 I-0.1833 J0.993
X2.5244 Y0.116 I-1.0267 J2.0726
G1 X2.5616 Y0.139
G3 X2.5819 Y0.1548 I-0.0663 J0.106
X2.7692 Y0.3425 I-2.7787 J2.9595
X2.9218 Y0.5412 I-1.0286 J0.9478
X3.0444 Y0.8124 I-1.1295 J0.6739
X3.1075 Y1.024 I-2.8082 J0.9533
G1 X3.1188 Y1.0653
G3 X3.123 Y1.091 I-0.1207 J0.0326
X3.1334 Y1.3787 I-4.6495 J0.313
G1 X3.1336 Y1.3826
X3.1345 Y1.3864
X3.1359 Y1.3901
X3.1378 Y1.3934
X3.1403 Y1.3965
X3.1432 Y1.3991
X3.1465 Y1.4012
X3.1501 Y1.4028
X3.1539 Y1.4038
X3.1578 Y1.4042
X3.1828 Y1.4047
X3.1867 Y1.4048 Z-0.2497
X3.1905 Y1.4049 Z-0.2488
X3.1941 Z-0.2473
X3.1975 Y1.405 Z-0.2452
X3.2004 Y1.4051 Z-0.2427
X3.203 Z-0.2397
X3.205 Y1.4052 Z-0.2363
X3.2065 Z-0.2327
X3.2074 Z-0.2289
X3.2078 Z-0.225
X3.2088 Y1.3552
Z-0.275
X3.2084 Z-0.2789
X3.2075 Z-0.2827
X3.206 Z-0.2863
X3.204 Y1.3551 Z-0.2897
X3.2014 Z-0.2927
X3.1985 Y1.355 Z-0.2952
X3.1951 Y1.3549 Z-0.2973
X3.1915 Z-0.2988
X3.1877 Y1.3548 Z-0.2997
X3.1838 Y1.3547 Z-0.3
X3.1588 Y1.3542
G2 X3.1333 Y1.3787 I-0.0005 J0.025
G3 X3.111 Y1.6415 I-1.5227 J0.0032
X2.985 Y1.9741 I-1.0005 J-0.1886
X2.8721 Y2.1445 I-1.3936 J-0.8012
X2.6931 Y2.3666 I-3.4696 J-2.6131
G1 X2.6887 Y2.3718
X2.684 Y2.3767
X2.679 Y2.3813
G3 X2.4228 Y2.5944 I-4.085 J-4.6524
X2.1638 Y2.7669 I-1.2987 J-1.6684
X1.8751 Y2.8924 I-0.8885 J-1.6502
X1.5564 Y2.9871 I-1.3598 J-3.993
G1 X1.5039 Y3.0013
G3 X1.4912 Y3.004 I-0.0322 J-0.1208
X1.2217 Y3.041 I-0.7102 J-4.1796
X0.9664 Y3.0431 I-0.1394 J-1.4247
X0.7098 Y2.9831 I0.1056 J-1.0314
X0.4616 Y2.8735 I0.7922 J-2.1301
G1 X0.4222 Y2.8544
G3 X0.3881 Y2.8297 I0.0553 J-0.1121
X0.2056 Y2.6335 I2.553 J-2.5584
X0.072 Y2.4438 I0.9871 J-0.8366
X-0.0346 Y2.1881 I1.16 J-0.634
X-0.1014 Y1.9301 I2.8876 J-0.8845
G1 X-0.1111 Y1.8879
G3 X-0.114 Y1.8675 I0.1219 J-0.0276
X-0.1251 Y1.5774 I4.8225 J-0.3301
X-0.1041 Y1.3123 I1.6202 J-0.0046
X0.0174 Y0.9749 I1.055 J0.1894
X0.127 Y0.8002 I1.4789 J0.8056
X0.301 Y0.5711 I3.7021 J2.6316
G1 X0.3051 Y0.566
X0.3095 Y0.5611
X0.3142 Y0.5564
G3 X0.5678 Y0.3308 I4.1532 J4.4122
X0.802 Y0.1622 I1.3537 J1.6334
X1.1165 Y0.015 I0.8821 J1.4751
X1.4414 Y-0.0856 I1.3048 J3.6421
G1 X1.4947 Y-0.1006
G3 X1.5156 Y-0.1045 I0.0333 J0.1205
X1.7866 Y-0.1248 I0.4024 J3.5488
X2.0169 Y-0.11 I0.034 J1.2647
X2.2894 Y-0.018 I-0.1833 J0.993
X2.5244 Y0.116 I-1.0267 J2.0726
G1 X2.5616 Y0.139
G3 X2.5819 Y0.1548 I-0.0663 J0.106
X2.7692 Y0.3425 I-2.7787 J2.9595
X2.9218 Y0.5412 I-1.0286 J0.9478
X3.0444 Y0.8124 I-1.1295 J0.6739
X3.1075 Y1.024 I-2.8082 J0.9533
G1 X3.1188 Y1.0653
G3 X3.123 Y1.091 I-0.1207 J0.0326
X3.1334 Y1.3787 I-4.6495 J0.313
G1 X3.1336 Y1.3826
X3.1345 Y1.3864
X3.1359 Y1.3901
X3.1378 Y1.3934
X3.1403 Y1.3965
X3.1432 Y1.3991
X3.1465 Y1.4012
X3.1501 Y1.4028
X3.1539 Y1.4038
X3.1578 Y1.4042
X3.1828 Y1.4047
X3.1867 Y1.4048 Z-0.2997
X3.1905 Y1.4049 Z-0.2988
X3.1941 Z-0.2973
X3.1975 Y1.405 Z-0.2952
X3.2004 Y1.4051 Z-0.2927
X3.203 Z-0.2897
X3.205 Y1.4052 Z-0.2863
X3.2065 Z-0.2827
X3.2074 Z-0.2789
X3.2078 Z-0.275
X3.2088 Y1.3552
Z-0.325
X3.2084 Z-0.3289
X3.2075 Z-0.3327
X3.206 Z-0.3363
X3.204 Y1.3551 Z-0.3397
X3.2014 Z-0.3427
X3.1985 Y1.355 Z-0.3452
X3.1951 Y1.3549 Z-0.3473
X3.1915 Z-0.3488
X3.1877 Y1.3548 Z-0.3497
X3.1838 Y1.3547 Z-0.35
X3.1588 Y1.3542
G2 X3.1333 Y1.3787 I-0.0005 J0.025
G3 X3.111 Y1.6415 I-1.5227 J0.0032
X2.985 Y1.9741 I-1.0005 J-0.1886
X2.8721 Y2.1445 I-1.3936 J-0.8012
X2.6931 Y2.3666 I-3.4696 J-2.6131
G1 X2.6887 Y2.3718
X2.684 Y2.3767
X2.679 Y2.3813
G3 X2.4228 Y2.5944 I-4.085 J-4.6524
X2.1638 Y2.7669 I-1.2987 J-1.6684
X1.8751 Y2.8924 I-0.8885 J-1.6502
X1.5564 Y2.9871 I-1.3598 J-3.993
G1 X1.5039 Y3.0013
G3 X1.4912 Y3.004 I-0.0322 J-0.1208
X1.2217 Y3.041 I-0.7102 J-4.1796
X0.9664 Y3.0431 I-0.1394 J-1.4247
X0.7098 Y2.9831 I0.1056 J-1.0314
X0.4616 Y2.8735 I0.7922 J-2.1301
G1 X0.4222 Y2.8544
G3 X0.3881 Y2.8297 I0.0553 J-0.1121
X0.2056 Y2.6335 I2.553 J-2.5584
X0.072 Y2.4438 I0.9871 J-0.8366
X-0.0346 Y2.1881 I1.16 J-0.634
X-0.1014 Y1.9301 I2.8876 J-0.8845
G1 X-0.1111 Y1.8879
G3 X-0.114 Y1.8675 I0.1219 J-0.0276
X-0.1251 Y1.5774 I4.8225 J-0.3301
X-0.1041 Y1.3123 I1.6202 J-0.0046
X0.0174 Y0.9749 I1.055 J0.1894
X0.127 Y0.8002 I1.4789 J0.8056
X0.301 Y0.5711 I3.7021 J2.6316
G1 X0.3051 Y0.566
X0.3095 Y0.5611
X0.3142 Y0.5564
G3 X0.5678 Y0.3308 I4.1532 J4.4122
X0.802 Y0.1622 I1.3537 J1.6334
X1.1165 Y0.015 I0.8821 J1.4751
X1.4414 Y-0.0856 I1.3048 J3.6421
G1 X1.4947 Y-0.1006
G3 X1.5156 Y-0.1045 I0.0333 J0.1205
X1.7866 Y-0.1248 I0.4024 J3.5488
X2.0169 Y-0.11 I0.034 J1.2647
X2.2894 Y-0.018 I-0.1833 J0.993
X2.5244 Y0.116 I-1.0267 J2.0726
G1 X2.5616 Y0.139
G3 X2.5819 Y0.1548 I-0.0663 J0.106
X2.7692 Y0.3425 I-2.7787 J2.9595
X2.9218 Y0.5412 I-1.0286 J0.9478
X3.0444 Y0.8124 I-1.1295 J0.6739
X3.1075 Y1.024 I-2.8082 J0.9533
G1 X3.1188 Y1.0653
G3 X3.123 Y1.091 I-0.1207 J0.0326
X3.1334 Y1.3787 I-4.6495 J0.313
G1 X3.1336 Y1.3826
X3.1345 Y1.3864
X3.1359 Y1.3901
X3.1378 Y1.3934
X3.1403 Y1.3965
X3.1432 Y1.3991
X3.1465 Y1.4012
X3.1501 Y1.4028
X3.1539 Y1.4038
X3.1578 Y1.4042
X3.1828 Y1.4047
X3.1867 Y1.4048 Z-0.3497
X3.1905 Y1.4049 Z-0.3488
X3.1941 Z-0.3473
X3.1975 Y1.405 Z-0.3452
X3.2004 Y1.4051 Z-0.3427
X3.203 Z-0.3397
X3.205 Y1.4052 Z-0.3363
X3.2065 Z-0.3327
X3.2074 Z-0.3289
X3.2078 Z-0.325
X3.2088 Y1.3552
Z-0.375
X3.2084 Z-0.3789
X3.2075 Z-0.3827
X3.206 Z-0.3863
X3.204 Y1.3551 Z-0.3897
X3.2014 Z-0.3927
X3.1985 Y1.355 Z-0.3952
X3.1951 Y1.3549 Z-0.3973
X3.1915 Z-0.3988
X3.1877 Y1.3548 Z-0.3997
X3.1838 Y1.3547 Z-0.4
X3.1588 Y1.3542
G2 X3.1333 Y1.3787 I-0.0005 J0.025
G3 X3.111 Y1.6415 I-1.5227 J0.0032
X2.985 Y1.9741 I-1.0005 J-0.1886
X2.8721 Y2.1445 I-1.3936 J-0.8012
X2.6931 Y2.3666 I-3.4696 J-2.6131
G1 X2.6887 Y2.3718
X2.684 Y2.3767
X2.679 Y2.3813
G3 X2.4228 Y2.5944 I-4.085 J-4.6524
X2.1638 Y2.7669 I-1.2987 J-1.6684
X1.8751 Y2.8924 I-0.8885 J-1.6502
X1.5564 Y2.9871 I-1.3598 J-3.993
G1 X1.5039 Y3.0013
G3 X1.4912 Y3.004 I-0.0322 J-0.1208
X1.2217 Y3.041 I-0.7102 J-4.1796
X0.9664 Y3.0431 I-0.1394 J-1.4247
X0.7098 Y2.9831 I0.1056 J-1.0314
X0.4616 Y2.8735 I0.7922 J-2.1301
G1 X0.4222 Y2.8544
G3 X0.3881 Y2.8297 I0.0553 J-0.1121
X0.2056 Y2.6335 I2.553 J-2.5584
X0.072 Y2.4438 I0.9871 J-0.8366
X-0.0346 Y2.1881 I1.16 J-0.634
X-0.1014 Y1.9301 I2.8876 J-0.8845
G1 X-0.1111 Y1.8879
G3 X-0.114 Y1.8675 I0.1219 J-0.0276
X-0.1251 Y1.5774 I4.8225 J-0.3301
X-0.1041 Y1.3123 I1.6202 J-0.0046
X0.0174 Y0.9749 I1.055 J0.1894
X0.127 Y0.8002 I1.4789 J0.8056
X0.301 Y0.5711 I3.7021 J2.6316
G1 X0.3051 Y0.566
X0.3095 Y0.5611
X0.3142 Y0.5564
G3 X0.5678 Y0.3308 I4.1532 J4.4122
X0.802 Y0.1622 I1.3537 J1.6334
X1.1165 Y0.015 I0.8821 J1.4751
X1.4414 Y-0.0856 I1.3048 J3.6421
G1 X1.4947 Y-0.1006
G3 X1.5156 Y-0.1045 I0.0333 J0.1205
X1.7866 Y-0.1248 I0.4024 J3.5488
X2.0169 Y-0.11 I0.034 J1.2647
X2.2894 Y-0.018 I-0.1833 J0.993
X2.5244 Y0.116 I-1.0267 J2.0726
G1 X2.5616 Y0.139
G3 X2.5819 Y0.1548 I-0.0663 J0.106
X2.7692 Y0.3425 I-2.7787 J2.9595
X2.9218 Y0.5412 I-1.0286 J0.9478
X3.0444 Y0.8124 I-1.1295 J0.6739
X3.1075 Y1.024 I-2.8082 J0.9533
G1 X3.1188 Y1.0653
G3 X3.123 Y1.091 I-0.1207 J0.0326
X3.1334 Y1.3787 I-4.6495 J0.313
G1 X3.1336 Y1.3826
X3.1345 Y1.3864
X3.1359 Y1.3901
X3.1378 Y1.3934
X3.1403 Y1.3965
X3.1432 Y1.3991
X3.1465 Y1.4012
X3.1501 Y1.4028
X3.1539 Y1.4038
X3.1578 Y1.4042
X3.1828 Y1.4047
X3.1867 Y1.4048 Z-0.3997
X3.1905 Y1.4049 Z-0.3988
X3.1941 Z-0.3973
X3.1975 Y1.405 Z-0.3952
X3.2004 Y1.4051 Z-0.3927
X3.203 Z-0.3897
X3.205 Y1.4052 Z-0.3863
X3.2065 Z-0.3827
X3.2074 Z-0.3789
X3.2078 Z-0.375
X3.2088 Y1.3552
Z-0.425
X3.2084 Z-0.4289
X3.2075 Z-0.4327
X3.206 Z-0.4363
X3.204 Y1.3551 Z-0.4397
X3.2014 Z-0.4427
X3.1985 Y1.355 Z-0.4452
X3.1951 Y1.3549 Z-0.4473
X3.1915 Z-0.4488
X3.1877 Y1.3548 Z-0.4497
X3.1838 Y1.3547 Z-0.45
X3.1588 Y1.3542
G2 X3.1333 Y1.3787 I-0.0005 J0.025
G3 X3.111 Y1.6415 I-1.5227 J0.0032
X2.985 Y1.9741 I-1.0005 J-0.1886
X2.8721 Y2.1445 I-1.3936 J-0.8012
X2.6931 Y2.3666 I-3.4696 J-2.6131
G1 X2.6887 Y2.3718
X2.684 Y2.3767
X2.679 Y2.3813
G3 X2.4228 Y2.5944 I-4.085 J-4.6524
X2.1638 Y2.7669 I-1.2987 J-1.6684
X1.8751 Y2.8924 I-0.8885 J-1.6502
X1.5564 Y2.9871 I-1.3598 J-3.993
G1 X1.5039 Y3.0013
G3 X1.4912 Y3.004 I-0.0322 J-0.1208
X1.2217 Y3.041 I-0.7102 J-4.1796
X0.9664 Y3.0431 I-0.1394 J-1.4247
X0.7098 Y2.9831 I0.1056 J-1.0314
X0.4616 Y2.8735 I0.7922 J-2.1301
G1 X0.4222 Y2.8544
G3 X0.3881 Y2.8297 I0.0553 J-0.1121
X0.2056 Y2.6335 I2.553 J-2.5584
X0.072 Y2.4438 I0.9871 J-0.8366
X-0.0346 Y2.1881 I1.16 J-0.634
X-0.0517 Y2.1308 I1.1997 J-0.3892
G1 Z-0.44
G3 X-0.1109 Y1.8879 I4.024 J-1.1085
G1 X-0.1123 Y1.8811
X-0.1133 Y1.8744
X-0.114 Y1.8675
G3 X-0.1246 Y1.6346 I5.9594 J-0.3868
G1 X-0.1245 Z-0.45
G3 X-0.1129 Y1.3715 I1.8431 J-0.0508
X0.0174 Y0.9749 I1.0642 J0.1301
X0.127 Y0.8002 I1.4835 J0.8086
X0.301 Y0.5711 I3.7049 J2.6337
G1 X0.3051 Y0.566
X0.3095 Y0.5611
X0.3142 Y0.5564
G3 X0.5678 Y0.3308 I4.1532 J4.4122
X0.802 Y0.1622 I1.3537 J1.6334
X1.1165 Y0.015 I0.8821 J1.4751
X1.4414 Y-0.0856 I1.3048 J3.6421
G1 X1.4947 Y-0.1006
G3 X1.5156 Y-0.1045 I0.0333 J0.1205
X1.7866 Y-0.1248 I0.4024 J3.5488
X2.0169 Y-0.11 I0.034 J1.2647
X2.2894 Y-0.018 I-0.1833 J0.993
X2.5244 Y0.116 I-1.0267 J2.0726
G1 X2.5616 Y0.139
G3 X2.5819 Y0.1548 I-0.0663 J0.106
X2.7692 Y0.3425 I-2.7787 J2.9595
X2.9218 Y0.5412 I-1.0286 J0.9478
X3.0444 Y0.8124 I-1.1295 J0.6739
G1 X3.0451 Y0.8136
X3.0489 Y0.8253
Z-0.44
G3 X3.1186 Y1.0654 I-3.6403 J1.1855
G1 X3.1206 Y1.0738
X3.1221 Y1.0823
X3.123 Y1.091
G3 X3.133 Y1.3205 I-5.7699 J0.3671
G1 Z-0.45
X3.1333 Y1.3755
Y1.3771
Y1.3787
G2 X3.1578 Y1.4042 I0.025 J0.0005
G1 X3.1828 Y1.4047
X3.1867 Y1.4048 Z-0.4497
X3.1905 Y1.4049 Z-0.4488
X3.1941 Z-0.4473
X3.1975 Y1.405 Z-0.4452
X3.2004 Y1.4051 Z-0.4427
X3.203 Z-0.4397
X3.205 Y1.4052 Z-0.4363
X3.2065 Z-0.4327
X3.2074 Z-0.4289
X3.2078 Z-0.425
X3.2088 Y1.3552
Z-0.465
X3.2084 Z-0.4689
X3.2075 Z-0.4727
X3.206 Z-0.4763
X3.204 Y1.3551 Z-0.4797
X3.2014 Z-0.4827
X3.1985 Y1.355 Z-0.4852
X3.1951 Y1.3549 Z-0.4873
X3.1915 Z-0.4888
X3.1877 Y1.3548 Z-0.4897
X3.1838 Y1.3547 Z-0.49
X3.1588 Y1.3542
G2 X3.1333 Y1.3787 I-0.0005 J0.025
G3 X3.111 Y1.6415 I-1.5227 J0.0032
X2.985 Y1.9741 I-1.0005 J-0.1886
X2.8721 Y2.1445 I-1.3936 J-0.8012
X2.6931 Y2.3666 I-3.4696 J-2.6131
G1 X2.6887 Y2.3718
X2.684 Y2.3767
X2.679 Y2.3813
G3 X2.4228 Y2.5944 I-4.085 J-4.6524
X2.1638 Y2.7669 I-1.2987 J-1.6684
X1.8751 Y2.8924 I-0.8885 J-1.6502
X1.5564 Y2.9871 I-1.3598 J-3.993
G1 X1.5039 Y3.0013
G3 X1.4912 Y3.004 I-0.0322 J-0.1208
X1.2217 Y3.041 I-0.7102 J-4.1796
X0.9664 Y3.0431 I-0.1394 J-1.4247
X0.7098 Y2.9831 I0.1056 J-1.0314
X0.4616 Y2.8735 I0.7922 J-2.1301
G1 X0.4222 Y2.8544
G3 X0.3881 Y2.8297 I0.0553 J-0.1121
X0.2056 Y2.6335 I2.553 J-2.5584
X0.072 Y2.4438 I0.9871 J-0.8366
X-0.0346 Y2.1881 I1.16 J-0.634
X-0.0517 Y2.1308 I1.1997 J-0.3892
G1 Z-0.44
G3 X-0.1109 Y1.8879 I4.024 J-1.1085
G1 X-0.1123 Y1.8811
X-0.1133 Y1.8744
X-0.114 Y1.8675
G3 X-0.1246 Y1.6346 I5.9594 J-0.3868
G1 X-0.1245 Z-0.49
G3 X-0.1129 Y1.3715 I1.8431 J-0.0508
X0.0174 Y0.9749 I1.0642 J0.1301
X0.127 Y0.8002 I1.4835 J0.8086
X0.301 Y0.5711 I3.7049 J2.6337
G1 X0.3051 Y0.566
X0.3095 Y0.5611
X0.3142 Y0.5564
G3 X0.5678 Y0.3308 I4.1532 J4.4122
X0.802 Y0.1622 I1.3537 J1.6334
X1.1165 Y0.015 I0.8821 J1.4751
X1.4414 Y-0.0856 I1.3048 J3.6421
G1 X1.4947 Y-0.1006
G3 X1.5156 Y-0.1045 I0.0333 J0.1205
X1.7866 Y-0.1248 I0.4024 J3.5488
X2.0169 Y-0.11 I0.034 J1.2647
X2.2894 Y-0.018 I-0.1833 J0.993
X2.5244 Y0.116 I-1.0267 J2.0726
G1 X2.5616 Y0.139
G3 X2.5819 Y0.1548 I-0.0663 J0.106
X2.7692 Y0.3425 I-2.7787 J2.9595
X2.9218 Y0.5412 I-1.0286 J0.9478
X3.0444 Y0.8124 I-1.1295 J0.6739
G1 X3.0451 Y0.8136
X3.0489 Y0.8253
Z-0.44
G3 X3.1186 Y1.0654 I-3.6403 J1.1855
G1 X3.1206 Y1.0738
X3.1221 Y1.0823
X3.123 Y1.091
G3 X3.133 Y1.3205 I-5.7699 J0.3671
G1 Z-0.49
X3.1333 Y1.3755
Y1.3771
Y1.3787
G2 X3.1578 Y1.4042 I0.025 J0.0005
G1 X3.1828 Y1.4047
X3.1867 Y1.4048 Z-0.4897
X3.1905 Y1.4049 Z-0.4888
X3.1941 Z-0.4873
X3.1975 Y1.405 Z-0.4852
X3.2004 Y1.4051 Z-0.4827
X3.203 Z-0.4797
X3.205 Y1.4052 Z-0.4763
X3.2065 Z-0.4727
X3.2074 Z-0.4689
X3.2078 Z-0.465
G0 Z0.6
M9
M30
%
