%
(1001)
(T3  D=0.125 CR=0.0625 - ZMIN=-0.49 - ball end mill)
G90 G94
G17
G20

(Contour3)
M9
T3 M6
S11028 M3
G54
M8
G0 X-0.0363 Y0.471
Z0.6
Z0.0342
G1 Z-0.0075 F35
X-0.0359 Y0.4711 Z-0.0103
X-0.035 Y0.4713 Z-0.0129
X-0.0336 Y0.4716 Z-0.0153
X-0.0316 Y0.472 Z-0.0173
X-0.0293 Y0.4725 Z-0.0188
X-0.0267 Y0.473 Z-0.0197
X-0.024 Y0.4736 Z-0.02
G2 X-0.0092 Y0.4639 I0.0026 J-0.0122
G3 X0.0382 Y0.3826 I0.1382 J0.0262 F35.38
X0.1026 Y0.3339 I0.284 J0.3087
X0.3293 Y0.2551 I0.4907 J1.0459
X0.7837 Y0.1538 I1.6132 J6.1655
X1.4024 Y0.0408 I2.6035 J12.5106
X1.7554 Y-0.0058 I2.4211 J16.9465
X2.0213 Y-0.014 I0.2804 J4.7846
X2.2534 Y0.0083 I-0.0164 J1.3897
X2.4996 Y0.0828 I-0.3192 J1.4979
X2.6328 Y0.1357 I-1.6463 J4.3384
X2.8435 Y0.3137 I-1.733 J2.2646
X2.9682 Y0.4596 I-0.7031 J0.7273
X3.0692 Y0.6629 I-0.7888 J0.5189
X3.1427 Y0.9114 I-2.0639 J0.7455
X3.1567 Y0.9673 I-1.179 J0.3244
X3.1537 Y0.9867 I-0.055 J0.0014
X3.0527 Y1.3591 I-8.7388 J-2.1706
X2.945 Y1.6528 I-2.6595 J-0.8088
X2.8048 Y1.901 I-1.3241 J-0.5841
X2.5311 Y2.1614 I-0.8684 J-0.6389
X2.2388 Y2.3138 I-0.852 J-1.2774
X1.8569 Y2.4336 I-0.9779 J-2.4482
X1.475 Y2.5122 I-1.2638 J-5.1721
X1.1463 Y2.5668 I-3.8753 J-22.3318
G1 X0.9143 Y2.6121
X0.6628 Y2.6589
G3 X0.5419 Y2.6691 I-0.1212 J-0.7124
X0.479 Y2.6563 I0.0132 J-0.2248
X0.4116 Y2.5999 I0.0622 J-0.1429
X0.3584 Y2.5049 I0.4117 J-0.2932
X0.3628 Y2.4202 I0.3429 J-0.0246
X0.4038 Y2.3502 I0.1442 J0.0374
X0.4547 Y2.3051 I0.2726 J0.2561
X0.5404 Y2.258 I0.4258 J0.6743
X0.6676 Y2.222 I0.2498 J0.6394
G2 X1.0012 Y2.1588 I-2.9115 J-16.2785
X1.4944 Y2.0911 I-1.1274 J-10.0414
X1.828 Y2.0158 I-0.5736 J-3.32
X2.1424 Y1.8921 I-0.4767 J-1.6729
X2.3771 Y1.7266 I-0.5277 J-0.9976
X2.5554 Y1.5039 I-0.7626 J-0.7932
X2.6931 Y1.2442 I-1.8753 J-1.1605
X2.7886 Y1.0275 I-5.9866 J-2.7663
X2.6453 Y0.769 I-3.9645 J2.0297
X2.5209 Y0.5998 I-1.1093 J0.6847
X2.3937 Y0.4899 I-0.4831 J0.4306
X2.1905 Y0.4127 I-0.3006 J0.4855
X1.9778 Y0.397 I-0.1778 J0.9605
X1.7119 Y0.4201 I0.0507 J2.1335
X1.4853 Y0.4549 I1.1056 J7.9463
G1 X0.363 Y0.674
G3 X0.2277 Y0.698 I-0.2656 J-1.1037
X0.1309 Y0.6897 I-0.0248 J-0.2781
X0.0538 Y0.6391 I0.0587 J-0.1736
X-0.0101 Y0.5564 I0.4075 J-0.381
X-0.0139 Y0.5371 I0.0355 J-0.017
X-0.0094 Y0.4639 I0.377 J-0.0134
G1 X-0.0073 Y0.4552
X-0.005 Y0.447
X-0.0023 Y0.4388 Z-0.0201
X0.0013 Y0.4303 Z-0.0202
X0.0048 Y0.423
X0.0089 Y0.4158 Z-0.0203
X0.0136 Y0.4087 Z-0.0204
X0.0186 Y0.4018 Z-0.0206
X0.0242 Y0.395 Z-0.0207
X0.0301 Y0.3883 Z-0.0209
X0.0364 Y0.3818 Z-0.021
X0.0434 Y0.3752 Z-0.0213
X0.0502 Y0.369 Z-0.0215
X0.0575 Y0.3628 Z-0.0217
X0.0646 Y0.357 Z-0.0219
X0.0724 Y0.3508 Z-0.0222
X0.0798 Y0.3449 Z-0.0225
X0.0878 Y0.3389 Z-0.0228
X0.0953 Y0.3332 Z-0.0231
X0.0982 Y0.3313 Z-0.0232
X0.0997 Y0.3305 Z-0.0233
X0.1012 Y0.3297
X0.1101 Y0.3252 Z-0.0237
X0.1189 Y0.3209 Z-0.024
X0.1367 Y0.3121 Z-0.0247
X0.1454 Y0.3079 Z-0.025
X0.1544 Y0.3036 Z-0.0254
X0.163 Y0.2995 Z-0.0257
X0.1721 Y0.2955 Z-0.0261
X0.181 Y0.2915 Z-0.0264
X0.1899 Y0.2877 Z-0.0268
X0.1991 Y0.2839 Z-0.0271
X0.2079 Y0.2803 Z-0.0274
X0.2172 Y0.2768 Z-0.0278
X0.2264 Y0.2732 Z-0.0281
X0.2355 Y0.27 Z-0.0285
X0.2448 Y0.2667 Z-0.0288
X0.254 Y0.2636 Z-0.0291
X0.2634 Y0.2605 Z-0.0295
X0.2728 Y0.2575 Z-0.0298
X0.2823 Y0.2545 Z-0.0302
X0.2917 Y0.2514 Z-0.0305
X0.301 Y0.2485 Z-0.0309
X0.3294 Y0.2398 Z-0.0319
X0.3388 Y0.237 Z-0.0322
X0.3674 Y0.2288 Z-0.0333
X0.3769 Y0.2261 Z-0.0336
X0.3864 Y0.2234 Z-0.034
X0.396 Y0.2207 Z-0.0343
X0.4055 Y0.218 Z-0.0347
X0.415 Y0.2153 Z-0.035
X0.4246 Y0.2126 Z-0.0354
X0.4341 Y0.2099 Z-0.0357
X0.4436 Y0.2073 Z-0.0361
X0.4531 Y0.2046 Z-0.0364
X0.4627 Y0.2021 Z-0.0367
X0.4723 Y0.1995 Z-0.037
X0.4819 Y0.197 Z-0.0374
X0.4914 Y0.1945 Z-0.0377
X0.501 Y0.192 Z-0.0379
X0.5106 Y0.1895 Z-0.0382
X0.5202 Y0.1871 Z-0.0384
X0.5298 Y0.1846 Z-0.0387
X0.5394 Y0.1823 Z-0.0389
X0.549 Y0.1801 Z-0.0391
X0.5587 Y0.1778 Z-0.0393
X0.5683 Y0.1756 Z-0.0394
X0.578 Y0.1734 Z-0.0396
X0.5876 Y0.1712 Z-0.0397
X0.5973 Y0.169 Z-0.0398
X0.607 Y0.1668 Z-0.0399
X0.6166 Y0.1647 Z-0.04
X0.6263 Y0.1627
X0.6357 Y0.1608
G3 X1.2767 Y0.0385 I4.5758 J22.235
X1.7554 Y-0.0278 I1.8282 J11.4316
X2.0213 Y-0.0358 I0.2686 J4.5022
X2.2583 Y-0.0131 I-0.0141 J1.3934
X2.5047 Y0.0613 I-0.3261 J1.5244
X2.6451 Y0.1172 I-1.3725 J3.6578
X2.8288 Y0.2701 I-2.0826 J2.6891
X2.9746 Y0.4306 I-0.7422 J0.8204
X3.0908 Y0.658 I-0.7757 J0.5395
X3.1587 Y0.8852 I-1.9775 J0.7153
X3.1783 Y0.9625 I-3.0098 J0.8048
X3.1763 Y0.9867 I-0.0506 J0.008
X3.087 Y1.3203 I-8.8854 J-2.2
X2.9809 Y1.625 I-2.9256 J-0.8482
X2.8434 Y1.8838 I-1.4524 J-0.6055
X2.5433 Y2.1794 I-0.8976 J-0.6112
X2.2484 Y2.3334 I-0.8525 J-1.2732
X1.9391 Y2.4353 I-0.921 J-2.2757
X1.5572 Y2.5196 I-1.1936 J-4.4978
X1.1511 Y2.5882 I-2.8522 J-15.6515
G1 X0.9191 Y2.6335
X0.791 Y2.6574
X0.6628 Y2.6811
G3 X0.5419 Y2.691 I-0.1224 J-0.7499
X0.4693 Y2.676 I0.0128 J-0.2446
X0.3927 Y2.611 I0.0731 J-0.1639
X0.3404 Y2.5192 I0.435 J-0.3083
X0.3361 Y2.4951 I0.0383 J-0.0194
X0.3447 Y2.4032 I0.2989 J-0.0185
X0.3971 Y2.326 I0.1781 J0.0645
X0.4423 Y2.287 I0.2566 J0.2516
X0.5299 Y2.2387 I0.4576 J0.7272
X0.6647 Y2.2003 I0.2587 J0.652
G2 X0.9963 Y2.1373 I-2.7898 J-15.6039
X1.4896 Y2.0697 I-1.0865 J-9.7626
X1.6732 Y2.0329 I-0.8527 J-4.7266
X1.9924 Y1.9368 I-0.4793 J-2.171
X2.2584 Y1.7953 I-0.482 J-1.2263
X2.5201 Y1.5183 I-0.5743 J-0.8046
X2.63 Y1.3251 I-1.4599 J-0.9586
X2.7642 Y1.0284 I-4.3822 J-2.161
X2.6114 Y0.7565 I-3.2074 J1.6238
X2.4857 Y0.5941 I-0.9606 J0.6136
X2.3454 Y0.4873 I-0.408 J0.3903
X2.1373 Y0.4265 I-0.2719 J0.5448
X1.9343 Y0.4203 I-0.135 J1.0837
X1.6588 Y0.4497 I0.138 J2.598
X1.4895 Y0.4764 I1.1652 J7.927
G1 X0.3679 Y0.6954
G3 X0.2277 Y0.72 I-0.2675 J-1.1136
X0.1261 Y0.7111 I-0.0247 J-0.3019
X0.0368 Y0.653 I0.0633 J-0.1949
X-0.0302 Y0.5661 I0.4428 J-0.4109
X-0.0355 Y0.5323 I0.0518 J-0.0254
X-0.0241 Y0.434 I0.2867 J-0.0164
X0.0247 Y0.3651 I0.1642 J0.0645
X0.0922 Y0.3145 I0.3209 J0.3577
X0.3244 Y0.2337 I0.5073 J1.0838
X0.6356 Y0.1608 I1.5057 J5.7279
G1 X0.6453 Y0.1588
X0.655 Y0.1568
X0.6647 Y0.1547 Z-0.0401
X0.6744 Y0.1527 Z-0.0402
X0.6841 Y0.1506 Z-0.0403
X0.6938 Y0.1485 Z-0.0404
X0.7034 Y0.1465 Z-0.0406
X0.7131 Y0.1444 Z-0.0407
X0.7228 Y0.1423 Z-0.0409
X0.7324 Y0.1402 Z-0.0411
X0.7421 Y0.1381 Z-0.0413
X0.7518 Y0.136 Z-0.0416
X0.7614 Y0.1338 Z-0.0418
X0.7711 Y0.1317 Z-0.0421
X0.7808 Y0.1296 Z-0.0424
X0.7904 Y0.1274 Z-0.0427
X0.8001 Y0.1252 Z-0.043
X0.8097 Y0.1231 Z-0.0433
X0.8194 Y0.1209 Z-0.0436
X0.8291 Y0.1187 Z-0.044
X0.8387 Y0.1165 Z-0.0443
X0.8484 Y0.1144 Z-0.0447
X0.858 Y0.1122 Z-0.045
X0.8677 Y0.11 Z-0.0453
X0.8774 Y0.1079 Z-0.0457
X0.887 Y0.1058 Z-0.046
X0.8967 Y0.1036 Z-0.0464
X0.9064 Y0.1015 Z-0.0467
X0.916 Y0.0993 Z-0.0471
X0.9644 Y0.0887 Z-0.0488
X0.974 Y0.0866 Z-0.0491
X1.0321 Y0.0741 Z-0.0512
X1.0418 Y0.0721 Z-0.0516
X1.0515 Y0.07 Z-0.0519
X1.0612 Y0.0679 Z-0.0523
X1.0709 Y0.0659 Z-0.0526
X1.0806 Y0.0638 Z-0.053
X1.0902 Y0.0618 Z-0.0533
X1.0999 Y0.0598 Z-0.0536
X1.1096 Y0.0578 Z-0.054
X1.1193 Y0.0559 Z-0.0543
X1.129 Y0.0539 Z-0.0547
X1.1387 Y0.052 Z-0.055
X1.1485 Y0.05 Z-0.0554
X1.1582 Y0.0481 Z-0.0557
X1.1679 Y0.0461 Z-0.0561
X1.1776 Y0.0442 Z-0.0564
X1.1873 Y0.0423 Z-0.0567
X1.197 Y0.0404 Z-0.0571
X1.2067 Y0.0384 Z-0.0574
X1.2164 Y0.0366 Z-0.0577
X1.2262 Y0.0348 Z-0.0579
X1.2359 Y0.033 Z-0.0582
X1.2456 Y0.0312 Z-0.0585
X1.2554 Y0.0294 Z-0.0587
X1.2651 Y0.0276 Z-0.0589
X1.2749 Y0.0259 Z-0.0591
X1.2846 Y0.0242 Z-0.0593
X1.2944 Y0.0225 Z-0.0595
X1.3041 Y0.0208 Z-0.0596
X1.3139 Y0.0192 Z-0.0597
X1.3237 Y0.0176 Z-0.0598
X1.3334 Y0.0159 Z-0.0599
X1.3432 Y0.0144 Z-0.06
X1.353 Y0.0129
X1.3621 Y0.0115
G3 X1.7506 Y-0.041 I1.8772 J12.4427
X2.0503 Y-0.0489 I0.2542 J3.9312
X2.2873 Y-0.0208 I-0.04 J1.3515
X2.5096 Y0.0485 I-0.3853 J1.6249
X2.6499 Y0.1043 I-1.864 J4.8923
X2.7175 Y0.1576 I-0.9153 J1.2299
X2.9209 Y0.3426 I-1.1404 J1.4584
X2.9735 Y0.4065 I-0.9588 J0.8433
X3.0865 Y0.6097 I-0.7038 J0.5246
X3.1589 Y0.8321 I-1.5825 J0.638
X3.1923 Y0.9625 I-5.0245 J1.3537
X3.1904 Y0.9867 I-0.0591 J0.0076
X3.0868 Y1.3687 I-8.8026 J-2.181
X2.9788 Y1.664 I-2.6992 J-0.8202
X2.855 Y1.8909 I-1.4048 J-0.6195
X2.5515 Y2.1902 I-0.9074 J-0.6165
X2.2533 Y2.3461 I-0.8618 J-1.2852
X1.9052 Y2.4582 I-0.9614 J-2.3904
X1.4798 Y2.5474 I-1.3016 J-5.1481
X1.1559 Y2.6011 I-3.143 J-17.9449
G1 X0.924 Y2.6464
X0.7934 Y2.6708
X0.6629 Y2.6949
G3 X0.5516 Y2.7048 I-0.1312 J-0.8411
X0.4548 Y2.6844 I0.0009 J-0.2445
X0.373 Y2.6063 I0.0979 J-0.1843
X0.3241 Y2.5159 I0.4927 J-0.3252
X0.3224 Y2.471 I0.2313 J-0.0309
X0.342 Y2.3741 I0.217 J-0.0066
X0.4019 Y2.303 I0.2211 J0.1254
X0.4599 Y2.261 I0.1659 J0.1679
X0.6145 Y2.1978 I0.2537 J0.3998
X0.6628 Y2.1867 I0.1291 J0.4543
G2 X0.9963 Y2.1236 I-2.6656 J-14.9964
X1.4896 Y2.0559 I-1.0886 J-9.7634
X1.8183 Y1.9817 I-0.5671 J-3.2782
X2.1233 Y1.8621 I-0.4689 J-1.6435
X2.3551 Y1.6986 I-0.5045 J-0.9617
X2.5239 Y1.4875 I-0.742 J-0.7662
X2.6614 Y1.2283 I-1.848 J-1.1462
X2.7493 Y1.029 I-5.1997 J-2.4141
X2.6002 Y0.7642 I-3.2617 J1.6624
X2.476 Y0.6036 I-0.9517 J0.6077
X2.3357 Y0.4975 I-0.4001 J0.383
X2.1325 Y0.4396 I-0.2651 J0.5453
X1.9343 Y0.4339 I-0.1303 J1.08
X1.6588 Y0.4634 I0.1393 J2.5974
X1.4895 Y0.4903 I1.2506 J8.4423
G1 X0.3727 Y0.7083
G3 X0.2277 Y0.7336 I-0.2741 J-1.1406
X0.1212 Y0.7238 I-0.0246 J-0.3154
X0.0273 Y0.6627 I0.0685 J-0.2081
X-0.0432 Y0.5709 I0.4556 J-0.4227
X-0.0491 Y0.5323 I0.0619 J-0.0292
X-0.0388 Y0.4355 I0.3077 J-0.0165
X0.0151 Y0.3556 I0.1756 J0.0604
X0.0873 Y0.3016 I0.3247 J0.3593
X0.2179 Y0.2493 I0.6555 J1.4475
X0.4501 Y0.1884 I1.0996 J3.7184
X0.8079 Y0.1127 I1.771 J7.4907
X1.362 Y0.0112 I2.6161 J12.7168
G1 X1.3718 Y0.0099
X1.3816 Y0.0084
X1.3914 Y0.0069 Z-0.0601
X1.4011 Y0.0054 Z-0.0602
X1.4109 Y0.0039 Z-0.0603
X1.4207 Y0.0024 Z-0.0604
X1.4305 Y0.0009 Z-0.0606
X1.4403 Y-0.0006 Z-0.0607
X1.4501 Y-0.0022 Z-0.0609
X1.4598 Y-0.0037 Z-0.0611
X1.4696 Y-0.0051 Z-0.0613
X1.4793 Y-0.0066 Z-0.0616
X1.4891 Y-0.0081 Z-0.0618
X1.4989 Y-0.0095 Z-0.0621
X1.5087 Y-0.011 Z-0.0624
X1.5185 Y-0.0125 Z-0.0627
X1.5283 Y-0.014 Z-0.063
X1.5381 Y-0.0155 Z-0.0633
X1.5479 Y-0.017 Z-0.0636
X1.5577 Y-0.0185 Z-0.064
X1.5674 Y-0.0199 Z-0.0643
X1.5772 Y-0.0214 Z-0.0647
X1.587 Y-0.0229 Z-0.065
X1.6066 Y-0.0257 Z-0.0657
X1.6262 Y-0.0285 Z-0.0664
X1.6458 Y-0.0313 Z-0.0671
X1.6556 Y-0.0327 Z-0.0674
X1.7144 Y-0.0411 Z-0.0695
X1.7242 Y-0.0425 Z-0.0698
X1.734 Y-0.0439 Z-0.0702
X1.7438 Y-0.0453 Z-0.0705
X1.7534 Y-0.0461 Z-0.0709
X1.7831 Y-0.0481 Z-0.0719
X1.8127 Y-0.05 Z-0.0729
X1.8226 Y-0.0507 Z-0.0733
X1.8325 Y-0.0512 Z-0.0736
X1.8423 Y-0.0518 Z-0.074
X1.8522 Y-0.0523 Z-0.0743
X1.8621 Y-0.0529 Z-0.0747
X1.872 Y-0.0535 Z-0.075
X1.8819 Y-0.054 Z-0.0754
X1.8917 Y-0.0544 Z-0.0757
X1.9016 Y-0.0548 Z-0.076
X1.9115 Y-0.0552 Z-0.0764
X1.9214 Y-0.0556 Z-0.0767
X1.9313 Y-0.056 Z-0.077
X1.9412 Y-0.0563 Z-0.0774
X1.9511 Y-0.0565 Z-0.0776
X1.961 Y-0.0567 Z-0.0779
X1.9709 Y-0.0568 Z-0.0782
X1.9808 Y-0.057 Z-0.0784
X1.9907 Y-0.0572 Z-0.0787
X2.0006 Z-0.0789
X2.0105 Z-0.0791
X2.0204 Z-0.0793
X2.0303 Y-0.057 Z-0.0794
X2.0402 Y-0.0568 Z-0.0796
X2.0501 Y-0.0567 Z-0.0797
X2.06 Y-0.0563 Z-0.0798
X2.0699 Y-0.0559 Z-0.0799
X2.0798 Y-0.0556 Z-0.08
X2.0896 Y-0.055
X2.0992 Y-0.0545
G3 X2.4322 Y0.0123 I-0.067 J1.1978
X2.6572 Y0.0988 I-0.9803 J2.8859
X2.8433 Y0.2538 I-2.2134 J2.8465
X2.991 Y0.416 I-0.7639 J0.844
X3.1104 Y0.6484 I-0.787 J0.551
X3.1788 Y0.8756 I-1.9533 J0.712
X3.2006 Y0.9625 I-1.8964 J0.5218
X3.1989 Y0.9867 I-0.0623 J0.0078
X3.1083 Y1.3252 I-9.4897 J-2.3571
X3.0025 Y1.6298 I-2.9613 J-0.8581
X2.865 Y1.891 I-1.4915 J-0.6182
X2.7962 Y1.9827 I-1.0768 J-0.736
X2.5191 Y2.2212 I-0.8773 J-0.7393
X2.2173 Y2.3692 I-0.8788 J-1.4101
X1.8666 Y2.4764 I-0.9941 J-2.626
X1.4024 Y2.569 I-1.4163 J-5.8893
G1 X1.2792 Y2.5893
X1.1559 Y2.6095
X0.9239 Y2.6548
X0.6725 Y2.7015
G3 X0.5516 Y2.7131 I-0.1434 J-0.8653
X0.4548 Y2.6935 I0.0018 J-0.2582
X0.3682 Y2.6139 I0.0947 J-0.1899
X0.3165 Y2.5194 I0.5102 J-0.3403
X0.3144 Y2.471 I0.1859 J-0.0325
X0.3386 Y2.3633 I0.213 J-0.0087
X0.4068 Y2.2879 I0.2514 J0.159
X0.4402 Y2.2631 I0.0972 J0.0964
X0.6282 Y2.1861 I0.2877 J0.434
X0.6628 Y2.1785 I0.0697 J0.2348
G2 X0.9915 Y2.1161 I-2.7441 J-15.3544
X1.4267 Y2.0581 I-1.3789 J-12.0037
X1.7893 Y1.9815 I-0.5632 J-3.5633
X2.094 Y1.8679 I-0.4742 J-1.7369
X2.3282 Y1.7121 I-0.4971 J-1.0016
X2.519 Y1.4797 I-0.6918 J-0.762
X2.6522 Y1.2283 I-1.7803 J-1.1049
X2.7403 Y1.0293 I-4.6854 J-2.192
X2.5935 Y0.769 I-3.1875 J1.625
X2.4702 Y0.6094 I-0.9469 J0.6042
X2.3357 Y0.5067 I-0.394 J0.3767
X2.1325 Y0.4479 I-0.2631 J0.5283
X1.9343 Y0.4421 I-0.1303 J1.0646
X1.6636 Y0.471 I0.134 J2.5346
X1.4905 Y0.4984 I0.9771 J6.7358
G1 X0.3727 Y0.7167
G3 X0.2277 Y0.7418 I-0.2638 J-1.092
X0.1115 Y0.7292 I-0.0256 J-0.307
X0.0206 Y0.6675 I0.0792 J-0.2147
X-0.053 Y0.5705 I0.4541 J-0.4209
X-0.0574 Y0.5323 I0.0863 J-0.0291
X-0.0474 Y0.4355 I0.3238 J-0.0155
X0.0249 Y0.3366 I0.1909 J0.0636
X0.0826 Y0.295 I0.2589 J0.2989
X0.2857 Y0.2212 I0.5017 J1.0632
X0.7789 Y0.11 I1.7571 J6.6468
X1.3348 Y0.0071 I2.9439 J14.3524
X1.7554 Y-0.0498 I1.9293 J12.6828
X1.9875 Y-0.0578 I0.3136 J5.6921
X2.0992 Y-0.0546 I-0.0084 J2.2115
G1 X2.109 Y-0.0539
X2.1189 Y-0.0532
X2.1288 Y-0.0524 Z-0.0801
X2.1386 Y-0.0517 Z-0.0802
X2.1484 Y-0.0507 Z-0.0803
X2.1583 Y-0.0498 Z-0.0804
X2.1681 Y-0.0488 Z-0.0806
X2.1779 Y-0.0477 Z-0.0807
X2.1877 Y-0.0465 Z-0.0809
X2.1975 Y-0.0454 Z-0.0811
X2.2072 Y-0.044 Z-0.0813
X2.217 Y-0.0426 Z-0.0816
X2.2268 Y-0.0412 Z-0.0818
X2.2365 Y-0.0396 Z-0.0821
X2.2462 Y-0.0379 Z-0.0823
X2.256 Y-0.0362 Z-0.0826
X2.2656 Y-0.0344 Z-0.0829
X2.2753 Y-0.0325 Z-0.0833
X2.2851 Y-0.0305 Z-0.0836
X2.2947 Y-0.0284 Z-0.0839
X2.3043 Y-0.0263 Z-0.0843
X2.314 Y-0.0241 Z-0.0846
X2.3235 Y-0.0218 Z-0.085
X2.3331 Y-0.0193 Z-0.0853
X2.3427 Y-0.0169 Z-0.0857
X2.3522 Y-0.0144 Z-0.086
X2.3618 Y-0.0118 Z-0.0864
X2.3713 Y-0.0091 Z-0.0867
X2.3808 Y-0.0064 Z-0.087
X2.3903 Y-0.0036 Z-0.0874
X2.3998 Y-0.0008 Z-0.0877
X2.4092 Y0.0022 Z-0.0881
X2.4281 Y0.0082 Z-0.0888
X2.4374 Y0.0113 Z-0.0891
X2.4562 Y0.0176 Z-0.0898
X2.4655 Y0.0209 Z-0.0902
X2.5028 Y0.0342 Z-0.0915
X2.5121 Y0.0375 Z-0.0919
X2.5213 Y0.0411 Z-0.0922
X2.5768 Y0.0623 Z-0.0943
X2.586 Y0.0659 Z-0.0946
X2.5952 Y0.0695 Z-0.095
X2.6044 Y0.0732 Z-0.0953
X2.6136 Y0.0769 Z-0.0957
X2.6228 Y0.0805 Z-0.096
X2.632 Y0.0842 Z-0.0964
X2.6412 Y0.0879 Z-0.0967
X2.6504 Y0.0916 Z-0.097
X2.6549 Y0.0936 Z-0.0972
X2.6591 Y0.0961 Z-0.0973
X2.6632 Y0.0988 Z-0.0975
X2.6671 Y0.1018 Z-0.0976
X2.6749 Y0.108 Z-0.0979
X2.6826 Y0.1141 Z-0.0982
X2.6904 Y0.1203 Z-0.0984
X2.6981 Y0.1264 Z-0.0987
X2.7059 Y0.1326 Z-0.0989
X2.7136 Y0.1388 Z-0.0991
X2.7214 Y0.1449 Z-0.0993
X2.7291 Y0.1511 Z-0.0994
X2.7368 Y0.1574 Z-0.0996
X2.7445 Y0.1636 Z-0.0997
X2.7522 Y0.1699 Z-0.0998
X2.7598 Y0.1762 Z-0.0999
X2.7674 Y0.1825 Z-0.1
X2.775 Y0.1888
X2.7826 Y0.1952
X2.7829 Y0.1954
G3 X2.9588 Y0.3677 I-0.9216 J1.1173
X3.0979 Y0.6049 I-0.6877 J0.5626
X3.1717 Y0.8321 I-1.594 J0.6432
X3.2048 Y0.9625 I-4.2527 J1.1508
X3.201 Y0.9948 I-0.0757 J0.0074
X3.0982 Y1.3736 I-8.3272 J-2.0563
X2.9885 Y1.6726 I-2.6727 J-0.811
X2.8435 Y1.9291 I-1.3661 J-0.6032
X2.5579 Y2.201 I-0.9072 J-0.6669
X2.2194 Y2.3727 I-0.8997 J-1.3542
X1.8762 Y2.4781 I-0.9631 J-2.5239
X1.4846 Y2.5591 I-1.2935 J-5.2675
X1.1559 Y2.6136 I-3.4531 J-19.8019
G1 X0.9239 Y2.6589
X0.7981 Y2.6821
X0.6725 Y2.7056
G3 X0.5516 Y2.7171 I-0.1365 J-0.7905
X0.4499 Y2.6958 I0.0006 J-0.2557
X0.3634 Y2.6141 I0.1016 J-0.1944
X0.3121 Y2.5194 I0.5132 J-0.3391
X0.3101 Y2.471 I0.2315 J-0.0338
X0.3338 Y2.3635 I0.2205 J-0.0079
X0.4019 Y2.2865 I0.2491 J0.1519
X0.4403 Y2.2584 I0.1137 J0.1149
X0.6242 Y2.1828 I0.2837 J0.4284
X0.6628 Y2.1743 I0.0796 J0.2703
G2 X0.9915 Y2.1119 I-2.8253 J-15.7835
X1.4896 Y2.0434 I-1.1278 J-10.0412
X1.8183 Y1.9689 I-0.5647 J-3.2533
X2.1182 Y1.8508 I-0.4671 J-1.6262
X2.3454 Y1.6908 I-0.5014 J-0.9534
X2.5142 Y1.4797 I-0.7308 J-0.7572
X2.6477 Y1.2283 I-1.7941 J-1.1138
X2.7357 Y1.0296 I-4.7616 J-2.2277
X2.5886 Y0.769 I-3.1591 J1.6113
X2.4663 Y0.6113 I-0.9384 J0.6017
X2.3309 Y0.5088 I-0.3901 J0.3748
X2.1325 Y0.452 I-0.2596 J0.5316
X1.9343 Y0.4462 I-0.1304 J1.067
X1.6636 Y0.4752 I0.1378 J2.5687
X1.4943 Y0.5018 I1.4228 J9.5929
G1 X0.3727 Y0.7208
G3 X0.2277 Y0.7459 I-0.2609 J-1.0739
X0.1115 Y0.7336 I-0.0254 J-0.3153
X0.0104 Y0.6623 I0.0811 J-0.2222
X-0.0381 Y0.6003 I0.3569 J-0.3294
X-0.059 Y0.5662 I0.1045 J-0.0874
X-0.0615 Y0.5226 I0.1578 J-0.0309
X-0.0468 Y0.421 I0.2834 J-0.0109
X0.021 Y0.3343 I0.1955 J0.083
X0.0777 Y0.2928 I0.3385 J0.4037
X0.3183 Y0.2086 I0.5148 J1.0847
X0.7837 Y0.105 I1.6589 J6.3572
X1.3976 Y-0.0068 I2.5701 J12.3711
X1.7506 Y-0.0534 I2.4412 J17.1099
X2.0262 Y-0.0617 I0.2727 J4.4765
X2.2631 Y-0.0385 I-0.0193 J1.4205
X2.5144 Y0.0373 I-0.3304 J1.5496
X2.6572 Y0.0942 I-1.4846 J3.9321
X2.7829 Y0.1955 I-2.1656 J2.8155
G1 X2.7849 Y0.1969 F35
X2.7871 Y0.1978
X2.7896 Y0.1983
X2.792
X2.7944 Y0.1979
X2.7967 Y0.197
X2.7987 Y0.1956
X2.8005 Y0.1939
X2.8023 Y0.1918 Z-0.0997
X2.804 Y0.1897 Z-0.0988
X2.8055 Y0.1879 Z-0.0973
X2.8068 Y0.1864 Z-0.0953
X2.8077 Y0.1853 Z-0.0929
X2.8083 Y0.1846 Z-0.0903
X2.8085 Y0.1843 Z-0.0875
G0 Z0.2
X1.1307 Y-0.0102
Z-0.0482
G1 Z-0.1075 F35
Y-0.0099 Z-0.1103
X1.1309 Y-0.009 Z-0.1129
X1.1312 Y-0.0075 Z-0.1153
X1.1315 Y-0.0056 Z-0.1173
X1.1319 Y-0.0033 Z-0.1188
X1.1324 Y-0.0007 Z-0.1197
X1.1329 Y0.0021 Z-0.12
X1.1366 Y0.0235
G2 X1.1511 Y0.0337 I0.0123 J-0.0022
G1 X1.2284 Y0.0201 F35.38
G2 X1.2386 Y0.0056 I-0.0022 J-0.0123 F35
X1.2261 Y-0.0047 I-0.0123 J0.0022 F35.38
G1 X1.1469 Y-0.0039
G2 X1.1316 Y0.0144 I0.0002 J0.0156
X1.141 Y0.0262 I0.0154 J-0.0027 F35
G1 X1.1414 Y0.0263
G2 X1.1526 Y-0.0028 Z-0.1217 I0.0056 J-0.0146
X1.1414 Y0.0263 Z-0.1234 I-0.0056 J0.0146
X1.1526 Y-0.0028 Z-0.1251 I0.0056 J-0.0146
X1.1414 Y0.0263 Z-0.1269 I-0.0056 J0.0146
X1.1526 Y-0.0028 Z-0.1286 I0.0056 J-0.0146
X1.1414 Y0.0263 Z-0.1303 I-0.0056 J0.0146
X1.1526 Y-0.0028 Z-0.132 I0.0056 J-0.0146
X1.1414 Y0.0263 Z-0.1337 I-0.0056 J0.0146
X1.1526 Y-0.0028 Z-0.1354 I0.0056 J-0.0146
X1.1414 Y0.0263 Z-0.1371 I-0.0056 J0.0146
X1.1526 Y-0.0028 Z-0.1389 I0.0056 J-0.0146
X1.1316 Y0.014 Z-0.14 I-0.0056 J0.0146
G1 Y0.0144
X1.1328 Y0.0208
G2 X1.1511 Y0.0337 I0.0156 J-0.0027
G1 X1.2284 Y0.0201 F35.38
G2 X1.2386 Y0.0056 I-0.0022 J-0.0123 F35
X1.2261 Y-0.0048 I-0.0123 J0.0022 F35.38
G1 X1.1469 Y-0.0039
G2 X1.1316 Y0.0144 I0.0002 J0.0156
X1.141 Y0.0262 I0.0154 J-0.0027 F35
G1 X1.1414 Y0.0263
G2 X1.1526 Y-0.0028 Z-0.1417 I0.0056 J-0.0146
X1.1414 Y0.0263 Z-0.1434 I-0.0056 J0.0146
X1.1526 Y-0.0028 Z-0.1451 I0.0056 J-0.0146
X1.1414 Y0.0263 Z-0.1469 I-0.0056 J0.0146
X1.1526 Y-0.0028 Z-0.1486 I0.0056 J-0.0146
X1.1414 Y0.0263 Z-0.1503 I-0.0056 J0.0146
X1.1526 Y-0.0028 Z-0.152 I0.0056 J-0.0146
X1.1414 Y0.0263 Z-0.1537 I-0.0056 J0.0146
X1.1526 Y-0.0028 Z-0.1554 I0.0056 J-0.0146
X1.1414 Y0.0263 Z-0.1571 I-0.0056 J0.0146
X1.1526 Y-0.0028 Z-0.1589 I0.0056 J-0.0146
X1.1316 Y0.014 Z-0.16 I-0.0056 J0.0146
G1 Y0.0144
X1.1328 Y0.0208
G2 X1.1511 Y0.0336 I0.0156 J-0.0027
G1 X1.2284 Y0.0201 F35.38
G2 X1.2386 Y0.0056 I-0.0022 J-0.0123 F35
X1.2261 Y-0.0048 I-0.0123 J0.0022 F35.38
G1 X1.1469 Y-0.0039
G2 X1.1316 Y0.0144 I0.0002 J0.0156
X1.141 Y0.0262 I0.0154 J-0.0027 F35
G1 X1.1414 Y0.0263
G2 X1.1526 Y-0.0028 Z-0.1617 I0.0056 J-0.0146
X1.1414 Y0.0263 Z-0.1634 I-0.0056 J0.0146
X1.1526 Y-0.0028 Z-0.1651 I0.0056 J-0.0146
X1.1414 Y0.0263 Z-0.1669 I-0.0056 J0.0146
X1.1526 Y-0.0028 Z-0.1686 I0.0056 J-0.0146
X1.1414 Y0.0263 Z-0.1703 I-0.0056 J0.0146
X1.1526 Y-0.0028 Z-0.172 I0.0056 J-0.0146
X1.1414 Y0.0263 Z-0.1737 I-0.0056 J0.0146
X1.1526 Y-0.0028 Z-0.1754 I0.0056 J-0.0146
X1.1414 Y0.0263 Z-0.1771 I-0.0056 J0.0146
X1.1526 Y-0.0028 Z-0.1789 I0.0056 J-0.0146
X1.1316 Y0.014 Z-0.18 I-0.0056 J0.0146
G1 Y0.0144
X1.1328 Y0.0208
G2 X1.1511 Y0.0336 I0.0156 J-0.0027
G1 X1.2284 Y0.0201 F35.38
G2 X1.2386 Y0.0056 I-0.0022 J-0.0123 F35
X1.2261 Y-0.0048 I-0.0123 J0.0022 F35.38
G1 X1.1469 Y-0.0039
G2 X1.1316 Y0.0144 I0.0002 J0.0156
X1.141 Y0.0262 I0.0154 J-0.0027 F35
G1 X1.1414 Y0.0263
G2 X1.1526 Y-0.0028 Z-0.1817 I0.0056 J-0.0146
X1.1414 Y0.0263 Z-0.1834 I-0.0056 J0.0146
X1.1526 Y-0.0028 Z-0.1851 I0.0056 J-0.0146
X1.1414 Y0.0263 Z-0.1869 I-0.0056 J0.0146
X1.1526 Y-0.0028 Z-0.1886 I0.0056 J-0.0146
X1.1414 Y0.0263 Z-0.1903 I-0.0056 J0.0146
X1.1526 Y-0.0028 Z-0.192 I0.0056 J-0.0146
X1.1414 Y0.0263 Z-0.1937 I-0.0056 J0.0146
X1.1526 Y-0.0028 Z-0.1954 I0.0056 J-0.0146
X1.1414 Y0.0263 Z-0.1971 I-0.0056 J0.0146
X1.1526 Y-0.0028 Z-0.1989 I0.0056 J-0.0146
X1.1316 Y0.014 Z-0.2 I-0.0056 J0.0146
G1 Y0.0144
X1.1328 Y0.0208
G2 X1.1511 Y0.0336 I0.0156 J-0.0027
G1 X1.2284 Y0.0201 F35.38
G2 X1.2386 Y0.0056 I-0.0022 J-0.0123 F35
X1.2261 Y-0.0048 I-0.0123 J0.0022 F35.38
G1 X1.1469 Y-0.0039
G2 X1.1316 Y0.0144 I0.0002 J0.0156
X1.141 Y0.0262 I0.0154 J-0.0027 F35
G1 X1.1414 Y0.0263
G2 X1.1526 Y-0.0028 Z-0.2017 I0.0056 J-0.0146
X1.1414 Y0.0263 Z-0.2034 I-0.0056 J0.0146
X1.1526 Y-0.0028 Z-0.2051 I0.0056 J-0.0146
X1.1414 Y0.0263 Z-0.2069 I-0.0056 J0.0146
X1.1526 Y-0.0028 Z-0.2086 I0.0056 J-0.0146
X1.1414 Y0.0263 Z-0.2103 I-0.0056 J0.0146
X1.1526 Y-0.0028 Z-0.212 I0.0056 J-0.0146
X1.1414 Y0.0263 Z-0.2137 I-0.0056 J0.0146
X1.1526 Y-0.0028 Z-0.2154 I0.0056 J-0.0146
X1.1414 Y0.0263 Z-0.2171 I-0.0056 J0.0146
X1.1526 Y-0.0028 Z-0.2189 I0.0056 J-0.0146
X1.1316 Y0.014 Z-0.22 I-0.0056 J0.0146
G1 Y0.0144
X1.1328 Y0.0208
G2 X1.1511 Y0.0336 I0.0156 J-0.0027
G1 X1.2284 Y0.0201 F35.38
G2 X1.2386 Y0.0056 I-0.0022 J-0.0123 F35
X1.2261 Y-0.0048 I-0.0123 J0.0022 F35.38
G1 X1.1469 Y-0.0039
G2 X1.1316 Y0.0144 I0.0002 J0.0156
X1.141 Y0.0262 I0.0154 J-0.0027 F35
G1 X1.1414 Y0.0263
G2 X1.1526 Y-0.0028 Z-0.2217 I0.0056 J-0.0146
X1.1414 Y0.0263 Z-0.2234 I-0.0056 J0.0146
X1.1526 Y-0.0028 Z-0.2251 I0.0056 J-0.0146
X1.1414 Y0.0263 Z-0.2269 I-0.0056 J0.0146
X1.1526 Y-0.0028 Z-0.2286 I0.0056 J-0.0146
X1.1414 Y0.0263 Z-0.2303 I-0.0056 J0.0146
X1.1526 Y-0.0028 Z-0.232 I0.0056 J-0.0146
X1.1414 Y0.0263 Z-0.2337 I-0.0056 J0.0146
X1.1526 Y-0.0028 Z-0.2354 I0.0056 J-0.0146
X1.1414 Y0.0263 Z-0.2371 I-0.0056 J0.0146
X1.1526 Y-0.0028 Z-0.2389 I0.0056 J-0.0146
X1.1316 Y0.014 Z-0.24 I-0.0056 J0.0146
G1 Y0.0144
X1.1328 Y0.0208
G2 X1.1511 Y0.0336 I0.0156 J-0.0027
G1 X1.2284 Y0.0201 F35.38
G2 X1.2386 Y0.0056 I-0.0022 J-0.0123 F35
X1.2261 Y-0.0048 I-0.0123 J0.0022 F35.38
G1 X1.1469 Y-0.0039
G2 X1.1316 Y0.0144 I0.0002 J0.0156
X1.141 Y0.0262 I0.0154 J-0.0027 F35
G1 X1.1414 Y0.0263
G2 X1.1526 Y-0.0028 Z-0.2417 I0.0056 J-0.0146
X1.1414 Y0.0263 Z-0.2434 I-0.0056 J0.0146
X1.1526 Y-0.0028 Z-0.2451 I0.0056 J-0.0146
X1.1414 Y0.0263 Z-0.2469 I-0.0056 J0.0146
X1.1526 Y-0.0028 Z-0.2486 I0.0056 J-0.0146
X1.1414 Y0.0263 Z-0.2503 I-0.0056 J0.0146
X1.1526 Y-0.0028 Z-0.252 I0.0056 J-0.0146
X1.1414 Y0.0263 Z-0.2537 I-0.0056 J0.0146
X1.1526 Y-0.0028 Z-0.2554 I0.0056 J-0.0146
X1.1414 Y0.0263 Z-0.2571 I-0.0056 J0.0146
X1.1526 Y-0.0028 Z-0.2589 I0.0056 J-0.0146
X1.1316 Y0.014 Z-0.26 I-0.0056 J0.0146
G1 Y0.0144
X1.1328 Y0.0208
G2 X1.1511 Y0.0336 I0.0156 J-0.0027
G1 X1.2025 Y0.0246 F35.38
X1.2284 Y0.0201
G2 X1.2386 Y0.0056 I-0.0022 J-0.0123 F35
X1.2261 Y-0.0048 I-0.0123 J0.0022 F35.38
G1 X1.1469 Y-0.0039
G2 X1.1316 Y0.0144 I0.0002 J0.0156
X1.141 Y0.0262 I0.0154 J-0.0027 F35
G1 X1.1414 Y0.0263
G2 X1.1526 Y-0.0028 Z-0.2617 I0.0056 J-0.0146
X1.1414 Y0.0263 Z-0.2634 I-0.0056 J0.0146
X1.1526 Y-0.0028 Z-0.2651 I0.0056 J-0.0146
X1.1414 Y0.0263 Z-0.2669 I-0.0056 J0.0146
X1.1526 Y-0.0028 Z-0.2686 I0.0056 J-0.0146
X1.1414 Y0.0263 Z-0.2703 I-0.0056 J0.0146
X1.1526 Y-0.0028 Z-0.272 I0.0056 J-0.0146
X1.1414 Y0.0263 Z-0.2737 I-0.0056 J0.0146
X1.1526 Y-0.0028 Z-0.2754 I0.0056 J-0.0146
X1.1414 Y0.0263 Z-0.2771 I-0.0056 J0.0146
X1.1526 Y-0.0028 Z-0.2789 I0.0056 J-0.0146
X1.1316 Y0.014 Z-0.28 I-0.0056 J0.0146
G1 Y0.0144
X1.1328 Y0.0208
G2 X1.1511 Y0.0336 I0.0156 J-0.0027
G1 X1.1994 Y0.0252 F35.38
X1.2284 Y0.0201
G2 X1.2386 Y0.0056 I-0.0022 J-0.0123 F35
X1.2261 Y-0.0048 I-0.0123 J0.0022 F35.38
G1 X1.1469 Y-0.0039
G2 X1.1316 Y0.0144 I0.0002 J0.0156
X1.141 Y0.0262 I0.0154 J-0.0027 F35
G1 X1.1414 Y0.0263
G2 X1.1526 Y-0.0028 Z-0.2817 I0.0056 J-0.0146
X1.1414 Y0.0263 Z-0.2834 I-0.0056 J0.0146
X1.1526 Y-0.0028 Z-0.2851 I0.0056 J-0.0146
X1.1414 Y0.0263 Z-0.2869 I-0.0056 J0.0146
X1.1526 Y-0.0028 Z-0.2886 I0.0056 J-0.0146
X1.1414 Y0.0263 Z-0.2903 I-0.0056 J0.0146
X1.1526 Y-0.0028 Z-0.292 I0.0056 J-0.0146
X1.1414 Y0.0263 Z-0.2937 I-0.0056 J0.0146
X1.1526 Y-0.0028 Z-0.2954 I0.0056 J-0.0146
X1.1414 Y0.0263 Z-0.2971 I-0.0056 J0.0146
X1.1526 Y-0.0028 Z-0.2989 I0.0056 J-0.0146
X1.1316 Y0.014 Z-0.3 I-0.0056 J0.0146
G1 Y0.0144
X1.1328 Y0.0208
G2 X1.1511 Y0.0336 I0.0156 J-0.0027
G1 X1.1946 Y0.026 F35.38
X1.2284 Y0.0201
G2 X1.2386 Y0.0056 I-0.0022 J-0.0123 F35
X1.2261 Y-0.0048 I-0.0123 J0.0022 F35.38
G1 X1.1469 Y-0.0039
G2 X1.1316 Y0.0144 I0.0002 J0.0156
X1.141 Y0.0262 I0.0154 J-0.0027 F35
G1 X1.1414 Y0.0263
G2 X1.1526 Y-0.0028 Z-0.3017 I0.0056 J-0.0146
X1.1414 Y0.0263 Z-0.3034 I-0.0056 J0.0146
X1.1526 Y-0.0028 Z-0.3051 I0.0056 J-0.0146
X1.1414 Y0.0263 Z-0.3069 I-0.0056 J0.0146
X1.1526 Y-0.0028 Z-0.3086 I0.0056 J-0.0146
X1.1414 Y0.0263 Z-0.3103 I-0.0056 J0.0146
X1.1526 Y-0.0028 Z-0.312 I0.0056 J-0.0146
X1.1414 Y0.0263 Z-0.3137 I-0.0056 J0.0146
X1.1526 Y-0.0028 Z-0.3154 I0.0056 J-0.0146
X1.1414 Y0.0263 Z-0.3171 I-0.0056 J0.0146
X1.1526 Y-0.0028 Z-0.3189 I0.0056 J-0.0146
X1.1316 Y0.014 Z-0.32 I-0.0056 J0.0146
G1 Y0.0144
X1.1328 Y0.0208
G2 X1.1511 Y0.0336 I0.0156 J-0.0027
G1 X1.1898 Y0.0269 F35.38
X1.2284 Y0.0201
G2 X1.2386 Y0.0056 I-0.0022 J-0.0123 F35
X1.2261 Y-0.0048 I-0.0123 J0.0022 F35.38
G1 X1.1469 Y-0.0039
G2 X1.1316 Y0.0144 I0.0002 J0.0156
X1.141 Y0.0262 I0.0154 J-0.0027 F35
G1 X1.1414 Y0.0263
G2 X1.1526 Y-0.0028 Z-0.3217 I0.0056 J-0.0146
X1.1414 Y0.0263 Z-0.3234 I-0.0056 J0.0146
X1.1526 Y-0.0028 Z-0.3251 I0.0056 J-0.0146
X1.1414 Y0.0263 Z-0.3269 I-0.0056 J0.0146
X1.1526 Y-0.0028 Z-0.3286 I0.0056 J-0.0146
X1.1414 Y0.0263 Z-0.3303 I-0.0056 J0.0146
X1.1526 Y-0.0028 Z-0.332 I0.0056 J-0.0146
X1.1414 Y0.0263 Z-0.3337 I-0.0056 J0.0146
X1.1526 Y-0.0028 Z-0.3354 I0.0056 J-0.0146
X1.1414 Y0.0263 Z-0.3371 I-0.0056 J0.0146
X1.1526 Y-0.0028 Z-0.3389 I0.0056 J-0.0146
X1.1316 Y0.014 Z-0.34 I-0.0056 J0.0146
G1 Y0.0144
X1.1328 Y0.0208
G2 X1.1511 Y0.0336 I0.0156 J-0.0027
G1 X1.1801 Y0.0286 F35.38
X1.2284 Y0.0201
G2 X1.2386 Y0.0056 I-0.0022 J-0.0123 F35
X1.2261 Y-0.0048 I-0.0123 J0.0022 F35.38
G1 X1.1469 Y-0.0039
G2 X1.1316 Y0.0144 I0.0002 J0.0156
X1.141 Y0.0262 I0.0154 J-0.0027 F35
G1 X1.1414 Y0.0263
G2 X1.1526 Y-0.0028 Z-0.3417 I0.0056 J-0.0146
X1.1414 Y0.0263 Z-0.3434 I-0.0056 J0.0146
X1.1526 Y-0.0028 Z-0.3451 I0.0056 J-0.0146
X1.1414 Y0.0263 Z-0.3469 I-0.0056 J0.0146
X1.1526 Y-0.0028 Z-0.3486 I0.0056 J-0.0146
X1.1414 Y0.0263 Z-0.3503 I-0.0056 J0.0146
X1.1526 Y-0.0028 Z-0.352 I0.0056 J-0.0146
X1.1414 Y0.0263 Z-0.3537 I-0.0056 J0.0146
X1.1526 Y-0.0028 Z-0.3554 I0.0056 J-0.0146
X1.1414 Y0.0263 Z-0.3571 I-0.0056 J0.0146
X1.1526 Y-0.0028 Z-0.3589 I0.0056 J-0.0146
X1.1316 Y0.014 Z-0.36 I-0.0056 J0.0146
G1 Y0.0144
X1.1328 Y0.0208
G2 X1.1511 Y0.0336 I0.0156 J-0.0027
G1 X1.175 Y0.0295 F35.38
X1.2284 Y0.0201
G2 X1.2386 Y0.0056 I-0.0022 J-0.0123 F35
X1.2261 Y-0.0048 I-0.0123 J0.0022 F35.38
G1 X1.1469 Y-0.0039
G2 X1.1316 Y0.0144 I0.0002 J0.0156
X1.141 Y0.0262 I0.0154 J-0.0027 F35
G1 X1.1414 Y0.0263
G2 X1.1526 Y-0.0028 Z-0.3617 I0.0056 J-0.0146
X1.1414 Y0.0263 Z-0.3634 I-0.0056 J0.0146
X1.1526 Y-0.0028 Z-0.3651 I0.0056 J-0.0146
X1.1414 Y0.0263 Z-0.3669 I-0.0056 J0.0146
X1.1526 Y-0.0028 Z-0.3686 I0.0056 J-0.0146
X1.1414 Y0.0263 Z-0.3703 I-0.0056 J0.0146
X1.1526 Y-0.0028 Z-0.372 I0.0056 J-0.0146
X1.1414 Y0.0263 Z-0.3737 I-0.0056 J0.0146
X1.1526 Y-0.0028 Z-0.3754 I0.0056 J-0.0146
X1.1414 Y0.0263 Z-0.3771 I-0.0056 J0.0146
X1.1526 Y-0.0028 Z-0.3789 I0.0056 J-0.0146
X1.1316 Y0.014 Z-0.38 I-0.0056 J0.0146
G1 Y0.0144
X1.1328 Y0.0208
G2 X1.1511 Y0.0336 I0.0156 J-0.0027
G1 X1.1704 Y0.0303 F35.38
X1.2284 Y0.0201
G2 X1.2386 Y0.0056 I-0.0022 J-0.0123 F35
X1.2261 Y-0.0048 I-0.0123 J0.0022 F35.38
G1 X1.1469 Y-0.0039
G2 X1.1316 Y0.0144 I0.0002 J0.0156
X1.141 Y0.0262 I0.0154 J-0.0027 F35
G1 X1.1414 Y0.0263
G2 X1.1526 Y-0.0028 Z-0.3817 I0.0056 J-0.0146
X1.1414 Y0.0263 Z-0.3834 I-0.0056 J0.0146
X1.1526 Y-0.0028 Z-0.3851 I0.0056 J-0.0146
X1.1414 Y0.0263 Z-0.3869 I-0.0056 J0.0146
X1.1526 Y-0.0028 Z-0.3886 I0.0056 J-0.0146
X1.1414 Y0.0263 Z-0.3903 I-0.0056 J0.0146
X1.1526 Y-0.0028 Z-0.392 I0.0056 J-0.0146
X1.1414 Y0.0263 Z-0.3937 I-0.0056 J0.0146
X1.1526 Y-0.0028 Z-0.3954 I0.0056 J-0.0146
X1.1414 Y0.0263 Z-0.3971 I-0.0056 J0.0146
X1.1526 Y-0.0028 Z-0.3989 I0.0056 J-0.0146
X1.1316 Y0.014 Z-0.4 I-0.0056 J0.0146
G1 Y0.0144
X1.1328 Y0.0208
G2 X1.1511 Y0.0336 I0.0156 J-0.0027
G1 X1.2284 Y0.0201 F35.38
G2 X1.2386 Y0.0056 I-0.0022 J-0.0123 F35
X1.2261 Y-0.0048 I-0.0123 J0.0022 F35.38
G1 X1.1469 Y-0.0039
G2 X1.1316 Y0.0144 I0.0002 J0.0156
X1.141 Y0.0262 I0.0154 J-0.0027 F35
G1 X1.1414 Y0.0263
G2 X1.1526 Y-0.0028 Z-0.4017 I0.0056 J-0.0146
X1.1414 Y0.0263 Z-0.4034 I-0.0056 J0.0146
X1.1526 Y-0.0028 Z-0.4051 I0.0056 J-0.0146
X1.1414 Y0.0263 Z-0.4069 I-0.0056 J0.0146
X1.1526 Y-0.0028 Z-0.4086 I0.0056 J-0.0146
X1.1414 Y0.0263 Z-0.4103 I-0.0056 J0.0146
X1.1526 Y-0.0028 Z-0.412 I0.0056 J-0.0146
X1.1414 Y0.0263 Z-0.4137 I-0.0056 J0.0146
X1.1526 Y-0.0028 Z-0.4154 I0.0056 J-0.0146
X1.1414 Y0.0263 Z-0.4171 I-0.0056 J0.0146
X1.1526 Y-0.0028 Z-0.4189 I0.0056 J-0.0146
X1.1316 Y0.014 Z-0.42 I-0.0056 J0.0146
G1 Y0.0144
X1.1328 Y0.0208
G2 X1.1511 Y0.0336 I0.0156 J-0.0027
G1 X1.2284 Y0.0201 F35.38
G2 X1.2386 Y0.0056 I-0.0022 J-0.0123 F35
X1.2261 Y-0.0048 I-0.0123 J0.0022 F35.38
G1 X1.1469 Y-0.0039
G2 X1.1316 Y0.0144 I0.0002 J0.0156
X1.141 Y0.0262 I0.0154 J-0.0027 F35
G1 X1.1414 Y0.0263
G2 X1.1526 Y-0.0028 Z-0.4217 I0.0056 J-0.0146
X1.1414 Y0.0263 Z-0.4234 I-0.0056 J0.0146
X1.1526 Y-0.0028 Z-0.4251 I0.0056 J-0.0146
X1.1414 Y0.0263 Z-0.4269 I-0.0056 J0.0146
X1.1526 Y-0.0028 Z-0.4286 I0.0056 J-0.0146
X1.1414 Y0.0263 Z-0.4303 I-0.0056 J0.0146
X1.1526 Y-0.0028 Z-0.432 I0.0056 J-0.0146
X1.1414 Y0.0263 Z-0.4337 I-0.0056 J0.0146
X1.1526 Y-0.0028 Z-0.4354 I0.0056 J-0.0146
X1.1414 Y0.0263 Z-0.4371 I-0.0056 J0.0146
X1.1526 Y-0.0028 Z-0.4389 I0.0056 J-0.0146
X1.1316 Y0.014 Z-0.44 I-0.0056 J0.0146
G1 Y0.0144
X1.1328 Y0.0208
G2 X1.1511 Y0.0336 I0.0156 J-0.0027
G1 X1.2284 Y0.0201 F35.38
G2 X1.2386 Y0.0056 I-0.0022 J-0.0123 F35
X1.2261 Y-0.0048 I-0.0123 J0.0022 F35.38
G1 X1.1469 Y-0.0039
G2 X1.1316 Y0.0144 I0.0002 J0.0156
X1.141 Y0.0262 I0.0154 J-0.0027 F35
G1 X1.1414 Y0.0263
G2 X1.1526 Y-0.0028 Z-0.4417 I0.0056 J-0.0146
X1.1414 Y0.0263 Z-0.4434 I-0.0056 J0.0146
X1.1526 Y-0.0028 Z-0.4451 I0.0056 J-0.0146
X1.1414 Y0.0263 Z-0.4469 I-0.0056 J0.0146
X1.1526 Y-0.0028 Z-0.4486 I0.0056 J-0.0146
X1.1414 Y0.0263 Z-0.4503 I-0.0056 J0.0146
X1.1526 Y-0.0028 Z-0.452 I0.0056 J-0.0146
X1.1414 Y0.0263 Z-0.4537 I-0.0056 J0.0146
X1.1526 Y-0.0028 Z-0.4554 I0.0056 J-0.0146
X1.1414 Y0.0263 Z-0.4571 I-0.0056 J0.0146
X1.1526 Y-0.0028 Z-0.4589 I0.0056 J-0.0146
X1.1316 Y0.014 Z-0.46 I-0.0056 J0.0146
G1 Y0.0144
X1.1328 Y0.0208
G2 X1.1511 Y0.0336 I0.0156 J-0.0027
G1 X1.2284 Y0.0201 F35.38
G2 X1.2386 Y0.0056 I-0.0022 J-0.0123 F35
X1.2261 Y-0.0048 I-0.0123 J0.0022 F35.38
G1 X1.1469 Y-0.0039
G2 X1.1316 Y0.0144 I0.0002 J0.0156
X1.141 Y0.0262 I0.0154 J-0.0027 F35
G1 X1.1414 Y0.0263
G2 X1.1526 Y-0.0028 Z-0.4617 I0.0056 J-0.0146
X1.1414 Y0.0263 Z-0.4634 I-0.0056 J0.0146
X1.1526 Y-0.0028 Z-0.4651 I0.0056 J-0.0146
X1.1414 Y0.0263 Z-0.4669 I-0.0056 J0.0146
X1.1526 Y-0.0028 Z-0.4686 I0.0056 J-0.0146
X1.1414 Y0.0263 Z-0.4703 I-0.0056 J0.0146
X1.1526 Y-0.0028 Z-0.472 I0.0056 J-0.0146
X1.1414 Y0.0263 Z-0.4737 I-0.0056 J0.0146
X1.1526 Y-0.0028 Z-0.4754 I0.0056 J-0.0146
X1.1414 Y0.0263 Z-0.4771 I-0.0056 J0.0146
X1.1526 Y-0.0028 Z-0.4789 I0.0056 J-0.0146
X1.1316 Y0.014 Z-0.48 I-0.0056 J0.0146
G1 Y0.0144
X1.1328 Y0.0208
G2 X1.1511 Y0.0336 I0.0156 J-0.0027
G1 X1.2284 Y0.0201 F35.38
G2 X1.2386 Y0.0056 I-0.0022 J-0.0123 F35
X1.2261 Y-0.0048 I-0.0123 J0.0022 F35.38
G1 X1.1469 Y-0.0039
G2 X1.1347 Y0.0213 I0.0002 J0.0156
G1 X1.135 Y0.0217 F35
G2 X1.1591 Y0.0018 Z-0.4817 I0.0121 J-0.0099
X1.135 Y0.0217 Z-0.4834 I-0.0121 J0.0099
X1.1591 Y0.0018 Z-0.4851 I0.0121 J-0.0099
X1.135 Y0.0217 Z-0.4869 I-0.0121 J0.0099
X1.1591 Y0.0018 Z-0.4886 I0.0121 J-0.0099
X1.1316 Y0.014 Z-0.49 I-0.0121 J0.0099
G1 Y0.0144
X1.1328 Y0.0208
G2 X1.1511 Y0.0336 I0.0156 J-0.0027
G1 X1.2284 Y0.0201 F35.38
G2 X1.2386 Y0.0056 I-0.0022 J-0.0123 F35
G1 X1.2381 Y0.0028 Z-0.4897
X1.2377 Y0.0002 Z-0.4888
X1.2372 Y-0.0021 Z-0.4873
X1.2369 Y-0.004 Z-0.4853
X1.2366 Y-0.0055 Z-0.4829
X1.2365 Y-0.0064 Z-0.4803
X1.2364 Y-0.0067 Z-0.4775
G0 Z0.6
M9
M30
%
