%
(1001)
(T6  D=0.25 CR=0 - ZMIN=-0.441 - flat end mill)
G90 G94
G17
G20

(2D Contour1)
M9
T6 M6
S5514 M3
G54
M8
G0 X1.4339 Y1.7462
Z0.6
Z0.2
G1 Z0.0894 F21.36
Z-0.025
X1.4342 Z-0.0289
X1.4351 Z-0.0327
X1.4366 Z-0.0363
X1.4387 Y1.7461 Z-0.0397
X1.4412 Z-0.0427
X1.4442 Y1.746 Z-0.0452
X1.4476 Y1.7459 Z-0.0473
X1.4512 Y1.7458 Z-0.0488
X1.455 Y1.7457 Z-0.0497
X1.4589 Y1.7456 Z-0.05
X1.4839 Y1.745
G2 X1.5083 Y1.7194 I-0.0006 J-0.025
G3 X1.505 Y1.5516 I18.1924 J-0.442
G1 X1.5006 Y0.8462
X1.1612 Y0.9041
G2 X0.6765 Y1.0223 I1.6839 J7.9589
G3 X0.2535 Y1.1231 I-2.2112 J-8.3429
X0.2412 Y1.1251 I-0.0264 J-0.1222
X0.139 Y1.1271 I-0.0592 J-0.4013
G1 X0.133 Y1.1259
G3 X0.1269 Y1.1248 I0.0191 J-0.1235
X0.0308 Y1.0879 I0.0679 J-0.3209
G1 X0.0249 Y1.0852
G3 X0.0036 Y1.0712 I0.0577 J-0.1109
X-0.0659 Y1.0033 I0.2467 J-0.3219
G1 X-0.0691 Y0.9983
X-0.0725 Y0.9933
G3 X-0.076 Y0.988 I0.1029 J-0.071
X-0.1148 Y0.8939 I0.2793 J-0.1702
G1 X-0.1169 Y0.8879
G3 X-0.121 Y0.8669 I0.1202 J-0.0343
X-0.1221 Y0.7647 I0.3903 J-0.0554
G1 X-0.1208 Y0.7588
G3 X-0.1195 Y0.7526 I0.1233 J0.0208
G1 X-0.1182 Y0.7467
G3 X-0.1168 Y0.7408 I0.122 J0.0271
X-0.078 Y0.652 I0.3376 J0.0945
G1 X-0.0737 Y0.6446
X-0.069 Y0.6375
X-0.0638 Y0.6307
G3 X0.0105 Y0.5588 I0.3096 J0.2457
G1 X0.0158 Y0.5557
G3 X0.021 Y0.5524 I0.0694 J0.104
X0.1155 Y0.5145 I0.1712 J0.29
G1 X0.1216 Y0.5125
G3 X0.1289 Y0.5106 I0.0337 J0.1204
G2 X0.6315 Y0.3888 I-1.8243 J-8.623
G3 X1.0491 Y0.2911 I2.1544 J8.263
X1.4666 Y0.2218 I2.5324 J13.9758
G2 X1.6748 Y0.1849 I-2.7649 J-16.2155
X2.241 Y0.0419 I-1.6821 J-7.8486
G3 X2.6444 Y-0.0668 I3.7306 J13.0432
X2.8729 Y-0.1186 I4.7629 J20.4787
X2.8864 Y-0.1208 I0.027 J0.1221
X2.9881 Y-0.1224 I0.057 J0.3997
G1 X2.9941 Y-0.1211
G3 X3.0001 Y-0.12 I-0.0196 J0.1234
X3.0952 Y-0.0835 I-0.0698 J0.3238
G1 X3.101 Y-0.0808
G3 X3.1216 Y-0.0675 I-0.0575 J0.111
X3.1919 Y0.0001 I-0.2428 J0.3233
G1 X3.1953 Y0.0053
X3.1988 Y0.0102
G3 X3.2024 Y0.0156 I-0.1024 J0.0717
X3.2418 Y0.1101 I-0.2762 J0.1706
G1 X3.2439 Y0.1161
G3 X3.2481 Y0.1377 I-0.1201 J0.0346
X3.2488 Y0.2406 I-0.3875 J0.0543
G1 X3.2474 Y0.2465
G3 X3.2462 Y0.2528 I-0.1231 J-0.0216
G1 X3.2448 Y0.2587
G3 X3.2433 Y0.2647 I-0.1218 J-0.0279
X3.2035 Y0.3536 I-0.3356 J-0.0968
G1 X3.1994 Y0.3607
X3.1948 Y0.3675
X3.1898 Y0.3739
G3 X3.1163 Y0.4451 I-0.3109 J-0.2478
G1 X3.111 Y0.4482
G3 X3.1059 Y0.4515 I-0.0698 J-0.1037
X3.0121 Y0.4897 I-0.172 J-0.2885
G1 X3.006 Y0.4917
G3 X2.9995 Y0.4934 I-0.0342 J-0.1202
G2 X2.5238 Y0.6218 I1.0401 J4.7974
G3 X2.2378 Y0.7052 I-2.6619 J-8.5964
X2.1288 Y0.7317 I-2.5987 J-10.4739
G1 Y1.4671
G2 X2.1413 Y1.8756 I7.8981 J-0.0369
X2.1696 Y2.1429 I4.8896 J-0.3821
G3 X2.5111 Y2.0793 I0.8956 J3.8599
X2.8093 Y2.0404 I1.1259 J7.4768
G2 X3.2092 Y1.9809 I-0.863 J-7.1671
G3 X3.2171 Y1.9797 I0.0213 J0.1232
X3.3195 Y1.9786 I0.0556 J0.3924
G1 X3.3255 Y1.9799
G3 X3.3316 Y1.9811 I-0.0207 J0.1233
X3.4267 Y2.0191 I-0.0717 J0.3177
G1 X3.4325 Y2.0218
G3 X3.4525 Y2.0352 I-0.0593 J0.1101
X3.5246 Y2.107 I-0.2359 J0.309
G1 X3.5277 Y2.1121
G3 X3.5313 Y2.1175 I-0.1026 J0.0715
X3.5703 Y2.2109 I-0.2775 J0.1708
G1 X3.5724 Y2.2168
G3 X3.5766 Y2.2383 I-0.12 J0.035
X3.5778 Y2.3405 I-0.3905 J0.0555
G1 X3.5764 Y2.3465
G3 X3.5752 Y2.3528 I-0.1233 J-0.0208
X3.5367 Y2.4478 I-0.3135 J-0.0716
G1 X3.534 Y2.4535
G3 X3.5199 Y2.4741 I-0.1097 J-0.06
X3.4466 Y2.5457 I-0.3081 J-0.2423
G1 X3.4414 Y2.5488
G3 X3.4362 Y2.5521 I-0.07 J-0.1036
X3.3425 Y2.5903 I-0.1708 J-0.2853
G1 X3.3365 Y2.5923
G3 X3.3236 Y2.5953 I-0.0342 J-0.1202
X2.8743 Y2.6605 I-1.2182 J-6.8088
G2 X2.4758 Y2.7176 I0.8855 J7.5963
X2.351 Y2.7443 I0.3675 J2.027
X1.9346 Y2.8531 I1.3683 J6.0881
G3 X1.5796 Y2.9517 I-4.6746 J-16.1305
X1.2899 Y3.0183 I-2.1011 J-8.4743
X1.0249 Y3.0623 I-3.6101 J-20.9426
G2 X0.8807 Y3.0925 I0.4352 J2.4351
X0.7439 Y3.1522 I0.1971 J0.6386
G3 X0.6758 Y3.1773 I-0.1781 J-0.378
G1 X0.6684 Y3.1793
X0.6609 Y3.1807
X0.6533 Y3.1818
G3 X0.5539 Y3.1829 I-0.0543 J-0.4041
G1 X0.5477 Y3.1815
X0.5417 Y3.1804
G3 X0.5351 Y3.179 I0.0232 J-0.1228
G1 X0.5292 Y3.1775
G3 X0.5231 Y3.1759 I0.0297 J-0.1214
X0.4382 Y3.1366 I0.0983 J-0.3239
G1 X0.4325 Y3.1335
G3 X0.4144 Y3.1205 I0.0636 J-0.1076
X0.3389 Y3.0398 I0.2414 J-0.3012
X0.2986 Y2.9418 I0.3168 J-0.1879
G1 X0.2965 Y2.934
X0.2948 Y2.9261
X0.2937 Y2.9182
X0.2932 Y2.9102
X0.2931 Y2.9021
X0.2935 Y2.8941
X0.2945 Y2.8861
G3 X0.3177 Y2.7819 I0.6247 J0.084
G1 X0.3204 Y2.7753
X0.3248 Y2.7643
G3 X0.3281 Y2.7566 I0.1162 J0.046
G1 X0.3331 Y2.7461
G3 X0.3376 Y2.7375 I0.1129 J0.0537
G1 X0.3433 Y2.7275
G3 X0.3487 Y2.719 I0.1084 J0.0622
G1 X0.3552 Y2.7095
G3 X0.3608 Y2.7019 I0.103 J0.0708
G1 X0.3681 Y2.6929
G3 X0.3737 Y2.6864 I0.0974 J0.0783
G1 X0.3816 Y2.6779
G3 X0.387 Y2.6724 I0.0918 J0.0848
G1 X0.3955 Y2.6643
G3 X0.4005 Y2.6597 I0.0864 J0.0903
G1 X0.4096 Y2.6519
G3 X0.4143 Y2.6481 I0.0814 J0.0949
X0.5186 Y2.5833 I0.3676 J0.4754
X0.6987 Y2.5006 I0.6723 J1.2274
X0.9189 Y2.4459 I0.4969 J1.5283
G2 X1.5566 Y2.3059 I-2.1966 J-11.5271
G3 X1.5085 Y1.7194 I4.4791 J-0.6629
G1 X1.508 Y1.7155
X1.507 Y1.7116
X1.5054 Y1.708
X1.5032 Y1.7048
X1.5006 Y1.7018
X1.4975 Y1.6994
X1.4941 Y1.6974
X1.4904 Y1.696
X1.4866 Y1.6952
X1.4827 Y1.695
X1.4577 Y1.6956
X1.4538 Y1.6957 Z-0.0497
X1.4499 Y1.6958 Z-0.0488
X1.4463 Y1.6959 Z-0.0473
X1.443 Y1.696 Z-0.0452
X1.44 Y1.6961 Z-0.0427
X1.4374 Z-0.0397
X1.4354 Y1.6962 Z-0.0363
X1.4339 Z-0.0327
X1.433 Y1.6963 Z-0.0289
X1.4327 Z-0.025
X1.4339 Y1.7462
Z-0.075
X1.4342 Z-0.0789
X1.4351 Z-0.0827
X1.4366 Z-0.0863
X1.4387 Y1.7461 Z-0.0897
X1.4412 Z-0.0927
X1.4442 Y1.746 Z-0.0952
X1.4476 Y1.7459 Z-0.0973
X1.4512 Y1.7458 Z-0.0988
X1.455 Y1.7457 Z-0.0997
X1.4589 Y1.7456 Z-0.1
X1.4839 Y1.745
G2 X1.5083 Y1.7194 I-0.0006 J-0.025
G3 X1.505 Y1.5516 I18.1924 J-0.442
G1 X1.5006 Y0.8462
X1.1612 Y0.9041
G2 X0.6765 Y1.0223 I1.6839 J7.9589
G3 X0.2535 Y1.1231 I-2.2112 J-8.3429
X0.2412 Y1.1251 I-0.0264 J-0.1222
X0.139 Y1.1271 I-0.0592 J-0.4013
G1 X0.133 Y1.1259
G3 X0.1269 Y1.1248 I0.0191 J-0.1235
X0.0308 Y1.0879 I0.0679 J-0.3209
G1 X0.0249 Y1.0852
G3 X0.0036 Y1.0712 I0.0577 J-0.1109
X-0.0659 Y1.0033 I0.2467 J-0.3219
G1 X-0.0691 Y0.9983
X-0.0725 Y0.9933
G3 X-0.076 Y0.988 I0.1029 J-0.071
X-0.1148 Y0.8939 I0.2793 J-0.1702
G1 X-0.1169 Y0.8879
G3 X-0.121 Y0.8669 I0.1202 J-0.0343
X-0.1221 Y0.7647 I0.3903 J-0.0554
G1 X-0.1208 Y0.7588
G3 X-0.1195 Y0.7526 I0.1233 J0.0208
G1 X-0.1182 Y0.7467
G3 X-0.1168 Y0.7408 I0.122 J0.0271
X-0.078 Y0.652 I0.3376 J0.0945
G1 X-0.0737 Y0.6446
X-0.069 Y0.6375
X-0.0638 Y0.6307
G3 X0.0105 Y0.5588 I0.3096 J0.2457
G1 X0.0158 Y0.5557
G3 X0.021 Y0.5524 I0.0694 J0.104
X0.1155 Y0.5145 I0.1712 J0.29
G1 X0.1216 Y0.5125
G3 X0.1289 Y0.5106 I0.0337 J0.1204
G2 X0.6315 Y0.3888 I-1.8243 J-8.623
G3 X1.0491 Y0.2911 I2.1544 J8.263
X1.4666 Y0.2218 I2.5324 J13.9758
G2 X1.6748 Y0.1849 I-2.7649 J-16.2155
X2.241 Y0.0419 I-1.6821 J-7.8486
G3 X2.6444 Y-0.0668 I3.7306 J13.0432
X2.8729 Y-0.1186 I4.7629 J20.4787
X2.8864 Y-0.1208 I0.027 J0.1221
X2.9881 Y-0.1224 I0.057 J0.3997
G1 X2.9941 Y-0.1211
G3 X3.0001 Y-0.12 I-0.0196 J0.1234
X3.0952 Y-0.0835 I-0.0698 J0.3238
G1 X3.101 Y-0.0808
G3 X3.1216 Y-0.0675 I-0.0575 J0.111
X3.1919 Y0.0001 I-0.2428 J0.3233
G1 X3.1953 Y0.0053
X3.1988 Y0.0102
G3 X3.2024 Y0.0156 I-0.1024 J0.0717
X3.2418 Y0.1101 I-0.2762 J0.1706
G1 X3.2439 Y0.1161
G3 X3.2481 Y0.1377 I-0.1201 J0.0346
X3.2488 Y0.2406 I-0.3875 J0.0543
G1 X3.2474 Y0.2465
G3 X3.2462 Y0.2528 I-0.1231 J-0.0216
G1 X3.2448 Y0.2587
G3 X3.2433 Y0.2647 I-0.1218 J-0.0279
X3.2035 Y0.3536 I-0.3356 J-0.0968
G1 X3.1994 Y0.3607
X3.1948 Y0.3675
X3.1898 Y0.3739
G3 X3.1163 Y0.4451 I-0.3109 J-0.2478
G1 X3.111 Y0.4482
G3 X3.1059 Y0.4515 I-0.0698 J-0.1037
X3.0121 Y0.4897 I-0.172 J-0.2885
G1 X3.006 Y0.4917
G3 X2.9995 Y0.4934 I-0.0342 J-0.1202
G2 X2.5238 Y0.6218 I1.0401 J4.7974
G3 X2.2378 Y0.7052 I-2.6619 J-8.5964
X2.1288 Y0.7317 I-2.5987 J-10.4739
G1 Y1.4671
G2 X2.1413 Y1.8756 I7.8981 J-0.0369
X2.1696 Y2.1429 I4.8896 J-0.3821
G3 X2.5111 Y2.0793 I0.8956 J3.8599
X2.8093 Y2.0404 I1.1259 J7.4768
G2 X3.2092 Y1.9809 I-0.863 J-7.1671
G3 X3.2171 Y1.9797 I0.0213 J0.1232
X3.3195 Y1.9786 I0.0556 J0.3924
G1 X3.3255 Y1.9799
G3 X3.3316 Y1.9811 I-0.0207 J0.1233
X3.4267 Y2.0191 I-0.0717 J0.3177
G1 X3.4325 Y2.0218
G3 X3.4525 Y2.0352 I-0.0593 J0.1101
X3.5246 Y2.107 I-0.2359 J0.309
G1 X3.5277 Y2.1121
G3 X3.5313 Y2.1175 I-0.1026 J0.0715
X3.5703 Y2.2109 I-0.2775 J0.1708
G1 X3.5724 Y2.2168
G3 X3.5766 Y2.2383 I-0.12 J0.035
X3.5778 Y2.3405 I-0.3905 J0.0555
G1 X3.5764 Y2.3465
G3 X3.5752 Y2.3528 I-0.1233 J-0.0208
X3.5367 Y2.4478 I-0.3135 J-0.0716
G1 X3.534 Y2.4535
G3 X3.5199 Y2.4741 I-0.1097 J-0.06
X3.4466 Y2.5457 I-0.3081 J-0.2423
G1 X3.4414 Y2.5488
G3 X3.4362 Y2.5521 I-0.07 J-0.1036
X3.3425 Y2.5903 I-0.1708 J-0.2853
G1 X3.3365 Y2.5923
G3 X3.3236 Y2.5953 I-0.0342 J-0.1202
X2.8743 Y2.6605 I-1.2182 J-6.8088
G2 X2.4758 Y2.7176 I0.8855 J7.5963
X2.351 Y2.7443 I0.3675 J2.027
X1.9346 Y2.8531 I1.3683 J6.0881
G3 X1.5796 Y2.9517 I-4.6746 J-16.1305
X1.2899 Y3.0183 I-2.1011 J-8.4743
X1.0249 Y3.0623 I-3.6101 J-20.9426
G2 X0.8807 Y3.0925 I0.4352 J2.4351
X0.7439 Y3.1522 I0.1971 J0.6386
G3 X0.6758 Y3.1773 I-0.1781 J-0.378
G1 X0.6684 Y3.1793
X0.6609 Y3.1807
X0.6533 Y3.1818
G3 X0.5539 Y3.1829 I-0.0543 J-0.4041
G1 X0.5477 Y3.1815
X0.5417 Y3.1804
G3 X0.5351 Y3.179 I0.0232 J-0.1228
G1 X0.5292 Y3.1775
G3 X0.5231 Y3.1759 I0.0297 J-0.1214
X0.4382 Y3.1366 I0.0983 J-0.3239
G1 X0.4325 Y3.1335
G3 X0.4144 Y3.1205 I0.0636 J-0.1076
X0.3389 Y3.0398 I0.2414 J-0.3012
X0.2986 Y2.9418 I0.3168 J-0.1879
G1 X0.2965 Y2.934
X0.2948 Y2.9261
X0.2937 Y2.9182
X0.2932 Y2.9102
X0.2931 Y2.9021
X0.2935 Y2.8941
X0.2945 Y2.8861
G3 X0.3177 Y2.7819 I0.6247 J0.084
G1 X0.3204 Y2.7753
X0.3248 Y2.7643
G3 X0.3281 Y2.7566 I0.1162 J0.046
G1 X0.3331 Y2.7461
G3 X0.3376 Y2.7375 I0.1129 J0.0537
G1 X0.3433 Y2.7275
G3 X0.3487 Y2.719 I0.1084 J0.0622
G1 X0.3552 Y2.7095
G3 X0.3608 Y2.7019 I0.103 J0.0708
G1 X0.3681 Y2.6929
G3 X0.3737 Y2.6864 I0.0974 J0.0783
G1 X0.3816 Y2.6779
G3 X0.387 Y2.6724 I0.0918 J0.0848
G1 X0.3955 Y2.6643
G3 X0.4005 Y2.6597 I0.0864 J0.0903
G1 X0.4096 Y2.6519
G3 X0.4143 Y2.6481 I0.0814 J0.0949
X0.5186 Y2.5833 I0.3676 J0.4754
X0.6987 Y2.5006 I0.6723 J1.2274
X0.9189 Y2.4459 I0.4969 J1.5283
G2 X1.5566 Y2.3059 I-2.1966 J-11.5271
G3 X1.5085 Y1.7194 I4.4791 J-0.6629
G1 X1.508 Y1.7155
X1.507 Y1.7116
X1.5054 Y1.708
X1.5032 Y1.7048
X1.5006 Y1.7018
X1.4975 Y1.6994
X1.4941 Y1.6974
X1.4904 Y1.696
X1.4866 Y1.6952
X1.4827 Y1.695
X1.4577 Y1.6956
X1.4538 Y1.6957 Z-0.0997
X1.4499 Y1.6958 Z-0.0988
X1.4463 Y1.6959 Z-0.0973
X1.443 Y1.696 Z-0.0952
X1.44 Y1.6961 Z-0.0927
X1.4374 Z-0.0897
X1.4354 Y1.6962 Z-0.0863
X1.4339 Z-0.0827
X1.433 Y1.6963 Z-0.0789
X1.4327 Z-0.075
X1.4339 Y1.7462
Z-0.125
X1.4342 Z-0.1289
X1.4351 Z-0.1327
X1.4366 Z-0.1363
X1.4387 Y1.7461 Z-0.1397
X1.4412 Z-0.1427
X1.4442 Y1.746 Z-0.1452
X1.4476 Y1.7459 Z-0.1473
X1.4512 Y1.7458 Z-0.1488
X1.455 Y1.7457 Z-0.1497
X1.4589 Y1.7456 Z-0.15
X1.4839 Y1.745
G2 X1.5083 Y1.7194 I-0.0006 J-0.025
G3 X1.505 Y1.5516 I18.1924 J-0.442
G1 X1.5006 Y0.8462
X1.1612 Y0.9041
G2 X0.6765 Y1.0223 I1.6839 J7.9589
G3 X0.2535 Y1.1231 I-2.2112 J-8.3429
X0.2412 Y1.1251 I-0.0264 J-0.1222
X0.139 Y1.1271 I-0.0592 J-0.4013
G1 X0.133 Y1.1259
G3 X0.1269 Y1.1248 I0.0191 J-0.1235
X0.0308 Y1.0879 I0.0679 J-0.3209
G1 X0.0249 Y1.0852
G3 X0.0036 Y1.0712 I0.0577 J-0.1109
X-0.0659 Y1.0033 I0.2467 J-0.3219
G1 X-0.0691 Y0.9983
X-0.0725 Y0.9933
G3 X-0.076 Y0.988 I0.1029 J-0.071
X-0.1148 Y0.8939 I0.2793 J-0.1702
G1 X-0.1169 Y0.8879
G3 X-0.121 Y0.8669 I0.1202 J-0.0343
X-0.1221 Y0.7647 I0.3903 J-0.0554
G1 X-0.1208 Y0.7588
G3 X-0.1195 Y0.7526 I0.1233 J0.0208
G1 X-0.1182 Y0.7467
G3 X-0.1168 Y0.7408 I0.122 J0.0271
X-0.078 Y0.652 I0.3376 J0.0945
G1 X-0.0737 Y0.6446
X-0.069 Y0.6375
X-0.0638 Y0.6307
G3 X0.0105 Y0.5588 I0.3096 J0.2457
G1 X0.0158 Y0.5557
G3 X0.021 Y0.5524 I0.0694 J0.104
X0.1155 Y0.5145 I0.1712 J0.29
G1 X0.1216 Y0.5125
G3 X0.1289 Y0.5106 I0.0337 J0.1204
G2 X0.6315 Y0.3888 I-1.8243 J-8.623
G3 X1.0491 Y0.2911 I2.1544 J8.263
X1.4666 Y0.2218 I2.5324 J13.9758
G2 X1.6748 Y0.1849 I-2.7649 J-16.2155
X2.241 Y0.0419 I-1.6821 J-7.8486
G3 X2.6444 Y-0.0668 I3.7306 J13.0432
X2.8729 Y-0.1186 I4.7629 J20.4787
X2.8864 Y-0.1208 I0.027 J0.1221
X2.9881 Y-0.1224 I0.057 J0.3997
G1 X2.9941 Y-0.1211
G3 X3.0001 Y-0.12 I-0.0196 J0.1234
X3.0952 Y-0.0835 I-0.0698 J0.3238
G1 X3.101 Y-0.0808
G3 X3.1216 Y-0.0675 I-0.0575 J0.111
X3.1919 Y0.0001 I-0.2428 J0.3233
G1 X3.1953 Y0.0053
X3.1988 Y0.0102
G3 X3.2024 Y0.0156 I-0.1024 J0.0717
X3.2418 Y0.1101 I-0.2762 J0.1706
G1 X3.2439 Y0.1161
G3 X3.2481 Y0.1377 I-0.1201 J0.0346
X3.2488 Y0.2406 I-0.3875 J0.0543
G1 X3.2474 Y0.2465
G3 X3.2462 Y0.2528 I-0.1231 J-0.0216
G1 X3.2448 Y0.2587
G3 X3.2433 Y0.2647 I-0.1218 J-0.0279
X3.2035 Y0.3536 I-0.3356 J-0.0968
G1 X3.1994 Y0.3607
X3.1948 Y0.3675
X3.1898 Y0.3739
G3 X3.1163 Y0.4451 I-0.3109 J-0.2478
G1 X3.111 Y0.4482
G3 X3.1059 Y0.4515 I-0.0698 J-0.1037
X3.0121 Y0.4897 I-0.172 J-0.2885
G1 X3.006 Y0.4917
G3 X2.9995 Y0.4934 I-0.0342 J-0.1202
G2 X2.5238 Y0.6218 I1.0401 J4.7974
G3 X2.2378 Y0.7052 I-2.6619 J-8.5964
X2.1288 Y0.7317 I-2.5987 J-10.4739
G1 Y1.4671
G2 X2.1413 Y1.8756 I7.8981 J-0.0369
X2.1696 Y2.1429 I4.8896 J-0.3821
G3 X2.5111 Y2.0793 I0.8956 J3.8599
X2.8093 Y2.0404 I1.1259 J7.4768
G2 X3.2092 Y1.9809 I-0.863 J-7.1671
G3 X3.2171 Y1.9797 I0.0213 J0.1232
X3.3195 Y1.9786 I0.0556 J0.3924
G1 X3.3255 Y1.9799
G3 X3.3316 Y1.9811 I-0.0207 J0.1233
X3.4267 Y2.0191 I-0.0717 J0.3177
G1 X3.4325 Y2.0218
G3 X3.4525 Y2.0352 I-0.0593 J0.1101
X3.5246 Y2.107 I-0.2359 J0.309
G1 X3.5277 Y2.1121
G3 X3.5313 Y2.1175 I-0.1026 J0.0715
X3.5703 Y2.2109 I-0.2775 J0.1708
G1 X3.5724 Y2.2168
G3 X3.5766 Y2.2383 I-0.12 J0.035
X3.5778 Y2.3405 I-0.3905 J0.0555
G1 X3.5764 Y2.3465
G3 X3.5752 Y2.3528 I-0.1233 J-0.0208
X3.5367 Y2.4478 I-0.3135 J-0.0716
G1 X3.534 Y2.4535
G3 X3.5199 Y2.4741 I-0.1097 J-0.06
X3.4466 Y2.5457 I-0.3081 J-0.2423
G1 X3.4414 Y2.5488
G3 X3.4362 Y2.5521 I-0.07 J-0.1036
X3.3425 Y2.5903 I-0.1708 J-0.2853
G1 X3.3365 Y2.5923
G3 X3.3236 Y2.5953 I-0.0342 J-0.1202
X2.8743 Y2.6605 I-1.2182 J-6.8088
G2 X2.4758 Y2.7176 I0.8855 J7.5963
X2.351 Y2.7443 I0.3675 J2.027
X1.9346 Y2.8531 I1.3683 J6.0881
G3 X1.5796 Y2.9517 I-4.6746 J-16.1305
X1.2899 Y3.0183 I-2.1011 J-8.4743
X1.0249 Y3.0623 I-3.6101 J-20.9426
G2 X0.8807 Y3.0925 I0.4352 J2.4351
X0.7439 Y3.1522 I0.1971 J0.6386
G3 X0.6758 Y3.1773 I-0.1781 J-0.378
G1 X0.6684 Y3.1793
X0.6609 Y3.1807
X0.6533 Y3.1818
G3 X0.5539 Y3.1829 I-0.0543 J-0.4041
G1 X0.5477 Y3.1815
X0.5417 Y3.1804
G3 X0.5351 Y3.179 I0.0232 J-0.1228
G1 X0.5292 Y3.1775
G3 X0.5231 Y3.1759 I0.0297 J-0.1214
X0.4382 Y3.1366 I0.0983 J-0.3239
G1 X0.4325 Y3.1335
G3 X0.4144 Y3.1205 I0.0636 J-0.1076
X0.3389 Y3.0398 I0.2414 J-0.3012
X0.2986 Y2.9418 I0.3168 J-0.1879
G1 X0.2965 Y2.934
X0.2948 Y2.9261
X0.2937 Y2.9182
X0.2932 Y2.9102
X0.2931 Y2.9021
X0.2935 Y2.8941
X0.2945 Y2.8861
G3 X0.3177 Y2.7819 I0.6247 J0.084
G1 X0.3204 Y2.7753
X0.3248 Y2.7643
G3 X0.3281 Y2.7566 I0.1162 J0.046
G1 X0.3331 Y2.7461
G3 X0.3376 Y2.7375 I0.1129 J0.0537
G1 X0.3433 Y2.7275
G3 X0.3487 Y2.719 I0.1084 J0.0622
G1 X0.3552 Y2.7095
G3 X0.3608 Y2.7019 I0.103 J0.0708
G1 X0.3681 Y2.6929
G3 X0.3737 Y2.6864 I0.0974 J0.0783
G1 X0.3816 Y2.6779
G3 X0.387 Y2.6724 I0.0918 J0.0848
G1 X0.3955 Y2.6643
G3 X0.4005 Y2.6597 I0.0864 J0.0903
G1 X0.4096 Y2.6519
G3 X0.4143 Y2.6481 I0.0814 J0.0949
X0.5186 Y2.5833 I0.3676 J0.4754
X0.6987 Y2.5006 I0.6723 J1.2274
X0.9189 Y2.4459 I0.4969 J1.5283
G2 X1.5566 Y2.3059 I-2.1966 J-11.5271
G3 X1.5085 Y1.7194 I4.4791 J-0.6629
G1 X1.508 Y1.7155
X1.507 Y1.7116
X1.5054 Y1.708
X1.5032 Y1.7048
X1.5006 Y1.7018
X1.4975 Y1.6994
X1.4941 Y1.6974
X1.4904 Y1.696
X1.4866 Y1.6952
X1.4827 Y1.695
X1.4577 Y1.6956
X1.4538 Y1.6957 Z-0.1497
X1.4499 Y1.6958 Z-0.1488
X1.4463 Y1.6959 Z-0.1473
X1.443 Y1.696 Z-0.1452
X1.44 Y1.6961 Z-0.1427
X1.4374 Z-0.1397
X1.4354 Y1.6962 Z-0.1363
X1.4339 Z-0.1327
X1.433 Y1.6963 Z-0.1289
X1.4327 Z-0.125
X1.4339 Y1.7462
Z-0.175
X1.4342 Z-0.1789
X1.4351 Z-0.1827
X1.4366 Z-0.1863
X1.4387 Y1.7461 Z-0.1897
X1.4412 Z-0.1927
X1.4442 Y1.746 Z-0.1952
X1.4476 Y1.7459 Z-0.1973
X1.4512 Y1.7458 Z-0.1988
X1.455 Y1.7457 Z-0.1997
X1.4589 Y1.7456 Z-0.2
X1.4839 Y1.745
G2 X1.5083 Y1.7194 I-0.0006 J-0.025
G3 X1.505 Y1.5516 I18.1924 J-0.442
G1 X1.5006 Y0.8462
X1.1612 Y0.9041
G2 X0.6765 Y1.0223 I1.6839 J7.9589
G3 X0.2535 Y1.1231 I-2.2112 J-8.3429
X0.2412 Y1.1251 I-0.0264 J-0.1222
X0.139 Y1.1271 I-0.0592 J-0.4013
G1 X0.133 Y1.1259
G3 X0.1269 Y1.1248 I0.0191 J-0.1235
X0.0308 Y1.0879 I0.0679 J-0.3209
G1 X0.0249 Y1.0852
G3 X0.0036 Y1.0712 I0.0577 J-0.1109
X-0.0659 Y1.0033 I0.2467 J-0.3219
G1 X-0.0691 Y0.9983
X-0.0725 Y0.9933
G3 X-0.076 Y0.988 I0.1029 J-0.071
X-0.1148 Y0.8939 I0.2793 J-0.1702
G1 X-0.1169 Y0.8879
G3 X-0.121 Y0.8669 I0.1202 J-0.0343
X-0.1221 Y0.7647 I0.3903 J-0.0554
G1 X-0.1208 Y0.7588
G3 X-0.1195 Y0.7526 I0.1233 J0.0208
G1 X-0.1182 Y0.7467
G3 X-0.1168 Y0.7408 I0.122 J0.0271
X-0.078 Y0.652 I0.3376 J0.0945
G1 X-0.0737 Y0.6446
X-0.069 Y0.6375
X-0.0638 Y0.6307
G3 X0.0105 Y0.5588 I0.3096 J0.2457
G1 X0.0158 Y0.5557
G3 X0.021 Y0.5524 I0.0694 J0.104
X0.1155 Y0.5145 I0.1712 J0.29
G1 X0.1216 Y0.5125
G3 X0.1289 Y0.5106 I0.0337 J0.1204
G2 X0.6315 Y0.3888 I-1.8243 J-8.623
G3 X1.0491 Y0.2911 I2.1544 J8.263
X1.4666 Y0.2218 I2.5324 J13.9758
G2 X1.6748 Y0.1849 I-2.7649 J-16.2155
X2.241 Y0.0419 I-1.6821 J-7.8486
G3 X2.6444 Y-0.0668 I3.7306 J13.0432
X2.8729 Y-0.1186 I4.7629 J20.4787
X2.8864 Y-0.1208 I0.027 J0.1221
X2.9881 Y-0.1224 I0.057 J0.3997
G1 X2.9941 Y-0.1211
G3 X3.0001 Y-0.12 I-0.0196 J0.1234
X3.0952 Y-0.0835 I-0.0698 J0.3238
G1 X3.101 Y-0.0808
G3 X3.1216 Y-0.0675 I-0.0575 J0.111
X3.1919 Y0.0001 I-0.2428 J0.3233
G1 X3.1953 Y0.0053
X3.1988 Y0.0102
G3 X3.2024 Y0.0156 I-0.1024 J0.0717
X3.2418 Y0.1101 I-0.2762 J0.1706
G1 X3.2439 Y0.1161
G3 X3.2481 Y0.1377 I-0.1201 J0.0346
X3.2488 Y0.2406 I-0.3875 J0.0543
G1 X3.2474 Y0.2465
G3 X3.2462 Y0.2528 I-0.1231 J-0.0216
G1 X3.2448 Y0.2587
G3 X3.2433 Y0.2647 I-0.1218 J-0.0279
X3.2035 Y0.3536 I-0.3356 J-0.0968
G1 X3.1994 Y0.3607
X3.1948 Y0.3675
X3.1898 Y0.3739
G3 X3.1163 Y0.4451 I-0.3109 J-0.2478
G1 X3.111 Y0.4482
G3 X3.1059 Y0.4515 I-0.0698 J-0.1037
X3.0121 Y0.4897 I-0.172 J-0.2885
G1 X3.006 Y0.4917
G3 X2.9995 Y0.4934 I-0.0342 J-0.1202
G2 X2.5238 Y0.6218 I1.0401 J4.7974
G3 X2.2378 Y0.7052 I-2.6619 J-8.5964
X2.1288 Y0.7317 I-2.5987 J-10.4739
G1 Y1.4671
G2 X2.1413 Y1.8756 I7.8981 J-0.0369
X2.1696 Y2.1429 I4.8896 J-0.3821
G3 X2.5111 Y2.0793 I0.8956 J3.8599
X2.8093 Y2.0404 I1.1259 J7.4768
G2 X3.2092 Y1.9809 I-0.863 J-7.1671
G3 X3.2171 Y1.9797 I0.0213 J0.1232
X3.3195 Y1.9786 I0.0556 J0.3924
G1 X3.3255 Y1.9799
G3 X3.3316 Y1.9811 I-0.0207 J0.1233
X3.4267 Y2.0191 I-0.0717 J0.3177
G1 X3.4325 Y2.0218
G3 X3.4525 Y2.0352 I-0.0593 J0.1101
X3.5246 Y2.107 I-0.2359 J0.309
G1 X3.5277 Y2.1121
G3 X3.5313 Y2.1175 I-0.1026 J0.0715
X3.5703 Y2.2109 I-0.2775 J0.1708
G1 X3.5724 Y2.2168
G3 X3.5766 Y2.2383 I-0.12 J0.035
X3.5778 Y2.3405 I-0.3905 J0.0555
G1 X3.5764 Y2.3465
G3 X3.5752 Y2.3528 I-0.1233 J-0.0208
X3.5367 Y2.4478 I-0.3135 J-0.0716
G1 X3.534 Y2.4535
G3 X3.5199 Y2.4741 I-0.1097 J-0.06
X3.4466 Y2.5457 I-0.3081 J-0.2423
G1 X3.4414 Y2.5488
G3 X3.4362 Y2.5521 I-0.07 J-0.1036
X3.3425 Y2.5903 I-0.1708 J-0.2853
G1 X3.3365 Y2.5923
G3 X3.3236 Y2.5953 I-0.0342 J-0.1202
X2.8743 Y2.6605 I-1.2182 J-6.8088
G2 X2.4758 Y2.7176 I0.8855 J7.5963
X2.351 Y2.7443 I0.3675 J2.027
X1.9346 Y2.8531 I1.3683 J6.0881
G3 X1.5796 Y2.9517 I-4.6746 J-16.1305
X1.2899 Y3.0183 I-2.1011 J-8.4743
X1.0249 Y3.0623 I-3.6101 J-20.9426
G2 X0.8807 Y3.0925 I0.4352 J2.4351
X0.7439 Y3.1522 I0.1971 J0.6386
G3 X0.6758 Y3.1773 I-0.1781 J-0.378
G1 X0.6684 Y3.1793
X0.6609 Y3.1807
X0.6533 Y3.1818
G3 X0.5539 Y3.1829 I-0.0543 J-0.4041
G1 X0.5477 Y3.1815
X0.5417 Y3.1804
G3 X0.5351 Y3.179 I0.0232 J-0.1228
G1 X0.5292 Y3.1775
G3 X0.5231 Y3.1759 I0.0297 J-0.1214
X0.4382 Y3.1366 I0.0983 J-0.3239
G1 X0.4325 Y3.1335
G3 X0.4144 Y3.1205 I0.0636 J-0.1076
X0.3389 Y3.0398 I0.2414 J-0.3012
X0.2986 Y2.9418 I0.3168 J-0.1879
G1 X0.2965 Y2.934
X0.2948 Y2.9261
X0.2937 Y2.9182
X0.2932 Y2.9102
X0.2931 Y2.9021
X0.2935 Y2.8941
X0.2945 Y2.8861
G3 X0.3177 Y2.7819 I0.6247 J0.084
G1 X0.3204 Y2.7753
X0.3248 Y2.7643
G3 X0.3281 Y2.7566 I0.1162 J0.046
G1 X0.3331 Y2.7461
G3 X0.3376 Y2.7375 I0.1129 J0.0537
G1 X0.3433 Y2.7275
G3 X0.3487 Y2.719 I0.1084 J0.0622
G1 X0.3552 Y2.7095
G3 X0.3608 Y2.7019 I0.103 J0.0708
G1 X0.3681 Y2.6929
G3 X0.3737 Y2.6864 I0.0974 J0.0783
G1 X0.3816 Y2.6779
G3 X0.387 Y2.6724 I0.0918 J0.0848
G1 X0.3955 Y2.6643
G3 X0.4005 Y2.6597 I0.0864 J0.0903
G1 X0.4096 Y2.6519
G3 X0.4143 Y2.6481 I0.0814 J0.0949
X0.5186 Y2.5833 I0.3676 J0.4754
X0.6987 Y2.5006 I0.6723 J1.2274
X0.9189 Y2.4459 I0.4969 J1.5283
G2 X1.5566 Y2.3059 I-2.1966 J-11.5271
G3 X1.5085 Y1.7194 I4.4791 J-0.6629
G1 X1.508 Y1.7155
X1.507 Y1.7116
X1.5054 Y1.708
X1.5032 Y1.7048
X1.5006 Y1.7018
X1.4975 Y1.6994
X1.4941 Y1.6974
X1.4904 Y1.696
X1.4866 Y1.6952
X1.4827 Y1.695
X1.4577 Y1.6956
X1.4538 Y1.6957 Z-0.1997
X1.4499 Y1.6958 Z-0.1988
X1.4463 Y1.6959 Z-0.1973
X1.443 Y1.696 Z-0.1952
X1.44 Y1.6961 Z-0.1927
X1.4374 Z-0.1897
X1.4354 Y1.6962 Z-0.1863
X1.4339 Z-0.1827
X1.433 Y1.6963 Z-0.1789
X1.4327 Z-0.175
X1.4339 Y1.7462
Z-0.225
X1.4342 Z-0.2289
X1.4351 Z-0.2327
X1.4366 Z-0.2363
X1.4387 Y1.7461 Z-0.2397
X1.4412 Z-0.2427
X1.4442 Y1.746 Z-0.2452
X1.4476 Y1.7459 Z-0.2473
X1.4512 Y1.7458 Z-0.2488
X1.455 Y1.7457 Z-0.2497
X1.4589 Y1.7456 Z-0.25
X1.4839 Y1.745
G2 X1.5083 Y1.7194 I-0.0006 J-0.025
G3 X1.505 Y1.5516 I18.1924 J-0.442
G1 X1.5006 Y0.8462
X1.1612 Y0.9041
G2 X0.6765 Y1.0223 I1.6839 J7.9589
G3 X0.2535 Y1.1231 I-2.2112 J-8.3429
X0.2412 Y1.1251 I-0.0264 J-0.1222
X0.139 Y1.1271 I-0.0592 J-0.4013
G1 X0.133 Y1.1259
G3 X0.1269 Y1.1248 I0.0191 J-0.1235
X0.0308 Y1.0879 I0.0679 J-0.3209
G1 X0.0249 Y1.0852
G3 X0.0036 Y1.0712 I0.0577 J-0.1109
X-0.0659 Y1.0033 I0.2467 J-0.3219
G1 X-0.0691 Y0.9983
X-0.0725 Y0.9933
G3 X-0.076 Y0.988 I0.1029 J-0.071
X-0.1148 Y0.8939 I0.2793 J-0.1702
G1 X-0.1169 Y0.8879
G3 X-0.121 Y0.8669 I0.1202 J-0.0343
X-0.1221 Y0.7647 I0.3903 J-0.0554
G1 X-0.1208 Y0.7588
G3 X-0.1195 Y0.7526 I0.1233 J0.0208
G1 X-0.1182 Y0.7467
G3 X-0.1168 Y0.7408 I0.122 J0.0271
X-0.078 Y0.652 I0.3376 J0.0945
G1 X-0.0737 Y0.6446
X-0.069 Y0.6375
X-0.0638 Y0.6307
G3 X0.0105 Y0.5588 I0.3096 J0.2457
G1 X0.0158 Y0.5557
G3 X0.021 Y0.5524 I0.0694 J0.104
X0.1155 Y0.5145 I0.1712 J0.29
G1 X0.1216 Y0.5125
G3 X0.1289 Y0.5106 I0.0337 J0.1204
G2 X0.6315 Y0.3888 I-1.8243 J-8.623
G3 X1.0491 Y0.2911 I2.1544 J8.263
X1.4666 Y0.2218 I2.5324 J13.9758
G2 X1.6748 Y0.1849 I-2.7649 J-16.2155
X2.241 Y0.0419 I-1.6821 J-7.8486
G3 X2.6444 Y-0.0668 I3.7306 J13.0432
X2.8729 Y-0.1186 I4.7629 J20.4787
X2.8864 Y-0.1208 I0.027 J0.1221
X2.9881 Y-0.1224 I0.057 J0.3997
G1 X2.9941 Y-0.1211
G3 X3.0001 Y-0.12 I-0.0196 J0.1234
X3.0952 Y-0.0835 I-0.0698 J0.3238
G1 X3.101 Y-0.0808
G3 X3.1216 Y-0.0675 I-0.0575 J0.111
X3.1919 Y0.0001 I-0.2428 J0.3233
G1 X3.1953 Y0.0053
X3.1988 Y0.0102
G3 X3.2024 Y0.0156 I-0.1024 J0.0717
X3.2418 Y0.1101 I-0.2762 J0.1706
G1 X3.2439 Y0.1161
G3 X3.2481 Y0.1377 I-0.1201 J0.0346
X3.2488 Y0.2406 I-0.3875 J0.0543
G1 X3.2474 Y0.2465
G3 X3.2462 Y0.2528 I-0.1231 J-0.0216
G1 X3.2448 Y0.2587
G3 X3.2433 Y0.2647 I-0.1218 J-0.0279
X3.2035 Y0.3536 I-0.3356 J-0.0968
G1 X3.1994 Y0.3607
X3.1948 Y0.3675
X3.1898 Y0.3739
G3 X3.1163 Y0.4451 I-0.3109 J-0.2478
G1 X3.111 Y0.4482
G3 X3.1059 Y0.4515 I-0.0698 J-0.1037
X3.0121 Y0.4897 I-0.172 J-0.2885
G1 X3.006 Y0.4917
G3 X2.9995 Y0.4934 I-0.0342 J-0.1202
G2 X2.5238 Y0.6218 I1.0401 J4.7974
G3 X2.2378 Y0.7052 I-2.6619 J-8.5964
X2.1288 Y0.7317 I-2.5987 J-10.4739
G1 Y1.4671
G2 X2.1413 Y1.8756 I7.8981 J-0.0369
X2.1696 Y2.1429 I4.8896 J-0.3821
G3 X2.5111 Y2.0793 I0.8956 J3.8599
X2.8093 Y2.0404 I1.1259 J7.4768
G2 X3.2092 Y1.9809 I-0.863 J-7.1671
G3 X3.2171 Y1.9797 I0.0213 J0.1232
X3.3195 Y1.9786 I0.0556 J0.3924
G1 X3.3255 Y1.9799
G3 X3.3316 Y1.9811 I-0.0207 J0.1233
X3.4267 Y2.0191 I-0.0717 J0.3177
G1 X3.4325 Y2.0218
G3 X3.4525 Y2.0352 I-0.0593 J0.1101
X3.5246 Y2.107 I-0.2359 J0.309
G1 X3.5277 Y2.1121
G3 X3.5313 Y2.1175 I-0.1026 J0.0715
X3.5703 Y2.2109 I-0.2775 J0.1708
G1 X3.5724 Y2.2168
G3 X3.5766 Y2.2383 I-0.12 J0.035
X3.5778 Y2.3405 I-0.3905 J0.0555
G1 X3.5764 Y2.3465
G3 X3.5752 Y2.3528 I-0.1233 J-0.0208
X3.5367 Y2.4478 I-0.3135 J-0.0716
G1 X3.534 Y2.4535
G3 X3.5199 Y2.4741 I-0.1097 J-0.06
X3.4466 Y2.5457 I-0.3081 J-0.2423
G1 X3.4414 Y2.5488
G3 X3.4362 Y2.5521 I-0.07 J-0.1036
X3.3425 Y2.5903 I-0.1708 J-0.2853
G1 X3.3365 Y2.5923
G3 X3.3236 Y2.5953 I-0.0342 J-0.1202
X2.8743 Y2.6605 I-1.2182 J-6.8088
G2 X2.4758 Y2.7176 I0.8855 J7.5963
X2.351 Y2.7443 I0.3675 J2.027
X1.9346 Y2.8531 I1.3683 J6.0881
G3 X1.5796 Y2.9517 I-4.6746 J-16.1305
X1.2899 Y3.0183 I-2.1011 J-8.4743
X1.0249 Y3.0623 I-3.6101 J-20.9426
G2 X0.8807 Y3.0925 I0.4352 J2.4351
X0.7439 Y3.1522 I0.1971 J0.6386
G3 X0.6758 Y3.1773 I-0.1781 J-0.378
G1 X0.6684 Y3.1793
X0.6609 Y3.1807
X0.6533 Y3.1818
G3 X0.5539 Y3.1829 I-0.0543 J-0.4041
G1 X0.5477 Y3.1815
X0.5417 Y3.1804
G3 X0.5351 Y3.179 I0.0232 J-0.1228
G1 X0.5292 Y3.1775
G3 X0.5231 Y3.1759 I0.0297 J-0.1214
X0.4382 Y3.1366 I0.0983 J-0.3239
G1 X0.4325 Y3.1335
G3 X0.4144 Y3.1205 I0.0636 J-0.1076
X0.3389 Y3.0398 I0.2414 J-0.3012
X0.2986 Y2.9418 I0.3168 J-0.1879
G1 X0.2965 Y2.934
X0.2948 Y2.9261
X0.2937 Y2.9182
X0.2932 Y2.9102
X0.2931 Y2.9021
X0.2935 Y2.8941
X0.2945 Y2.8861
G3 X0.3177 Y2.7819 I0.6247 J0.084
G1 X0.3204 Y2.7753
X0.3248 Y2.7643
G3 X0.3281 Y2.7566 I0.1162 J0.046
G1 X0.3331 Y2.7461
G3 X0.3376 Y2.7375 I0.1129 J0.0537
G1 X0.3433 Y2.7275
G3 X0.3487 Y2.719 I0.1084 J0.0622
G1 X0.3552 Y2.7095
G3 X0.3608 Y2.7019 I0.103 J0.0708
G1 X0.3681 Y2.6929
G3 X0.3737 Y2.6864 I0.0974 J0.0783
G1 X0.3816 Y2.6779
G3 X0.387 Y2.6724 I0.0918 J0.0848
G1 X0.3955 Y2.6643
G3 X0.4005 Y2.6597 I0.0864 J0.0903
G1 X0.4096 Y2.6519
G3 X0.4143 Y2.6481 I0.0814 J0.0949
X0.5186 Y2.5833 I0.3676 J0.4754
X0.6987 Y2.5006 I0.6723 J1.2274
X0.9189 Y2.4459 I0.4969 J1.5283
G2 X1.5566 Y2.3059 I-2.1966 J-11.5271
G3 X1.5085 Y1.7194 I4.4791 J-0.6629
G1 X1.508 Y1.7155
X1.507 Y1.7116
X1.5054 Y1.708
X1.5032 Y1.7048
X1.5006 Y1.7018
X1.4975 Y1.6994
X1.4941 Y1.6974
X1.4904 Y1.696
X1.4866 Y1.6952
X1.4827 Y1.695
X1.4577 Y1.6956
X1.4538 Y1.6957 Z-0.2497
X1.4499 Y1.6958 Z-0.2488
X1.4463 Y1.6959 Z-0.2473
X1.443 Y1.696 Z-0.2452
X1.44 Y1.6961 Z-0.2427
X1.4374 Z-0.2397
X1.4354 Y1.6962 Z-0.2363
X1.4339 Z-0.2327
X1.433 Y1.6963 Z-0.2289
X1.4327 Z-0.225
X1.4339 Y1.7462
Z-0.275
X1.4342 Z-0.2789
X1.4351 Z-0.2827
X1.4366 Z-0.2863
X1.4387 Y1.7461 Z-0.2897
X1.4412 Z-0.2927
X1.4442 Y1.746 Z-0.2952
X1.4476 Y1.7459 Z-0.2973
X1.4512 Y1.7458 Z-0.2988
X1.455 Y1.7457 Z-0.2997
X1.4589 Y1.7456 Z-0.3
X1.4839 Y1.745
G2 X1.5083 Y1.7194 I-0.0006 J-0.025
G3 X1.505 Y1.5516 I18.1924 J-0.442
G1 X1.5006 Y0.8462
X1.1612 Y0.9041
G2 X0.6765 Y1.0223 I1.6839 J7.9589
G3 X0.2535 Y1.1231 I-2.2112 J-8.3429
X0.2412 Y1.1251 I-0.0264 J-0.1222
X0.139 Y1.1271 I-0.0592 J-0.4013
G1 X0.133 Y1.1259
G3 X0.1269 Y1.1248 I0.0191 J-0.1235
X0.0308 Y1.0879 I0.0679 J-0.3209
G1 X0.0249 Y1.0852
G3 X0.0036 Y1.0712 I0.0577 J-0.1109
X-0.0659 Y1.0033 I0.2467 J-0.3219
G1 X-0.0691 Y0.9983
X-0.0725 Y0.9933
G3 X-0.076 Y0.988 I0.1029 J-0.071
X-0.1148 Y0.8939 I0.2793 J-0.1702
G1 X-0.1169 Y0.8879
G3 X-0.121 Y0.8669 I0.1202 J-0.0343
X-0.1221 Y0.7647 I0.3903 J-0.0554
G1 X-0.1208 Y0.7588
G3 X-0.1195 Y0.7526 I0.1233 J0.0208
G1 X-0.1182 Y0.7467
G3 X-0.1168 Y0.7408 I0.122 J0.0271
X-0.078 Y0.652 I0.3376 J0.0945
G1 X-0.0737 Y0.6446
X-0.069 Y0.6375
X-0.0638 Y0.6307
G3 X0.0105 Y0.5588 I0.3096 J0.2457
G1 X0.0158 Y0.5557
G3 X0.021 Y0.5524 I0.0694 J0.104
X0.1155 Y0.5145 I0.1712 J0.29
G1 X0.1216 Y0.5125
G3 X0.1289 Y0.5106 I0.0337 J0.1204
G2 X0.6315 Y0.3888 I-1.8243 J-8.623
G3 X1.0491 Y0.2911 I2.1544 J8.263
X1.4666 Y0.2218 I2.5324 J13.9758
G2 X1.6748 Y0.1849 I-2.7649 J-16.2155
X2.241 Y0.0419 I-1.6821 J-7.8486
G3 X2.6444 Y-0.0668 I3.7306 J13.0432
X2.8729 Y-0.1186 I4.7629 J20.4787
X2.8864 Y-0.1208 I0.027 J0.1221
X2.9881 Y-0.1224 I0.057 J0.3997
G1 X2.9941 Y-0.1211
G3 X3.0001 Y-0.12 I-0.0196 J0.1234
X3.0952 Y-0.0835 I-0.0698 J0.3238
G1 X3.101 Y-0.0808
G3 X3.1216 Y-0.0675 I-0.0575 J0.111
X3.1919 Y0.0001 I-0.2428 J0.3233
G1 X3.1953 Y0.0053
X3.1988 Y0.0102
G3 X3.2024 Y0.0156 I-0.1024 J0.0717
X3.2418 Y0.1101 I-0.2762 J0.1706
G1 X3.2439 Y0.1161
G3 X3.2481 Y0.1377 I-0.1201 J0.0346
X3.2488 Y0.2406 I-0.3875 J0.0543
G1 X3.2474 Y0.2465
G3 X3.2462 Y0.2528 I-0.1231 J-0.0216
G1 X3.2448 Y0.2587
G3 X3.2433 Y0.2647 I-0.1218 J-0.0279
X3.2035 Y0.3536 I-0.3356 J-0.0968
G1 X3.1994 Y0.3607
X3.1948 Y0.3675
X3.1898 Y0.3739
G3 X3.1163 Y0.4451 I-0.3109 J-0.2478
G1 X3.111 Y0.4482
G3 X3.1059 Y0.4515 I-0.0698 J-0.1037
X3.0121 Y0.4897 I-0.172 J-0.2885
G1 X3.006 Y0.4917
G3 X2.9995 Y0.4934 I-0.0342 J-0.1202
G2 X2.5238 Y0.6218 I1.0401 J4.7974
G3 X2.2378 Y0.7052 I-2.6619 J-8.5964
X2.1288 Y0.7317 I-2.5987 J-10.4739
G1 Y1.4671
G2 X2.1413 Y1.8756 I7.8981 J-0.0369
X2.1696 Y2.1429 I4.8896 J-0.3821
G3 X2.5111 Y2.0793 I0.8956 J3.8599
X2.8093 Y2.0404 I1.1259 J7.4768
G2 X3.2092 Y1.9809 I-0.863 J-7.1671
G3 X3.2171 Y1.9797 I0.0213 J0.1232
X3.3195 Y1.9786 I0.0556 J0.3924
G1 X3.3255 Y1.9799
G3 X3.3316 Y1.9811 I-0.0207 J0.1233
X3.4267 Y2.0191 I-0.0717 J0.3177
G1 X3.4325 Y2.0218
G3 X3.4525 Y2.0352 I-0.0593 J0.1101
X3.5246 Y2.107 I-0.2359 J0.309
G1 X3.5277 Y2.1121
G3 X3.5313 Y2.1175 I-0.1026 J0.0715
X3.5703 Y2.2109 I-0.2775 J0.1708
G1 X3.5724 Y2.2168
G3 X3.5766 Y2.2383 I-0.12 J0.035
X3.5778 Y2.3405 I-0.3905 J0.0555
G1 X3.5764 Y2.3465
G3 X3.5752 Y2.3528 I-0.1233 J-0.0208
X3.5367 Y2.4478 I-0.3135 J-0.0716
G1 X3.534 Y2.4535
G3 X3.5199 Y2.4741 I-0.1097 J-0.06
X3.4466 Y2.5457 I-0.3081 J-0.2423
G1 X3.4414 Y2.5488
G3 X3.4362 Y2.5521 I-0.07 J-0.1036
X3.3425 Y2.5903 I-0.1708 J-0.2853
G1 X3.3365 Y2.5923
G3 X3.3236 Y2.5953 I-0.0342 J-0.1202
X2.8743 Y2.6605 I-1.2182 J-6.8088
G2 X2.4758 Y2.7176 I0.8855 J7.5963
X2.351 Y2.7443 I0.3675 J2.027
X1.9346 Y2.8531 I1.3683 J6.0881
G3 X1.5796 Y2.9517 I-4.6746 J-16.1305
X1.2899 Y3.0183 I-2.1011 J-8.4743
X1.0249 Y3.0623 I-3.6101 J-20.9426
G2 X0.8807 Y3.0925 I0.4352 J2.4351
X0.7439 Y3.1522 I0.1971 J0.6386
G3 X0.6758 Y3.1773 I-0.1781 J-0.378
G1 X0.6684 Y3.1793
X0.6609 Y3.1807
X0.6533 Y3.1818
G3 X0.5539 Y3.1829 I-0.0543 J-0.4041
G1 X0.5477 Y3.1815
X0.5417 Y3.1804
G3 X0.5351 Y3.179 I0.0232 J-0.1228
G1 X0.5292 Y3.1775
G3 X0.5231 Y3.1759 I0.0297 J-0.1214
X0.4382 Y3.1366 I0.0983 J-0.3239
G1 X0.4325 Y3.1335
G3 X0.4144 Y3.1205 I0.0636 J-0.1076
X0.3389 Y3.0398 I0.2414 J-0.3012
X0.2986 Y2.9418 I0.3168 J-0.1879
G1 X0.2965 Y2.934
X0.2948 Y2.9261
X0.2937 Y2.9182
X0.2932 Y2.9102
X0.2931 Y2.9021
X0.2935 Y2.8941
X0.2945 Y2.8861
G3 X0.3177 Y2.7819 I0.6247 J0.084
G1 X0.3204 Y2.7753
X0.3248 Y2.7643
G3 X0.3281 Y2.7566 I0.1162 J0.046
G1 X0.3331 Y2.7461
G3 X0.3376 Y2.7375 I0.1129 J0.0537
G1 X0.3433 Y2.7275
G3 X0.3487 Y2.719 I0.1084 J0.0622
G1 X0.3552 Y2.7095
G3 X0.3608 Y2.7019 I0.103 J0.0708
G1 X0.3681 Y2.6929
G3 X0.3737 Y2.6864 I0.0974 J0.0783
G1 X0.3816 Y2.6779
G3 X0.387 Y2.6724 I0.0918 J0.0848
G1 X0.3955 Y2.6643
G3 X0.4005 Y2.6597 I0.0864 J0.0903
G1 X0.4096 Y2.6519
G3 X0.4143 Y2.6481 I0.0814 J0.0949
X0.5186 Y2.5833 I0.3676 J0.4754
X0.6987 Y2.5006 I0.6723 J1.2274
X0.9189 Y2.4459 I0.4969 J1.5283
G2 X1.5566 Y2.3059 I-2.1966 J-11.5271
G3 X1.5085 Y1.7194 I4.4791 J-0.6629
G1 X1.508 Y1.7155
X1.507 Y1.7116
X1.5054 Y1.708
X1.5032 Y1.7048
X1.5006 Y1.7018
X1.4975 Y1.6994
X1.4941 Y1.6974
X1.4904 Y1.696
X1.4866 Y1.6952
X1.4827 Y1.695
X1.4577 Y1.6956
X1.4538 Y1.6957 Z-0.2997
X1.4499 Y1.6958 Z-0.2988
X1.4463 Y1.6959 Z-0.2973
X1.443 Y1.696 Z-0.2952
X1.44 Y1.6961 Z-0.2927
X1.4374 Z-0.2897
X1.4354 Y1.6962 Z-0.2863
X1.4339 Z-0.2827
X1.433 Y1.6963 Z-0.2789
X1.4327 Z-0.275
X1.4339 Y1.7462
Z-0.325
X1.4342 Z-0.3289
X1.4351 Z-0.3327
X1.4366 Z-0.3363
X1.4387 Y1.7461 Z-0.3397
X1.4412 Z-0.3427
X1.4442 Y1.746 Z-0.3452
X1.4476 Y1.7459 Z-0.3473
X1.4512 Y1.7458 Z-0.3488
X1.455 Y1.7457 Z-0.3497
X1.4589 Y1.7456 Z-0.35
X1.4839 Y1.745
G2 X1.5083 Y1.7194 I-0.0006 J-0.025
G3 X1.505 Y1.5516 I18.1924 J-0.442
G1 X1.5006 Y0.8462
X1.1612 Y0.9041
G2 X0.6765 Y1.0223 I1.6839 J7.9589
G3 X0.2535 Y1.1231 I-2.2112 J-8.3429
X0.2412 Y1.1251 I-0.0264 J-0.1222
X0.139 Y1.1271 I-0.0592 J-0.4013
G1 X0.133 Y1.1259
G3 X0.1269 Y1.1248 I0.0191 J-0.1235
X0.0308 Y1.0879 I0.0679 J-0.3209
G1 X0.0249 Y1.0852
G3 X0.0036 Y1.0712 I0.0577 J-0.1109
X-0.0659 Y1.0033 I0.2467 J-0.3219
G1 X-0.0691 Y0.9983
X-0.0725 Y0.9933
G3 X-0.076 Y0.988 I0.1029 J-0.071
X-0.1148 Y0.8939 I0.2793 J-0.1702
G1 X-0.1169 Y0.8879
G3 X-0.121 Y0.8669 I0.1202 J-0.0343
X-0.1221 Y0.7647 I0.3903 J-0.0554
G1 X-0.1208 Y0.7588
G3 X-0.1195 Y0.7526 I0.1233 J0.0208
G1 X-0.1182 Y0.7467
G3 X-0.1168 Y0.7408 I0.122 J0.0271
X-0.078 Y0.652 I0.3376 J0.0945
G1 X-0.0737 Y0.6446
X-0.069 Y0.6375
X-0.0638 Y0.6307
G3 X0.0105 Y0.5588 I0.3096 J0.2457
G1 X0.0158 Y0.5557
G3 X0.021 Y0.5524 I0.0694 J0.104
X0.1155 Y0.5145 I0.1712 J0.29
G1 X0.1216 Y0.5125
G3 X0.1289 Y0.5106 I0.0337 J0.1204
G2 X0.6315 Y0.3888 I-1.8243 J-8.623
G3 X1.0491 Y0.2911 I2.1544 J8.263
X1.4666 Y0.2218 I2.5324 J13.9758
G2 X1.6748 Y0.1849 I-2.7649 J-16.2155
X2.241 Y0.0419 I-1.6821 J-7.8486
G3 X2.6444 Y-0.0668 I3.7306 J13.0432
X2.8729 Y-0.1186 I4.7629 J20.4787
X2.8864 Y-0.1208 I0.027 J0.1221
X2.9881 Y-0.1224 I0.057 J0.3997
G1 X2.9941 Y-0.1211
G3 X3.0001 Y-0.12 I-0.0196 J0.1234
X3.0952 Y-0.0835 I-0.0698 J0.3238
G1 X3.101 Y-0.0808
G3 X3.1216 Y-0.0675 I-0.0575 J0.111
X3.1919 Y0.0001 I-0.2428 J0.3233
G1 X3.1953 Y0.0053
X3.1988 Y0.0102
G3 X3.2024 Y0.0156 I-0.1024 J0.0717
X3.2418 Y0.1101 I-0.2762 J0.1706
G1 X3.2439 Y0.1161
G3 X3.2481 Y0.1377 I-0.1201 J0.0346
X3.2488 Y0.2406 I-0.3875 J0.0543
G1 X3.2474 Y0.2465
G3 X3.2462 Y0.2528 I-0.1231 J-0.0216
G1 X3.2448 Y0.2587
G3 X3.2433 Y0.2647 I-0.1218 J-0.0279
X3.2035 Y0.3536 I-0.3356 J-0.0968
G1 X3.1994 Y0.3607
X3.1948 Y0.3675
X3.1898 Y0.3739
G3 X3.1163 Y0.4451 I-0.3109 J-0.2478
G1 X3.111 Y0.4482
G3 X3.1059 Y0.4515 I-0.0698 J-0.1037
X3.0121 Y0.4897 I-0.172 J-0.2885
G1 X3.006 Y0.4917
G3 X2.9995 Y0.4934 I-0.0342 J-0.1202
G2 X2.5238 Y0.6218 I1.0401 J4.7974
G3 X2.2378 Y0.7052 I-2.6619 J-8.5964
X2.1288 Y0.7317 I-2.5987 J-10.4739
G1 Y1.4671
G2 X2.1413 Y1.8756 I7.8981 J-0.0369
X2.1696 Y2.1429 I4.8896 J-0.3821
G3 X2.5111 Y2.0793 I0.8956 J3.8599
X2.8093 Y2.0404 I1.1259 J7.4768
G2 X3.2092 Y1.9809 I-0.863 J-7.1671
G3 X3.2171 Y1.9797 I0.0213 J0.1232
X3.3195 Y1.9786 I0.0556 J0.3924
G1 X3.3255 Y1.9799
G3 X3.3316 Y1.9811 I-0.0207 J0.1233
X3.4267 Y2.0191 I-0.0717 J0.3177
G1 X3.4325 Y2.0218
G3 X3.4525 Y2.0352 I-0.0593 J0.1101
X3.5246 Y2.107 I-0.2359 J0.309
G1 X3.5277 Y2.1121
G3 X3.5313 Y2.1175 I-0.1026 J0.0715
X3.5703 Y2.2109 I-0.2775 J0.1708
G1 X3.5724 Y2.2168
G3 X3.5766 Y2.2383 I-0.12 J0.035
X3.5778 Y2.3405 I-0.3905 J0.0555
G1 X3.5764 Y2.3465
G3 X3.5752 Y2.3528 I-0.1233 J-0.0208
X3.5367 Y2.4478 I-0.3135 J-0.0716
G1 X3.534 Y2.4535
G3 X3.5199 Y2.4741 I-0.1097 J-0.06
X3.4466 Y2.5457 I-0.3081 J-0.2423
G1 X3.4414 Y2.5488
G3 X3.4362 Y2.5521 I-0.07 J-0.1036
X3.3425 Y2.5903 I-0.1708 J-0.2853
G1 X3.3365 Y2.5923
G3 X3.3236 Y2.5953 I-0.0342 J-0.1202
X2.8743 Y2.6605 I-1.2182 J-6.8088
G2 X2.4758 Y2.7176 I0.8855 J7.5963
X2.351 Y2.7443 I0.3675 J2.027
X1.9346 Y2.8531 I1.3683 J6.0881
G3 X1.5796 Y2.9517 I-4.6746 J-16.1305
X1.2899 Y3.0183 I-2.1011 J-8.4743
X1.0249 Y3.0623 I-3.6101 J-20.9426
G2 X0.8807 Y3.0925 I0.4352 J2.4351
X0.7439 Y3.1522 I0.1971 J0.6386
G3 X0.6758 Y3.1773 I-0.1781 J-0.378
G1 X0.6684 Y3.1793
X0.6609 Y3.1807
X0.6533 Y3.1818
G3 X0.5539 Y3.1829 I-0.0543 J-0.4041
G1 X0.5477 Y3.1815
X0.5417 Y3.1804
G3 X0.5351 Y3.179 I0.0232 J-0.1228
G1 X0.5292 Y3.1775
G3 X0.5231 Y3.1759 I0.0297 J-0.1214
X0.4382 Y3.1366 I0.0983 J-0.3239
G1 X0.4325 Y3.1335
G3 X0.4144 Y3.1205 I0.0636 J-0.1076
X0.3389 Y3.0398 I0.2414 J-0.3012
X0.2986 Y2.9418 I0.3168 J-0.1879
G1 X0.2965 Y2.934
X0.2948 Y2.9261
X0.2937 Y2.9182
X0.2932 Y2.9102
X0.2931 Y2.9021
X0.2935 Y2.8941
X0.2945 Y2.8861
G3 X0.3177 Y2.7819 I0.6247 J0.084
G1 X0.3204 Y2.7753
X0.3248 Y2.7643
G3 X0.3281 Y2.7566 I0.1162 J0.046
G1 X0.3331 Y2.7461
G3 X0.3376 Y2.7375 I0.1129 J0.0537
G1 X0.3433 Y2.7275
G3 X0.3487 Y2.719 I0.1084 J0.0622
G1 X0.3552 Y2.7095
G3 X0.3608 Y2.7019 I0.103 J0.0708
G1 X0.3681 Y2.6929
G3 X0.3737 Y2.6864 I0.0974 J0.0783
G1 X0.3816 Y2.6779
G3 X0.387 Y2.6724 I0.0918 J0.0848
G1 X0.3955 Y2.6643
G3 X0.4005 Y2.6597 I0.0864 J0.0903
G1 X0.4096 Y2.6519
G3 X0.4143 Y2.6481 I0.0814 J0.0949
X0.5186 Y2.5833 I0.3676 J0.4754
X0.6987 Y2.5006 I0.6723 J1.2274
X0.9189 Y2.4459 I0.4969 J1.5283
G2 X1.5566 Y2.3059 I-2.1966 J-11.5271
G3 X1.5085 Y1.7194 I4.4791 J-0.6629
G1 X1.508 Y1.7155
X1.507 Y1.7116
X1.5054 Y1.708
X1.5032 Y1.7048
X1.5006 Y1.7018
X1.4975 Y1.6994
X1.4941 Y1.6974
X1.4904 Y1.696
X1.4866 Y1.6952
X1.4827 Y1.695
X1.4577 Y1.6956
X1.4538 Y1.6957 Z-0.3497
X1.4499 Y1.6958 Z-0.3488
X1.4463 Y1.6959 Z-0.3473
X1.443 Y1.696 Z-0.3452
X1.44 Y1.6961 Z-0.3427
X1.4374 Z-0.3397
X1.4354 Y1.6962 Z-0.3363
X1.4339 Z-0.3327
X1.433 Y1.6963 Z-0.3289
X1.4327 Z-0.325
X1.4339 Y1.7462
Z-0.375
X1.4342 Z-0.3789
X1.4351 Z-0.3827
X1.4366 Z-0.3863
X1.4387 Y1.7461 Z-0.3897
X1.4412 Z-0.3927
X1.4442 Y1.746 Z-0.3952
X1.4476 Y1.7459 Z-0.3973
X1.4512 Y1.7458 Z-0.3988
X1.455 Y1.7457 Z-0.3997
X1.4589 Y1.7456 Z-0.4
X1.4839 Y1.745
G2 X1.5083 Y1.7194 I-0.0006 J-0.025
G3 X1.505 Y1.5516 I18.1924 J-0.442
G1 X1.5006 Y0.8462
X1.1612 Y0.9041
G2 X0.6765 Y1.0223 I1.6839 J7.9589
G3 X0.2535 Y1.1231 I-2.2112 J-8.3429
X0.2412 Y1.1251 I-0.0264 J-0.1222
X0.139 Y1.1271 I-0.0592 J-0.4013
G1 X0.133 Y1.1259
G3 X0.1269 Y1.1248 I0.0191 J-0.1235
X0.0308 Y1.0879 I0.0679 J-0.3209
G1 X0.0249 Y1.0852
G3 X0.0036 Y1.0712 I0.0577 J-0.1109
X-0.0659 Y1.0033 I0.2467 J-0.3219
G1 X-0.0691 Y0.9983
X-0.0725 Y0.9933
G3 X-0.076 Y0.988 I0.1029 J-0.071
X-0.1148 Y0.8939 I0.2793 J-0.1702
G1 X-0.1169 Y0.8879
G3 X-0.121 Y0.8669 I0.1202 J-0.0343
X-0.1221 Y0.7647 I0.3903 J-0.0554
G1 X-0.1208 Y0.7588
G3 X-0.1195 Y0.7526 I0.1233 J0.0208
G1 X-0.1182 Y0.7467
G3 X-0.1168 Y0.7408 I0.122 J0.0271
X-0.078 Y0.652 I0.3376 J0.0945
G1 X-0.0737 Y0.6446
X-0.069 Y0.6375
X-0.0638 Y0.6307
G3 X0.0105 Y0.5588 I0.3096 J0.2457
G1 X0.0158 Y0.5557
G3 X0.021 Y0.5524 I0.0694 J0.104
X0.1155 Y0.5145 I0.1712 J0.29
G1 X0.1216 Y0.5125
G3 X0.1289 Y0.5106 I0.0337 J0.1204
G2 X0.3329 Y0.4653 I-2.1795 J-10.2774
G1 Y0.4652 Z-0.391
G2 X0.7261 Y0.3645 I-5.7151 J-23.1425
G1 X0.8176 Y0.3424
Z-0.4
G3 X1.0759 Y0.286 I1.5861 J6.6444
X1.4798 Y0.2196 I3.0042 J17.0193
G2 X1.6748 Y0.1849 I-3.0231 J-17.5572
X2.241 Y0.0419 I-1.6809 J-7.8441
G3 X2.6444 Y-0.0668 I3.7322 J13.0493
X2.8357 Y-0.1104 I5.1877 J22.3318
G1 Z-0.391
X2.8477 Y-0.113
X2.8729 Y-0.1186
G3 X2.8864 Y-0.1208 I0.027 J0.122
X2.9881 Y-0.1224 I0.057 J0.3997
G1 X2.9941 Y-0.1211
G3 X3.0001 Y-0.12 I-0.0196 J0.1234
X3.0952 Y-0.0835 I-0.0698 J0.3238
G1 X3.101 Y-0.0808
G3 X3.1216 Y-0.0675 I-0.0575 J0.111
X3.1919 Y0.0001 I-0.2428 J0.3233
G1 X3.1953 Y0.0053
X3.1988 Y0.0102
G3 X3.2024 Y0.0156 I-0.1024 J0.0717
X3.2418 Y0.1101 I-0.2762 J0.1706
G1 X3.2439 Y0.1161
G3 X3.2481 Y0.1377 I-0.1201 J0.0346
X3.2511 Y0.1708 I-0.8267 J0.0926
G1 Z-0.4
G3 X3.2476 Y0.2465 I-0.305 J0.0237
G1 X3.2462 Y0.2528
X3.2448 Y0.2587
G3 X3.2433 Y0.2647 I-0.1218 J-0.0279
X3.2035 Y0.3536 I-0.3356 J-0.0968
G1 X3.1994 Y0.3607
X3.1948 Y0.3675
X3.1898 Y0.3739
G3 X3.1163 Y0.4451 I-0.3109 J-0.2478
G1 X3.111 Y0.4482
G3 X3.1059 Y0.4515 I-0.0698 J-0.1037
X3.0121 Y0.4897 I-0.172 J-0.2885
G1 X3.006 Y0.4917
G3 X2.9995 Y0.4934 I-0.0342 J-0.1202
G2 X2.5238 Y0.6218 I1.0401 J4.7974
G3 X2.2378 Y0.7052 I-2.6619 J-8.5964
X2.1288 Y0.7317 I-2.5987 J-10.4739
G1 Y1.2179
Z-0.391
Y1.4671
G2 X2.1337 Y1.7179 I12.4994 J-0.1194
G1 X2.1338 Z-0.4
G2 X2.1697 Y2.1429 I3.9639 J-0.1212
G3 X2.5111 Y2.0793 I0.8933 J3.8478
X2.8093 Y2.0404 I1.1235 J7.4582
G2 X3.2092 Y1.9809 I-0.8635 J-7.1704
G3 X3.2171 Y1.9797 I0.0213 J0.1232
X3.3195 Y1.9786 I0.0556 J0.3924
G1 X3.3255 Y1.9799
G3 X3.3316 Y1.9811 I-0.0207 J0.1233
X3.4267 Y2.0191 I-0.0717 J0.3177
G1 X3.4325 Y2.0218
G3 X3.4525 Y2.0352 I-0.0593 J0.1101
X3.5246 Y2.107 I-0.2359 J0.309
G1 X3.5277 Y2.1121
G3 X3.5313 Y2.1175 I-0.1026 J0.0715
X3.5617 Y2.1824 I-0.2454 J0.1545
G1 Z-0.391
G3 X3.5723 Y2.2168 I-0.6553 J0.2207
G1 X3.5742 Y2.2239
X3.5756 Y2.2311
X3.5766 Y2.2383
G3 X3.5778 Y2.3405 I-0.3905 J0.0555
G1 X3.5764 Y2.3465
G3 X3.5752 Y2.3528 I-0.1233 J-0.0208
X3.5367 Y2.4478 I-0.3135 J-0.0716
G1 X3.534 Y2.4535
G3 X3.5199 Y2.4741 I-0.1097 J-0.06
X3.4466 Y2.5457 I-0.3081 J-0.2423
G1 X3.4414 Y2.5488
G3 X3.4362 Y2.5521 I-0.07 J-0.1036
X3.3425 Y2.5903 I-0.1708 J-0.2853
G1 X3.3365 Y2.5923
G3 X3.3236 Y2.5953 I-0.0342 J-0.1202
X3.2838 Y2.6021 I-3.3209 J-19.1529
G1 Z-0.4
G3 X2.8743 Y2.6604 I-1.1398 J-6.5353
G2 X2.5302 Y2.7083 I1.0169 J8.5728
X2.4216 Y2.728 I0.7238 J4.3099
X2.1286 Y2.7984 I1.7804 J8.0474
G1 Y2.7986 Z-0.391
G2 X1.7231 Y2.9134 I8.2009 J29.7463
X1.6472 Y2.9337 I5.8137 J21.8223
G1 Z-0.4
G3 X1.2827 Y3.0196 I-1.7056 J-6.4206
X1.0387 Y3.06 I-3.3085 J-19.2595
G2 X0.8888 Y3.0904 I0.47 J2.7012
X0.744 Y3.1522 I0.1769 J0.6149
G3 X0.6758 Y3.1773 I-0.1822 J-0.3896
G1 X0.6684 Y3.1793
X0.6609 Y3.1807
X0.6533 Y3.1818
G3 X0.5539 Y3.1829 I-0.0543 J-0.4041
G1 X0.5477 Y3.1815
X0.5417 Y3.1804
G3 X0.5351 Y3.179 I0.0232 J-0.1228
G1 X0.5292 Y3.1775
G3 X0.5231 Y3.1759 I0.0297 J-0.1214
X0.4382 Y3.1366 I0.0983 J-0.3239
G1 X0.4325 Y3.1335
G3 X0.4144 Y3.1205 I0.0636 J-0.1076
X0.3389 Y3.0398 I0.2414 J-0.3012
X0.2986 Y2.9418 I0.3168 J-0.1879
G1 X0.2965 Y2.934
X0.2948 Y2.9261
X0.2937 Y2.9182
X0.2932 Y2.9102
X0.2931 Y2.9021
X0.2935 Y2.8941
X0.2945 Y2.8861
G3 X0.3177 Y2.7819 I0.6247 J0.084
G1 X0.3204 Y2.7753
X0.3248 Y2.7643
G3 X0.3281 Y2.7566 I0.1162 J0.046
G1 X0.3331 Y2.7461
G3 X0.3376 Y2.7375 I0.1129 J0.0537
G1 X0.3433 Y2.7275
G3 X0.3487 Y2.719 I0.1084 J0.0622
G1 X0.3552 Y2.7095
G3 X0.3608 Y2.7019 I0.103 J0.0708
G1 X0.3681 Y2.6929
G3 X0.3737 Y2.6864 I0.0974 J0.0783
G1 X0.3816 Y2.6779
G3 X0.387 Y2.6724 I0.0918 J0.0848
G1 X0.3955 Y2.6643
G3 X0.4005 Y2.6597 I0.0864 J0.0903
G1 X0.4096 Y2.6519
G3 X0.4143 Y2.6481 I0.0814 J0.0949
X0.5186 Y2.5833 I0.3676 J0.4754
X0.6106 Y2.5372 I0.824 J1.5313
G1 Z-0.391
G3 X0.807 Y2.47 I0.4032 J0.8576
X0.8845 Y2.4526 I0.2161 J0.7803
G2 X1.0953 Y2.4106 I-5.2363 J-26.8506
G1 Z-0.4
G2 X1.5565 Y2.3056 I-1.9527 J-9.6466
G3 X1.5084 Y1.7194 I4.4883 J-0.6633
G1 X1.508 Y1.7155
X1.507 Y1.7116
X1.5054 Y1.7081
X1.5032 Y1.7048
X1.5006 Y1.7018
X1.4975 Y1.6994
X1.4941 Y1.6974
X1.4904 Y1.696
X1.4866 Y1.6952
X1.4827 Y1.695
X1.4577 Y1.6956
X1.4538 Y1.6957 Z-0.3997
X1.4499 Y1.6958 Z-0.3988
X1.4463 Y1.6959 Z-0.3973
X1.443 Y1.696 Z-0.3952
X1.44 Y1.6961 Z-0.3927
X1.4374 Z-0.3897
X1.4354 Y1.6962 Z-0.3863
X1.4339 Z-0.3827
X1.433 Y1.6963 Z-0.3789
X1.4327 Z-0.375
X1.4339 Y1.7462
Z-0.416
X1.4342 Z-0.4199
X1.4351 Z-0.4237
X1.4366 Z-0.4273
X1.4387 Y1.7461 Z-0.4307
X1.4412 Z-0.4337
X1.4442 Y1.746 Z-0.4362
X1.4476 Y1.7459 Z-0.4383
X1.4512 Y1.7458 Z-0.4398
X1.455 Y1.7457 Z-0.4407
X1.4589 Y1.7456 Z-0.441
X1.4839 Y1.745
G2 X1.5083 Y1.7194 I-0.0006 J-0.025
G3 X1.505 Y1.5516 I18.1924 J-0.442
G1 X1.5006 Y0.8462
X1.1612 Y0.9041
G2 X0.6765 Y1.0223 I1.6839 J7.9589
G3 X0.2535 Y1.1231 I-2.2112 J-8.3429
X0.2412 Y1.1251 I-0.0264 J-0.1222
X0.139 Y1.1271 I-0.0592 J-0.4013
G1 X0.133 Y1.1259
G3 X0.1269 Y1.1248 I0.0191 J-0.1235
X0.0308 Y1.0879 I0.0679 J-0.3209
G1 X0.0249 Y1.0852
G3 X0.0036 Y1.0712 I0.0577 J-0.1109
X-0.0659 Y1.0033 I0.2467 J-0.3219
G1 X-0.0691 Y0.9983
X-0.0725 Y0.9933
G3 X-0.076 Y0.988 I0.1029 J-0.071
X-0.1148 Y0.8939 I0.2793 J-0.1702
G1 X-0.1169 Y0.8879
G3 X-0.121 Y0.8669 I0.1202 J-0.0343
X-0.1221 Y0.7647 I0.3903 J-0.0554
G1 X-0.1208 Y0.7588
G3 X-0.1195 Y0.7526 I0.1233 J0.0208
G1 X-0.1182 Y0.7467
G3 X-0.1168 Y0.7408 I0.122 J0.0271
X-0.078 Y0.652 I0.3376 J0.0945
G1 X-0.0737 Y0.6446
X-0.069 Y0.6375
X-0.0638 Y0.6307
G3 X0.0105 Y0.5588 I0.3096 J0.2457
G1 X0.0158 Y0.5557
G3 X0.021 Y0.5524 I0.0694 J0.104
X0.1155 Y0.5145 I0.1712 J0.29
G1 X0.1216 Y0.5125
G3 X0.1289 Y0.5106 I0.0337 J0.1204
G2 X0.3329 Y0.4653 I-2.1795 J-10.2774
G1 Y0.4652 Z-0.391
G2 X0.7261 Y0.3645 I-5.7151 J-23.1425
G1 X0.8176 Y0.3424
Z-0.441
G3 X1.0759 Y0.286 I1.5861 J6.6444
X1.4798 Y0.2196 I3.0042 J17.0193
G2 X1.6748 Y0.1849 I-3.0231 J-17.5572
X2.241 Y0.0419 I-1.6809 J-7.8441
G3 X2.6444 Y-0.0668 I3.7322 J13.0493
X2.8357 Y-0.1104 I5.1877 J22.3318
G1 Z-0.391
X2.8477 Y-0.113
X2.8729 Y-0.1186
G3 X2.8864 Y-0.1208 I0.027 J0.122
X2.9881 Y-0.1224 I0.057 J0.3997
G1 X2.9941 Y-0.1211
G3 X3.0001 Y-0.12 I-0.0196 J0.1234
X3.0952 Y-0.0835 I-0.0698 J0.3238
G1 X3.101 Y-0.0808
G3 X3.1216 Y-0.0675 I-0.0575 J0.111
X3.1919 Y0.0001 I-0.2428 J0.3233
G1 X3.1953 Y0.0053
X3.1988 Y0.0102
G3 X3.2024 Y0.0156 I-0.1024 J0.0717
X3.2418 Y0.1101 I-0.2762 J0.1706
G1 X3.2439 Y0.1161
G3 X3.2481 Y0.1377 I-0.1201 J0.0346
X3.2511 Y0.1708 I-0.8267 J0.0926
G1 Z-0.441
G3 X3.2476 Y0.2465 I-0.305 J0.0237
G1 X3.2462 Y0.2528
X3.2448 Y0.2587
G3 X3.2433 Y0.2647 I-0.1218 J-0.0279
X3.2035 Y0.3536 I-0.3356 J-0.0968
G1 X3.1994 Y0.3607
X3.1948 Y0.3675
X3.1898 Y0.3739
G3 X3.1163 Y0.4451 I-0.3109 J-0.2478
G1 X3.111 Y0.4482
G3 X3.1059 Y0.4515 I-0.0698 J-0.1037
X3.0121 Y0.4897 I-0.172 J-0.2885
G1 X3.006 Y0.4917
G3 X2.9995 Y0.4934 I-0.0342 J-0.1202
G2 X2.5238 Y0.6218 I1.0401 J4.7974
G3 X2.2378 Y0.7052 I-2.6619 J-8.5964
X2.1288 Y0.7317 I-2.5987 J-10.4739
G1 Y1.2179
Z-0.391
Y1.4671
G2 X2.1337 Y1.7179 I12.4994 J-0.1194
G1 X2.1338 Z-0.441
G2 X2.1697 Y2.1429 I3.9639 J-0.1212
G3 X2.5111 Y2.0793 I0.8933 J3.8478
X2.8093 Y2.0404 I1.1235 J7.4582
G2 X3.2092 Y1.9809 I-0.8635 J-7.1704
G3 X3.2171 Y1.9797 I0.0213 J0.1232
X3.3195 Y1.9786 I0.0556 J0.3924
G1 X3.3255 Y1.9799
G3 X3.3316 Y1.9811 I-0.0207 J0.1233
X3.4267 Y2.0191 I-0.0717 J0.3177
G1 X3.4325 Y2.0218
G3 X3.4525 Y2.0352 I-0.0593 J0.1101
X3.5246 Y2.107 I-0.2359 J0.309
G1 X3.5277 Y2.1121
G3 X3.5313 Y2.1175 I-0.1026 J0.0715
X3.5617 Y2.1824 I-0.2454 J0.1545
G1 Z-0.391
G3 X3.5723 Y2.2168 I-0.6553 J0.2207
G1 X3.5742 Y2.2239
X3.5756 Y2.2311
X3.5766 Y2.2383
G3 X3.5778 Y2.3405 I-0.3905 J0.0555
G1 X3.5764 Y2.3465
G3 X3.5752 Y2.3528 I-0.1233 J-0.0208
X3.5367 Y2.4478 I-0.3135 J-0.0716
G1 X3.534 Y2.4535
G3 X3.5199 Y2.4741 I-0.1097 J-0.06
X3.4466 Y2.5457 I-0.3081 J-0.2423
G1 X3.4414 Y2.5488
G3 X3.4362 Y2.5521 I-0.07 J-0.1036
X3.3425 Y2.5903 I-0.1708 J-0.2853
G1 X3.3365 Y2.5923
G3 X3.3236 Y2.5953 I-0.0342 J-0.1202
X3.2838 Y2.6021 I-3.3209 J-19.1529
G1 Z-0.441
G3 X2.8743 Y2.6604 I-1.1398 J-6.5353
G2 X2.5302 Y2.7083 I1.0169 J8.5728
X2.4216 Y2.728 I0.7238 J4.3099
X2.1286 Y2.7984 I1.7804 J8.0474
G1 Y2.7986 Z-0.391
G2 X1.7231 Y2.9134 I8.2009 J29.7463
X1.6472 Y2.9337 I5.8137 J21.8223
G1 Z-0.441
G3 X1.2827 Y3.0196 I-1.7056 J-6.4206
X1.0387 Y3.06 I-3.3085 J-19.2595
G2 X0.8888 Y3.0904 I0.47 J2.7012
X0.744 Y3.1522 I0.1769 J0.6149
G3 X0.6758 Y3.1773 I-0.1822 J-0.3896
G1 X0.6684 Y3.1793
X0.6609 Y3.1807
X0.6533 Y3.1818
G3 X0.5539 Y3.1829 I-0.0543 J-0.4041
G1 X0.5477 Y3.1815
X0.5417 Y3.1804
G3 X0.5351 Y3.179 I0.0232 J-0.1228
G1 X0.5292 Y3.1775
G3 X0.5231 Y3.1759 I0.0297 J-0.1214
X0.4382 Y3.1366 I0.0983 J-0.3239
G1 X0.4325 Y3.1335
G3 X0.4144 Y3.1205 I0.0636 J-0.1076
X0.3389 Y3.0398 I0.2414 J-0.3012
X0.2986 Y2.9418 I0.3168 J-0.1879
G1 X0.2965 Y2.934
X0.2948 Y2.9261
X0.2937 Y2.9182
X0.2932 Y2.9102
X0.2931 Y2.9021
X0.2935 Y2.8941
X0.2945 Y2.8861
G3 X0.3177 Y2.7819 I0.6247 J0.084
G1 X0.3204 Y2.7753
X0.3248 Y2.7643
G3 X0.3281 Y2.7566 I0.1162 J0.046
G1 X0.3331 Y2.7461
G3 X0.3376 Y2.7375 I0.1129 J0.0537
G1 X0.3433 Y2.7275
G3 X0.3487 Y2.719 I0.1084 J0.0622
G1 X0.3552 Y2.7095
G3 X0.3608 Y2.7019 I0.103 J0.0708
G1 X0.3681 Y2.6929
G3 X0.3737 Y2.6864 I0.0974 J0.0783
G1 X0.3816 Y2.6779
G3 X0.387 Y2.6724 I0.0918 J0.0848
G1 X0.3955 Y2.6643
G3 X0.4005 Y2.6597 I0.0864 J0.0903
G1 X0.4096 Y2.6519
G3 X0.4143 Y2.6481 I0.0814 J0.0949
X0.5186 Y2.5833 I0.3676 J0.4754
X0.6106 Y2.5372 I0.824 J1.5313
G1 Z-0.391
G3 X0.807 Y2.47 I0.4032 J0.8576
X0.8845 Y2.4526 I0.2161 J0.7803
G2 X1.0953 Y2.4106 I-5.2363 J-26.8506
G1 Z-0.441
G2 X1.5565 Y2.3056 I-1.9527 J-9.6466
G3 X1.5084 Y1.7194 I4.4883 J-0.6633
G1 X1.508 Y1.7155
X1.507 Y1.7116
X1.5054 Y1.7081
X1.5032 Y1.7048
X1.5006 Y1.7018
X1.4975 Y1.6994
X1.4941 Y1.6974
X1.4904 Y1.696
X1.4866 Y1.6952
X1.4827 Y1.695
X1.4577 Y1.6956
X1.4538 Y1.6957 Z-0.4407
X1.4499 Y1.6958 Z-0.4398
X1.4463 Y1.6959 Z-0.4383
X1.443 Y1.696 Z-0.4362
X1.44 Y1.6961 Z-0.4337
X1.4374 Z-0.4307
X1.4354 Y1.6962 Z-0.4273
X1.4339 Z-0.4237
X1.433 Y1.6963 Z-0.4199
X1.4327 Z-0.416
G0 Z0.6
M9
M30
%
