%
(1001)
(T3  D=0.125 CR=0.0625 - ZMIN=-0.49 - ball end mill)
G90 G94
G17
G20

(Contour3)
M9
T3 M6
S11028 M3
G54
M8
G0 X-0.0371 Y2.0809
Z0.6
Z0.0334
G1 Z-0.0075 F35
X-0.0368 Y2.081 Z-0.0103
X-0.0359 Y2.0813 Z-0.0129
X-0.0346 Y2.0819 Z-0.0153
X-0.0327 Y2.0826 Z-0.0173
X-0.0305 Y2.0835 Z-0.0188
X-0.0281 Y2.0845 Z-0.0197
X-0.0255 Y2.0855 Z-0.02
G2 X-0.0092 Y2.0786 I0.0046 J-0.0116
G3 X0.0278 Y2.0131 I1.5006 J0.8059 F35.38
X0.1888 Y1.7737 I1.5498 J0.8681
X0.4207 Y1.5343 I1.714 J1.4285
X0.609 Y1.3698 I4.521 J4.9846
X1.1941 Y0.8434 I11.9805 J12.73
G1 X1.316 Y0.7408
X1.4382 Y0.6386
G3 X1.4575 Y0.5326 I0.5429 J0.0442
X1.5013 Y0.4648 I0.1561 J0.0527
X1.586 Y0.4161 I0.1927 J0.2375
X1.6369 Y0.4022 I0.0529 J0.093
X1.7327 Y0.4138 I0.0245 J0.1991
X2.0504 Y0.1792 I3.9596 J5.0306
X2.3737 Y-0.0097 I1.8513 J2.7981
X2.4656 Y-0.0094 I0.0452 J0.2318
X2.5421 Y0.0293 I-0.086 J0.2652
X2.5932 Y0.0825 I-0.2084 J0.2512
X2.6252 Y0.1649 I-0.2328 J0.1378
X2.6225 Y0.2424 I-0.4463 J0.0233
X2.5835 Y0.3196 I-0.1609 J-0.0329
X2.543 Y0.3628 I-0.3567 J-0.2939
G1 X2.4318 Y0.4449
X2.3205 Y0.5268
G3 X1.8796 Y0.8289 I-5.8225 J-8.0261
G1 X1.8797 Y0.8292
X1.8744 Y1.3164
X1.8724 Y1.4567
X1.8708 Y1.597
G2 X1.8776 Y1.8682 I7.8662 J-0.0614
G3 X2.3109 Y1.8671 I0.2369 J7.8236
G1 X2.4535 Y1.8733
X2.5961 Y1.8801
G3 X2.745 Y1.9015 I-0.0555 J0.912
X2.8769 Y1.9596 I-0.0979 J0.4012
X2.9922 Y2.072 I-0.3894 J0.5147
X3.0155 Y2.1 I-0.2003 J0.1905
X3.0205 Y2.134 I-0.0906 J0.0306
X2.9981 Y2.2403 I-0.1775 J0.0182
X2.968 Y2.286 I-0.1346 J-0.0557
X2.8763 Y2.3469 I-0.1329 J-0.1008
X2.8329 Y2.3556 I-0.0416 J-0.0955
X2.6445 Y2.3417 I-0.0366 J-0.7908
X2.6106 Y2.3367 I0.0792 J-0.6561
G1 X2.306 Y2.2893
X2.3012 Y2.2892
X0.9236 Y2.2639
X0.9188 Y2.2638
X0.3049 Y2.2687
G3 X0.2469 Y2.2688 I-0.0329 J-1.3346
X0.1405 Y2.2521 I0.0653 J-0.7627
X0.0618 Y2.2117 I0.0516 J-0.1974
X0.0055 Y2.1313 I0.1951 J-0.1964
X-0.0112 Y2.0954 I0.1678 J-0.1
X-0.0093 Y2.0785 I0.0426 J-0.0037
G1 X-0.0085 Y2.0759 F35
X-0.0084 Y2.0731
X-0.0089 Y2.0703
X-0.01 Y2.0677
X-0.0116 Y2.0655
X-0.0137 Y2.0636
X-0.0162 Y2.0623
X-0.0188 Y2.0613 Z-0.0197
X-0.0212 Y2.0603 Z-0.0188
X-0.0234 Y2.0594 Z-0.0173
X-0.0253 Y2.0587 Z-0.0153
X-0.0266 Y2.0581 Z-0.0129
X-0.0275 Y2.0578 Z-0.0103
X-0.0278 Y2.0577 Z-0.0075
G0 Z0.2
X0.7342 Y1.8458
Z0.0471
G1 Z-0.0003 F35
Y1.8457 Z-0.002
X0.734 Y1.8456 Z-0.0037
X0.7337 Y1.8453 Z-0.0054
X0.7334 Y1.845 Z-0.007
X0.7331 Y1.8447 Z-0.0078
X0.7329 Y1.8445 Z-0.0086
X0.7326 Y1.8443 Z-0.0094
X0.7322 Y1.8441 Z-0.0101
X0.7319 Y1.8438 Z-0.0109
X0.7315 Y1.8436 Z-0.0116
X0.731 Y1.8433 Z-0.0123
X0.7306 Y1.8431 Z-0.013
X0.73 Y1.8428 Z-0.0136
X0.7295 Y1.8426 Z-0.0142
X0.7289 Y1.8424 Z-0.0148
X0.7283 Y1.8422 Z-0.0154
X0.7278 Y1.8421 Z-0.0157
X0.7274 Y1.842 Z-0.0161
X0.727 Y1.8419 Z-0.0164
X0.7265 Z-0.0167
X0.726 Y1.8418 Z-0.017
X0.7255 Z-0.0173
X0.725 Z-0.0176
X0.7245 Z-0.0179
X0.724 Z-0.0181
X0.7235 Y1.8419 Z-0.0184
X0.723 Y1.842 Z-0.0186
X0.7224 Y1.8421 Z-0.0188
X0.7219 Y1.8422 Z-0.019
X0.7214 Y1.8423 Z-0.0191
X0.7209 Y1.8425 Z-0.0193
X0.7203 Y1.8427 Z-0.0194
X0.7198 Y1.8429 Z-0.0196
X0.7193 Y1.8432 Z-0.0197
X0.7188 Y1.8434 Z-0.0198
X0.7184 Y1.8437
X0.7179 Y1.8441 Z-0.0199
X0.7174 Y1.8444
X0.717 Y1.8448 Z-0.02
X0.7165 Y1.8451
X0.7166 Y1.8452 F35.38
X0.8318 Y1.8468
X1.0348 Y1.8497
X1.2378 Y1.8525
X1.4373 Y1.8553
G3 X1.437 Y1.3503 I12.8289 J-0.2596
X1.4429 Y1.1711 I33.4556 J1
G1 X1.3442 Y1.2627
X1.2446 Y1.3551
X1.1403 Y1.4519
X1.0348 Y1.5498
X0.9285 Y1.6485
X0.8223 Y1.747
X0.7165 Y1.8451
X0.7167 Y1.8452
X0.7186
X0.7206
X0.7246 Y1.8453
X0.7327 Y1.8454
X0.7407 Z-0.0201
X0.7488 Y1.8455
X0.7568 Z-0.0202
X0.7649 Z-0.0203
X0.7729 Z-0.0204
X0.7809 Y1.8454 Z-0.0205
X0.7908 Y1.8453 Z-0.0206
X0.8007 Y1.8452 Z-0.0208
X0.8106 Y1.8451 Z-0.021
X0.8205 Y1.845 Z-0.0212
X0.8304 Y1.8448 Z-0.0214
X0.8404 Y1.8446 Z-0.0217
X0.8503 Y1.8444 Z-0.0219
X0.8602 Y1.8442 Z-0.0222
X0.8701 Y1.8439 Z-0.0225
X0.88 Y1.8437 Z-0.0228
X0.8899 Y1.8434 Z-0.0231
X0.8998 Y1.8431 Z-0.0235
X0.9097 Y1.8428 Z-0.0238
X0.9295 Y1.8422 Z-0.0245
X0.9394 Y1.8419 Z-0.0248
X0.9493 Y1.8416 Z-0.0252
X0.9592 Y1.8413 Z-0.0255
X0.9691 Y1.841 Z-0.0259
X0.979 Y1.8407 Z-0.0262
X0.9889 Y1.8404 Z-0.0266
X0.9988 Y1.8402 Z-0.0269
X1.0087 Y1.8399 Z-0.0273
X1.0186 Y1.8397 Z-0.0276
X1.0285 Y1.8394 Z-0.0279
X1.0682 Y1.8384 Z-0.0293
X1.0781 Y1.8382 Z-0.0297
X1.088 Y1.838 Z-0.03
X1.1375 Y1.8368 Z-0.0318
X1.1474 Y1.8366 Z-0.0321
X1.1573 Y1.8364 Z-0.0324
X1.1672 Y1.8361 Z-0.0328
X1.1771 Y1.8359 Z-0.0331
X1.187 Y1.8357 Z-0.0335
X1.1969 Y1.8355 Z-0.0338
X1.2068 Y1.8353 Z-0.0342
X1.2167 Y1.8351 Z-0.0345
X1.2266 Y1.835 Z-0.0349
X1.2365 Y1.8348 Z-0.0352
X1.2464 Y1.8346 Z-0.0356
X1.2662 Y1.8342 Z-0.0363
X1.2761 Y1.8341 Z-0.0366
X1.286 Y1.8339 Z-0.0369
X1.2959 Y1.8338 Z-0.0372
X1.3058 Y1.8337 Z-0.0375
X1.3158 Y1.8336 Z-0.0378
X1.3257 Y1.8335 Z-0.0381
X1.3356 Y1.8334 Z-0.0383
X1.3455 Y1.8333 Z-0.0386
X1.3554 Y1.8332 Z-0.0388
X1.3653 Z-0.039
X1.3752 Z-0.0392
X1.3851 Z-0.0394
X1.395 Z-0.0395
X1.4049 Z-0.0397
X1.4148 Z-0.0398
X1.4152
X1.4153 Y1.8331
Y1.8328
Y1.8321
X1.4152 Y1.8309
Y1.8285
X1.4151 Y1.8238 Z-0.0399
X1.4149 Y1.8139
X1.4147 Y1.804 Z-0.04
X1.4146 Y1.7941
X1.4147 Y1.7931
G3 X1.4192 Y1.2228 I10.3105 J-0.2035
G1 X0.7714 Y1.8241
X1.4152 Y1.8332
X1.4153 Y1.8331
X1.4149 Y1.8099
X1.4147 Y1.7931
G2 X1.402 Y1.7808 I-0.0125 J0.0002 F35
G1 X1.3993 Z-0.0397
X1.3966 Y1.7809 Z-0.0388
X1.3943 Z-0.0373
X1.3923 Z-0.0353
X1.3908 Z-0.0329
X1.3899 Y1.781 Z-0.0303
X1.3895 Z-0.0275
G0 Z0.2
X1.9208 Y1.7654
Z0.0189
G1 Z-0.0275 F35
X1.9205 Y1.7655 Z-0.0303
X1.9196 Z-0.0329
X1.9181 Z-0.0353
X1.9161 Y1.7656 Z-0.0373
X1.9138 Y1.7657 Z-0.0388
X1.9111 Z-0.0397
X1.9083 Y1.7658 Z-0.04
G2 X1.8962 Y1.7787 I0.0004 J0.0125
X1.8986 Y1.846 I5.7194 J-0.1674 F35.38
G3 X2.3889 Y1.8483 I0.2127 J6.9799
G1 X2.6009 Y1.8587
G3 X2.7798 Y1.8887 I-0.0424 J0.8022
X2.9487 Y1.9925 I-0.12 J0.3847
X3.0343 Y2.0879 I-0.7809 J0.786
X3.0416 Y2.1243 I-0.0689 J0.0327
X3.0177 Y2.25 I-0.2025 J0.0266
X2.9825 Y2.3026 I-0.1542 J-0.0651
X2.886 Y2.3667 I-0.1447 J-0.113
X2.8523 Y2.3768 I-0.0819 J-0.2128
X2.6396 Y2.3631 I-0.0515 J-0.8598
G1 X2.6299 Y2.3619
X2.3038 Y2.3114
X0.9188 Y2.286
X0.914
X0.595 Y2.2884
X0.2566 Y2.2909
G3 X0.1212 Y2.2691 I0.03 J-0.617
X0.0357 Y2.2164 I0.0625 J-0.1974
X-0.0224 Y2.1242 I0.2762 J-0.2381
X-0.0346 Y2.0905 I0.0606 J-0.041
X-0.0224 Y2.0567 I0.06 J0.0025
X0.1018 Y1.8533 I2.3791 J1.3129
X0.3196 Y1.5998 I1.4262 J1.005
X0.536 Y1.4036 I2.7425 J2.808
G2 X0.6603 Y1.2922 I-1.7382 J-2.0634
G3 X1.4177 Y0.6275 I10.9783 J11.7458
X1.4396 Y0.518 I0.459 J0.0351
X1.5173 Y0.4263 I0.1684 J0.0639
X1.6052 Y0.3843 I0.275 J0.4618
X1.6971 Y0.3814 I0.0545 J0.2739
X1.7283 Y0.3894 I-0.1577 J0.6858
X2.0014 Y0.1865 I4.3845 J5.6167
X2.3061 Y0.0016 I1.6935 J2.4473
X2.364 Y-0.0297 I1.2224 J2.1938
X2.4027 Y-0.0347 I0.0365 J0.1282
X2.5186 Y-0.0103 I0.0215 J0.1854
X2.5813 Y0.0362 I-0.0872 J0.1828
X2.6366 Y0.1264 I-0.1301 J0.142
X2.6471 Y0.1843 I-0.1142 J0.0506
X2.6338 Y0.2812 I-0.238 J0.0167
X2.5765 Y0.3597 I-0.2389 J-0.1141
X2.5428 Y0.3899 I-0.1171 J-0.097
X2.0838 Y0.7199 I-7.381 J-9.7819
X1.9015 Y0.8409 I-17.6842 J-26.451
G1 X1.8973 Y1.2189
X1.8925 Y1.597
G2 X1.8962 Y1.7787 I7.6039 J-0.0647
G1 X1.8967 Y1.7886
X1.8971 Y1.7986
X1.8975 Y1.8084 Z-0.0401
X1.8979 Y1.8183 Z-0.0402
X1.8983 Y1.8282 Z-0.0403
X1.8987 Y1.8369 Z-0.0404
X1.899 Y1.8435 Z-0.0405
X1.8991 Y1.8449
Y1.8453
X1.8992 Y1.8454
X1.8997 Y1.8453
X1.9005
X1.9091 Y1.845 Z-0.0407
X1.9177 Y1.8447 Z-0.0408
X1.9276 Y1.8444 Z-0.041
X1.9375 Y1.844 Z-0.0412
X1.9474 Y1.8436 Z-0.0415
X1.9572 Y1.8432 Z-0.0417
X1.9671 Y1.8428 Z-0.042
X1.977 Y1.8424 Z-0.0422
X1.9869 Y1.8419 Z-0.0425
X1.9968 Y1.8415 Z-0.0428
X2.0066 Y1.8411 Z-0.0431
X2.0165 Y1.8407 Z-0.0435
X2.0264 Y1.8403 Z-0.0438
X2.0363 Y1.8399 Z-0.0441
X2.0462 Y1.8395 Z-0.0445
X2.0561 Y1.8391 Z-0.0448
X2.066 Y1.8387 Z-0.0452
X2.0758 Y1.8384 Z-0.0455
X2.0857 Y1.8381 Z-0.0459
X2.0956 Y1.8378 Z-0.0462
X2.1055 Y1.8375 Z-0.0466
X2.1154 Y1.8372 Z-0.0469
X2.1451 Y1.8364 Z-0.0479
X2.1549 Y1.8362 Z-0.0483
X2.2242 Y1.8352 Z-0.0507
X2.2341 Y1.8351 Z-0.0511
X2.244 Z-0.0514
X2.2539 Y1.8352 Z-0.0517
X2.2638 Z-0.0521
X2.2737 Z-0.0524
X2.2836 Y1.8353 Z-0.0528
X2.2935 Z-0.0531
X2.3034 Z-0.0535
X2.3132 Y1.8354 Z-0.0538
X2.3231 Y1.8356 Z-0.0542
X2.333 Y1.8358 Z-0.0545
X2.3429 Y1.8359 Z-0.0549
X2.3528 Y1.8361 Z-0.0552
X2.3627 Y1.8363 Z-0.0555
X2.3726 Y1.8365 Z-0.0559
X2.3825 Y1.8367 Z-0.0562
X2.3924 Y1.8369 Z-0.0566
X2.4023 Y1.8372 Z-0.0569
X2.4122 Y1.8375 Z-0.0572
X2.4221 Y1.8378 Z-0.0575
X2.432 Y1.8381 Z-0.0578
X2.4419 Y1.8384 Z-0.0581
X2.4518 Y1.8387 Z-0.0583
X2.4617 Y1.839 Z-0.0586
X2.4716 Y1.8394 Z-0.0588
X2.4815 Y1.8397 Z-0.059
X2.4914 Y1.8401 Z-0.0592
X2.5013 Y1.8404 Z-0.0594
X2.5112 Y1.8407 Z-0.0595
X2.5211 Y1.841 Z-0.0597
X2.531 Y1.8414 Z-0.0598
X2.5408 Y1.8418 Z-0.0599
X2.5507 Y1.8423
X2.5606 Y1.8427 Z-0.06
X2.5705 Y1.8432
X2.5746 Y1.8434
G3 X2.7556 Y1.8676 I-0.0385 J0.9755
X2.8973 Y1.9306 I-0.1096 J0.4376
X3.0163 Y2.0457 I-0.3982 J0.5308
X3.0475 Y2.083 I-0.3094 J0.2906
X3.0552 Y2.1243 I-0.0852 J0.0373
X3.0308 Y2.2543 I-0.2137 J0.0271
X2.9921 Y2.3123 I-0.1726 J-0.0731
X2.886 Y2.381 I-0.1556 J-0.124
X2.8329 Y2.391 I-0.0488 J-0.1138
X2.6396 Y2.3768 I-0.038 J-0.8096
G1 X2.4711 Y2.3512
X2.3027 Y2.325
X0.9188 Y2.2996
X0.5829 Y2.3021
X0.2469 Y2.3045
G3 X0.1309 Y2.2863 I0.0697 J-0.8212
X0.0389 Y2.2388 I0.0612 J-0.2313
X-0.0255 Y2.1484 I0.2111 J-0.2184
X-0.0467 Y2.1051 I0.3391 J-0.1928
X-0.0382 Y2.0567 I0.0557 J-0.0152
X0.0885 Y1.8484 I2.7091 J1.505
X0.31 Y1.5901 I1.4452 J1.015
X0.5603 Y1.365 I2.9892 J3.0725
G2 X0.6504 Y1.2823 I-1.6213 J-1.8576
G3 X1.083 Y0.8922 I13.1858 J14.188
X1.4046 Y0.6204 I17.9908 J20.9597
X1.4261 Y0.5154 I0.4771 J0.0427
X1.5183 Y0.41 I0.1828 J0.0669
X1.605 Y0.3699 I0.2565 J0.4407
X1.6825 Y0.3656 I0.0604 J0.3898
X1.7255 Y0.3744 I-0.0442 J0.328
X2.0303 Y0.15 I3.8871 J4.9608
X2.3448 Y-0.0347 I1.8547 J2.7987
X2.3834 Y-0.0471 I0.0393 J0.056
X2.4704 Y-0.0447 I0.0363 J0.2705
X2.5627 Y0.0004 I-0.0866 J0.2939
X2.6229 Y0.0632 I-0.2246 J0.2758
X2.6606 Y0.1601 I-0.2666 J0.1594
X2.6584 Y0.2424 I-0.5776 J0.0259
X2.6104 Y0.3427 I-0.1954 J-0.0319
X2.5671 Y0.389 I-0.4165 J-0.3462
X2.1763 Y0.6731 I-9.4697 J-12.6139
X1.915 Y0.8483 I-8.3409 J-12.1584
G1 X1.9124 Y1.0963
X1.9094 Y1.3442
X1.9061 Y1.5922
G2 X1.9118 Y1.832 I7.9222 J-0.067
G3 X2.5187 Y1.8411 I0.2006 J6.8486
G1 X2.5235 Y1.841
X2.5719 Y1.8432
X2.5746 Y1.8434
G2 X2.5878 Y1.8316 I0.0007 J-0.0125 F35
G1 X2.588 Y1.8289 Z-0.0597
X2.5882 Y1.8262 Z-0.0588
X2.5883 Y1.8239 Z-0.0573
X2.5884 Y1.8219 Z-0.0553
X2.5885 Y1.8204 Z-0.0529
X2.5886 Y1.8195 Z-0.0503
Y1.8192 Z-0.0475
G0 Z0.2
X1.3702 Y1.7998
Z0.0119
G1 Z-0.0475 F35
X1.3704 Y1.8 Z-0.0503
X1.3711 Y1.8006 Z-0.0529
X1.3723 Y1.8016 Z-0.0553
X1.3738 Y1.8029 Z-0.0573
X1.3756 Y1.8044 Z-0.0588
X1.3776 Y1.8061 Z-0.0597
X1.3797 Y1.8079 Z-0.06
X1.3836 Y1.8113
G2 X1.4013 Y1.8099 I0.0081 J-0.0095
G3 X1.4044 Y1.2552 I10.6133 J-0.2169 F35.38
G1 X0.8056 Y1.8109
X1.4014 Y1.8193
X1.4013 Y1.8099
X1.4011 Y1.8
X1.401 Y1.7901
X1.4008 Y1.7802 Z-0.0601
X1.4006 Y1.7703 Z-0.0602
X1.4004 Y1.7604 Z-0.0603
X1.4002 Y1.7505 Z-0.0604
X1.4 Y1.7406 Z-0.0606
X1.3998 Y1.7307 Z-0.0607
X1.3996 Y1.7208 Z-0.0609
X1.3994 Y1.7109 Z-0.0611
X1.3992 Y1.701 Z-0.0613
X1.399 Y1.6911 Z-0.0616
X1.3987 Y1.6812 Z-0.0618
X1.3985 Y1.6713 Z-0.0621
X1.3983 Y1.6614 Z-0.0624
X1.3981 Y1.6515 Z-0.0627
X1.3978 Y1.6416 Z-0.063
X1.3976 Y1.6317 Z-0.0633
X1.3974 Y1.6219 Z-0.0636
X1.3972 Y1.612 Z-0.064
X1.397 Y1.6021 Z-0.0643
X1.3968 Y1.5922 Z-0.0647
X1.3967 Y1.5823 Z-0.065
X1.3965 Y1.5724 Z-0.0653
X1.3963 Y1.5625 Z-0.0657
X1.3962 Y1.5526 Z-0.066
X1.396 Y1.5427 Z-0.0664
X1.3958 Y1.5328 Z-0.0667
X1.3953 Y1.4437 Z-0.0698
Y1.4339 Z-0.0702
X1.3955 Y1.4042 Z-0.0712
Y1.3943 Z-0.0716
X1.3956 Y1.3844 Z-0.0719
X1.3957 Y1.3745 Z-0.0723
Y1.3646 Z-0.0726
X1.3958 Y1.3547 Z-0.0729
X1.3959 Y1.3448 Z-0.0733
X1.3961 Y1.3349 Z-0.0736
X1.3962 Y1.325 Z-0.074
X1.3964 Y1.3151 Z-0.0743
X1.3965 Y1.3052 Z-0.0747
X1.3967 Y1.2953 Z-0.075
X1.3969 Y1.2854 Z-0.0754
X1.3971 Y1.2755 Z-0.0757
Y1.2723 Z-0.0758
X1.3972 Y1.2713
X1.397
X1.3962 Y1.272
X1.3955 Y1.2727
X1.3943 Y1.2738
X1.392 Y1.276 Z-0.0759
X1.3883 Y1.2795 Z-0.076
X1.3811 Y1.2863 Z-0.0764
X1.374 Y1.2931 Z-0.0767
X1.3668 Y1.3 Z-0.077
X1.3596 Y1.3068 Z-0.0774
X1.3524 Y1.3136 Z-0.0776
X1.3452 Y1.3204 Z-0.0779
X1.338 Y1.3272 Z-0.0782
X1.3308 Y1.334 Z-0.0784
X1.3236 Y1.3408 Z-0.0787
X1.3164 Y1.3476 Z-0.0789
X1.3092 Y1.3543 Z-0.0791
X1.302 Y1.3611 Z-0.0793
X1.2948 Y1.3679 Z-0.0794
X1.2875 Y1.3747 Z-0.0796
X1.2803 Y1.3814 Z-0.0797
X1.2731 Y1.3882 Z-0.0798
X1.2658 Y1.3949 Z-0.0799
X1.2586 Y1.4017 Z-0.08
X1.2513 Y1.4084
X1.2443 Y1.4149
X1.03 Y1.6139
X0.8262 Y1.803
Y1.8031
X1.393 Y1.8111
X1.3931 Y1.811
G3 X1.3957 Y1.2744 I10.4718 J-0.2176
G1 X1.2443 Y1.4149
G2 X1.2437 Y1.4326 I0.0085 J0.0092 F35
G1 X1.2456 Y1.4346 Z-0.0797
X1.2474 Y1.4365 Z-0.0788
X1.249 Y1.4383 Z-0.0773
X1.2503 Y1.4397 Z-0.0753
X1.2513 Y1.4408 Z-0.0729
X1.252 Y1.4415 Z-0.0703
X1.2522 Y1.4417 Z-0.0675
G0 Z0.2
X0.8786 Y1.0235
Z-0.0082
G1 Z-0.0675 F35
X0.8788 Y1.0237 Z-0.0703
X0.8794 Y1.0244 Z-0.0729
X0.8804 Y1.0255 Z-0.0753
X0.8817 Y1.027 Z-0.0773
X0.8833 Y1.0287 Z-0.0788
X0.885 Y1.0307 Z-0.0797
X0.8869 Y1.0328 Z-0.08
X0.8895 Y1.0358
G2 X0.9072 Y1.0368 I0.0093 J-0.0083
G3 X1.397 Y0.6163 I10.917 J12.2226 F35.38
X1.4219 Y0.5035 I0.4266 J0.0351
X1.5154 Y0.4024 I0.1869 J0.0789
X1.5617 Y0.3789 I0.1752 J0.2879
X1.6003 Y0.3628 I0.1824 J0.3829
X1.6922 Y0.3586 I0.0609 J0.325
X1.7237 Y0.3654 I-0.0827 J0.4576
X1.9869 Y0.17 I4.3117 J5.5329
X2.2964 Y-0.018 I1.7127 J2.4717
X2.3591 Y-0.0514 I0.4925 J0.8471
X2.4075 Y-0.0569 I0.0484 J0.2111
X2.531 Y-0.0283 I0.0177 J0.2043
X2.5909 Y0.0152 I-0.0854 J0.1806
X2.6596 Y0.1264 I-0.1464 J0.1672
X2.6688 Y0.1843 I-0.1158 J0.0482
X2.6513 Y0.2957 I-0.2458 J0.0184
X2.591 Y0.3762 I-0.2689 J-0.1386
X2.5573 Y0.4063 I-0.1185 J-0.0986
X2.0935 Y0.7397 I-7.3845 J-9.7843
X1.9232 Y0.8527 I-16.1671 J-24.1875
G1 X1.9209 Y1.0798
X1.9181 Y1.307
X1.9149 Y1.5341
G2 X1.9197 Y1.8237 I5.874 J0.0468
G3 X2.4994 Y1.8319 I0.1944 J6.7174
X2.6783 Y1.8444 I-0.0385 J1.8379
X2.8367 Y1.887 I-0.0788 J0.6098
X2.9807 Y1.994 I-0.1891 J0.4047
X3.0528 Y2.0759 I-0.8568 J0.8268
X3.0628 Y2.1146 I-0.0611 J0.0364
X3.0507 Y2.2309 I-0.2364 J0.0342
X3.0216 Y2.2896 I-0.4724 J-0.1971
X2.9702 Y2.3471 I-0.36 J-0.2706
X2.8811 Y2.3911 I-0.1446 J-0.1807
X2.8329 Y2.399 I-0.0414 J-0.1011
X2.6541 Y2.3875 I-0.0398 J-0.7772
G1 X2.478 Y2.3604
X2.302 Y2.3331
X0.9188 Y2.3077
X0.914
X0.6915 Y2.3094
X0.2469 Y2.3127
G3 X0.1281 Y2.2939 I0.0688 J-0.8207
X0.0341 Y2.2454 I0.0631 J-0.2372
X-0.0331 Y2.1515 I0.2148 J-0.2248
X-0.0556 Y2.1051 I0.3551 J-0.2007
X-0.0428 Y2.0487 I0.065 J-0.0149
X0.1058 Y1.8097 I2.1505 J1.1712
X0.3439 Y1.5462 I1.5401 J1.1522
X0.4746 Y1.4277 I2.275 J2.3784
G2 X0.5902 Y1.3275 I-5.9966 J-7.0356
G3 X0.9071 Y1.0367 I17.7754 J19.0544
G1 X0.9145 Y1.0302
X0.9219 Y1.0236
X0.9293 Y1.017 Z-0.0801
X0.9367 Y1.0103 Z-0.0802
X0.944 Y1.0037 Z-0.0803
X0.9514 Y0.9971 Z-0.0804
X0.9588 Y0.9905 Z-0.0806
X0.9661 Y0.9839 Z-0.0807
X0.9735 Y0.9772 Z-0.0809
X0.9808 Y0.9706 Z-0.0811
X0.9881 Y0.964 Z-0.0813
X0.9955 Y0.9574 Z-0.0816
X1.0029 Y0.9508 Z-0.0818
X1.0103 Y0.9443 Z-0.0821
X1.0177 Y0.9377 Z-0.0824
X1.0251 Y0.9311 Z-0.0827
X1.0325 Y0.9245 Z-0.083
X1.0399 Y0.9179 Z-0.0833
X1.0473 Y0.9114 Z-0.0836
X1.0547 Y0.9048 Z-0.084
X1.0621 Y0.8982 Z-0.0843
X1.0695 Y0.8916 Z-0.0847
X1.0769 Y0.885 Z-0.085
X1.0843 Y0.8785 Z-0.0853
X1.0918 Y0.872 Z-0.0857
X1.0992 Y0.8655 Z-0.086
X1.1067 Y0.859 Z-0.0864
X1.1142 Y0.8525 Z-0.0867
X1.1216 Y0.846 Z-0.0871
X1.1291 Y0.8395 Z-0.0874
X1.1366 Y0.833 Z-0.0878
X1.144 Y0.8265 Z-0.0881
X1.159 Y0.8135 Z-0.0888
X1.1664 Y0.807 Z-0.0891
X1.2491 Y0.7361 Z-0.093
X1.2566 Y0.7297 Z-0.0933
X1.2868 Y0.704 Z-0.0947
X1.2943 Y0.6976 Z-0.095
X1.3019 Y0.6912 Z-0.0954
X1.3094 Y0.6848 Z-0.0957
X1.3169 Y0.6784 Z-0.0961
X1.3245 Y0.672 Z-0.0964
X1.332 Y0.6656 Z-0.0967
X1.3396 Y0.6592 Z-0.0971
X1.3472 Y0.6528 Z-0.0974
X1.3547 Y0.6464 Z-0.0977
X1.3623 Y0.64 Z-0.0979
X1.3699 Y0.6336 Z-0.0982
X1.3775 Y0.6273 Z-0.0985
X1.385 Y0.6209 Z-0.0987
X1.3929 Y0.6143 Z-0.0989
X1.393 Y0.6142
Y0.614
X1.3936 Y0.6097 Z-0.099
X1.3941 Y0.6048 Z-0.0991
X1.3954 Y0.595 Z-0.0993
X1.3969 Y0.5852 Z-0.0995
X1.3984 Y0.5754 Z-0.0996
X1.4002 Y0.5657 Z-0.0997
X1.4021 Y0.5559 Z-0.0998
X1.4043 Y0.5463 Z-0.0999
X1.4067 Y0.5367 Z-0.1
X1.4094 Y0.5272
X1.4121 Y0.5188
G3 X1.5037 Y0.4042 I0.194 J0.0611
X1.6012 Y0.3583 I0.2691 J0.4449
X1.6874 Y0.3537 I0.0624 J0.3637
X1.7228 Y0.3609 I-0.0611 J0.3941
X2.0224 Y0.1405 I3.8367 J4.9016
X2.3303 Y-0.0408 I1.8051 J2.7133
X2.364 Y-0.0572 I0.0785 J0.1185
X2.4608 Y-0.0593 I0.0562 J0.3571
X2.5572 Y-0.018 I-0.0576 J0.2676
X2.5866 Y0.0055 I-0.0678 J0.1151
X2.6635 Y0.1245 I-0.1484 J0.1802
X2.673 Y0.1843 I-0.1247 J0.0506
X2.6579 Y0.2909 I-0.2583 J0.0177
X2.5958 Y0.3771 I-0.2566 J-0.1193
X2.572 Y0.4008 I-0.1491 J-0.1259
X2.184 Y0.6828 I-9.7614 J-13.022
X1.9273 Y0.855 I-8.513 J-12.4125
G1 X1.9218 Y1.3503
G2 X1.9191 Y1.6622 I12.2429 J0.2627
X1.9236 Y1.8194 I11.3221 J-0.2506
G3 X2.5187 Y1.8288 I0.1905 J6.8075
X2.7315 Y1.8493 I-0.0146 J1.2679
X2.8717 Y1.9 I-0.1038 J0.5064
X2.997 Y2.0052 I-0.2606 J0.4377
X3.0578 Y2.0757 I-0.8706 J0.8116
X3.0672 Y2.1195 I-0.08 J0.0401
X3.042 Y2.2597 I-0.2285 J0.0312
X3.0018 Y2.32 I-0.1833 J-0.0784
X2.8981 Y2.3902 I-0.1629 J-0.1292
X2.8523 Y2.403 I-0.0874 J-0.2245
X2.7265 Y2.4016 I-0.0513 J-1.0494
X2.5526 Y2.3758 I0.4528 J-3.656
X2.3016 Y2.3372 I4.6583 J-31.1024
G1 X0.9188 Y2.3118
X0.914
X0.6238 Y2.314
X0.4329 Y2.3156
X0.2421 Y2.3167
G3 X0.1406 Y2.3014 I0.106 J-1.0515
X0.0389 Y2.2549 I0.0585 J-0.2624
X-0.0343 Y2.158 I0.1903 J-0.2198
X-0.0601 Y2.1051 I0.3915 J-0.2235
X-0.0528 Y2.057 I0.0641 J-0.015
X0.0575 Y1.8727 I3.4039 J1.9112
X0.305 Y1.5779 I1.4315 J0.9509
X0.5226 Y1.3809 I2.7076 J2.7715
G2 X0.6428 Y1.2728 I-1.6976 J-2.009
G3 X1.1618 Y0.8082 I11.3808 J12.1897
G1 X1.2773 Y0.711
X1.3929 Y0.6141
G3 X1.4119 Y0.5188 I0.486 J0.0473
G1 X1.4125 Y0.5161 F35
Y0.5133
X1.4119 Y0.5106
X1.4107 Y0.5081
X1.409 Y0.506
X1.4068 Y0.5042
X1.4043 Y0.503
X1.4017 Y0.5021 Z-0.0997
X1.3992 Y0.5013 Z-0.0988
X1.3969 Y0.5005 Z-0.0973
X1.395 Y0.4999 Z-0.0953
X1.3936 Y0.4994 Z-0.0929
X1.3927 Y0.4991 Z-0.0903
X1.3925 Y0.499 Z-0.0875
G0 Z0.2
X1.3782 Y1.2965
Z0.0179
G1 Z-0.078 F35
Z-0.0784
Y1.2966 Z-0.0785
X1.3781 Y1.2967 Z-0.0787
Y1.2969 Z-0.0788
Y1.297 Z-0.0789
Y1.2971
Y1.2973 Z-0.079
Y1.2974
X1.3782 Y1.2975
X1.3783 Y1.2976
Y1.2977
G2 X1.3798 Y1.2963 Z-0.0791 I0.0007 J-0.0007
X1.3783 Y1.2977 Z-0.0792 I-0.0007 J0.0007
X1.3798 Y1.2963 Z-0.0793 I0.0007 J-0.0007
X1.3783 Y1.2977 Z-0.0795 I-0.0007 J0.0007
X1.3798 Y1.2963 Z-0.0796 I0.0007 J-0.0007
X1.3783 Y1.2977 Z-0.0797 I-0.0007 J0.0007
X1.3798 Y1.2963 Z-0.0798 I0.0007 J-0.0007
X1.3783 Y1.2977 Z-0.0799 I-0.0007 J0.0007
X1.3798 Y1.2963 Z-0.08 I0.0007 J-0.0007
X1.3783 Y1.2977 Z-0.0801 I-0.0007 J0.0007
X1.3798 Y1.2963 Z-0.0802 I0.0007 J-0.0007
X1.3783 Y1.2977 Z-0.0803 I-0.0007 J0.0007
X1.3798 Y1.2963 Z-0.0804 I0.0007 J-0.0007
X1.3783 Y1.2977 Z-0.0805 I-0.0007 J0.0007
X1.3798 Y1.2963 Z-0.0807 I0.0007 J-0.0007
X1.3783 Y1.2977 Z-0.0808 I-0.0007 J0.0007
X1.3798 Y1.2963 Z-0.0809 I0.0007 J-0.0007
X1.3783 Y1.2977 Z-0.081 I-0.0007 J0.0007
X1.3798 Y1.2963 Z-0.0811 I0.0007 J-0.0007
X1.3783 Y1.2977 Z-0.0812 I-0.0007 J0.0007
X1.3798 Y1.2963 Z-0.0813 I0.0007 J-0.0007
X1.3783 Y1.2977 Z-0.0814 I-0.0007 J0.0007
X1.3798 Y1.2963 Z-0.0815 I0.0007 J-0.0007
X1.3783 Y1.2977 Z-0.0816 I-0.0007 J0.0007
X1.3798 Y1.2963 Z-0.0818 I0.0007 J-0.0007
X1.3783 Y1.2977 Z-0.0819 I-0.0007 J0.0007
X1.3798 Y1.2963 Z-0.082 I0.0007 J-0.0007
X1.3783 Y1.2977 Z-0.0821 I-0.0007 J0.0007
X1.3798 Y1.2963 Z-0.0822 I0.0007 J-0.0007
X1.3783 Y1.2977 Z-0.0823 I-0.0007 J0.0007
X1.3798 Y1.2963 Z-0.0824 I0.0007 J-0.0007
X1.3783 Y1.2977 Z-0.0825 I-0.0007 J0.0007
X1.3798 Y1.2963 Z-0.0826 I0.0007 J-0.0007
X1.3783 Y1.2977 Z-0.0827 I-0.0007 J0.0007
X1.3798 Y1.2963 Z-0.0828 I0.0007 J-0.0007
X1.3783 Y1.2977 Z-0.083 I-0.0007 J0.0007
X1.3798 Y1.2963 Z-0.0831 I0.0007 J-0.0007
X1.3783 Y1.2977 Z-0.0832 I-0.0007 J0.0007
X1.3798 Y1.2963 Z-0.0833 I0.0007 J-0.0007
X1.3783 Y1.2977 Z-0.0834 I-0.0007 J0.0007
X1.3798 Y1.2963 Z-0.0835 I0.0007 J-0.0007
X1.3783 Y1.2977 Z-0.0836 I-0.0007 J0.0007
X1.3798 Y1.2963 Z-0.0837 I0.0007 J-0.0007
X1.3783 Y1.2977 Z-0.0838 I-0.0007 J0.0007
X1.3798 Y1.2963 Z-0.0839 I0.0007 J-0.0007
X1.3783 Y1.2977 Z-0.0841 I-0.0007 J0.0007
X1.3798 Y1.2963 Z-0.0842 I0.0007 J-0.0007
X1.3783 Y1.2977 Z-0.0843 I-0.0007 J0.0007
X1.3798 Y1.2963 Z-0.0844 I0.0007 J-0.0007
X1.3783 Y1.2977 Z-0.0845 I-0.0007 J0.0007
X1.3798 Y1.2963 Z-0.0846 I0.0007 J-0.0007
X1.3783 Y1.2977 Z-0.0847 I-0.0007 J0.0007
X1.3798 Y1.2963 Z-0.0848 I0.0007 J-0.0007
X1.3783 Y1.2977 Z-0.0849 I-0.0007 J0.0007
X1.3798 Y1.2963 Z-0.085 I0.0007 J-0.0007
X1.3783 Y1.2977 Z-0.0852 I-0.0007 J0.0007
X1.3798 Y1.2963 Z-0.0853 I0.0007 J-0.0007
X1.3783 Y1.2977 Z-0.0854 I-0.0007 J0.0007
X1.3798 Y1.2963 Z-0.0855 I0.0007 J-0.0007
X1.3783 Y1.2977 Z-0.0856 I-0.0007 J0.0007
X1.3798 Y1.2963 Z-0.0857 I0.0007 J-0.0007
X1.3783 Y1.2977 Z-0.0858 I-0.0007 J0.0007
X1.3798 Y1.2963 Z-0.0859 I0.0007 J-0.0007
X1.3783 Y1.2977 Z-0.086 I-0.0007 J0.0007
X1.3798 Y1.2963 Z-0.0861 I0.0007 J-0.0007
X1.3783 Y1.2977 Z-0.0862 I-0.0007 J0.0007
X1.3798 Y1.2963 Z-0.0864 I0.0007 J-0.0007
X1.3783 Y1.2977 Z-0.0865 I-0.0007 J0.0007
X1.3798 Y1.2963 Z-0.0866 I0.0007 J-0.0007
X1.3783 Y1.2977 Z-0.0867 I-0.0007 J0.0007
X1.3798 Y1.2963 Z-0.0868 I0.0007 J-0.0007
X1.3783 Y1.2977 Z-0.0869 I-0.0007 J0.0007
X1.3798 Y1.2963 Z-0.087 I0.0007 J-0.0007
X1.3783 Y1.2977 Z-0.0871 I-0.0007 J0.0007
X1.3798 Y1.2963 Z-0.0872 I0.0007 J-0.0007
X1.3783 Y1.2977 Z-0.0873 I-0.0007 J0.0007
X1.3798 Y1.2963 Z-0.0875 I0.0007 J-0.0007
X1.3783 Y1.2977 Z-0.0876 I-0.0007 J0.0007
X1.3798 Y1.2963 Z-0.0877 I0.0007 J-0.0007
X1.3783 Y1.2977 Z-0.0878 I-0.0007 J0.0007
X1.3798 Y1.2963 Z-0.0879 I0.0007 J-0.0007
X1.3783 Y1.2977 Z-0.088 I-0.0007 J0.0007
X1.3798 Y1.2963 Z-0.0881 I0.0007 J-0.0007
X1.3783 Y1.2977 Z-0.0882 I-0.0007 J0.0007
X1.3798 Y1.2963 Z-0.0883 I0.0007 J-0.0007
X1.3783 Y1.2977 Z-0.0884 I-0.0007 J0.0007
X1.3798 Y1.2963 Z-0.0885 I0.0007 J-0.0007
X1.3783 Y1.2977 Z-0.0887 I-0.0007 J0.0007
X1.3798 Y1.2963 Z-0.0888 I0.0007 J-0.0007
X1.3783 Y1.2977 Z-0.0889 I-0.0007 J0.0007
X1.3798 Y1.2963 Z-0.089 I0.0007 J-0.0007
X1.3783 Y1.2977 Z-0.0891 I-0.0007 J0.0007
X1.3798 Y1.2963 Z-0.0892 I0.0007 J-0.0007
X1.3783 Y1.2977 Z-0.0893 I-0.0007 J0.0007
X1.3798 Y1.2963 Z-0.0894 I0.0007 J-0.0007
X1.3783 Y1.2977 Z-0.0895 I-0.0007 J0.0007
X1.3798 Y1.2963 Z-0.0896 I0.0007 J-0.0007
X1.3783 Y1.2977 Z-0.0898 I-0.0007 J0.0007
X1.3798 Y1.2963 Z-0.0899 I0.0007 J-0.0007
X1.3783 Y1.2977 Z-0.09 I-0.0007 J0.0007
X1.3798 Y1.2963 Z-0.0901 I0.0007 J-0.0007
X1.3783 Y1.2977 Z-0.0902 I-0.0007 J0.0007
X1.3798 Y1.2963 Z-0.0903 I0.0007 J-0.0007
X1.3783 Y1.2977 Z-0.0904 I-0.0007 J0.0007
X1.3798 Y1.2963 Z-0.0905 I0.0007 J-0.0007
X1.3783 Y1.2977 Z-0.0906 I-0.0007 J0.0007
X1.3798 Y1.2963 Z-0.0907 I0.0007 J-0.0007
X1.3783 Y1.2977 Z-0.0908 I-0.0007 J0.0007
X1.3798 Y1.2963 Z-0.091 I0.0007 J-0.0007
X1.3783 Y1.2977 Z-0.0911 I-0.0007 J0.0007
X1.3798 Y1.2963 Z-0.0912 I0.0007 J-0.0007
X1.3783 Y1.2977 Z-0.0913 I-0.0007 J0.0007
X1.3798 Y1.2963 Z-0.0914 I0.0007 J-0.0007
X1.3783 Y1.2977 Z-0.0915 I-0.0007 J0.0007
X1.3798 Y1.2963 Z-0.0916 I0.0007 J-0.0007
X1.3783 Y1.2977 Z-0.0917 I-0.0007 J0.0007
X1.3798 Y1.2963 Z-0.0918 I0.0007 J-0.0007
X1.3783 Y1.2977 Z-0.0919 I-0.0007 J0.0007
X1.3798 Y1.2963 Z-0.0921 I0.0007 J-0.0007
X1.3783 Y1.2977 Z-0.0922 I-0.0007 J0.0007
X1.3798 Y1.2963 Z-0.0923 I0.0007 J-0.0007
X1.3783 Y1.2977 Z-0.0924 I-0.0007 J0.0007
X1.3798 Y1.2963 Z-0.0925 I0.0007 J-0.0007
X1.3783 Y1.2977 Z-0.0926 I-0.0007 J0.0007
X1.3798 Y1.2963 Z-0.0927 I0.0007 J-0.0007
X1.3783 Y1.2977 Z-0.0928 I-0.0007 J0.0007
X1.3798 Y1.2963 Z-0.0929 I0.0007 J-0.0007
X1.3783 Y1.2977 Z-0.093 I-0.0007 J0.0007
X1.3798 Y1.2963 Z-0.0932 I0.0007 J-0.0007
X1.3783 Y1.2977 Z-0.0933 I-0.0007 J0.0007
X1.3798 Y1.2963 Z-0.0934 I0.0007 J-0.0007
X1.3783 Y1.2977 Z-0.0935 I-0.0007 J0.0007
X1.3798 Y1.2963 Z-0.0936 I0.0007 J-0.0007
X1.3783 Y1.2977 Z-0.0937 I-0.0007 J0.0007
X1.3798 Y1.2963 Z-0.0938 I0.0007 J-0.0007
X1.3783 Y1.2977 Z-0.0939 I-0.0007 J0.0007
X1.3798 Y1.2963 Z-0.094 I0.0007 J-0.0007
X1.3783 Y1.2977 Z-0.0941 I-0.0007 J0.0007
X1.3798 Y1.2963 Z-0.0942 I0.0007 J-0.0007
X1.3783 Y1.2977 Z-0.0944 I-0.0007 J0.0007
X1.3798 Y1.2963 Z-0.0945 I0.0007 J-0.0007
X1.3783 Y1.2977 Z-0.0946 I-0.0007 J0.0007
X1.3798 Y1.2963 Z-0.0947 I0.0007 J-0.0007
X1.3783 Y1.2977 Z-0.0948 I-0.0007 J0.0007
X1.3798 Y1.2963 Z-0.0949 I0.0007 J-0.0007
X1.3783 Y1.2977 Z-0.095 I-0.0007 J0.0007
X1.3798 Y1.2963 Z-0.0951 I0.0007 J-0.0007
X1.3783 Y1.2977 Z-0.0952 I-0.0007 J0.0007
X1.3798 Y1.2963 Z-0.0953 I0.0007 J-0.0007
X1.3783 Y1.2977 Z-0.0955 I-0.0007 J0.0007
X1.3798 Y1.2963 Z-0.0956 I0.0007 J-0.0007
X1.3783 Y1.2977 Z-0.0957 I-0.0007 J0.0007
X1.3798 Y1.2963 Z-0.0958 I0.0007 J-0.0007
X1.3783 Y1.2977 Z-0.0959 I-0.0007 J0.0007
X1.3798 Y1.2963 Z-0.096 I0.0007 J-0.0007
X1.3783 Y1.2977 Z-0.0961 I-0.0007 J0.0007
X1.3798 Y1.2963 Z-0.0962 I0.0007 J-0.0007
X1.3783 Y1.2977 Z-0.0963 I-0.0007 J0.0007
X1.3798 Y1.2963 Z-0.0964 I0.0007 J-0.0007
X1.3783 Y1.2977 Z-0.0965 I-0.0007 J0.0007
X1.3798 Y1.2963 Z-0.0967 I0.0007 J-0.0007
X1.3783 Y1.2977 Z-0.0968 I-0.0007 J0.0007
X1.3798 Y1.2963 Z-0.0969 I0.0007 J-0.0007
X1.3783 Y1.2977 Z-0.097 I-0.0007 J0.0007
X1.3798 Y1.2963 Z-0.0971 I0.0007 J-0.0007
X1.3783 Y1.2977 Z-0.0972 I-0.0007 J0.0007
X1.3798 Y1.2963 Z-0.0973 I0.0007 J-0.0007
X1.3783 Y1.2977 Z-0.0974 I-0.0007 J0.0007
X1.3798 Y1.2963 Z-0.0975 I0.0007 J-0.0007
X1.3783 Y1.2977 Z-0.0976 I-0.0007 J0.0007
X1.3798 Y1.2963 Z-0.0978 I0.0007 J-0.0007
X1.3783 Y1.2977 Z-0.0979 I-0.0007 J0.0007
X1.3798 Y1.2963 Z-0.098 I0.0007 J-0.0007
X1.3783 Y1.2977 Z-0.0981 I-0.0007 J0.0007
X1.3798 Y1.2963 Z-0.0982 I0.0007 J-0.0007
X1.3783 Y1.2977 Z-0.0983 I-0.0007 J0.0007
X1.3798 Y1.2963 Z-0.0984 I0.0007 J-0.0007
X1.3783 Y1.2977 Z-0.0985 I-0.0007 J0.0007
X1.3798 Y1.2963 Z-0.0986 I0.0007 J-0.0007
X1.3783 Y1.2977 Z-0.0987 I-0.0007 J0.0007
X1.3798 Y1.2963 Z-0.0988 I0.0007 J-0.0007
X1.3783 Y1.2977 Z-0.099 I-0.0007 J0.0007
X1.3798 Y1.2963 Z-0.0991 I0.0007 J-0.0007
X1.3783 Y1.2977 Z-0.0992 I-0.0007 J0.0007
X1.3798 Y1.2963 Z-0.0993 I0.0007 J-0.0007
X1.3783 Y1.2977 Z-0.0994 I-0.0007 J0.0007
X1.3798 Y1.2963 Z-0.0995 I0.0007 J-0.0007
X1.3783 Y1.2977 Z-0.0996 I-0.0007 J0.0007
X1.3798 Y1.2963 Z-0.0997 I0.0007 J-0.0007
X1.3783 Y1.2977 Z-0.0998 I-0.0007 J0.0007
X1.3798 Y1.2963 Z-0.0999 I0.0007 J-0.0007
X1.3784 Z-0.1 I-0.0007 J0.0007
G1 X1.3812 Y1.296
X1.3839 Y1.2952
X1.3863 Y1.2938
X1.3883 Y1.2919
X1.3899 Y1.2895
X1.3909 Y1.2869
X1.3912 Y1.2842
X1.0638 Y1.588 F35.38
X0.9499 Y1.6938
X0.8364 Y1.7991
X0.8365
X1.1605 Y1.8037
X1.3888 Y1.8069
G3 X1.3912 Y1.2842 I10.8437 J-0.2126
G1 X1.387 Y1.2881
X1.3828 Y1.292
X1.3755 Y1.2988 Z-0.1001
X1.3683 Y1.3055
X1.361 Y1.3123 Z-0.1002
X1.3538 Y1.319 Z-0.1003
X1.3465 Y1.3257 Z-0.1004
X1.3393 Y1.3325 Z-0.1006
X1.332 Y1.3392 Z-0.1008
X1.3248 Y1.346 Z-0.1009
X1.3176 Y1.3527 Z-0.1011
X1.3103 Y1.3595 Z-0.1014
X1.3031 Y1.3662 Z-0.1016
X1.2958 Y1.373 Z-0.1019
X1.2886 Y1.3798 Z-0.1021
X1.2814 Y1.3865 Z-0.1024
X1.2741 Y1.3933 Z-0.1027
X1.2669 Y1.4 Z-0.103
X1.2597 Y1.4068 Z-0.1033
X1.2524 Y1.4135 Z-0.1037
X1.2452 Y1.4203 Z-0.104
X1.2379 Y1.427 Z-0.1044
X1.2307 Y1.4338 Z-0.1047
X1.2235 Y1.4405 Z-0.1051
X1.2162 Y1.4473 Z-0.1054
X1.1727 Y1.4878 Z-0.1075
X1.1655 Y1.4945 Z-0.1078
X1.1582 Y1.5012 Z-0.1082
X1.1148 Y1.5417 Z-0.1102
X1.1075 Y1.5484 Z-0.1106
X1.1003 Y1.5552 Z-0.1109
X1.093 Y1.5619 Z-0.1113
X1.0858 Y1.5687 Z-0.1116
X1.0785 Y1.5754 Z-0.112
X1.0712 Y1.5821 Z-0.1123
X0.9914 Y1.6562 Z-0.1161
X0.9842 Y1.663 Z-0.1165
X0.9769 Y1.6697 Z-0.1168
X0.9697 Y1.6764 Z-0.1171
X0.9624 Y1.6832 Z-0.1174
X0.9551 Y1.6899 Z-0.1177
X0.9479 Y1.6966 Z-0.118
X0.9406 Y1.7034 Z-0.1183
X0.9334 Y1.7101 Z-0.1185
X0.9261 Y1.7168 Z-0.1187
X0.9189 Y1.7236 Z-0.1189
X0.9116 Y1.7303 Z-0.1191
X0.9043 Y1.737 Z-0.1193
X0.8971 Y1.7438 Z-0.1195
X0.8898 Y1.7505 Z-0.1196
X0.8826 Y1.7572 Z-0.1197
X0.8753 Y1.764 Z-0.1198
X0.8681 Y1.7707 Z-0.1199
X0.8608 Y1.7774 Z-0.12
X0.8535 Y1.7842
X0.8481 Y1.7892
X0.8383 Y1.7983
X0.8384 Y1.7984
X1.3882 Y1.8061
G3 X1.3905 Y1.2858 I10.3157 J-0.2133
G1 X0.8481 Y1.7892
X0.8468 Y1.7905 Z-0.1198 F35
X0.8455 Y1.7916 Z-0.1191
X0.8444 Y1.7926 Z-0.1179
X0.8436 Y1.7934 Z-0.1165
X0.8431 Y1.7939 Z-0.1148
X0.8429 Y1.794 Z-0.113
G0 Z0.2
X0.8605 Y1.0092
Z-0.0482
G1 Z-0.1075 F35
X0.8607 Y1.0094 Z-0.1103
X0.8613 Y1.0101 Z-0.1129
X0.8623 Y1.0112 Z-0.1153
X0.8636 Y1.0127 Z-0.1173
X0.8652 Y1.0145 Z-0.1188
X0.867 Y1.0164 Z-0.1197
X0.8688 Y1.0185 Z-0.12
X0.8834 Y1.0348
G2 X0.901 Y1.0358 I0.0093 J-0.0083
G1 X0.966 Y0.9777 F35.38
G2 X0.967 Y0.9601 I-0.0083 J-0.0093 F35
G1 X0.9652 Y0.958 Z-0.1197
X0.9634 Y0.9561 Z-0.1188
X0.9618 Y0.9543 Z-0.1173
X0.9605 Y0.9528 Z-0.1153
X0.9595 Y0.9517 Z-0.1129
X0.9589 Y0.951 Z-0.1103
X0.9587 Y0.9508 Z-0.1075
G0 Z0.2
X2.5664 Y0.4641
Z-0.0482
G1 Z-0.1075 F35
X2.5662 Y0.4639 Z-0.1103
X2.5656 Y0.4631 Z-0.1129
X2.5648 Y0.4619 Z-0.1153
X2.5636 Y0.4603 Z-0.1173
X2.5622 Y0.4584 Z-0.1188
X2.5606 Y0.4563 Z-0.1197
X2.5589 Y0.4541 Z-0.12
X2.5459 Y0.4364
G2 X2.5284 Y0.4338 I-0.01 J0.0074
G1 X2.4365 Y0.5019 F35.38
G2 X2.4339 Y0.5194 I0.0074 J0.01 F35
X2.4503 Y0.5227 I0.01 J-0.0074 F35.38
G1 X2.5496 Y0.4651
G2 X2.5544 Y0.4423 I-0.0078 J-0.0135
X2.5407 Y0.436 I-0.0126 J0.0093 F35
G1 X2.5403 Y0.4361
G2 X2.5433 Y0.4672 Z-0.1217 I0.0015 J0.0156
X2.5403 Y0.4361 Z-0.1234 I-0.0015 J-0.0156
X2.5433 Y0.4672 Z-0.1251 I0.0015 J0.0156
X2.5403 Y0.4361 Z-0.1269 I-0.0015 J-0.0156
X2.5433 Y0.4672 Z-0.1286 I0.0015 J0.0156
X2.5403 Y0.4361 Z-0.1303 I-0.0015 J-0.0156
X2.5433 Y0.4672 Z-0.132 I0.0015 J0.0156
X2.5403 Y0.4361 Z-0.1337 I-0.0015 J-0.0156
X2.5433 Y0.4672 Z-0.1354 I0.0015 J0.0156
X2.5403 Y0.4361 Z-0.1371 I-0.0015 J-0.0156
X2.5433 Y0.4672 Z-0.1389 I0.0015 J0.0156
X2.5546 Y0.4427 Z-0.14 I-0.0015 J-0.0156
G1 X2.5544 Y0.4423
X2.5505 Y0.4371
G2 X2.5284 Y0.4338 I-0.0127 J0.0094
G1 X2.4365 Y0.5019 F35.38
G2 X2.4339 Y0.5194 I0.0074 J0.01 F35
G1 X2.4356 Y0.5216 Z-0.1397
X2.4372 Y0.5237 Z-0.1388
X2.4386 Y0.5256 Z-0.1373
X2.4398 Y0.5272 Z-0.1353
X2.4406 Y0.5284 Z-0.1329
X2.4412 Y0.5291 Z-0.1303
X2.4414 Y0.5294 Z-0.1275
G0 Z0.2
X1.3333 Y1.7019
Z-0.0682
G1 Z-0.1275 F35
X1.3336 Z-0.1303
X1.3345 Z-0.1329
X1.336 Y1.7018 Z-0.1353
X1.338 Z-0.1373
X1.3404 Z-0.1388
X1.343 Z-0.1397
X1.3458 Z-0.14
X1.3743 Y1.7015
G2 X1.3867 Y1.6889 I-0.0001 J-0.0125
G3 X1.3905 Y1.2858 I9.0793 J-0.1148 F35.38
G1 X0.8383 Y1.7983
X0.8384 Y1.7984
X1.3882 Y1.8061
X1.3867 Y1.6889
G2 X1.3741 Y1.6765 I-0.0125 J0.0001 F35
G1 X1.3713 Z-0.1397
X1.3687 Y1.6766 Z-0.1388
X1.3663 Z-0.1373
X1.3643 Z-0.1353
X1.3628 Z-0.1329
X1.3619 Z-0.1303
X1.3616 Z-0.1275
G0 Z0.2
X0.856 Y1.0041
Z-0.0683
G1 Z-0.1275 F35
X0.8562 Y1.0044 Z-0.1303
X0.8568 Y1.0051 Z-0.1329
X0.8578 Y1.0062 Z-0.1353
X0.8591 Y1.0077 Z-0.1373
X0.8607 Y1.0094 Z-0.1388
X0.8625 Y1.0114 Z-0.1397
X0.8643 Y1.0135 Z-0.14
X0.8834 Y1.0348
G2 X0.901 Y1.0358 I0.0093 J-0.0083
G1 X0.966 Y0.9777 F35.38
G2 X0.967 Y0.9601 I-0.0083 J-0.0093 F35
X0.9508 Y0.958 I-0.0093 J0.0083 F35.38
G1 X0.8775 Y1.0063
G2 X0.8744 Y1.0297 I0.0086 J0.0131
X0.8885 Y1.0347 I0.0117 J-0.0104 F35
G1 X0.889
G2 X0.8831 Y1.004 Z-0.1417 I-0.0029 J-0.0153
X0.889 Y1.0347 Z-0.1434 I0.0029 J0.0153
X0.8831 Y1.004 Z-0.1451 I-0.0029 J-0.0153
X0.889 Y1.0347 Z-0.1469 I0.0029 J0.0153
X0.8831 Y1.004 Z-0.1486 I-0.0029 J-0.0153
X0.889 Y1.0347 Z-0.1503 I0.0029 J0.0153
X0.8831 Y1.004 Z-0.152 I-0.0029 J-0.0153
X0.889 Y1.0347 Z-0.1537 I0.0029 J0.0153
X0.8831 Y1.004 Z-0.1554 I-0.0029 J-0.0153
X0.889 Y1.0347 Z-0.1571 I0.0029 J0.0153
X0.8831 Y1.004 Z-0.1589 I-0.0029 J-0.0153
X0.8741 Y1.0294 Z-0.16 I0.0029 J0.0153
G1 X0.8744 Y1.0297
X0.8787 Y1.0345
G2 X0.901 Y1.0358 I0.0118 J-0.0105
G1 X0.966 Y0.9777 F35.38
G2 X0.967 Y0.9601 I-0.0083 J-0.0093 F35
G1 X0.9652 Y0.958 Z-0.1597
X0.9634 Y0.9561 Z-0.1588
X0.9618 Y0.9543 Z-0.1573
X0.9605 Y0.9528 Z-0.1553
X0.9595 Y0.9517 Z-0.1529
X0.9589 Y0.951 Z-0.1503
X0.9587 Y0.9508 Z-0.1475
G0 Z0.2
X1.3338 Y1.3557
Z0.0053
G1 Z-0.16 F35
G2 X1.3161 Y1.3549 I-0.0092 J0.0084
G1 X0.8383 Y1.7983 F35.38
X0.8384 Y1.7984
X1.3882 Y1.8061
G3 X1.3904 Y1.2858 I10.3888 J-0.215
G1 X1.3161 Y1.3549
G2 X1.3154 Y1.3726 I0.0085 J0.0092 F35
G1 X1.3173 Y1.3746 Z-0.1597
X1.3191 Y1.3766 Z-0.1588
X1.3207 Y1.3783 Z-0.1573
X1.3221 Y1.3798 Z-0.1553
X1.3231 Y1.3808 Z-0.1529
X1.3237 Y1.3815 Z-0.1503
X1.3239 Y1.3818 Z-0.1475
G0 Z0.2
X2.5728 Y0.4728
Z-0.0886
G1 Z-0.1475 F35
X2.5726 Y0.4725 Z-0.1503
X2.5721 Y0.4718 Z-0.1529
X2.5712 Y0.4706 Z-0.1553
X2.57 Y0.469 Z-0.1573
X2.5686 Y0.4671 Z-0.1588
X2.567 Y0.465 Z-0.1597
X2.5654 Y0.4628 Z-0.16
X2.5459 Y0.4364
G2 X2.5284 Y0.4338 I-0.01 J0.0074
G1 X2.4365 Y0.5019 F35.38
G2 X2.4339 Y0.5194 I0.0074 J0.01 F35
X2.4503 Y0.5227 I0.01 J-0.0074 F35.38
G1 X2.5496 Y0.4651
G2 X2.5544 Y0.4423 I-0.0078 J-0.0135
X2.5407 Y0.436 I-0.0126 J0.0093 F35
G1 X2.5403 Y0.4361
G2 X2.5433 Y0.4672 Z-0.1617 I0.0015 J0.0156
X2.5403 Y0.4361 Z-0.1634 I-0.0015 J-0.0156
X2.5433 Y0.4672 Z-0.1651 I0.0015 J0.0156
X2.5403 Y0.4361 Z-0.1669 I-0.0015 J-0.0156
X2.5433 Y0.4672 Z-0.1686 I0.0015 J0.0156
X2.5403 Y0.4361 Z-0.1703 I-0.0015 J-0.0156
X2.5433 Y0.4672 Z-0.172 I0.0015 J0.0156
X2.5403 Y0.4361 Z-0.1737 I-0.0015 J-0.0156
X2.5433 Y0.4672 Z-0.1754 I0.0015 J0.0156
X2.5403 Y0.4361 Z-0.1771 I-0.0015 J-0.0156
X2.5433 Y0.4672 Z-0.1789 I0.0015 J0.0156
X2.5546 Y0.4427 Z-0.18 I-0.0015 J-0.0156
G1 X2.5544 Y0.4423
X2.5505 Y0.4371
G2 X2.5284 Y0.4338 I-0.0127 J0.0094
G1 X2.4365 Y0.5019 F35.38
G2 X2.4339 Y0.5194 I0.0074 J0.01 F35
G1 X2.4356 Y0.5216 Z-0.1797
X2.4372 Y0.5237 Z-0.1788
X2.4386 Y0.5256 Z-0.1773
X2.4398 Y0.5272 Z-0.1753
X2.4406 Y0.5284 Z-0.1729
X2.4412 Y0.5291 Z-0.1703
X2.4414 Y0.5294 Z-0.1675
G0 Z0.2
X1.3275 Y1.7019
Z-0.1099
G1 Z-0.1675 F35
X1.3278 Z-0.1703
X1.3287 Z-0.1729
X1.3302 Z-0.1753
X1.3322 Z-0.1773
X1.3346 Z-0.1788
X1.3372 Y1.7018 Z-0.1797
X1.34 Z-0.18
X1.3743 Y1.7015
G2 X1.3867 Y1.6889 I-0.0001 J-0.0125
G3 X1.3905 Y1.2858 I9.1217 J-0.1144 F35.38
G1 X0.8383 Y1.7983
X0.8384 Y1.7984
X1.3882 Y1.8061
X1.3867 Y1.6889
G2 X1.3741 Y1.6765 I-0.0125 J0.0001 F35
G1 X1.3713 Z-0.1797
X1.3687 Y1.6766 Z-0.1788
X1.3663 Z-0.1773
X1.3643 Z-0.1753
X1.3628 Z-0.1729
X1.3619 Z-0.1703
X1.3616 Z-0.1675
G0 Z0.2
X0.8522 Y0.9998
Z-0.1675
G1 X0.8524 Y1.0001 Z-0.1703 F35
X0.853 Y1.0008 Z-0.1729
X0.854 Y1.0019 Z-0.1753
X0.8553 Y1.0033 Z-0.1773
X0.8569 Y1.0051 Z-0.1788
X0.8586 Y1.0071 Z-0.1797
X0.8605 Y1.0092 Z-0.18
X0.8834 Y1.0348
G2 X0.901 Y1.0358 I0.0093 J-0.0083
G1 X0.966 Y0.9777 F35.38
G2 X0.967 Y0.9601 I-0.0083 J-0.0093 F35
X0.9508 Y0.958 I-0.0093 J0.0083 F35.38
G1 X0.8775 Y1.0063
G2 X0.8744 Y1.0297 I0.0086 J0.0131
X0.8885 Y1.0347 I0.0117 J-0.0104 F35
G1 X0.889
G2 X0.8831 Y1.004 Z-0.1817 I-0.0029 J-0.0153
X0.889 Y1.0347 Z-0.1834 I0.0029 J0.0153
X0.8831 Y1.004 Z-0.1851 I-0.0029 J-0.0153
X0.889 Y1.0347 Z-0.1869 I0.0029 J0.0153
X0.8831 Y1.004 Z-0.1886 I-0.0029 J-0.0153
X0.889 Y1.0347 Z-0.1903 I0.0029 J0.0153
X0.8831 Y1.004 Z-0.192 I-0.0029 J-0.0153
X0.889 Y1.0347 Z-0.1937 I0.0029 J0.0153
X0.8831 Y1.004 Z-0.1954 I-0.0029 J-0.0153
X0.889 Y1.0347 Z-0.1971 I0.0029 J0.0153
X0.8831 Y1.004 Z-0.1989 I-0.0029 J-0.0153
X0.8741 Y1.0294 Z-0.2 I0.0029 J0.0153
G1 X0.8744 Y1.0297
X0.8787 Y1.0345
G2 X0.901 Y1.0358 I0.0118 J-0.0105
G1 X0.966 Y0.9777 F35.38
G2 X0.967 Y0.9601 I-0.0083 J-0.0093 F35
G1 X0.9652 Y0.958 Z-0.1997
X0.9634 Y0.9561 Z-0.1988
X0.9618 Y0.9543 Z-0.1973
X0.9605 Y0.9528 Z-0.1953
X0.9595 Y0.9517 Z-0.1929
X0.9589 Y0.951 Z-0.1903
X0.9587 Y0.9508 Z-0.1875
G0 Z0.2
X1.3338 Y1.3557
Z0.0053
G1 Z-0.2 F35
G2 X1.3161 Y1.3549 I-0.0092 J0.0084
G1 X0.8383 Y1.7983 F35.38
X0.8384 Y1.7984
X1.3882 Y1.8061
G3 X1.3904 Y1.2858 I10.4448 J-0.2147
G1 X1.3161 Y1.3549
G2 X1.3154 Y1.3726 I0.0085 J0.0092 F35
G1 X1.3173 Y1.3746 Z-0.1997
X1.3191 Y1.3766 Z-0.1988
X1.3207 Y1.3783 Z-0.1973
X1.3221 Y1.3798 Z-0.1953
X1.3231 Y1.3808 Z-0.1929
X1.3237 Y1.3815 Z-0.1903
X1.3239 Y1.3818 Z-0.1875
G0 Z0.2
X2.5738 Y0.4741
Z-0.1875
G1 X2.5736 Y0.4739 Z-0.1903 F35
X2.573 Y0.4731 Z-0.1929
X2.5722 Y0.4719 Z-0.1953
X2.571 Y0.4703 Z-0.1973
X2.5696 Y0.4684 Z-0.1988
X2.568 Y0.4663 Z-0.1997
X2.5663 Y0.4641 Z-0.2
X2.5459 Y0.4364
G2 X2.5284 Y0.4338 I-0.01 J0.0074
G1 X2.4365 Y0.5019 F35.38
G2 X2.4339 Y0.5194 I0.0074 J0.01 F35
X2.4503 Y0.5227 I0.01 J-0.0074 F35.38
G1 X2.5496 Y0.4651
G2 X2.5544 Y0.4423 I-0.0078 J-0.0135
X2.5407 Y0.436 I-0.0126 J0.0093 F35
G1 X2.5403 Y0.4361
G2 X2.5433 Y0.4672 Z-0.2017 I0.0015 J0.0156
X2.5403 Y0.4361 Z-0.2034 I-0.0015 J-0.0156
X2.5433 Y0.4672 Z-0.2051 I0.0015 J0.0156
X2.5403 Y0.4361 Z-0.2069 I-0.0015 J-0.0156
X2.5433 Y0.4672 Z-0.2086 I0.0015 J0.0156
X2.5403 Y0.4361 Z-0.2103 I-0.0015 J-0.0156
X2.5433 Y0.4672 Z-0.212 I0.0015 J0.0156
X2.5403 Y0.4361 Z-0.2137 I-0.0015 J-0.0156
X2.5433 Y0.4672 Z-0.2154 I0.0015 J0.0156
X2.5403 Y0.4361 Z-0.2171 I-0.0015 J-0.0156
X2.5433 Y0.4672 Z-0.2189 I0.0015 J0.0156
X2.5546 Y0.4427 Z-0.22 I-0.0015 J-0.0156
G1 X2.5544 Y0.4423
X2.5505 Y0.4371
G2 X2.5284 Y0.4338 I-0.0127 J0.0094
G1 X2.4365 Y0.5019 F35.38
G2 X2.4339 Y0.5194 I0.0074 J0.01 F35
G1 X2.4356 Y0.5216 Z-0.2197
X2.4372 Y0.5237 Z-0.2188
X2.4386 Y0.5256 Z-0.2173
X2.4398 Y0.5272 Z-0.2153
X2.4406 Y0.5284 Z-0.2129
X2.4412 Y0.5291 Z-0.2103
X2.4414 Y0.5294 Z-0.2075
G0 Z0.2
X1.3274 Y1.7019
Z-0.2075
G1 X1.3277 Z-0.2103 F35
X1.3286 Z-0.2129
X1.3301 Z-0.2153
X1.3321 Z-0.2173
X1.3345 Z-0.2188
X1.3371 Y1.7018 Z-0.2197
X1.3399 Z-0.22
X1.3743 Y1.7015
G2 X1.3867 Y1.6889 I-0.0001 J-0.0125
G3 X1.3905 Y1.2858 I9.1295 J-0.1143 F35.38
G1 X0.8383 Y1.7983
X0.8384 Y1.7984
X1.3882 Y1.8061
X1.3867 Y1.6889
G2 X1.3741 Y1.6765 I-0.0125 J0.0001 F35
G1 X1.3713 Y1.6766 Z-0.2197
X1.3686 Z-0.2188
X1.3663 Z-0.2173
X1.3643 Z-0.2153
X1.3628 Z-0.2129
X1.3619 Z-0.2103
X1.3616 Z-0.2075
G0 Z0.2
X0.8522 Y0.9998
Z-0.2075
G1 X0.8524 Y1.0001 Z-0.2103 F35
X0.853 Y1.0008 Z-0.2129
X0.854 Y1.0019 Z-0.2153
X0.8553 Y1.0033 Z-0.2173
X0.8569 Y1.0051 Z-0.2188
X0.8586 Y1.0071 Z-0.2197
X0.8605 Y1.0092 Z-0.22
X0.8834 Y1.0348
G2 X0.901 Y1.0358 I0.0093 J-0.0083
G1 X0.966 Y0.9777 F35.38
G2 X0.967 Y0.9601 I-0.0083 J-0.0093 F35
X0.9508 Y0.958 I-0.0093 J0.0083 F35.38
G1 X0.8775 Y1.0063
G2 X0.8744 Y1.0297 I0.0086 J0.0131
X0.8885 Y1.0347 I0.0117 J-0.0104 F35
G1 X0.889
G2 X0.8831 Y1.004 Z-0.2217 I-0.0029 J-0.0153
X0.889 Y1.0347 Z-0.2234 I0.0029 J0.0153
X0.8831 Y1.004 Z-0.2251 I-0.0029 J-0.0153
X0.889 Y1.0347 Z-0.2269 I0.0029 J0.0153
X0.8831 Y1.004 Z-0.2286 I-0.0029 J-0.0153
X0.889 Y1.0347 Z-0.2303 I0.0029 J0.0153
X0.8831 Y1.004 Z-0.232 I-0.0029 J-0.0153
X0.889 Y1.0347 Z-0.2337 I0.0029 J0.0153
X0.8831 Y1.004 Z-0.2354 I-0.0029 J-0.0153
X0.889 Y1.0347 Z-0.2371 I0.0029 J0.0153
X0.8831 Y1.004 Z-0.2389 I-0.0029 J-0.0153
X0.8741 Y1.0294 Z-0.24 I0.0029 J0.0153
G1 X0.8744 Y1.0297
X0.8787 Y1.0345
G2 X0.901 Y1.0358 I0.0118 J-0.0105
G1 X0.966 Y0.9777 F35.38
G2 X0.967 Y0.9601 I-0.0083 J-0.0093 F35
G1 X0.9652 Y0.958 Z-0.2397
X0.9634 Y0.9561 Z-0.2388
X0.9618 Y0.9543 Z-0.2373
X0.9605 Y0.9528 Z-0.2353
X0.9595 Y0.9517 Z-0.2329
X0.9589 Y0.951 Z-0.2303
X0.9587 Y0.9508 Z-0.2275
G0 Z0.2
X1.3338 Y1.3557
Z0.0053
G1 Z-0.24 F35
G2 X1.3161 Y1.3549 I-0.0092 J0.0084
G1 X0.8383 Y1.7983 F35.38
X0.8384 Y1.7984
X1.3882 Y1.8061
G3 X1.3904 Y1.2858 I10.4613 J-0.2145
G1 X1.3161 Y1.3549
G2 X1.3154 Y1.3726 I0.0085 J0.0092 F35
G1 X1.3173 Y1.3746 Z-0.2397
X1.3191 Y1.3766 Z-0.2388
X1.3207 Y1.3783 Z-0.2373
X1.3221 Y1.3798 Z-0.2353
X1.3231 Y1.3808 Z-0.2329
X1.3237 Y1.3815 Z-0.2303
X1.3239 Y1.3818 Z-0.2275
G0 Z0.2
X2.5738 Y0.4741
Z-0.2275
G1 X2.5736 Y0.4739 Z-0.2303 F35
X2.573 Y0.4731 Z-0.2329
X2.5722 Y0.4719 Z-0.2353
X2.571 Y0.4703 Z-0.2373
X2.5696 Y0.4684 Z-0.2388
X2.568 Y0.4663 Z-0.2397
X2.5663 Y0.4641 Z-0.24
X2.5459 Y0.4364
G2 X2.5284 Y0.4338 I-0.01 J0.0074
G1 X2.4365 Y0.5019 F35.38
G2 X2.4339 Y0.5194 I0.0074 J0.01 F35
X2.4503 Y0.5227 I0.01 J-0.0074 F35.38
G1 X2.5496 Y0.4651
G2 X2.5544 Y0.4423 I-0.0078 J-0.0135
X2.5407 Y0.436 I-0.0126 J0.0093 F35
G1 X2.5403 Y0.4361
G2 X2.5433 Y0.4672 Z-0.2417 I0.0015 J0.0156
X2.5403 Y0.4361 Z-0.2434 I-0.0015 J-0.0156
X2.5433 Y0.4672 Z-0.2451 I0.0015 J0.0156
X2.5403 Y0.4361 Z-0.2469 I-0.0015 J-0.0156
X2.5433 Y0.4672 Z-0.2486 I0.0015 J0.0156
X2.5403 Y0.4361 Z-0.2503 I-0.0015 J-0.0156
X2.5433 Y0.4672 Z-0.252 I0.0015 J0.0156
X2.5403 Y0.4361 Z-0.2537 I-0.0015 J-0.0156
X2.5433 Y0.4672 Z-0.2554 I0.0015 J0.0156
X2.5403 Y0.4361 Z-0.2571 I-0.0015 J-0.0156
X2.5433 Y0.4672 Z-0.2589 I0.0015 J0.0156
X2.5546 Y0.4427 Z-0.26 I-0.0015 J-0.0156
G1 X2.5544 Y0.4423
X2.5505 Y0.4371
G2 X2.5284 Y0.4338 I-0.0127 J0.0094
G1 X2.4365 Y0.5019 F35.38
G2 X2.4339 Y0.5194 I0.0074 J0.01 F35
G1 X2.4356 Y0.5216 Z-0.2597
X2.4372 Y0.5237 Z-0.2588
X2.4386 Y0.5256 Z-0.2573
X2.4398 Y0.5272 Z-0.2553
X2.4406 Y0.5284 Z-0.2529
X2.4412 Y0.5291 Z-0.2503
X2.4414 Y0.5294 Z-0.2475
G0 Z0.2
X1.3274 Y1.7019
Z-0.2475
G1 X1.3277 Z-0.2503 F35
X1.3286 Z-0.2529
X1.3301 Z-0.2553
X1.3321 Z-0.2573
X1.3345 Z-0.2588
X1.3371 Y1.7018 Z-0.2597
X1.3399 Z-0.26
X1.3743 Y1.7015
G2 X1.3867 Y1.6889 I-0.0001 J-0.0125
G3 X1.3905 Y1.2858 I9.1481 J-0.1141 F35.38
G1 X0.8383 Y1.7983
X0.8384 Y1.7984
X1.3882 Y1.8061
X1.3867 Y1.6889
G2 X1.3741 Y1.6765 I-0.0125 J0.0001 F35
G1 X1.3713 Y1.6766 Z-0.2597
X1.3686 Z-0.2588
X1.3663 Z-0.2573
X1.3643 Z-0.2553
X1.3628 Z-0.2529
X1.3619 Z-0.2503
X1.3616 Z-0.2475
G0 Z0.2
X0.8522 Y0.9998
Z-0.2475
G1 X0.8524 Y1.0001 Z-0.2503 F35
X0.853 Y1.0008 Z-0.2529
X0.854 Y1.0019 Z-0.2553
X0.8553 Y1.0033 Z-0.2573
X0.8569 Y1.0051 Z-0.2588
X0.8586 Y1.0071 Z-0.2597
X0.8605 Y1.0092 Z-0.26
X0.8834 Y1.0348
G2 X0.901 Y1.0358 I0.0093 J-0.0083
G1 X0.966 Y0.9777 F35.38
G2 X0.967 Y0.9601 I-0.0083 J-0.0093 F35
X0.9508 Y0.958 I-0.0093 J0.0083 F35.38
G1 X0.8775 Y1.0063
G2 X0.8744 Y1.0297 I0.0086 J0.0131
X0.8885 Y1.0347 I0.0117 J-0.0104 F35
G1 X0.889
G2 X0.8831 Y1.004 Z-0.2617 I-0.0029 J-0.0153
X0.889 Y1.0347 Z-0.2634 I0.0029 J0.0153
X0.8831 Y1.004 Z-0.2651 I-0.0029 J-0.0153
X0.889 Y1.0347 Z-0.2669 I0.0029 J0.0153
X0.8831 Y1.004 Z-0.2686 I-0.0029 J-0.0153
X0.889 Y1.0347 Z-0.2703 I0.0029 J0.0153
X0.8831 Y1.004 Z-0.272 I-0.0029 J-0.0153
X0.889 Y1.0347 Z-0.2737 I0.0029 J0.0153
X0.8831 Y1.004 Z-0.2754 I-0.0029 J-0.0153
X0.889 Y1.0347 Z-0.2771 I0.0029 J0.0153
X0.8831 Y1.004 Z-0.2789 I-0.0029 J-0.0153
X0.8741 Y1.0294 Z-0.28 I0.0029 J0.0153
G1 X0.8744 Y1.0297
X0.8787 Y1.0345
G2 X0.901 Y1.0358 I0.0118 J-0.0105
G1 X0.966 Y0.9777 F35.38
G2 X0.967 Y0.9601 I-0.0083 J-0.0093 F35
G1 X0.9652 Y0.958 Z-0.2797
X0.9634 Y0.9561 Z-0.2788
X0.9618 Y0.9543 Z-0.2773
X0.9605 Y0.9528 Z-0.2753
X0.9595 Y0.9517 Z-0.2729
X0.9589 Y0.951 Z-0.2703
X0.9587 Y0.9508 Z-0.2675
G0 Z0.2
X1.3338 Y1.3557
Z0.0053
G1 Z-0.28 F35
G2 X1.3161 Y1.3549 I-0.0092 J0.0084
G1 X0.8383 Y1.7983 F35.38
X0.8384 Y1.7984
X1.3882 Y1.8061
G3 X1.3904 Y1.2858 I10.3165 J-0.2164
G1 X1.3161 Y1.3549
G2 X1.3154 Y1.3726 I0.0085 J0.0092 F35
G1 X1.3173 Y1.3746 Z-0.2797
X1.3191 Y1.3766 Z-0.2788
X1.3207 Y1.3783 Z-0.2773
X1.3221 Y1.3798 Z-0.2753
X1.3231 Y1.3808 Z-0.2729
X1.3237 Y1.3815 Z-0.2703
X1.3239 Y1.3818 Z-0.2675
G0 Z0.2
X2.5738 Y0.4741
Z-0.2675
G1 X2.5736 Y0.4739 Z-0.2703 F35
X2.573 Y0.4731 Z-0.2729
X2.5722 Y0.4719 Z-0.2753
X2.571 Y0.4703 Z-0.2773
X2.5696 Y0.4684 Z-0.2788
X2.568 Y0.4663 Z-0.2797
X2.5663 Y0.4641 Z-0.28
X2.5459 Y0.4364
G2 X2.5284 Y0.4338 I-0.01 J0.0074
G1 X2.4365 Y0.5019 F35.38
G2 X2.4339 Y0.5194 I0.0074 J0.01 F35
X2.4503 Y0.5227 I0.01 J-0.0074 F35.38
G1 X2.5496 Y0.4651
G2 X2.5544 Y0.4423 I-0.0078 J-0.0135
X2.5407 Y0.436 I-0.0126 J0.0093 F35
G1 X2.5403 Y0.4361
G2 X2.5433 Y0.4672 Z-0.2817 I0.0015 J0.0156
X2.5403 Y0.4361 Z-0.2834 I-0.0015 J-0.0156
X2.5433 Y0.4672 Z-0.2851 I0.0015 J0.0156
X2.5403 Y0.4361 Z-0.2869 I-0.0015 J-0.0156
X2.5433 Y0.4672 Z-0.2886 I0.0015 J0.0156
X2.5403 Y0.4361 Z-0.2903 I-0.0015 J-0.0156
X2.5433 Y0.4672 Z-0.292 I0.0015 J0.0156
X2.5403 Y0.4361 Z-0.2937 I-0.0015 J-0.0156
X2.5433 Y0.4672 Z-0.2954 I0.0015 J0.0156
X2.5403 Y0.4361 Z-0.2971 I-0.0015 J-0.0156
X2.5433 Y0.4672 Z-0.2989 I0.0015 J0.0156
X2.5546 Y0.4427 Z-0.3 I-0.0015 J-0.0156
G1 X2.5544 Y0.4423
X2.5505 Y0.4371
G2 X2.5284 Y0.4338 I-0.0127 J0.0094
G1 X2.4365 Y0.5019 F35.38
G2 X2.4339 Y0.5194 I0.0074 J0.01 F35
G1 X2.4356 Y0.5216 Z-0.2997
X2.4372 Y0.5237 Z-0.2988
X2.4386 Y0.5256 Z-0.2973
X2.4398 Y0.5272 Z-0.2953
X2.4406 Y0.5284 Z-0.2929
X2.4412 Y0.5291 Z-0.2903
X2.4414 Y0.5294 Z-0.2875
G0 Z0.2
X1.3274 Y1.7019
Z-0.2875
G1 X1.3277 Z-0.2903 F35
X1.3286 Z-0.2929
X1.3301 Z-0.2953
X1.3321 Z-0.2973
X1.3345 Z-0.2988
X1.3371 Y1.7018 Z-0.2997
X1.3399 Z-0.3
X1.3743 Y1.7015
G2 X1.3867 Y1.6889 I-0.0001 J-0.0125
G3 X1.3905 Y1.2858 I9.2001 J-0.1136 F35.38
G1 X0.8383 Y1.7983
X0.8384 Y1.7984
X1.3882 Y1.8061
X1.3867 Y1.6889
G2 X1.3741 Y1.6765 I-0.0125 J0.0001 F35
G1 X1.3713 Y1.6766 Z-0.2997
X1.3686 Z-0.2988
X1.3663 Z-0.2973
X1.3643 Z-0.2953
X1.3628 Z-0.2929
X1.3619 Z-0.2903
X1.3616 Z-0.2875
G0 Z0.2
X0.8522 Y0.9998
Z-0.2875
G1 X0.8524 Y1.0001 Z-0.2903 F35
X0.853 Y1.0008 Z-0.2929
X0.854 Y1.0019 Z-0.2953
X0.8553 Y1.0033 Z-0.2973
X0.8569 Y1.0051 Z-0.2988
X0.8586 Y1.0071 Z-0.2997
X0.8605 Y1.0092 Z-0.3
X0.8834 Y1.0348
G2 X0.901 Y1.0358 I0.0093 J-0.0083
G1 X0.966 Y0.9777 F35.38
G2 X0.967 Y0.9601 I-0.0083 J-0.0093 F35
X0.9508 Y0.958 I-0.0093 J0.0083 F35.38
G1 X0.8775 Y1.0063
G2 X0.8744 Y1.0297 I0.0086 J0.0131
X0.8885 Y1.0347 I0.0117 J-0.0104 F35
G1 X0.889
G2 X0.8831 Y1.004 Z-0.3017 I-0.0029 J-0.0153
X0.889 Y1.0347 Z-0.3034 I0.0029 J0.0153
X0.8831 Y1.004 Z-0.3051 I-0.0029 J-0.0153
X0.889 Y1.0347 Z-0.3069 I0.0029 J0.0153
X0.8831 Y1.004 Z-0.3086 I-0.0029 J-0.0153
X0.889 Y1.0347 Z-0.3103 I0.0029 J0.0153
X0.8831 Y1.004 Z-0.312 I-0.0029 J-0.0153
X0.889 Y1.0347 Z-0.3137 I0.0029 J0.0153
X0.8831 Y1.004 Z-0.3154 I-0.0029 J-0.0153
X0.889 Y1.0347 Z-0.3171 I0.0029 J0.0153
X0.8831 Y1.004 Z-0.3189 I-0.0029 J-0.0153
X0.8741 Y1.0294 Z-0.32 I0.0029 J0.0153
G1 X0.8744 Y1.0297
X0.8787 Y1.0345
G2 X0.901 Y1.0358 I0.0118 J-0.0105
G1 X0.966 Y0.9777 F35.38
G2 X0.967 Y0.9601 I-0.0083 J-0.0093 F35
G1 X0.9652 Y0.958 Z-0.3197
X0.9634 Y0.9561 Z-0.3188
X0.9618 Y0.9543 Z-0.3173
X0.9605 Y0.9528 Z-0.3153
X0.9595 Y0.9517 Z-0.3129
X0.9589 Y0.951 Z-0.3103
X0.9587 Y0.9508 Z-0.3075
G0 Z0.2
X1.3338 Y1.3557
Z0.0053
G1 Z-0.32 F35
G2 X1.3161 Y1.3549 I-0.0092 J0.0084
G1 X0.8383 Y1.7983 F35.38
X0.8384 Y1.7984
X1.3882 Y1.8061
G3 X1.3904 Y1.2858 I10.2992 J-0.2164
G1 X1.3161 Y1.3549
G2 X1.3154 Y1.3726 I0.0085 J0.0092 F35
G1 X1.3173 Y1.3746 Z-0.3197
X1.3191 Y1.3766 Z-0.3188
X1.3207 Y1.3783 Z-0.3173
X1.3221 Y1.3798 Z-0.3153
X1.3231 Y1.3808 Z-0.3129
X1.3237 Y1.3815 Z-0.3103
X1.3239 Y1.3818 Z-0.3075
G0 Z0.2
X2.5738 Y0.4741
Z-0.3075
G1 X2.5736 Y0.4739 Z-0.3103 F35
X2.573 Y0.4731 Z-0.3129
X2.5722 Y0.4719 Z-0.3153
X2.571 Y0.4703 Z-0.3173
X2.5696 Y0.4684 Z-0.3188
X2.568 Y0.4663 Z-0.3197
X2.5663 Y0.4641 Z-0.32
X2.5459 Y0.4364
G2 X2.5284 Y0.4338 I-0.01 J0.0074
G1 X2.4365 Y0.5019 F35.38
G2 X2.4339 Y0.5194 I0.0074 J0.01 F35
X2.4503 Y0.5227 I0.01 J-0.0074 F35.38
G1 X2.5496 Y0.4651
G2 X2.5544 Y0.4423 I-0.0078 J-0.0135
X2.5407 Y0.436 I-0.0126 J0.0093 F35
G1 X2.5403 Y0.4361
G2 X2.5433 Y0.4672 Z-0.3217 I0.0015 J0.0156
X2.5403 Y0.4361 Z-0.3234 I-0.0015 J-0.0156
X2.5433 Y0.4672 Z-0.3251 I0.0015 J0.0156
X2.5403 Y0.4361 Z-0.3269 I-0.0015 J-0.0156
X2.5433 Y0.4672 Z-0.3286 I0.0015 J0.0156
X2.5403 Y0.4361 Z-0.3303 I-0.0015 J-0.0156
X2.5433 Y0.4672 Z-0.332 I0.0015 J0.0156
X2.5403 Y0.4361 Z-0.3337 I-0.0015 J-0.0156
X2.5433 Y0.4672 Z-0.3354 I0.0015 J0.0156
X2.5403 Y0.4361 Z-0.3371 I-0.0015 J-0.0156
X2.5433 Y0.4672 Z-0.3389 I0.0015 J0.0156
X2.5546 Y0.4427 Z-0.34 I-0.0015 J-0.0156
G1 X2.5544 Y0.4423
X2.5505 Y0.4371
G2 X2.5284 Y0.4338 I-0.0127 J0.0094
G1 X2.4365 Y0.5019 F35.38
G2 X2.4339 Y0.5194 I0.0074 J0.01 F35
G1 X2.4356 Y0.5216 Z-0.3397
X2.4372 Y0.5237 Z-0.3388
X2.4386 Y0.5256 Z-0.3373
X2.4398 Y0.5272 Z-0.3353
X2.4406 Y0.5284 Z-0.3329
X2.4412 Y0.5291 Z-0.3303
X2.4414 Y0.5294 Z-0.3275
G0 Z0.2
X1.3274 Y1.7019
Z-0.3275
G1 X1.3277 Z-0.3303 F35
X1.3286 Z-0.3329
X1.3301 Z-0.3353
X1.3321 Z-0.3373
X1.3345 Z-0.3388
X1.3371 Y1.7018 Z-0.3397
X1.3399 Z-0.34
X1.3743 Y1.7015
G2 X1.3867 Y1.6889 I-0.0001 J-0.0125
G3 X1.3905 Y1.2858 I9.174 J-0.1139 F35.38
G1 X0.8383 Y1.7983
X0.8384 Y1.7984
X1.3882 Y1.8061
X1.3867 Y1.6889
G2 X1.3741 Y1.6765 I-0.0125 J0.0001 F35
G1 X1.3713 Y1.6766 Z-0.3397
X1.3686 Z-0.3388
X1.3663 Z-0.3373
X1.3643 Z-0.3353
X1.3628 Z-0.3329
X1.3619 Z-0.3303
X1.3616 Z-0.3275
G0 Z0.2
X0.8522 Y0.9998
Z-0.3275
G1 X0.8524 Y1.0001 Z-0.3303 F35
X0.853 Y1.0008 Z-0.3329
X0.854 Y1.0019 Z-0.3353
X0.8553 Y1.0033 Z-0.3373
X0.8569 Y1.0051 Z-0.3388
X0.8586 Y1.0071 Z-0.3397
X0.8605 Y1.0092 Z-0.34
X0.8834 Y1.0348
G2 X0.901 Y1.0358 I0.0093 J-0.0083
G1 X0.966 Y0.9777 F35.38
G2 X0.967 Y0.9601 I-0.0083 J-0.0093 F35
X0.9508 Y0.958 I-0.0093 J0.0083 F35.38
G1 X0.8775 Y1.0063
G2 X0.8744 Y1.0297 I0.0086 J0.0131
X0.8885 Y1.0347 I0.0117 J-0.0104 F35
G1 X0.889
G2 X0.8831 Y1.004 Z-0.3417 I-0.0029 J-0.0153
X0.889 Y1.0347 Z-0.3434 I0.0029 J0.0153
X0.8831 Y1.004 Z-0.3451 I-0.0029 J-0.0153
X0.889 Y1.0347 Z-0.3469 I0.0029 J0.0153
X0.8831 Y1.004 Z-0.3486 I-0.0029 J-0.0153
X0.889 Y1.0347 Z-0.3503 I0.0029 J0.0153
X0.8831 Y1.004 Z-0.352 I-0.0029 J-0.0153
X0.889 Y1.0347 Z-0.3537 I0.0029 J0.0153
X0.8831 Y1.004 Z-0.3554 I-0.0029 J-0.0153
X0.889 Y1.0347 Z-0.3571 I0.0029 J0.0153
X0.8831 Y1.004 Z-0.3589 I-0.0029 J-0.0153
X0.8741 Y1.0294 Z-0.36 I0.0029 J0.0153
G1 X0.8744 Y1.0297
X0.8787 Y1.0345
G2 X0.901 Y1.0358 I0.0118 J-0.0105
G1 X0.966 Y0.9777 F35.38
G2 X0.967 Y0.9601 I-0.0083 J-0.0093 F35
G1 X0.9652 Y0.958 Z-0.3597
X0.9634 Y0.9561 Z-0.3588
X0.9618 Y0.9543 Z-0.3573
X0.9605 Y0.9528 Z-0.3553
X0.9595 Y0.9517 Z-0.3529
X0.9589 Y0.951 Z-0.3503
X0.9587 Y0.9508 Z-0.3475
G0 Z0.2
X1.3338 Y1.3557
Z0.0053
G1 Z-0.36 F35
G2 X1.3161 Y1.3549 I-0.0092 J0.0084
G1 X0.8383 Y1.7983 F35.38
X0.8384 Y1.7984
X1.3882 Y1.8061
G3 X1.3904 Y1.2858 I10.3142 J-0.2163
G1 X1.3161 Y1.3549
G2 X1.3154 Y1.3726 I0.0085 J0.0092 F35
G1 X1.3173 Y1.3746 Z-0.3597
X1.3191 Y1.3766 Z-0.3588
X1.3207 Y1.3783 Z-0.3573
X1.3221 Y1.3798 Z-0.3553
X1.3231 Y1.3808 Z-0.3529
X1.3237 Y1.3815 Z-0.3503
X1.3239 Y1.3818 Z-0.3475
G0 Z0.2
X2.5738 Y0.4741
Z-0.3475
G1 X2.5736 Y0.4739 Z-0.3503 F35
X2.573 Y0.4731 Z-0.3529
X2.5722 Y0.4719 Z-0.3553
X2.571 Y0.4703 Z-0.3573
X2.5696 Y0.4684 Z-0.3588
X2.568 Y0.4663 Z-0.3597
X2.5663 Y0.4641 Z-0.36
X2.5459 Y0.4364
G2 X2.5284 Y0.4338 I-0.01 J0.0074
G1 X2.4365 Y0.5019 F35.38
G2 X2.4339 Y0.5194 I0.0074 J0.01 F35
X2.4503 Y0.5227 I0.01 J-0.0074 F35.38
G1 X2.5496 Y0.4651
G2 X2.5544 Y0.4423 I-0.0078 J-0.0135
X2.5407 Y0.436 I-0.0126 J0.0093 F35
G1 X2.5403 Y0.4361
G2 X2.5433 Y0.4672 Z-0.3617 I0.0015 J0.0156
X2.5403 Y0.4361 Z-0.3634 I-0.0015 J-0.0156
X2.5433 Y0.4672 Z-0.3651 I0.0015 J0.0156
X2.5403 Y0.4361 Z-0.3669 I-0.0015 J-0.0156
X2.5433 Y0.4672 Z-0.3686 I0.0015 J0.0156
X2.5403 Y0.4361 Z-0.3703 I-0.0015 J-0.0156
X2.5433 Y0.4672 Z-0.372 I0.0015 J0.0156
X2.5403 Y0.4361 Z-0.3737 I-0.0015 J-0.0156
X2.5433 Y0.4672 Z-0.3754 I0.0015 J0.0156
X2.5403 Y0.4361 Z-0.3771 I-0.0015 J-0.0156
X2.5433 Y0.4672 Z-0.3789 I0.0015 J0.0156
X2.5546 Y0.4427 Z-0.38 I-0.0015 J-0.0156
G1 X2.5544 Y0.4423
X2.5505 Y0.4371
G2 X2.5284 Y0.4338 I-0.0127 J0.0094
G1 X2.4365 Y0.5019 F35.38
G2 X2.4339 Y0.5194 I0.0074 J0.01 F35
G1 X2.4356 Y0.5216 Z-0.3797
X2.4372 Y0.5237 Z-0.3788
X2.4386 Y0.5256 Z-0.3773
X2.4398 Y0.5272 Z-0.3753
X2.4406 Y0.5284 Z-0.3729
X2.4412 Y0.5291 Z-0.3703
X2.4414 Y0.5294 Z-0.3675
G0 Z0.2
X1.3274 Y1.7019
Z-0.3675
G1 X1.3277 Z-0.3703 F35
X1.3286 Z-0.3729
X1.3301 Z-0.3753
X1.3321 Z-0.3773
X1.3345 Z-0.3788
X1.3371 Y1.7018 Z-0.3797
X1.3399 Z-0.38
X1.3743 Y1.7015
G2 X1.3867 Y1.6889 I-0.0001 J-0.0125
G3 X1.3905 Y1.2858 I9.1366 J-0.1142 F35.38
G1 X0.8383 Y1.7983
X0.8384 Y1.7984
X1.3882 Y1.8061
X1.3867 Y1.6889
G2 X1.3741 Y1.6765 I-0.0125 J0.0001 F35
G1 X1.3713 Y1.6766 Z-0.3797
X1.3686 Z-0.3788
X1.3663 Z-0.3773
X1.3643 Z-0.3753
X1.3628 Z-0.3729
X1.3619 Z-0.3703
X1.3616 Z-0.3675
G0 Z0.2
X0.8522 Y0.9998
Z-0.3675
G1 X0.8524 Y1.0001 Z-0.3703 F35
X0.853 Y1.0008 Z-0.3729
X0.854 Y1.0019 Z-0.3753
X0.8553 Y1.0033 Z-0.3773
X0.8569 Y1.0051 Z-0.3788
X0.8586 Y1.0071 Z-0.3797
X0.8605 Y1.0092 Z-0.38
X0.8834 Y1.0348
G2 X0.901 Y1.0358 I0.0093 J-0.0083
G1 X0.966 Y0.9777 F35.38
G2 X0.967 Y0.9601 I-0.0083 J-0.0093 F35
X0.9508 Y0.958 I-0.0093 J0.0083 F35.38
G1 X0.8775 Y1.0063
G2 X0.8744 Y1.0297 I0.0086 J0.0131
X0.8885 Y1.0347 I0.0117 J-0.0104 F35
G1 X0.889
G2 X0.8831 Y1.004 Z-0.3817 I-0.0029 J-0.0153
X0.889 Y1.0347 Z-0.3834 I0.0029 J0.0153
X0.8831 Y1.004 Z-0.3851 I-0.0029 J-0.0153
X0.889 Y1.0347 Z-0.3869 I0.0029 J0.0153
X0.8831 Y1.004 Z-0.3886 I-0.0029 J-0.0153
X0.889 Y1.0347 Z-0.3903 I0.0029 J0.0153
X0.8831 Y1.004 Z-0.392 I-0.0029 J-0.0153
X0.889 Y1.0347 Z-0.3937 I0.0029 J0.0153
X0.8831 Y1.004 Z-0.3954 I-0.0029 J-0.0153
X0.889 Y1.0347 Z-0.3971 I0.0029 J0.0153
X0.8831 Y1.004 Z-0.3989 I-0.0029 J-0.0153
X0.8741 Y1.0294 Z-0.4 I0.0029 J0.0153
G1 X0.8744 Y1.0297
X0.8787 Y1.0345
G2 X0.901 Y1.0358 I0.0118 J-0.0105
G1 X0.966 Y0.9777 F35.38
G2 X0.967 Y0.9601 I-0.0083 J-0.0093 F35
G1 X0.9652 Y0.958 Z-0.3997
X0.9634 Y0.9561 Z-0.3988
X0.9618 Y0.9543 Z-0.3973
X0.9605 Y0.9528 Z-0.3953
X0.9595 Y0.9517 Z-0.3929
X0.9589 Y0.951 Z-0.3903
X0.9587 Y0.9508 Z-0.3875
G0 Z0.2
X1.3338 Y1.3557
Z0.0053
G1 Z-0.4 F35
G2 X1.3161 Y1.3549 I-0.0092 J0.0084
G1 X0.8383 Y1.7983 F35.38
X0.8384 Y1.7984
X1.3882 Y1.8061
G3 X1.3904 Y1.2858 I10.4614 J-0.2144
G1 X1.3161 Y1.3549
G2 X1.3154 Y1.3726 I0.0085 J0.0092 F35
G1 X1.3173 Y1.3746 Z-0.3997
X1.3191 Y1.3766 Z-0.3988
X1.3207 Y1.3783 Z-0.3973
X1.3221 Y1.3798 Z-0.3953
X1.3231 Y1.3808 Z-0.3929
X1.3237 Y1.3815 Z-0.3903
X1.3239 Y1.3818 Z-0.3875
G0 Z0.2
X2.5738 Y0.4741
Z-0.3875
G1 X2.5736 Y0.4739 Z-0.3903 F35
X2.573 Y0.4731 Z-0.3929
X2.5722 Y0.4719 Z-0.3953
X2.571 Y0.4703 Z-0.3973
X2.5696 Y0.4684 Z-0.3988
X2.568 Y0.4663 Z-0.3997
X2.5663 Y0.4641 Z-0.4
X2.5459 Y0.4364
G2 X2.5284 Y0.4338 I-0.01 J0.0074
G1 X2.4365 Y0.5019 F35.38
G2 X2.4339 Y0.5194 I0.0074 J0.01 F35
X2.4503 Y0.5227 I0.01 J-0.0074 F35.38
G1 X2.5496 Y0.4651
G2 X2.5544 Y0.4423 I-0.0078 J-0.0135
X2.5407 Y0.436 I-0.0126 J0.0093 F35
G1 X2.5403 Y0.4361
G2 X2.5433 Y0.4672 Z-0.4017 I0.0015 J0.0156
X2.5403 Y0.4361 Z-0.4034 I-0.0015 J-0.0156
X2.5433 Y0.4672 Z-0.4051 I0.0015 J0.0156
X2.5403 Y0.4361 Z-0.4069 I-0.0015 J-0.0156
X2.5433 Y0.4672 Z-0.4086 I0.0015 J0.0156
X2.5403 Y0.4361 Z-0.4103 I-0.0015 J-0.0156
X2.5433 Y0.4672 Z-0.412 I0.0015 J0.0156
X2.5403 Y0.4361 Z-0.4137 I-0.0015 J-0.0156
X2.5433 Y0.4672 Z-0.4154 I0.0015 J0.0156
X2.5403 Y0.4361 Z-0.4171 I-0.0015 J-0.0156
X2.5433 Y0.4672 Z-0.4189 I0.0015 J0.0156
X2.5546 Y0.4427 Z-0.42 I-0.0015 J-0.0156
G1 X2.5544 Y0.4423
X2.5505 Y0.4371
G2 X2.5284 Y0.4338 I-0.0127 J0.0094
G1 X2.4365 Y0.5019 F35.38
G2 X2.4339 Y0.5194 I0.0074 J0.01 F35
G1 X2.4356 Y0.5216 Z-0.4197
X2.4372 Y0.5237 Z-0.4188
X2.4386 Y0.5256 Z-0.4173
X2.4398 Y0.5272 Z-0.4153
X2.4406 Y0.5284 Z-0.4129
X2.4412 Y0.5291 Z-0.4103
X2.4414 Y0.5294 Z-0.4075
G0 Z0.2
X1.3274 Y1.7019
Z-0.4075
G1 X1.3277 Z-0.4103 F35
X1.3286 Z-0.4129
X1.3301 Z-0.4153
X1.3321 Z-0.4173
X1.3345 Z-0.4188
X1.3371 Y1.7018 Z-0.4197
X1.3399 Z-0.42
X1.3743 Y1.7015
G2 X1.3867 Y1.6889 I-0.0001 J-0.0125
G3 X1.3905 Y1.2858 I9.1158 J-0.1144 F35.38
G1 X0.8383 Y1.7983
X0.8384 Y1.7984
X1.3882 Y1.8061
X1.3867 Y1.6889
G2 X1.3741 Y1.6765 I-0.0125 J0.0001 F35
G1 X1.3713 Y1.6766 Z-0.4197
X1.3686 Z-0.4188
X1.3663 Z-0.4173
X1.3643 Z-0.4153
X1.3628 Z-0.4129
X1.3619 Z-0.4103
X1.3616 Z-0.4075
G0 Z0.2
X0.8522 Y0.9998
Z-0.4075
G1 X0.8524 Y1.0001 Z-0.4103 F35
X0.853 Y1.0008 Z-0.4129
X0.854 Y1.0019 Z-0.4153
X0.8553 Y1.0033 Z-0.4173
X0.8569 Y1.0051 Z-0.4188
X0.8586 Y1.0071 Z-0.4197
X0.8605 Y1.0092 Z-0.42
X0.8834 Y1.0348
G2 X0.901 Y1.0358 I0.0093 J-0.0083
G1 X0.966 Y0.9777 F35.38
G2 X0.967 Y0.9601 I-0.0083 J-0.0093 F35
X0.9508 Y0.958 I-0.0093 J0.0083 F35.38
G1 X0.8775 Y1.0063
G2 X0.8744 Y1.0297 I0.0086 J0.0131
X0.8885 Y1.0347 I0.0117 J-0.0104 F35
G1 X0.889
G2 X0.8831 Y1.004 Z-0.4217 I-0.0029 J-0.0153
X0.889 Y1.0347 Z-0.4234 I0.0029 J0.0153
X0.8831 Y1.004 Z-0.4251 I-0.0029 J-0.0153
X0.889 Y1.0347 Z-0.4269 I0.0029 J0.0153
X0.8831 Y1.004 Z-0.4286 I-0.0029 J-0.0153
X0.889 Y1.0347 Z-0.4303 I0.0029 J0.0153
X0.8831 Y1.004 Z-0.432 I-0.0029 J-0.0153
X0.889 Y1.0347 Z-0.4337 I0.0029 J0.0153
X0.8831 Y1.004 Z-0.4354 I-0.0029 J-0.0153
X0.889 Y1.0347 Z-0.4371 I0.0029 J0.0153
X0.8831 Y1.004 Z-0.4389 I-0.0029 J-0.0153
X0.8741 Y1.0294 Z-0.44 I0.0029 J0.0153
G1 X0.8744 Y1.0297
X0.8787 Y1.0345
G2 X0.901 Y1.0358 I0.0118 J-0.0105
G1 X0.966 Y0.9777 F35.38
G2 X0.967 Y0.9601 I-0.0083 J-0.0093 F35
G1 X0.9652 Y0.958 Z-0.4397
X0.9634 Y0.9561 Z-0.4388
X0.9618 Y0.9543 Z-0.4373
X0.9605 Y0.9528 Z-0.4353
X0.9595 Y0.9517 Z-0.4329
X0.9589 Y0.951 Z-0.4303
X0.9587 Y0.9508 Z-0.4275
G0 Z0.2
X1.3338 Y1.3557
Z0.0053
G1 Z-0.44 F35
G2 X1.3161 Y1.3549 I-0.0092 J0.0084
G1 X0.8383 Y1.7983 F35.38
X0.8384 Y1.7984
X1.3882 Y1.8061
G3 X1.3904 Y1.2858 I10.3875 J-0.2163
G1 X1.3161 Y1.3549
G2 X1.3154 Y1.3726 I0.0085 J0.0092 F35
G1 X1.3173 Y1.3746 Z-0.4397
X1.3191 Y1.3766 Z-0.4388
X1.3207 Y1.3783 Z-0.4373
X1.3221 Y1.3798 Z-0.4353
X1.3231 Y1.3808 Z-0.4329
X1.3237 Y1.3815 Z-0.4303
X1.3239 Y1.3818 Z-0.4275
G0 Z0.2
X2.5738 Y0.4741
Z-0.4275
G1 X2.5736 Y0.4739 Z-0.4303 F35
X2.573 Y0.4731 Z-0.4329
X2.5722 Y0.4719 Z-0.4353
X2.571 Y0.4703 Z-0.4373
X2.5696 Y0.4684 Z-0.4388
X2.568 Y0.4663 Z-0.4397
X2.5663 Y0.4641 Z-0.44
X2.5459 Y0.4364
G2 X2.5284 Y0.4338 I-0.01 J0.0074
G1 X2.4365 Y0.5019 F35.38
G2 X2.4339 Y0.5194 I0.0074 J0.01 F35
X2.4503 Y0.5227 I0.01 J-0.0074 F35.38
G1 X2.5496 Y0.4651
G2 X2.5544 Y0.4423 I-0.0078 J-0.0135
X2.5407 Y0.436 I-0.0126 J0.0093 F35
G1 X2.5403 Y0.4361
G2 X2.5433 Y0.4672 Z-0.4417 I0.0015 J0.0156
X2.5403 Y0.4361 Z-0.4434 I-0.0015 J-0.0156
X2.5433 Y0.4672 Z-0.4451 I0.0015 J0.0156
X2.5403 Y0.4361 Z-0.4469 I-0.0015 J-0.0156
X2.5433 Y0.4672 Z-0.4486 I0.0015 J0.0156
X2.5403 Y0.4361 Z-0.4503 I-0.0015 J-0.0156
X2.5433 Y0.4672 Z-0.452 I0.0015 J0.0156
X2.5403 Y0.4361 Z-0.4537 I-0.0015 J-0.0156
X2.5433 Y0.4672 Z-0.4554 I0.0015 J0.0156
X2.5403 Y0.4361 Z-0.4571 I-0.0015 J-0.0156
X2.5433 Y0.4672 Z-0.4589 I0.0015 J0.0156
X2.5546 Y0.4427 Z-0.46 I-0.0015 J-0.0156
G1 X2.5544 Y0.4423
X2.5505 Y0.4371
G2 X2.5284 Y0.4338 I-0.0127 J0.0094
G1 X2.4365 Y0.5019 F35.38
G2 X2.4339 Y0.5194 I0.0074 J0.01 F35
G1 X2.4356 Y0.5216 Z-0.4597
X2.4372 Y0.5237 Z-0.4588
X2.4386 Y0.5256 Z-0.4573
X2.4398 Y0.5272 Z-0.4553
X2.4406 Y0.5284 Z-0.4529
X2.4412 Y0.5291 Z-0.4503
X2.4414 Y0.5294 Z-0.4475
G0 Z0.2
X1.3274 Y1.7019
Z-0.4475
G1 X1.3277 Z-0.4503 F35
X1.3286 Z-0.4529
X1.3301 Z-0.4553
X1.3321 Z-0.4573
X1.3345 Z-0.4588
X1.3371 Y1.7018 Z-0.4597
X1.3399 Z-0.46
X1.3743 Y1.7015
G2 X1.3867 Y1.6889 I-0.0001 J-0.0125
G3 X1.3905 Y1.2858 I9.1471 J-0.1141 F35.38
G1 X0.8383 Y1.7983
X0.8384 Y1.7984
X1.3882 Y1.8061
X1.3867 Y1.6889
G2 X1.3741 Y1.6765 I-0.0125 J0.0001 F35
G1 X1.3713 Y1.6766 Z-0.4597
X1.3686 Z-0.4588
X1.3663 Z-0.4573
X1.3643 Z-0.4553
X1.3628 Z-0.4529
X1.3619 Z-0.4503
X1.3616 Z-0.4475
G0 Z0.2
X0.8522 Y0.9998
Z-0.4475
G1 X0.8524 Y1.0001 Z-0.4503 F35
X0.853 Y1.0008 Z-0.4529
X0.854 Y1.0019 Z-0.4553
X0.8553 Y1.0033 Z-0.4573
X0.8569 Y1.0051 Z-0.4588
X0.8586 Y1.0071 Z-0.4597
X0.8605 Y1.0092 Z-0.46
X0.8834 Y1.0348
G2 X0.901 Y1.0358 I0.0093 J-0.0083
G1 X0.966 Y0.9777 F35.38
G2 X0.967 Y0.9601 I-0.0083 J-0.0093 F35
X0.9508 Y0.958 I-0.0093 J0.0083 F35.38
G1 X0.8775 Y1.0063
G2 X0.8744 Y1.0297 I0.0086 J0.0131
X0.8885 Y1.0347 I0.0117 J-0.0104 F35
G1 X0.889
G2 X0.8831 Y1.004 Z-0.4617 I-0.0029 J-0.0153
X0.889 Y1.0347 Z-0.4634 I0.0029 J0.0153
X0.8831 Y1.004 Z-0.4651 I-0.0029 J-0.0153
X0.889 Y1.0347 Z-0.4669 I0.0029 J0.0153
X0.8831 Y1.004 Z-0.4686 I-0.0029 J-0.0153
X0.889 Y1.0347 Z-0.4703 I0.0029 J0.0153
X0.8831 Y1.004 Z-0.472 I-0.0029 J-0.0153
X0.889 Y1.0347 Z-0.4737 I0.0029 J0.0153
X0.8831 Y1.004 Z-0.4754 I-0.0029 J-0.0153
X0.889 Y1.0347 Z-0.4771 I0.0029 J0.0153
X0.8831 Y1.004 Z-0.4789 I-0.0029 J-0.0153
X0.8741 Y1.0294 Z-0.48 I0.0029 J0.0153
G1 X0.8744 Y1.0297
X0.8787 Y1.0345
G2 X0.901 Y1.0358 I0.0118 J-0.0105
G1 X0.966 Y0.9777 F35.38
G2 X0.967 Y0.9601 I-0.0083 J-0.0093 F35
G1 X0.9652 Y0.958 Z-0.4797
X0.9634 Y0.9561 Z-0.4788
X0.9618 Y0.9543 Z-0.4773
X0.9605 Y0.9528 Z-0.4753
X0.9595 Y0.9517 Z-0.4729
X0.9589 Y0.951 Z-0.4703
X0.9587 Y0.9508 Z-0.4675
G0 Z0.2
X1.3338 Y1.3557
Z0.0053
G1 Z-0.48 F35
G2 X1.3161 Y1.3549 I-0.0092 J0.0084
G1 X0.8383 Y1.7983 F35.38
X0.8384 Y1.7984
X1.3882 Y1.8061
G3 X1.3904 Y1.2858 I10.4525 J-0.2146
G1 X1.3161 Y1.3549
G2 X1.3154 Y1.3726 I0.0085 J0.0092 F35
G1 X1.3173 Y1.3746 Z-0.4797
X1.3191 Y1.3766 Z-0.4788
X1.3207 Y1.3783 Z-0.4773
X1.3221 Y1.3798 Z-0.4753
X1.3231 Y1.3808 Z-0.4729
X1.3237 Y1.3815 Z-0.4703
X1.3239 Y1.3818 Z-0.4675
G0 Z0.2
X2.5738 Y0.4741
Z-0.4675
G1 X2.5736 Y0.4739 Z-0.4703 F35
X2.573 Y0.4731 Z-0.4729
X2.5722 Y0.4719 Z-0.4753
X2.571 Y0.4703 Z-0.4773
X2.5696 Y0.4684 Z-0.4788
X2.568 Y0.4663 Z-0.4797
X2.5663 Y0.4641 Z-0.48
X2.5459 Y0.4364
G2 X2.5284 Y0.4338 I-0.01 J0.0074
G1 X2.4365 Y0.5019 F35.38
G2 X2.4339 Y0.5194 I0.0074 J0.01 F35
X2.4503 Y0.5227 I0.01 J-0.0074 F35.38
G1 X2.5496 Y0.4651
G2 X2.5485 Y0.4375 I-0.0078 J-0.0135
G1 X2.5481 Y0.4373 F35
G2 X2.5355 Y0.4659 Z-0.4817 I-0.0063 J0.0143
X2.5481 Y0.4373 Z-0.4834 I0.0063 J-0.0143
X2.5355 Y0.4659 Z-0.4851 I-0.0063 J0.0143
X2.5481 Y0.4373 Z-0.4869 I0.0063 J-0.0143
X2.5355 Y0.4659 Z-0.4886 I-0.0063 J0.0143
X2.5546 Y0.4427 Z-0.49 I0.0063 J-0.0143
G1 X2.5544 Y0.4423
X2.5505 Y0.4371
G2 X2.5284 Y0.4338 I-0.0127 J0.0094
G1 X2.4365 Y0.5019 F35.38
G2 X2.4339 Y0.5194 I0.0074 J0.01 F35
G1 X2.4356 Y0.5216 Z-0.4897
X2.4372 Y0.5237 Z-0.4888
X2.4386 Y0.5256 Z-0.4873
X2.4398 Y0.5272 Z-0.4853
X2.4406 Y0.5284 Z-0.4829
X2.4412 Y0.5291 Z-0.4803
X2.4414 Y0.5294 Z-0.4775
G0 Z0.2
X1.3274 Y1.7019
Z-0.4775
G1 X1.3277 Z-0.4803 F35
X1.3286 Z-0.4829
X1.3301 Z-0.4853
X1.3321 Z-0.4873
X1.3345 Z-0.4888
X1.3371 Y1.7018 Z-0.4897
X1.3399 Z-0.49
X1.3743 Y1.7015
G2 X1.3867 Y1.6889 I-0.0001 J-0.0125
G3 X1.3905 Y1.2858 I9.0603 J-0.115 F35.38
G1 X0.8383 Y1.7983
X0.8384 Y1.7984
X1.3882 Y1.8061
X1.3867 Y1.6889
G2 X1.3741 Y1.6765 I-0.0125 J0.0001 F35
G1 X1.3713 Y1.6766 Z-0.4897
X1.3686 Z-0.4888
X1.3663 Z-0.4873
X1.3643 Z-0.4853
X1.3628 Z-0.4829
X1.3619 Z-0.4803
X1.3616 Z-0.4775
G0 Z0.2
X0.8522 Y0.9998
Z-0.4775
G1 X0.8524 Y1.0001 Z-0.4803 F35
X0.853 Y1.0008 Z-0.4829
X0.854 Y1.0019 Z-0.4853
X0.8553 Y1.0033 Z-0.4873
X0.8569 Y1.0051 Z-0.4888
X0.8586 Y1.0071 Z-0.4897
X0.8605 Y1.0092 Z-0.49
X0.8834 Y1.0348
G2 X0.901 Y1.0358 I0.0093 J-0.0083
G1 X0.966 Y0.9777 F35.38
G2 X0.967 Y0.9601 I-0.0083 J-0.0093 F35
G1 X0.9652 Y0.958 Z-0.4897
X0.9634 Y0.9561 Z-0.4888
X0.9618 Y0.9543 Z-0.4873
X0.9605 Y0.9528 Z-0.4853
X0.9595 Y0.9517 Z-0.4829
X0.9589 Y0.951 Z-0.4803
X0.9587 Y0.9508 Z-0.4775
G0 Z0.6
M9
M30
%
