%
(ButterflyKeyCutout)
(T2  D=0.125 CR=0 - ZMIN=-0.185 - flat end mill)
G90 G94
G17
G20

(2D Pocket1)
M9
T2 M6
S11028 M3
G54
M8
G0 X0.8809 Y1.091
Z0.6
Z0.2
G1 Z0.1 F30
Z-0.0275
G2 X0.8818 Y1.0907 Z-0.0323 I-0.0043 J-0.0117
X0.8841 Y1.0893 Z-0.0363 I-0.0052 J-0.0114
X0.8869 Y1.0864 Z-0.039 I-0.0075 J-0.01
X0.8888 Y1.082 Z-0.04 I-0.0103 J-0.0071
G3 X0.9172 Y1.006 I0.2853 J0.0634 F30.38
G2 X0.9106 Y0.9993 I-0.0043 J-0.0024
G3 X0.8345 Y1.0276 I-0.1391 J-0.257
G2 X0.7556 Y1.0469 I0.3986 J1.8062
X0.7523 Y1.059 I0.0019 J0.007
G1 X0.8573 Y1.1641
G2 X0.8695 Y1.1609 I0.0051 J-0.0051
X0.8888 Y1.082 I-1.7864 J-0.48
G3 X0.891 Y1.0781 I0.0078 J0.0017
G1 X1.0769 Y0.8924
G3 X1.0808 Y0.8903 I0.0057 J0.0057
G2 X1.1597 Y0.871 I-0.3986 J-1.8062
X1.1629 Y0.8589 I-0.0019 J-0.007
G1 X1.058 Y0.7538
G2 X1.0458 Y0.757 I-0.0051 J0.0051
X1.0265 Y0.8359 I1.7863 J0.48
G3 X0.998 Y0.9119 I-0.2853 J-0.0634
G2 X1.0047 Y0.9186 I0.0043 J0.0024
G3 X1.0808 Y0.8903 I0.1391 J0.257
X1.1366 Y0.911 I0.0118 J0.0536
G2 X1.1927 Y0.9308 I0.043 J-0.0322
X1.2887 Y0.9059 I-1.7548 J-6.9513
X1.2921 Y0.8935 I-0.0019 J-0.0071
G1 X1.0236 Y0.6246
G2 X1.0112 Y0.6279 I-0.0052 J0.0052
X0.9826 Y0.7379 I6.9237 J1.8603
G3 X0.954 Y0.8478 I-6.9523 J-1.7504
X0.8465 Y0.9551 I-0.1467 J-0.0394
X0.7365 Y0.9836 I-1.8509 J-6.9264
G2 X0.6265 Y1.012 I1.7409 J6.9548
X0.6232 Y1.0244 I0.0019 J0.0071
G1 X0.8917 Y1.2933
G2 X0.9041 Y1.29 I0.0052 J-0.0052
X0.9327 Y1.18 I-6.9237 J-1.8602
G3 X0.9613 Y1.0701 I6.9523 J1.7503
X1.0688 Y0.9628 I0.1467 J0.0394
X1.1788 Y0.9343 I1.8509 J6.9264
G2 X1.1927 Y0.9308 I-1.7409 J-6.9548
G3 X1.2674 Y0.9568 I0.0176 J0.0698
G2 X1.3423 Y0.9822 I0.0565 J-0.0433
G1 X1.4076 Y0.9648
G2 X1.4244 Y0.9021 I-0.0097 J-0.0362
G1 X1.0152 Y0.4922
G2 X0.9524 Y0.509 I-0.0265 J0.0265
G1 X0.8676 Y0.8246
G3 X0.8234 Y0.8688 I-0.0604 J-0.0162
G1 X0.5077 Y0.9531
G2 X0.4908 Y1.0159 I0.0097 J0.0362
G1 X0.9001 Y1.4257
G2 X0.9629 Y1.4089 I0.0265 J-0.0265
G1 X1.0476 Y1.0933
G3 X1.0919 Y1.0491 I0.0604 J0.0162
G1 X1.3423 Y0.9822
G2 X1.3429 Y0.967 I-0.0021 J-0.0077
G1 X1.0776 Y0.8737
G2 X1.0693 Y0.8869 I-0.0027 J0.0075
G1 Z-0.0675 F30
G2 X1.07 Y0.8876 Z-0.0723 I0.0088 J-0.0089
X1.0722 Y0.8891 Z-0.0763 I0.0081 J-0.0095
X1.0761 Y0.8904 Z-0.079 I0.0059 J-0.011
X1.0808 Y0.8903 Z-0.08 I0.0021 J-0.0123
X1.1597 Y0.871 I-0.3986 J-1.8062 F30.38
X1.1629 Y0.8589 I-0.0019 J-0.007
G1 X1.058 Y0.7538
G2 X1.0458 Y0.757 I-0.0051 J0.0051
X1.0265 Y0.8359 I1.7863 J0.48
G3 X0.998 Y0.9119 I-0.2853 J-0.0634
G2 X1.0047 Y0.9186 I0.0043 J0.0024
G3 X1.0808 Y0.8903 I0.1391 J0.257
X1.086 Y0.9053 I0.0017 J0.0078
G1 X0.8345 Y1.0276
G2 X0.7556 Y1.0469 I0.3986 J1.8062
X0.7523 Y1.059 I0.0019 J0.007
G1 X0.8573 Y1.1641
G2 X0.8695 Y1.1609 I0.0051 J-0.0051
X0.8888 Y1.082 I-1.7864 J-0.48
G3 X0.9172 Y1.006 I0.2853 J0.0634
G2 X0.9106 Y0.9993 I-0.0043 J-0.0024
G3 X0.8345 Y1.0276 I-0.1391 J-0.257
X0.7787 Y1.0069 I-0.0118 J-0.0536
G2 X0.7226 Y0.9871 I-0.043 J0.0322
X0.6265 Y1.012 I1.7548 J6.9513
X0.6232 Y1.0244 I0.0019 J0.0071
G1 X0.8917 Y1.2933
G2 X0.9041 Y1.29 I0.0052 J-0.0052
X0.9327 Y1.18 I-6.9237 J-1.8602
G3 X0.9613 Y1.0701 I6.9523 J1.7503
X1.0688 Y0.9628 I0.1467 J0.0394
X1.1788 Y0.9343 I1.8509 J6.9264
G2 X1.2887 Y0.9059 I-1.7409 J-6.9548
X1.2921 Y0.8935 I-0.0019 J-0.0071
G1 X1.0236 Y0.6246
G2 X1.0112 Y0.6279 I-0.0052 J0.0052
X0.9826 Y0.7379 I6.9237 J1.8603
G3 X0.954 Y0.8478 I-6.9523 J-1.7504
X0.8465 Y0.9551 I-0.1467 J-0.0394
X0.7365 Y0.9836 I-1.8509 J-6.9264
G2 X0.7226 Y0.9871 I1.7409 J6.9548
G3 X0.6479 Y0.9611 I-0.0176 J-0.0698
G2 X0.573 Y0.9357 I-0.0565 J0.0433
G1 X0.5077 Y0.9531
G2 X0.4908 Y1.0159 I0.0097 J0.0362
G1 X0.9001 Y1.4257
G2 X0.9629 Y1.4089 I0.0265 J-0.0265
G1 X1.0476 Y1.0933
G3 X1.0919 Y1.0491 I0.0604 J0.0162
G1 X1.4076 Y0.9648
G2 X1.4244 Y0.9021 I-0.0097 J-0.0362
G1 X1.0152 Y0.4922
G2 X0.9524 Y0.509 I-0.0265 J0.0265
G1 X0.8676 Y0.8246
G3 X0.8234 Y0.8688 I-0.0604 J-0.0162
G1 X0.573 Y0.9357
G2 X0.5717 Y0.9507 I0.0021 J0.0077
G1 X0.8748 Y1.0908
G2 X0.8809 Y1.091 I0.0034 J-0.0073
G1 Z-0.1075 F30
G2 X0.8818 Y1.0907 Z-0.1123 I-0.0043 J-0.0117
X0.8841 Y1.0893 Z-0.1163 I-0.0052 J-0.0114
X0.8869 Y1.0864 Z-0.119 I-0.0075 J-0.01
X0.8888 Y1.082 Z-0.12 I-0.0103 J-0.0071
G3 X0.9172 Y1.006 I0.2853 J0.0634 F30.38
G2 X0.9106 Y0.9993 I-0.0043 J-0.0024
G3 X0.8345 Y1.0276 I-0.1391 J-0.257
G2 X0.7556 Y1.0469 I0.3986 J1.8062
X0.7523 Y1.059 I0.0019 J0.007
G1 X0.8573 Y1.1641
G2 X0.8695 Y1.1609 I0.0051 J-0.0051
X0.8888 Y1.082 I-1.7864 J-0.48
G3 X0.891 Y1.0781 I0.0078 J0.0017
G1 X1.0769 Y0.8924
G3 X1.0808 Y0.8903 I0.0057 J0.0057
G2 X1.1597 Y0.871 I-0.3986 J-1.8062
X1.1629 Y0.8589 I-0.0019 J-0.007
G1 X1.058 Y0.7538
G2 X1.0458 Y0.757 I-0.0051 J0.0051
X1.0265 Y0.8359 I1.7863 J0.48
G3 X0.998 Y0.9119 I-0.2853 J-0.0634
G2 X1.0047 Y0.9186 I0.0043 J0.0024
G3 X1.0808 Y0.8903 I0.1391 J0.257
X1.1366 Y0.911 I0.0118 J0.0536
G2 X1.1927 Y0.9308 I0.043 J-0.0322
X1.2887 Y0.9059 I-1.7548 J-6.9513
X1.2921 Y0.8935 I-0.0019 J-0.0071
G1 X1.0236 Y0.6246
G2 X1.0112 Y0.6279 I-0.0052 J0.0052
X0.9826 Y0.7379 I6.9237 J1.8603
G3 X0.954 Y0.8478 I-6.9523 J-1.7504
X0.8465 Y0.9551 I-0.1467 J-0.0394
X0.7365 Y0.9836 I-1.8509 J-6.9264
G2 X0.6265 Y1.012 I1.7409 J6.9548
X0.6232 Y1.0244 I0.0019 J0.0071
G1 X0.8917 Y1.2933
G2 X0.9041 Y1.29 I0.0052 J-0.0052
X0.9327 Y1.18 I-6.9237 J-1.8602
G3 X0.9613 Y1.0701 I6.9523 J1.7503
X1.0688 Y0.9628 I0.1467 J0.0394
X1.1788 Y0.9343 I1.8509 J6.9264
G2 X1.1927 Y0.9308 I-1.7409 J-6.9548
G3 X1.2674 Y0.9568 I0.0176 J0.0698
G2 X1.3423 Y0.9822 I0.0565 J-0.0433
G1 X1.4076 Y0.9648
G2 X1.4244 Y0.9021 I-0.0097 J-0.0362
G1 X1.0152 Y0.4922
G2 X0.9524 Y0.509 I-0.0265 J0.0265
G1 X0.8676 Y0.8246
G3 X0.8234 Y0.8688 I-0.0604 J-0.0162
G1 X0.5077 Y0.9531
G2 X0.4908 Y1.0159 I0.0097 J0.0362
G1 X0.9001 Y1.4257
G2 X0.9629 Y1.4089 I0.0265 J-0.0265
G1 X1.0476 Y1.0933
G3 X1.0919 Y1.0491 I0.0604 J0.0162
G1 X1.3423 Y0.9822
G2 X1.3429 Y0.967 I-0.0021 J-0.0077
G1 X1.0776 Y0.8737
G2 X1.0693 Y0.8869 I-0.0027 J0.0075
G1 Z-0.1475 F30
G2 X1.07 Y0.8876 Z-0.1523 I0.0088 J-0.0089
X1.0722 Y0.8891 Z-0.1563 I0.0081 J-0.0095
X1.0761 Y0.8904 Z-0.159 I0.0059 J-0.011
X1.0808 Y0.8903 Z-0.16 I0.0021 J-0.0123
X1.1597 Y0.871 I-0.3986 J-1.8062 F30.38
X1.1629 Y0.8589 I-0.0019 J-0.007
G1 X1.058 Y0.7538
G2 X1.0458 Y0.757 I-0.0051 J0.0051
X1.0265 Y0.8359 I1.7863 J0.48
G3 X0.998 Y0.9119 I-0.2853 J-0.0634
G2 X1.0047 Y0.9186 I0.0043 J0.0024
G3 X1.0808 Y0.8903 I0.1391 J0.257
X1.086 Y0.9053 I0.0017 J0.0078
G1 X0.8345 Y1.0276
G2 X0.7556 Y1.0469 I0.3986 J1.8062
X0.7523 Y1.059 I0.0019 J0.007
G1 X0.8573 Y1.1641
G2 X0.8695 Y1.1609 I0.0051 J-0.0051
X0.8888 Y1.082 I-1.7864 J-0.48
G3 X0.9172 Y1.006 I0.2853 J0.0634
G2 X0.9106 Y0.9993 I-0.0043 J-0.0024
G3 X0.8345 Y1.0276 I-0.1391 J-0.257
X0.7787 Y1.0069 I-0.0118 J-0.0536
G2 X0.7226 Y0.9871 I-0.043 J0.0322
X0.6265 Y1.012 I1.7548 J6.9513
X0.6232 Y1.0244 I0.0019 J0.0071
G1 X0.8917 Y1.2933
G2 X0.9041 Y1.29 I0.0052 J-0.0052
X0.9327 Y1.18 I-6.9237 J-1.8602
G3 X0.9613 Y1.0701 I6.9523 J1.7503
X1.0688 Y0.9628 I0.1467 J0.0394
X1.1788 Y0.9343 I1.8509 J6.9264
G2 X1.2887 Y0.9059 I-1.7409 J-6.9548
X1.2921 Y0.8935 I-0.0019 J-0.0071
G1 X1.0236 Y0.6246
G2 X1.0112 Y0.6279 I-0.0052 J0.0052
X0.9826 Y0.7379 I6.9237 J1.8603
G3 X0.954 Y0.8478 I-6.9523 J-1.7504
X0.8465 Y0.9551 I-0.1467 J-0.0394
X0.7365 Y0.9836 I-1.8509 J-6.9264
G2 X0.7226 Y0.9871 I1.7409 J6.9548
G3 X0.6479 Y0.9611 I-0.0176 J-0.0698
G2 X0.573 Y0.9357 I-0.0565 J0.0433
G1 X0.5077 Y0.9531
G2 X0.4908 Y1.0159 I0.0097 J0.0362
G1 X0.9001 Y1.4257
G2 X0.9629 Y1.4089 I0.0265 J-0.0265
G1 X1.0476 Y1.0933
G3 X1.0919 Y1.0491 I0.0604 J0.0162
G1 X1.4076 Y0.9648
G2 X1.4244 Y0.9021 I-0.0097 J-0.0362
G1 X1.0152 Y0.4922
G2 X0.9524 Y0.509 I-0.0265 J0.0265
G1 X0.8676 Y0.8246
G3 X0.8234 Y0.8688 I-0.0604 J-0.0162
G1 X0.573 Y0.9357
G2 X0.5717 Y0.9507 I0.0021 J0.0077
G1 X0.8748 Y1.0908
G2 X0.8809 Y1.091 I0.0034 J-0.0073
G1 Z-0.1725 F30
G2 X0.8818 Y1.0907 Z-0.1773 I-0.0043 J-0.0117
X0.8841 Y1.0893 Z-0.1813 I-0.0052 J-0.0114
X0.8869 Y1.0864 Z-0.184 I-0.0075 J-0.01
X0.8888 Y1.082 Z-0.185 I-0.0103 J-0.0071
G3 X0.9172 Y1.006 I0.2853 J0.0634 F30.38
G2 X0.9106 Y0.9993 I-0.0043 J-0.0024
G3 X0.8345 Y1.0276 I-0.1391 J-0.257
G2 X0.7556 Y1.0469 I0.3986 J1.8062
X0.7523 Y1.059 I0.0019 J0.007
G1 X0.8573 Y1.1641
G2 X0.8695 Y1.1609 I0.0051 J-0.0051
X0.8888 Y1.082 I-1.7864 J-0.48
G3 X0.891 Y1.0781 I0.0078 J0.0017
G1 X1.0769 Y0.8924
G3 X1.0808 Y0.8903 I0.0057 J0.0057
G2 X1.1597 Y0.871 I-0.3986 J-1.8062
X1.1629 Y0.8589 I-0.0019 J-0.007
G1 X1.058 Y0.7538
G2 X1.0458 Y0.757 I-0.0051 J0.0051
X1.0265 Y0.8359 I1.7863 J0.48
G3 X0.998 Y0.9119 I-0.2853 J-0.0634
G2 X1.0047 Y0.9186 I0.0043 J0.0024
G3 X1.0808 Y0.8903 I0.1391 J0.257
X1.1366 Y0.911 I0.0118 J0.0536
G2 X1.1927 Y0.9308 I0.043 J-0.0322
X1.2887 Y0.9059 I-1.7548 J-6.9513
X1.2921 Y0.8935 I-0.0019 J-0.0071
G1 X1.0236 Y0.6246
G2 X1.0112 Y0.6279 I-0.0052 J0.0052
X0.9826 Y0.7379 I6.9237 J1.8603
G3 X0.954 Y0.8478 I-6.9523 J-1.7504
X0.8465 Y0.9551 I-0.1467 J-0.0394
X0.7365 Y0.9836 I-1.8509 J-6.9264
G2 X0.6265 Y1.012 I1.7409 J6.9548
X0.6232 Y1.0244 I0.0019 J0.0071
G1 X0.8917 Y1.2933
G2 X0.9041 Y1.29 I0.0052 J-0.0052
X0.9327 Y1.18 I-6.9237 J-1.8602
G3 X0.9613 Y1.0701 I6.9523 J1.7503
X1.0688 Y0.9628 I0.1467 J0.0394
X1.1788 Y0.9343 I1.8509 J6.9264
G2 X1.1927 Y0.9308 I-1.7409 J-6.9548
G3 X1.2674 Y0.9568 I0.0176 J0.0698
G2 X1.3423 Y0.9822 I0.0565 J-0.0433
G1 X1.4076 Y0.9648
G2 X1.4244 Y0.9021 I-0.0097 J-0.0362
G1 X1.0152 Y0.4922
G2 X0.9524 Y0.509 I-0.0265 J0.0265
G1 X0.8676 Y0.8246
G3 X0.8234 Y0.8688 I-0.0604 J-0.0162
G1 X0.5077 Y0.9531
G2 X0.4908 Y1.0159 I0.0097 J0.0362
G1 X0.9001 Y1.4257
G2 X0.9629 Y1.4089 I0.0265 J-0.0265
G1 X1.0476 Y1.0933
G3 X1.0919 Y1.0491 I0.0604 J0.0162
G1 X1.3423 Y0.9822
G2 X1.3465 Y0.9802 Z-0.184 I-0.0032 J-0.0121 F30
X1.3493 Y0.9772 Z-0.1813 I-0.0075 J-0.01
X1.3506 Y0.9749 Z-0.1773 I-0.0103 J-0.0071
X1.3509 Y0.974 Z-0.1725 I-0.0116 J-0.0047
G0 Z0.6
M9
M30
%
