%
(ButterflyKey)
(T2  D=0.125 CR=0 - ZMIN=-0.185 - flat end mill)
G90 G94
G17
G20

(2D Contour2)
M9
T2 M6
S11028 M3
G54
M8
G0 X0.57 Y1.1607
Z0.6
Z0.2
G1 Z0.0794 F30
Z-0.0275
Y1.1604 Z-0.0303
Y1.1595 Z-0.0329
Y1.158 Z-0.0353
Y1.156 Z-0.0373
X0.5701 Y1.1536 Z-0.0388
Y1.151 Z-0.0397
X0.5702 Y1.1482 Z-0.04
X0.5704 Y1.1357
G2 X0.5581 Y1.123 I-0.0125 J-0.0002
G3 X0.4133 Y1.0099 I0.0025 J-0.1525 F30.38
G1 X0.3368 Y0.7235
X0.0504 Y0.6465
G3 X-0.0178 Y0.3914 I0.0396 J-0.1473
G1 X0.3921 Y-0.0179
G3 X0.6472 Y0.0506 I0.1078 J0.1079
G1 X0.7237 Y0.3371
X1.01 Y0.414
G3 X1.0782 Y0.6692 I-0.0396 J0.1473
G1 X0.6684 Y1.0784
G3 X0.5581 Y1.123 I-0.1078 J-0.1079
G2 X0.5454 Y1.1353 I-0.0002 J0.0125 F30
G1 X0.5452 Y1.1478
X0.5451 Y1.1506 Z-0.0397
Y1.1532 Z-0.0388
X0.545 Y1.1556 Z-0.0373
Y1.1576 Z-0.0353
Y1.1591 Z-0.0329
Y1.16 Z-0.0303
Y1.1603 Z-0.0275
X0.57 Y1.1607
Z-0.0675
Y1.1604 Z-0.0703
Y1.1595 Z-0.0729
Y1.158 Z-0.0753
Y1.156 Z-0.0773
X0.5701 Y1.1536 Z-0.0788
Y1.151 Z-0.0797
X0.5702 Y1.1482 Z-0.08
X0.5704 Y1.1357
G2 X0.5581 Y1.123 I-0.0125 J-0.0002
G3 X0.4133 Y1.0099 I0.0025 J-0.1525 F30.38
G1 X0.3368 Y0.7235
X0.0504 Y0.6465
G3 X-0.0178 Y0.3914 I0.0396 J-0.1473
G1 X0.3921 Y-0.0179
G3 X0.6472 Y0.0506 I0.1078 J0.1079
G1 X0.7237 Y0.3371
X1.01 Y0.414
G3 X1.0782 Y0.6692 I-0.0396 J0.1473
G1 X0.6684 Y1.0784
G3 X0.5581 Y1.123 I-0.1078 J-0.1079
G2 X0.5454 Y1.1353 I-0.0002 J0.0125 F30
G1 X0.5452 Y1.1478
X0.5451 Y1.1506 Z-0.0797
Y1.1532 Z-0.0788
X0.545 Y1.1556 Z-0.0773
Y1.1576 Z-0.0753
Y1.1591 Z-0.0729
Y1.16 Z-0.0703
Y1.1603 Z-0.0675
X0.57 Y1.1607
Z-0.1075
Y1.1604 Z-0.1103
Y1.1595 Z-0.1129
Y1.158 Z-0.1153
Y1.156 Z-0.1173
X0.5701 Y1.1536 Z-0.1188
Y1.151 Z-0.1197
X0.5702 Y1.1482 Z-0.12
X0.5704 Y1.1357
G2 X0.5581 Y1.123 I-0.0125 J-0.0002
G3 X0.4133 Y1.0099 I0.0025 J-0.1525 F30.38
G1 X0.3368 Y0.7235
X0.0504 Y0.6465
G3 X-0.0178 Y0.3914 I0.0396 J-0.1473
G1 X0.3921 Y-0.0179
G3 X0.6472 Y0.0506 I0.1078 J0.1079
G1 X0.7237 Y0.3371
X1.01 Y0.414
G3 X1.0782 Y0.6692 I-0.0396 J0.1473
G1 X0.6684 Y1.0784
G3 X0.5581 Y1.123 I-0.1078 J-0.1079
G2 X0.5454 Y1.1353 I-0.0002 J0.0125 F30
G1 X0.5452 Y1.1478
X0.5451 Y1.1506 Z-0.1197
Y1.1532 Z-0.1188
X0.545 Y1.1556 Z-0.1173
Y1.1576 Z-0.1153
Y1.1591 Z-0.1129
Y1.16 Z-0.1103
Y1.1603 Z-0.1075
X0.57 Y1.1607
Z-0.1475
Y1.1604 Z-0.1503
Y1.1595 Z-0.1529
Y1.158 Z-0.1553
Y1.156 Z-0.1573
X0.5701 Y1.1536 Z-0.1588
Y1.151 Z-0.1597
X0.5702 Y1.1482 Z-0.16
X0.5704 Y1.1357
G2 X0.5581 Y1.123 I-0.0125 J-0.0002
G3 X0.4133 Y1.0099 I0.0025 J-0.1525 F30.38
G1 X0.3368 Y0.7235
X0.0504 Y0.6465
G3 X-0.0178 Y0.3914 I0.0396 J-0.1473
G1 X0.1028 Y0.2709
Z-0.1538
X0.2797 Y0.0943
Z-0.16 F30
X0.3921 Y-0.0179 F30.38
G3 X0.6472 Y0.0506 I0.1078 J0.1079
G1 X0.7237 Y0.3371
X1.01 Y0.414
G3 X1.0782 Y0.6692 I-0.0396 J0.1473
G1 X0.9756 Y0.7717
Z-0.1538
X0.7987 Y0.9483
Z-0.16 F30
X0.6684 Y1.0784 F30.38
G3 X0.5581 Y1.123 I-0.1078 J-0.1079
G2 X0.5454 Y1.1353 I-0.0002 J0.0125 F30
G1 X0.5452 Y1.1478
X0.5451 Y1.1506 Z-0.1597
Y1.1532 Z-0.1588
X0.545 Y1.1556 Z-0.1573
Y1.1576 Z-0.1553
Y1.1591 Z-0.1529
Y1.16 Z-0.1503
Y1.1603 Z-0.1475
X0.57 Y1.1607
Z-0.1725
Y1.1604 Z-0.1753
Y1.1595 Z-0.1779
Y1.158 Z-0.1803
Y1.156 Z-0.1823
X0.5701 Y1.1536 Z-0.1838
Y1.151 Z-0.1847
X0.5702 Y1.1482 Z-0.185
X0.5704 Y1.1357
G2 X0.5581 Y1.123 I-0.0125 J-0.0002
G3 X0.4133 Y1.0099 I0.0025 J-0.1525 F30.38
G1 X0.3368 Y0.7235
X0.0504 Y0.6465
G3 X-0.0178 Y0.3914 I0.0396 J-0.1473
G1 X0.1028 Y0.2709
Z-0.1538
X0.2797 Y0.0943
Z-0.185 F30
X0.3921 Y-0.0179 F30.38
G3 X0.6472 Y0.0506 I0.1078 J0.1079
G1 X0.7237 Y0.3371
X1.01 Y0.414
G3 X1.0782 Y0.6692 I-0.0396 J0.1473
G1 X0.9756 Y0.7717
Z-0.1538
X0.7987 Y0.9483
Z-0.185 F30
X0.6684 Y1.0784 F30.38
G3 X0.5581 Y1.123 I-0.1078 J-0.1079
G2 X0.5454 Y1.1353 I-0.0002 J0.0125 F30
G1 X0.5452 Y1.1478
X0.5451 Y1.1506 Z-0.1847
Y1.1532 Z-0.1838
X0.545 Y1.1556 Z-0.1823
Y1.1576 Z-0.1803
Y1.1591 Z-0.1779
Y1.16 Z-0.1753
Y1.1603 Z-0.1725
G0 Z0.6
M9
M30
%
