%
(InsertMonogram_part3)
(T1  D=0.125 CR=0 - ZMIN=-0.185 - flat end mill)
G90 G94
G17
G20

(2D Pocket3)
M9
T1 M6
S11028 M3
G54
M8
G0 X2.0122 Y4.4776
Z0.6
Z0.2
G1 Z0.1 F40.38
Z-0.0375
G2 X2.013 Y4.477 Z-0.0423 I-0.0068 J-0.0105
X2.015 Y4.4752 Z-0.0463 I-0.0075 J-0.01
X2.0171 Y4.4717 Z-0.049 I-0.0095 J-0.0081
X2.018 Y4.467 Z-0.05 I-0.0116 J-0.0047
G1 Y3.9285
G2 X2.0097 Y3.911 I-0.0226
G3 X1.975 Y3.8815 I0.6617 J-0.8104
G2 X1.9664 Y3.8854 I-0.0035 J0.0039
G1 Y4.5108
G2 X1.9766 Y4.5153 I0.0061
G3 X2.01 Y4.4857 I0.7878 J0.8538
G2 X2.018 Y4.4685 I-0.0147 J-0.0172
G1 Y4.467
G3 X2.0443 Y4.4275 I0.0429
G2 X2.0707 Y4.3879 I-0.0165 J-0.0396
G1 Y3.9102
G2 X2.0566 Y3.8811 I-0.0371
G3 X1.9227 Y3.754 I0.6351 J-0.8037
G2 X1.9136 Y3.7575 I-0.0039 J0.0034
G1 Y4.6434
G2 X1.9234 Y4.647 I0.0056
G3 X2.0566 Y4.5155 I0.8094 J0.6868
G2 X2.0707 Y4.4855 I-0.0249 J-0.0301
G1 Y4.3879
G3 X2.1093 Y4.3301 I0.0626
G2 X2.1478 Y4.2723 I-0.0241 J-0.0578
G1 Y3.8701
G2 X2.134 Y3.843 I-0.0334
G3 X1.8437 Y3.4982 I0.5492 J-0.7569
G2 X1.8365 Y3.4998 I-0.0034 J0.0017
G1 Y4.9056
G2 X1.8453 Y4.9076 I0.0046
G3 X2.1339 Y4.5524 I0.8878 J0.4266
G2 X2.1478 Y4.5244 I-0.0215 J-0.028
G1 Y4.2723
G2 X2.1469 Y4.2677 Z-0.049 I-0.0125
X2.1448 Y4.2642 Z-0.0463 I-0.0116 J0.0047
X2.1428 Y4.2624 Z-0.0423 I-0.0095 J0.0081
X2.142 Y4.2618 Z-0.0375 I-0.0075 J0.01
G0 Z0.2
X1.8705 Y6.5237
G1 Z0.1 F40.38
Z-0.0375
G2 X1.8709 Y6.5228 Z-0.0423 I-0.011 J-0.0059
X1.8717 Y6.5202 Z-0.0463 I-0.0114 J-0.0051
X1.8719 Y6.5162 Z-0.049 I-0.0122 J-0.0025
X1.8704 Y6.5117 Z-0.05 I-0.0124 J0.0015
G3 X1.8437 Y6.4597 I0.8522 J-0.4702
G2 X1.8365 Y6.4613 I-0.0034 J0.0016
G1 Y6.5259
G2 X1.8491 Y6.5385 I0.0125
G1 X1.8732
G2 X1.8794 Y6.5276 J-0.0072
G3 X1.8704 Y6.5117 I0.8432 J-0.4862
G2 X1.8674 Y6.508 Z-0.049 I-0.0109 J0.006
X1.8639 Y6.506 Z-0.0463 I-0.0079 J0.0097
X1.8613 Y6.5053 Z-0.0423 I-0.0044 J0.0117
X1.8603 Y6.5052 Z-0.0375 I-0.0018 J0.0124
G0 Z0.2
X1.8444 Y1.8571
G1 Z0.1 F40.38
Z-0.0375
G2 X1.8454 Y1.857 Z-0.0423 I-0.0011 J-0.0125
X1.848 Y1.8563 Z-0.0463 I-0.002 J-0.0123
X1.8514 Y1.8542 Z-0.049 I-0.0046 J-0.0116
X1.8544 Y1.8505 Z-0.05 I-0.0081 J-0.0095
G3 X1.8558 Y1.8479 I0.8189 J0.4292
G2 X1.8491 Y1.8369 I-0.0066 J-0.0035
G1 X1.8461
G2 X1.8369 Y1.8461 J0.0092
G1 Y1.8655
G2 X1.8457 Y1.8676 I0.0046
G3 X1.8544 Y1.8505 I0.8276 J0.4121
X1.9115 Y1.8202 I0.0506 J0.0265
G2 X1.9703 Y1.7934 I0.0071 J-0.0624
G3 X1.9813 Y1.7777 I0.7344 J0.5057
G2 X1.9758 Y1.767 I-0.0055 J-0.004
G1 X1.7796
G2 X1.767 Y1.7796 J0.0126
G1 Y6.5952
G2 X1.7798 Y6.608 I0.0128
G1 X2.0046
G2 X2.0098 Y6.5974 J-0.0066
G3 X1.8658 Y6.3325 I0.7367 J-0.5719
X1.8155 Y6.0352 I0.8526 J-0.2973
G1 Y5.3335
G3 X1.9189 Y4.9135 I0.9046
X2.2033 Y4.5876 I0.8238 J0.4318
G2 X2.2173 Y4.5605 I-0.0193 J-0.0271
G1 Y3.8327
G2 X2.2033 Y3.8066 I-0.0314
G3 X1.8155 Y3.0852 I0.4848 J-0.7256
G1 Y2.2838
G3 X1.8586 Y2.0177 I0.8433
X1.9703 Y1.7934 I0.8461 J0.2814
X2.0142 Y1.7764 I0.0344 J0.0237
G2 X2.0589 Y1.7615 I0.0102 J-0.0439
G3 X2.0907 Y1.7259 I0.6315 J0.5313
G2 X2.0863 Y1.7156 I-0.0044 J-0.0042
G1 X1.7282
G2 X1.7156 Y1.7282 J0.0126
G1 Y6.6466
G2 X1.7284 Y6.6594 I0.0128
G1 X2.12
G2 X2.1242 Y6.6493 J-0.0059
G3 X1.9344 Y6.3679 I0.6237 J-0.6255
X1.8669 Y6.0352 I0.7865 J-0.3326
G1 Y5.3335
G3 X1.9706 Y4.9254 I0.8553
X2.2547 Y4.6146 I0.7682 J0.4171
G2 X2.2687 Y4.5885 I-0.0173 J-0.0261
G1 Y3.8036
G2 X2.2548 Y3.7786 I-0.0294
G3 X1.8669 Y3.0811 I0.4331 J-0.6975
G1 Y2.2838
G3 X1.9254 Y1.9834 I0.8013
X2.0589 Y1.7615 I0.7651 J0.3094
X2.1298 Y1.7421 I0.0495 J0.0417
G2 X2.202 Y1.7284 I0.0242 J-0.0694
G3 X2.3193 Y1.6455 I0.4862 J0.5637
G2 X2.3169 Y1.6365 I-0.0024 J-0.0042
G1 X1.6489
G2 X1.6365 Y1.6489 J0.0124
G1 Y6.7259
G2 X1.6491 Y6.7385 I0.0125
G1 X2.3626
G2 X2.3648 Y6.7296 J-0.0047
G3 X1.946 Y6.0352 I0.3687 J-0.6959
G1 Y5.3335
G3 X2.3341 Y4.6581 I0.7817
G2 X2.3478 Y4.6342 I-0.014 J-0.0239
G1 Y3.7559
G2 X2.3343 Y3.7333 I-0.0257
G3 X1.946 Y3.0852 I0.3525 J-0.6515
G1 Y2.2838
G3 X2.0467 Y1.9144 I0.7281
X2.202 Y1.7284 I0.6415 J0.3777
X2.2652 Y1.7214 I0.0367 J0.0425
G2 X2.3288 Y1.7192 I0.0299 J-0.0558
G3 X2.6843 Y1.6174 I0.3541 J0.5646
G1 X3.2055 Y1.6192
G2 X3.2182 Y1.6064 J-0.0128
G1 Y1.5788
G2 X3.2055 Y1.5661 I-0.0128
G1 X1.5787
G2 X1.5661 Y1.5787 J0.0126
G1 Y6.7962
G2 X1.5788 Y6.8089 I0.0128
G1 X3.2099
G2 X3.2227 Y6.7962 J-0.0128
G1 Y6.7641
G2 X3.2099 Y6.7513 I-0.0128
G1 X2.7343 Y6.7531
G3 X2.0164 Y6.0352 J-0.7179
G1 Y5.3335
G3 X2.1218 Y4.9623 I0.7064
X2.4045 Y4.6996 I0.6182 J0.3818
G2 X2.4182 Y4.677 I-0.0118 J-0.0226
G1 Y3.7111
G2 X2.4046 Y3.6897 I-0.0235
G3 X2.0164 Y3.0852 I0.2808 J-0.6071
G1 Y2.2838
G3 X2.3288 Y1.7192 I0.6665
X2.3792 Y1.7213 I0.0237 J0.0378
G2 X2.4293 Y1.7267 I0.0296 J-0.0397
G3 X2.6843 Y1.6717 I0.2536 J0.5572
G1 X3.2598 Y1.6735
G2 X3.2725 Y1.6607 J-0.0128
G1 Y1.5245
G2 X3.2598 Y1.5118 I-0.0128
G1 X1.5244
G2 X1.5118 Y1.5244 J0.0126
G1 Y6.8505
G2 X1.5245 Y6.8632 I0.0128
G1 X3.2642
G2 X3.277 Y6.8505 J-0.0128
G1 Y6.7098
G2 X3.2642 Y6.697 I-0.0128
G1 X2.7343 Y6.6988
G3 X2.0707 Y6.0352 J-0.6636
G1 Y5.3335
G3 X2.1768 Y4.9766 I0.6534
X2.4589 Y4.7335 I0.5613 J0.366
G2 X2.4725 Y4.7122 I-0.0097 J-0.0213
G1 Y3.6739
G2 X2.459 Y3.654 I-0.0214
G3 X2.0707 Y3.0852 I0.2261 J-0.5712
G1 Y2.2838
G3 X2.4293 Y1.7267 I0.6122
X2.5237 Y1.7447 I0.0345 J0.0757
G2 X2.6144 Y1.7763 I0.0765 J-0.0736
G3 X2.6843 Y1.7717 I0.0685 J0.5075
G1 X3.3598 Y1.7735
G2 X3.3726 Y1.7607 J-0.0128
G1 Y1.4245
G2 X3.3598 Y1.4117 I-0.0128
G1 X1.4244
G2 X1.4117 Y1.4244 J0.0126
G1 Y6.9505
G2 X1.4245 Y6.9633 I0.0128
G1 X3.3643
G2 X3.377 Y6.9505 J-0.0128
G1 Y6.6098
G2 X3.3643 Y6.597 I-0.0128
G1 X2.7343 Y6.5988
G3 X2.1708 Y6.0352 J-0.5635
G1 Y5.3335
G3 X2.2789 Y5.0046 I0.5542
X2.5592 Y4.8015 I0.4591 J0.3385
G2 X2.5726 Y4.783 I-0.0061 J-0.0185
G1 Y3.5985
G2 X2.5594 Y3.5815 I-0.0175
G3 X2.2799 Y3.4 I0.1275 J-0.5023
X2.1708 Y3.0852 I0.3993 J-0.3148
G1 Y2.2838
G3 X2.6144 Y1.7763 I0.5121
X2.6976 Y1.8213 I0.0107 J0.0796
G2 X2.7776 Y1.8719 I0.0802 J-0.0382
G1 X3.4598 Y1.8735
G2 X3.4726 Y1.8607 J-0.0128
G1 Y1.3245
G2 X3.4598 Y1.3117 I-0.0128
G1 X1.3243
G2 X1.3117 Y1.3243 J0.0126
G1 Y7.0505
G2 X1.3245 Y7.0633 I0.0128
G1 X3.4643
G2 X3.4771 Y7.0505 J-0.0128
G1 X3.4764 Y6.5312
G3 X3.4768 Y6.5203 I0.1253
G2 X3.4776 Y6.5095 I-0.3513 J-0.0306
X3.4658 Y6.497 I-0.0118 J-0.0007
G1 X2.7343 Y6.4988
G3 X2.2708 Y6.0352 J-0.4635
G1 Y5.3335
G3 X2.3817 Y5.0351 I0.4568
X2.6595 Y4.8796 I0.3528 J0.3045
G2 X2.6726 Y4.8643 I-0.0025 J-0.0153
G1 Y3.5098
G2 X2.6598 Y3.4962 I-0.0136
G3 X2.2708 Y3.0852 I0.0232 J-0.4115
G1 Y2.2838
G3 X2.6843 Y1.8717 I0.4121
G1 X2.7776 Y1.8719
G3 X2.8504 Y1.9206 I-0.0002 J0.0789
G2 X2.9231 Y1.9693 I0.0729 J-0.0302
G1 X3.5595 Y1.9706
G2 X3.5707 Y1.9584 J-0.0113
X3.5696 Y1.9468 I-0.5341 J0.0456
G3 X3.569 Y1.9352 I0.1081 J-0.0116
G1 X3.5697 Y1.2274
G2 X3.557 Y1.2146 I-0.0128
G1 X1.2272
G2 X1.2146 Y1.2272 J0.0126
G1 Y7.1476
G2 X1.2274 Y7.1604 I0.0128
G1 X3.5614
G2 X3.5742 Y7.1476 J-0.0128
G1 X3.5724 Y6.5312
G3 X3.5793 Y6.47 I0.2761
X3.5979 Y6.4113 I0.3558 J0.0809
G2 X3.5903 Y6.3998 I-0.0077 J-0.0032
G1 X2.7343 Y6.4016
G3 X2.3679 Y6.0352 J-0.3664
G1 Y5.3335
G3 X2.4758 Y5.0758 I0.3616
X2.7343 Y4.9699 I0.2585 J0.2625
X2.7456 Y4.9703 J0.1813
G2 X2.757 Y4.9706 I0.0113 J-0.1809
X2.7697 Y4.9579 J-0.0128
G1 Y3.4126
G2 X2.757 Y3.3998 I-0.0128
X2.7206 Y3.4007 J0.7333
G3 X2.6843 Y3.4016 I-0.0363 J-0.7324
X2.3679 Y3.0852 J-0.3164
G1 Y2.2838
G3 X2.6843 Y1.9688 I0.315
G1 X2.9231 Y1.9693
G3 X2.989 Y2.0135 I-0.0001 J0.0716
G2 X3.055 Y2.0576 I0.0661 J-0.0274
G1 X3.6943 Y2.0587
G2 X3.699 Y2.0486 J-0.0062
G3 X3.6675 Y1.9957 I0.1442 J-0.1218
X3.6561 Y1.9352 I0.1541 J-0.0605
G1 X3.6578 Y1.139
G2 X3.6453 Y1.1265 I-0.0125
G1 X1.1388
G2 X1.1265 Y1.1388 J0.0124
G1 Y7.236
G2 X1.139 Y7.2485 I0.0125
G1 X3.6498
G2 X3.6623 Y7.236 J-0.0125
G1 X3.6605 Y6.5312
G3 X3.7008 Y6.4029 I0.2245
X3.8067 Y6.3201 I0.1873 J0.1304
G2 X3.8051 Y6.3117 I-0.0015 J-0.0041
G1 X2.7343 Y6.3135
G3 X2.4561 Y6.0352 J-0.2782
G1 Y5.3335
G3 X2.5379 Y5.1376 I0.2753
X2.7343 Y5.057 I0.1964 J0.1989
X2.7898 Y5.0579 J1.7465
G2 X2.8453 Y5.0588 I0.0555 J-1.7456
X2.8578 Y5.0462 J-0.0125
G1 Y3.3242
G2 X2.8453 Y3.3117 I-0.0125
X2.7648 Y3.3126 J3.6739
G3 X2.6843 Y3.3135 I-0.0805 J-3.673
X2.4561 Y3.0852 J-0.2282
G1 Y2.2838
G3 X2.5232 Y2.1231 I0.2259
X2.6843 Y2.057 I0.1611 J0.1631
G1 X3.055 Y2.0576
G3 X3.1038 Y2.0902 I-0.0001 J0.0529
G2 X3.1525 Y2.1227 I0.0488 J-0.0203
G1 X4.2218
Y2.0477
X3.8343
G3 X3.7218 Y1.9352 J-0.1125
G1 Y1.0625
X1.0625
Y7.3125
X3.7263
Y6.5312
G3 X3.8888 Y6.3687 I0.1625
G1 X4.1843
G2 X4.2218 Y6.3312 J-0.0375
G1 Y6.2477
X2.7343
G3 X2.5218 Y6.0352 J-0.2125
G1 Y5.3352
G3 X2.7343 Y5.1227 I0.2125
G1 X2.9218
Y3.2852
G2 X2.8843 Y3.2477 I-0.0375
G1 X2.6843
G3 X2.5218 Y3.0852 J-0.1625
G1 Y2.2852
G3 X2.6843 Y2.1227 I0.1625
G1 X3.1525
G2 X3.1539 Y2.1069 J-0.008
G1 X1.8437 Y1.873
G3 X1.8444 Y1.8571 I0.0014 J-0.0079
G1 Z-0.0875
G2 X1.8454 Y1.857 Z-0.0923 I-0.0011 J-0.0125
X1.848 Y1.8563 Z-0.0963 I-0.002 J-0.0123
X1.8514 Y1.8542 Z-0.099 I-0.0046 J-0.0116
X1.8544 Y1.8505 Z-0.1 I-0.0081 J-0.0095
G3 X1.8558 Y1.8479 I0.8189 J0.4292
G2 X1.8491 Y1.8369 I-0.0066 J-0.0035
G1 X1.8461
G2 X1.8369 Y1.8461 J0.0092
G1 Y1.8655
G2 X1.8457 Y1.8676 I0.0046
G3 X1.8544 Y1.8505 I0.8276 J0.4121
X1.8558 Y1.8479 Z-0.0996 I0.8189 J0.4292
G2 X1.8565 Y1.8431 Z-0.0972 I-0.0066 J-0.0035
X1.8552 Y1.84 Z-0.0929 I-0.0074 J0.0013
X1.8544 Y1.8391 Z-0.0875 I-0.0061 J0.0044
G0 Z0.2
X2.0122 Y4.4776
G1 Z0.05 F40.38
Z-0.0875
G2 X2.013 Y4.477 Z-0.0923 I-0.0068 J-0.0105
X2.015 Y4.4752 Z-0.0963 I-0.0075 J-0.01
X2.0171 Y4.4717 Z-0.099 I-0.0095 J-0.0081
X2.018 Y4.467 Z-0.1 I-0.0116 J-0.0047
G1 Y3.9285
G2 X2.0097 Y3.911 I-0.0226
G3 X1.975 Y3.8815 I0.6617 J-0.8104
G2 X1.9664 Y3.8854 I-0.0035 J0.0039
G1 Y4.5108
G2 X1.9766 Y4.5153 I0.0061
G3 X2.01 Y4.4857 I0.7878 J0.8538
G2 X2.018 Y4.4685 I-0.0147 J-0.0172
G1 Y4.467
G3 X2.0443 Y4.4275 I0.0429
G2 X2.0707 Y4.3879 I-0.0165 J-0.0396
G1 Y3.9102
G2 X2.0566 Y3.8811 I-0.0371
G3 X1.9227 Y3.754 I0.6351 J-0.8037
G2 X1.9136 Y3.7575 I-0.0039 J0.0034
G1 Y4.6434
G2 X1.9234 Y4.647 I0.0056
G3 X2.0566 Y4.5155 I0.8094 J0.6868
G2 X2.0707 Y4.4855 I-0.0249 J-0.0301
G1 Y4.3879
G3 X2.1093 Y4.3301 I0.0626
G2 X2.1478 Y4.2723 I-0.0241 J-0.0578
G1 Y3.8701
G2 X2.134 Y3.843 I-0.0334
G3 X1.8437 Y3.4982 I0.5492 J-0.7569
G2 X1.8365 Y3.4998 I-0.0034 J0.0017
G1 Y4.9056
G2 X1.8453 Y4.9076 I0.0046
G3 X2.1339 Y4.5524 I0.8878 J0.4266
G2 X2.1478 Y4.5244 I-0.0215 J-0.028
G1 Y4.2723
G2 X2.1469 Y4.2677 Z-0.099 I-0.0125
X2.1448 Y4.2642 Z-0.0963 I-0.0116 J0.0047
X2.1428 Y4.2624 Z-0.0923 I-0.0095 J0.0081
X2.142 Y4.2618 Z-0.0875 I-0.0075 J0.01
G0 Z0.2
X1.8705 Y6.5237
G1 Z0.05 F40.38
Z-0.0875
G2 X1.8709 Y6.5228 Z-0.0923 I-0.011 J-0.0059
X1.8717 Y6.5202 Z-0.0963 I-0.0114 J-0.0051
X1.8719 Y6.5162 Z-0.099 I-0.0122 J-0.0025
X1.8704 Y6.5117 Z-0.1 I-0.0124 J0.0015
G3 X1.8437 Y6.4597 I0.8522 J-0.4702
G2 X1.8365 Y6.4613 I-0.0034 J0.0016
G1 Y6.5259
G2 X1.8491 Y6.5385 I0.0125
G1 X1.8732
G2 X1.8794 Y6.5276 J-0.0072
G3 X1.8704 Y6.5117 I0.8432 J-0.4862
X1.8764 Y6.448 I0.0498 J-0.0275
G2 X1.8858 Y6.3847 I-0.0477 J-0.0394
G3 X1.8658 Y6.3325 I0.8607 J-0.3593
X1.8155 Y6.0352 I0.8526 J-0.2973
G1 Y5.3335
G3 X1.9189 Y4.9135 I0.9046
X2.2033 Y4.5876 I0.8238 J0.4318
G2 X2.2173 Y4.5605 I-0.0193 J-0.0271
G1 Y3.8327
G2 X2.2033 Y3.8066 I-0.0314
G3 X1.8155 Y3.0852 I0.4848 J-0.7256
G1 Y2.2838
G3 X1.8586 Y2.0177 I0.8433
X1.9813 Y1.7777 I0.8461 J0.2814
G2 X1.9758 Y1.767 I-0.0055 J-0.004
G1 X1.7796
G2 X1.767 Y1.7796 J0.0126
G1 Y6.5952
G2 X1.7798 Y6.608 I0.0128
G1 X2.0046
G2 X2.0098 Y6.5974 J-0.0066
G3 X1.8858 Y6.3847 I0.7367 J-0.5719
X1.8952 Y6.3385 I0.0388 J-0.0162
G2 X1.9067 Y6.2927 I-0.0314 J-0.0322
G3 X1.8669 Y6.0352 I0.8142 J-0.2575
G1 Y5.3335
G3 X1.9706 Y4.9254 I0.8553
X2.2547 Y4.6146 I0.7682 J0.4171
G2 X2.2687 Y4.5885 I-0.0173 J-0.0261
G1 Y3.8036
G2 X2.2548 Y3.7786 I-0.0294
G3 X1.8669 Y3.0811 I0.4331 J-0.6975
G1 Y2.2838
G3 X1.9254 Y1.9834 I0.8013
X2.0907 Y1.7259 I0.7651 J0.3094
G2 X2.0863 Y1.7156 I-0.0044 J-0.0042
G1 X1.7282
G2 X1.7156 Y1.7282 J0.0126
G1 Y6.6466
G2 X1.7284 Y6.6594 I0.0128
G1 X2.12
G2 X2.1242 Y6.6493 J-0.0059
G3 X1.9344 Y6.3679 I0.6237 J-0.6255
X1.9067 Y6.2927 I0.7865 J-0.3326
X1.9283 Y6.2223 I0.0619 J-0.0196
G2 X1.9552 Y6.1536 I-0.0455 J-0.0575
G3 X1.946 Y6.0352 I0.7783 J-0.1199
G1 Y5.3335
G3 X2.3341 Y4.6581 I0.7817
G2 X2.3478 Y4.6342 I-0.014 J-0.0239
G1 Y3.7559
G2 X2.3343 Y3.7333 I-0.0257
G3 X1.946 Y3.0852 I0.3525 J-0.6515
G1 Y2.2838
G3 X2.0467 Y1.9144 I0.7281
X2.3193 Y1.6455 I0.6415 J0.3777
G2 X2.3169 Y1.6365 I-0.0024 J-0.0042
G1 X1.6489
G2 X1.6365 Y1.6489 J0.0124
G1 Y6.7259
G2 X1.6491 Y6.7385 I0.0125
G1 X2.3626
G2 X2.3648 Y6.7296 J-0.0047
G3 X1.9552 Y6.1536 I0.3687 J-0.6959
X1.9837 Y6.0947 I0.057 J-0.0088
G2 X2.0164 Y6.0381 I-0.0321 J-0.0564
G3 Y6.0352 I0.7179 J-0.0028
G1 Y5.3335
G3 X2.1218 Y4.9623 I0.7064
X2.4045 Y4.6996 I0.6182 J0.3818
G2 X2.4182 Y4.677 I-0.0118 J-0.0226
G1 Y3.7111
G2 X2.4046 Y3.6897 I-0.0235
G3 X2.0164 Y3.0852 I0.2808 J-0.6071
G1 Y2.2838
G3 X2.6843 Y1.6174 I0.6665
G1 X3.2055 Y1.6192
G2 X3.2182 Y1.6064 J-0.0128
G1 Y1.5788
G2 X3.2055 Y1.5661 I-0.0128
G1 X1.5787
G2 X1.5661 Y1.5787 J0.0126
G1 Y6.7962
G2 X1.5788 Y6.8089 I0.0128
G1 X3.2099
G2 X3.2227 Y6.7962 J-0.0128
G1 Y6.7641
G2 X3.2099 Y6.7513 I-0.0128
G1 X2.7343 Y6.7531
G3 X2.0164 Y6.0381 J-0.7179
X2.0436 Y5.9972 I0.044 J-0.0002
G2 X2.0707 Y5.9564 I-0.0171 J-0.0408
G1 Y5.3335
G3 X2.1768 Y4.9766 I0.6534
X2.4589 Y4.7335 I0.5613 J0.366
G2 X2.4725 Y4.7122 I-0.0097 J-0.0213
G1 Y3.6739
G2 X2.459 Y3.654 I-0.0214
G3 X2.0707 Y3.0852 I0.2261 J-0.5712
G1 Y2.2838
G3 X2.6843 Y1.6717 I0.6122
G1 X3.2598 Y1.6735
G2 X3.2725 Y1.6607 J-0.0128
G1 Y1.5245
G2 X3.2598 Y1.5118 I-0.0128
G1 X1.5244
G2 X1.5118 Y1.5244 J0.0126
G1 Y6.8505
G2 X1.5245 Y6.8632 I0.0128
G1 X3.2642
G2 X3.277 Y6.8505 J-0.0128
G1 Y6.7098
G2 X3.2642 Y6.697 I-0.0128
G1 X2.7343 Y6.6988
G3 X2.0707 Y6.0352 J-0.6636
G1 Y5.9564
G3 X2.1208 Y5.8814 I0.0813
G2 X2.1708 Y5.8064 I-0.0313 J-0.075
G1 Y5.3335
G3 X2.2789 Y5.0046 I0.5542
X2.5592 Y4.8015 I0.4591 J0.3385
G2 X2.5726 Y4.783 I-0.0061 J-0.0185
G1 Y3.5985
G2 X2.5594 Y3.5815 I-0.0175
G3 X2.2799 Y3.4 I0.1275 J-0.5023
X2.1708 Y3.0852 I0.3993 J-0.3148
G1 Y2.2838
G3 X2.6843 Y1.7717 I0.5121
G1 X3.3598 Y1.7735
G2 X3.3726 Y1.7607 J-0.0128
G1 Y1.4245
G2 X3.3598 Y1.4117 I-0.0128
G1 X1.4244
G2 X1.4117 Y1.4244 J0.0126
G1 Y6.9505
G2 X1.4245 Y6.9633 I0.0128
G1 X3.3643
G2 X3.377 Y6.9505 J-0.0128
G1 Y6.6098
G2 X3.3643 Y6.597 I-0.0128
G1 X2.7343 Y6.5988
G3 X2.1708 Y6.0352 J-0.5635
G1 Y5.8064
G3 X2.2208 Y5.7313 I0.0813
G2 X2.2708 Y5.6563 I-0.0313 J-0.075
G1 Y5.3335
G3 X2.3817 Y5.0351 I0.4568
X2.6595 Y4.8796 I0.3528 J0.3045
G2 X2.6726 Y4.8643 I-0.0025 J-0.0153
G1 Y3.5098
G2 X2.6598 Y3.4962 I-0.0136
G3 X2.2708 Y3.0852 I0.0232 J-0.4115
G1 Y2.2838
G3 X2.6843 Y1.8717 I0.4121
G1 X3.4598 Y1.8735
G2 X3.4726 Y1.8607 J-0.0128
G1 Y1.3245
G2 X3.4598 Y1.3117 I-0.0128
G1 X1.3243
G2 X1.3117 Y1.3243 J0.0126
G1 Y7.0505
G2 X1.3245 Y7.0633 I0.0128
G1 X3.4643
G2 X3.4771 Y7.0505 J-0.0128
G1 X3.4764 Y6.5312
G3 X3.4768 Y6.5203 I0.1253
G2 X3.4776 Y6.5095 I-0.3513 J-0.0306
X3.4658 Y6.497 I-0.0118 J-0.0007
G1 X2.7343 Y6.4988
G3 X2.2708 Y6.0352 J-0.4635
G1 Y5.6563
G3 X2.3194 Y5.5835 I0.0789
G2 X2.3679 Y5.5106 I-0.0304 J-0.0728
G1 Y5.3335
G3 X2.4758 Y5.0758 I0.3616
X2.7343 Y4.9699 I0.2585 J0.2625
X2.7456 Y4.9703 J0.1813
G2 X2.757 Y4.9706 I0.0113 J-0.1809
X2.7697 Y4.9579 J-0.0128
G1 Y3.4126
G2 X2.757 Y3.3998 I-0.0128
X2.7206 Y3.4007 J0.7333
G3 X2.6843 Y3.4016 I-0.0363 J-0.7324
X2.3679 Y3.0852 J-0.3164
G1 Y2.2838
G3 X2.6843 Y1.9688 I0.315
G1 X3.5595 Y1.9706
G2 X3.5707 Y1.9584 J-0.0113
X3.5696 Y1.9468 I-0.5341 J0.0456
G3 X3.569 Y1.9352 I0.1081 J-0.0116
G1 X3.5697 Y1.2274
G2 X3.557 Y1.2146 I-0.0128
G1 X1.2272
G2 X1.2146 Y1.2272 J0.0126
G1 Y7.1476
G2 X1.2274 Y7.1604 I0.0128
G1 X3.5614
G2 X3.5742 Y7.1476 J-0.0128
G1 X3.5724 Y6.5312
G3 X3.5793 Y6.47 I0.2761
X3.5979 Y6.4113 I0.3558 J0.0809
G2 X3.5903 Y6.3998 I-0.0077 J-0.0032
G1 X2.7343 Y6.4016
G3 X2.3679 Y6.0352 J-0.3664
G1 Y5.5106
G3 X2.412 Y5.4445 I0.0716
G2 X2.4561 Y5.3784 I-0.0275 J-0.0661
G1 Y5.3335
G3 X2.5379 Y5.1376 I0.2753
X2.7343 Y5.057 I0.1964 J0.1989
X2.7898 Y5.0579 J1.7465
G2 X2.8453 Y5.0588 I0.0555 J-1.7456
X2.8578 Y5.0462 J-0.0125
G1 Y3.3242
G2 X2.8453 Y3.3117 I-0.0125
X2.7648 Y3.3126 J3.6739
G3 X2.6843 Y3.3135 I-0.0805 J-3.673
X2.4561 Y3.0852 J-0.2282
G1 Y2.2838
G3 X2.5232 Y2.1231 I0.2259
X2.6843 Y2.057 I0.1611 J0.1631
G1 X3.6943 Y2.0587
G2 X3.699 Y2.0486 J-0.0062
G3 X3.6675 Y1.9957 I0.1442 J-0.1218
X3.6561 Y1.9352 I0.1541 J-0.0605
G1 X3.6578 Y1.139
G2 X3.6453 Y1.1265 I-0.0125
G1 X1.1388
G2 X1.1265 Y1.1388 J0.0124
G1 Y7.236
G2 X1.139 Y7.2485 I0.0125
G1 X3.6498
G2 X3.6623 Y7.236 J-0.0125
G1 X3.6605 Y6.5312
G3 X3.7008 Y6.4029 I0.2245
X3.8067 Y6.3201 I0.1873 J0.1304
G2 X3.8051 Y6.3117 I-0.0015 J-0.0041
G1 X2.7343 Y6.3135
G3 X2.4561 Y6.0352 J-0.2782
G1 Y5.3784
G3 X2.4893 Y5.327 I0.0563
G2 X2.529 Y5.2804 I-0.0291 J-0.065
G3 X2.7343 Y5.1227 I0.2053 J0.0548
G1 X2.9218
Y3.2852
G2 X2.8843 Y3.2477 I-0.0375
G1 X2.6843
G3 X2.5218 Y3.0852 J-0.1625
G1 Y2.2852
G3 X2.6843 Y2.1227 I0.1625
G1 X4.2218
Y2.0477
X3.8343
G3 X3.7218 Y1.9352 J-0.1125
G1 Y1.0625
X1.0625
Y7.3125
X3.7263
Y6.5312
G3 X3.8888 Y6.3687 I0.1625
G1 X4.1843
G2 X4.2218 Y6.3312 J-0.0375
G1 Y6.2477
X2.7343
G3 X2.5218 Y6.0352 J-0.2125
G1 Y5.3352
G3 X2.529 Y5.2804 I0.2125
G2 X2.528 Y5.274 I-0.0077 J-0.0021
G1 X2.0099 Y4.4887
G3 X2.0122 Y4.4776 I0.0067 J-0.0044
G1 Z-0.1375
G2 X2.013 Y4.477 Z-0.1423 I-0.0068 J-0.0105
X2.015 Y4.4752 Z-0.1463 I-0.0075 J-0.01
X2.0171 Y4.4717 Z-0.149 I-0.0095 J-0.0081
X2.018 Y4.467 Z-0.15 I-0.0116 J-0.0047
G1 Y3.9285
G2 X2.0097 Y3.911 I-0.0226
G3 X1.975 Y3.8815 I0.6617 J-0.8104
G2 X1.9664 Y3.8854 I-0.0035 J0.0039
G1 Y4.5108
G2 X1.9766 Y4.5153 I0.0061
G3 X2.01 Y4.4857 I0.7878 J0.8538
G2 X2.018 Y4.4685 I-0.0147 J-0.0172
G1 Y4.467
G3 X2.0443 Y4.4275 I0.0429
G2 X2.0707 Y4.3879 I-0.0165 J-0.0396
G1 Y3.9102
G2 X2.0566 Y3.8811 I-0.0371
G3 X1.9227 Y3.754 I0.6351 J-0.8037
G2 X1.9136 Y3.7575 I-0.0039 J0.0034
G1 Y4.6434
G2 X1.9234 Y4.647 I0.0056
G3 X2.0566 Y4.5155 I0.8094 J0.6868
G2 X2.0707 Y4.4855 I-0.0249 J-0.0301
G1 Y4.3879
G3 X2.1093 Y4.3301 I0.0626
G2 X2.1478 Y4.2723 I-0.0241 J-0.0578
G1 Y3.8701
G2 X2.134 Y3.843 I-0.0334
G3 X1.8437 Y3.4982 I0.5492 J-0.7569
G2 X1.8365 Y3.4998 I-0.0034 J0.0017
G1 Y4.9056
G2 X1.8453 Y4.9076 I0.0046
G3 X2.1339 Y4.5524 I0.8878 J0.4266
G2 X2.1478 Y4.5244 I-0.0215 J-0.028
G1 Y4.2723
G2 X2.1469 Y4.2677 Z-0.149 I-0.0125
X2.1448 Y4.2642 Z-0.1463 I-0.0116 J0.0047
X2.1428 Y4.2624 Z-0.1423 I-0.0095 J0.0081
X2.142 Y4.2618 Z-0.1375 I-0.0075 J0.01
G0 Z0.2
X1.8705 Y6.5237
G1 Z0 F40.38
Z-0.1375
G2 X1.8709 Y6.5228 Z-0.1423 I-0.011 J-0.0059
X1.8717 Y6.5202 Z-0.1463 I-0.0114 J-0.0051
X1.8719 Y6.5162 Z-0.149 I-0.0122 J-0.0025
X1.8704 Y6.5117 Z-0.15 I-0.0124 J0.0015
G3 X1.8437 Y6.4597 I0.8522 J-0.4702
G2 X1.8365 Y6.4613 I-0.0034 J0.0016
G1 Y6.5259
G2 X1.8491 Y6.5385 I0.0125
G1 X1.8732
G2 X1.8794 Y6.5276 J-0.0072
G3 X1.8704 Y6.5117 I0.8432 J-0.4862
G2 X1.8674 Y6.508 Z-0.149 I-0.0109 J0.006
X1.8639 Y6.506 Z-0.1463 I-0.0079 J0.0097
X1.8613 Y6.5053 Z-0.1423 I-0.0044 J0.0117
X1.8603 Y6.5052 Z-0.1375 I-0.0018 J0.0124
G0 Z0.2
X1.8444 Y1.8571
G1 Z0 F40.38
Z-0.1375
G2 X1.8454 Y1.857 Z-0.1423 I-0.0011 J-0.0125
X1.848 Y1.8563 Z-0.1463 I-0.002 J-0.0123
X1.8514 Y1.8542 Z-0.149 I-0.0046 J-0.0116
X1.8544 Y1.8505 Z-0.15 I-0.0081 J-0.0095
G3 X1.8558 Y1.8479 I0.8189 J0.4292
G2 X1.8491 Y1.8369 I-0.0066 J-0.0035
G1 X1.8461
G2 X1.8369 Y1.8461 J0.0092
G1 Y1.8655
G2 X1.8457 Y1.8676 I0.0046
G3 X1.8544 Y1.8505 I0.8276 J0.4121
X1.9115 Y1.8202 I0.0506 J0.0265
G2 X1.9703 Y1.7934 I0.0071 J-0.0624
G3 X1.9813 Y1.7777 I0.7344 J0.5057
G2 X1.9758 Y1.767 I-0.0055 J-0.004
G1 X1.7796
G2 X1.767 Y1.7796 J0.0126
G1 Y6.5952
G2 X1.7798 Y6.608 I0.0128
G1 X2.0046
G2 X2.0098 Y6.5974 J-0.0066
G3 X1.8658 Y6.3325 I0.7367 J-0.5719
X1.8155 Y6.0352 I0.8526 J-0.2973
G1 Y5.3335
G3 X1.9189 Y4.9135 I0.9046
X2.2033 Y4.5876 I0.8238 J0.4318
G2 X2.2173 Y4.5605 I-0.0193 J-0.0271
G1 Y3.8327
G2 X2.2033 Y3.8066 I-0.0314
G3 X1.8155 Y3.0852 I0.4848 J-0.7256
G1 Y2.2838
G3 X1.8586 Y2.0177 I0.8433
X1.9703 Y1.7934 I0.8461 J0.2814
X2.0142 Y1.7764 I0.0344 J0.0237
G2 X2.0589 Y1.7615 I0.0102 J-0.0439
G3 X2.0907 Y1.7259 I0.6315 J0.5313
G2 X2.0863 Y1.7156 I-0.0044 J-0.0042
G1 X1.7282
G2 X1.7156 Y1.7282 J0.0126
G1 Y6.6466
G2 X1.7284 Y6.6594 I0.0128
G1 X2.12
G2 X2.1242 Y6.6493 J-0.0059
G3 X1.9344 Y6.3679 I0.6237 J-0.6255
X1.8669 Y6.0352 I0.7865 J-0.3326
G1 Y5.3335
G3 X1.9706 Y4.9254 I0.8553
X2.2547 Y4.6146 I0.7682 J0.4171
G2 X2.2687 Y4.5885 I-0.0173 J-0.0261
G1 Y3.8036
G2 X2.2548 Y3.7786 I-0.0294
G3 X1.8669 Y3.0811 I0.4331 J-0.6975
G1 Y2.2838
G3 X1.9254 Y1.9834 I0.8013
X2.0589 Y1.7615 I0.7651 J0.3094
X2.1298 Y1.7421 I0.0495 J0.0417
G2 X2.202 Y1.7284 I0.0242 J-0.0694
G3 X2.3193 Y1.6455 I0.4862 J0.5637
G2 X2.3169 Y1.6365 I-0.0024 J-0.0042
G1 X1.6489
G2 X1.6365 Y1.6489 J0.0124
G1 Y6.7259
G2 X1.6491 Y6.7385 I0.0125
G1 X2.3626
G2 X2.3648 Y6.7296 J-0.0047
G3 X1.946 Y6.0352 I0.3687 J-0.6959
G1 Y5.3335
G3 X2.3341 Y4.6581 I0.7817
G2 X2.3478 Y4.6342 I-0.014 J-0.0239
G1 Y3.7559
G2 X2.3343 Y3.7333 I-0.0257
G3 X1.946 Y3.0852 I0.3525 J-0.6515
G1 Y2.2838
G3 X2.0467 Y1.9144 I0.7281
X2.202 Y1.7284 I0.6415 J0.3777
X2.2652 Y1.7214 I0.0367 J0.0425
G2 X2.3288 Y1.7192 I0.0299 J-0.0558
G3 X2.6843 Y1.6174 I0.3541 J0.5646
G1 X3.2055 Y1.6192
G2 X3.2182 Y1.6064 J-0.0128
G1 Y1.5788
G2 X3.2055 Y1.5661 I-0.0128
G1 X1.5787
G2 X1.5661 Y1.5787 J0.0126
G1 Y6.7962
G2 X1.5788 Y6.8089 I0.0128
G1 X3.2099
G2 X3.2227 Y6.7962 J-0.0128
G1 Y6.7641
G2 X3.2099 Y6.7513 I-0.0128
G1 X2.7343 Y6.7531
G3 X2.0164 Y6.0352 J-0.7179
G1 Y5.3335
G3 X2.1218 Y4.9623 I0.7064
X2.4045 Y4.6996 I0.6182 J0.3818
G2 X2.4182 Y4.677 I-0.0118 J-0.0226
G1 Y3.7111
G2 X2.4046 Y3.6897 I-0.0235
G3 X2.0164 Y3.0852 I0.2808 J-0.6071
G1 Y2.2838
G3 X2.3288 Y1.7192 I0.6665
X2.3792 Y1.7213 I0.0237 J0.0378
G2 X2.4293 Y1.7267 I0.0296 J-0.0397
G3 X2.6843 Y1.6717 I0.2536 J0.5572
G1 X3.2598 Y1.6735
G2 X3.2725 Y1.6607 J-0.0128
G1 Y1.5245
G2 X3.2598 Y1.5118 I-0.0128
G1 X1.5244
G2 X1.5118 Y1.5244 J0.0126
G1 Y6.8505
G2 X1.5245 Y6.8632 I0.0128
G1 X3.2642
G2 X3.277 Y6.8505 J-0.0128
G1 Y6.7098
G2 X3.2642 Y6.697 I-0.0128
G1 X2.7343 Y6.6988
G3 X2.0707 Y6.0352 J-0.6636
G1 Y5.3335
G3 X2.1768 Y4.9766 I0.6534
X2.4589 Y4.7335 I0.5613 J0.366
G2 X2.4725 Y4.7122 I-0.0097 J-0.0213
G1 Y3.6739
G2 X2.459 Y3.654 I-0.0214
G3 X2.0707 Y3.0852 I0.2261 J-0.5712
G1 Y2.2838
G3 X2.4293 Y1.7267 I0.6122
X2.5237 Y1.7447 I0.0345 J0.0757
G2 X2.6144 Y1.7763 I0.0765 J-0.0736
G3 X2.6843 Y1.7717 I0.0685 J0.5075
G1 X3.3598 Y1.7735
G2 X3.3726 Y1.7607 J-0.0128
G1 Y1.4245
G2 X3.3598 Y1.4117 I-0.0128
G1 X1.4244
G2 X1.4117 Y1.4244 J0.0126
G1 Y6.9505
G2 X1.4245 Y6.9633 I0.0128
G1 X3.3643
G2 X3.377 Y6.9505 J-0.0128
G1 Y6.6098
G2 X3.3643 Y6.597 I-0.0128
G1 X2.7343 Y6.5988
G3 X2.1708 Y6.0352 J-0.5635
G1 Y5.3335
G3 X2.2789 Y5.0046 I0.5542
X2.5592 Y4.8015 I0.4591 J0.3385
G2 X2.5726 Y4.783 I-0.0061 J-0.0185
G1 Y3.5985
G2 X2.5594 Y3.5815 I-0.0175
G3 X2.2799 Y3.4 I0.1275 J-0.5023
X2.1708 Y3.0852 I0.3993 J-0.3148
G1 Y2.2838
G3 X2.6144 Y1.7763 I0.5121
X2.6976 Y1.8213 I0.0107 J0.0796
G2 X2.7776 Y1.8719 I0.0802 J-0.0382
G1 X3.4598 Y1.8735
G2 X3.4726 Y1.8607 J-0.0128
G1 Y1.3245
G2 X3.4598 Y1.3117 I-0.0128
G1 X1.3243
G2 X1.3117 Y1.3243 J0.0126
G1 Y7.0505
G2 X1.3245 Y7.0633 I0.0128
G1 X3.4643
G2 X3.4771 Y7.0505 J-0.0128
G1 X3.4764 Y6.5312
G3 X3.4768 Y6.5203 I0.1253
G2 X3.4776 Y6.5095 I-0.3513 J-0.0306
X3.4658 Y6.497 I-0.0118 J-0.0007
G1 X2.7343 Y6.4988
G3 X2.2708 Y6.0352 J-0.4635
G1 Y5.3335
G3 X2.3817 Y5.0351 I0.4568
X2.6595 Y4.8796 I0.3528 J0.3045
G2 X2.6726 Y4.8643 I-0.0025 J-0.0153
G1 Y3.5098
G2 X2.6598 Y3.4962 I-0.0136
G3 X2.2708 Y3.0852 I0.0232 J-0.4115
G1 Y2.2838
G3 X2.6843 Y1.8717 I0.4121
G1 X2.7776 Y1.8719
G3 X2.8504 Y1.9206 I-0.0002 J0.0789
G2 X2.9231 Y1.9693 I0.0729 J-0.0302
G1 X3.5595 Y1.9706
G2 X3.5707 Y1.9584 J-0.0113
X3.5696 Y1.9468 I-0.5341 J0.0456
G3 X3.569 Y1.9352 I0.1081 J-0.0116
G1 X3.5697 Y1.2274
G2 X3.557 Y1.2146 I-0.0128
G1 X1.2272
G2 X1.2146 Y1.2272 J0.0126
G1 Y7.1476
G2 X1.2274 Y7.1604 I0.0128
G1 X3.5614
G2 X3.5742 Y7.1476 J-0.0128
G1 X3.5724 Y6.5312
G3 X3.5793 Y6.47 I0.2761
X3.5979 Y6.4113 I0.3558 J0.0809
G2 X3.5903 Y6.3998 I-0.0077 J-0.0032
G1 X2.7343 Y6.4016
G3 X2.3679 Y6.0352 J-0.3664
G1 Y5.3335
G3 X2.4758 Y5.0758 I0.3616
X2.7343 Y4.9699 I0.2585 J0.2625
X2.7456 Y4.9703 J0.1813
G2 X2.757 Y4.9706 I0.0113 J-0.1809
X2.7697 Y4.9579 J-0.0128
G1 Y3.4126
G2 X2.757 Y3.3998 I-0.0128
X2.7206 Y3.4007 J0.7333
G3 X2.6843 Y3.4016 I-0.0363 J-0.7324
X2.3679 Y3.0852 J-0.3164
G1 Y2.2838
G3 X2.6843 Y1.9688 I0.315
G1 X2.9231 Y1.9693
G3 X2.989 Y2.0135 I-0.0001 J0.0716
G2 X3.055 Y2.0576 I0.0661 J-0.0274
G1 X3.6943 Y2.0587
G2 X3.699 Y2.0486 J-0.0062
G3 X3.6675 Y1.9957 I0.1442 J-0.1218
X3.6561 Y1.9352 I0.1541 J-0.0605
G1 X3.6578 Y1.139
G2 X3.6453 Y1.1265 I-0.0125
G1 X1.1388
G2 X1.1265 Y1.1388 J0.0124
G1 Y7.236
G2 X1.139 Y7.2485 I0.0125
G1 X3.6498
G2 X3.6623 Y7.236 J-0.0125
G1 X3.6605 Y6.5312
G3 X3.7008 Y6.4029 I0.2245
X3.8067 Y6.3201 I0.1873 J0.1304
G2 X3.8051 Y6.3117 I-0.0015 J-0.0041
G1 X2.7343 Y6.3135
G3 X2.4561 Y6.0352 J-0.2782
G1 Y5.3335
G3 X2.5379 Y5.1376 I0.2753
X2.7343 Y5.057 I0.1964 J0.1989
X2.7898 Y5.0579 J1.7465
G2 X2.8453 Y5.0588 I0.0555 J-1.7456
X2.8578 Y5.0462 J-0.0125
G1 Y3.3242
G2 X2.8453 Y3.3117 I-0.0125
X2.7648 Y3.3126 J3.6739
G3 X2.6843 Y3.3135 I-0.0805 J-3.673
X2.4561 Y3.0852 J-0.2282
G1 Y2.2838
G3 X2.5232 Y2.1231 I0.2259
X2.6843 Y2.057 I0.1611 J0.1631
G1 X3.055 Y2.0576
G3 X3.1038 Y2.0902 I-0.0001 J0.0529
G2 X3.1525 Y2.1227 I0.0488 J-0.0203
G1 X4.2218
Y2.0477
X3.8343
G3 X3.7218 Y1.9352 J-0.1125
G1 Y1.0625
X1.0625
Y7.3125
X3.7263
Y6.5312
G3 X3.8888 Y6.3687 I0.1625
G1 X4.1843
G2 X4.2218 Y6.3312 J-0.0375
G1 Y6.2477
X2.7343
G3 X2.5218 Y6.0352 J-0.2125
G1 Y5.3352
G3 X2.7343 Y5.1227 I0.2125
G1 X2.9218
Y3.2852
G2 X2.8843 Y3.2477 I-0.0375
G1 X2.6843
G3 X2.5218 Y3.0852 J-0.1625
G1 Y2.2852
G3 X2.6843 Y2.1227 I0.1625
G1 X3.1525
G2 X3.1539 Y2.1069 J-0.008
G1 X1.8437 Y1.873
G3 X1.8444 Y1.8571 I0.0014 J-0.0079
G1 Z-0.1725
G2 X1.8454 Y1.857 Z-0.1773 I-0.0011 J-0.0125
X1.848 Y1.8563 Z-0.1813 I-0.002 J-0.0123
X1.8514 Y1.8542 Z-0.184 I-0.0046 J-0.0116
X1.8544 Y1.8505 Z-0.185 I-0.0081 J-0.0095
G3 X1.8558 Y1.8479 I0.8189 J0.4292
G2 X1.8491 Y1.8369 I-0.0066 J-0.0035
G1 X1.8461
G2 X1.8369 Y1.8461 J0.0092
G1 Y1.8655
G2 X1.8457 Y1.8676 I0.0046
G3 X1.8544 Y1.8505 I0.8276 J0.4121
X1.8558 Y1.8479 Z-0.1846 I0.8189 J0.4292
G2 X1.8565 Y1.8431 Z-0.1822 I-0.0066 J-0.0035
X1.8552 Y1.84 Z-0.1779 I-0.0074 J0.0013
X1.8544 Y1.8391 Z-0.1725 I-0.0061 J0.0044
G0 Z0.2
X2.0122 Y4.4776
G1 Z-0.05 F40.38
Z-0.1725
G2 X2.013 Y4.477 Z-0.1773 I-0.0068 J-0.0105
X2.015 Y4.4752 Z-0.1813 I-0.0075 J-0.01
X2.0171 Y4.4717 Z-0.184 I-0.0095 J-0.0081
X2.018 Y4.467 Z-0.185 I-0.0116 J-0.0047
G1 Y3.9285
G2 X2.0097 Y3.911 I-0.0226
G3 X1.975 Y3.8815 I0.6617 J-0.8104
G2 X1.9664 Y3.8854 I-0.0035 J0.0039
G1 Y4.5108
G2 X1.9766 Y4.5153 I0.0061
G3 X2.01 Y4.4857 I0.7878 J0.8538
G2 X2.018 Y4.4685 I-0.0147 J-0.0172
G1 Y4.467
G3 X2.0443 Y4.4275 I0.0429
G2 X2.0707 Y4.3879 I-0.0165 J-0.0396
G1 Y3.9102
G2 X2.0566 Y3.8811 I-0.0371
G3 X1.9227 Y3.754 I0.6351 J-0.8037
G2 X1.9136 Y3.7575 I-0.0039 J0.0034
G1 Y4.6434
G2 X1.9234 Y4.647 I0.0056
G3 X2.0566 Y4.5155 I0.8094 J0.6868
G2 X2.0707 Y4.4855 I-0.0249 J-0.0301
G1 Y4.3879
G3 X2.1093 Y4.3301 I0.0626
G2 X2.1478 Y4.2723 I-0.0241 J-0.0578
G1 Y3.8701
G2 X2.134 Y3.843 I-0.0334
G3 X1.8437 Y3.4982 I0.5492 J-0.7569
G2 X1.8365 Y3.4998 I-0.0034 J0.0017
G1 Y4.9056
G2 X1.8453 Y4.9076 I0.0046
G3 X2.1339 Y4.5524 I0.8878 J0.4266
G2 X2.1478 Y4.5244 I-0.0215 J-0.028
G1 Y4.2723
G2 X2.1469 Y4.2677 Z-0.184 I-0.0125
X2.1448 Y4.2642 Z-0.1813 I-0.0116 J0.0047
X2.1428 Y4.2624 Z-0.1773 I-0.0095 J0.0081
X2.142 Y4.2618 Z-0.1725 I-0.0075 J0.01
G0 Z0.2
X1.8705 Y6.5237
G1 Z-0.05 F40.38
Z-0.1725
G2 X1.8709 Y6.5228 Z-0.1773 I-0.011 J-0.0059
X1.8717 Y6.5202 Z-0.1813 I-0.0114 J-0.0051
X1.8719 Y6.5162 Z-0.184 I-0.0122 J-0.0025
X1.8704 Y6.5117 Z-0.185 I-0.0124 J0.0015
G3 X1.8437 Y6.4597 I0.8522 J-0.4702
G2 X1.8365 Y6.4613 I-0.0034 J0.0016
G1 Y6.5259
G2 X1.8491 Y6.5385 I0.0125
G1 X1.8732
G2 X1.8794 Y6.5276 J-0.0072
G3 X1.8704 Y6.5117 I0.8432 J-0.4862
X1.8764 Y6.448 I0.0498 J-0.0275
G2 X1.8858 Y6.3847 I-0.0477 J-0.0394
G3 X1.8658 Y6.3325 I0.8607 J-0.3593
X1.8155 Y6.0352 I0.8526 J-0.2973
G1 Y5.3335
G3 X1.9189 Y4.9135 I0.9046
X2.2033 Y4.5876 I0.8238 J0.4318
G2 X2.2173 Y4.5605 I-0.0193 J-0.0271
G1 Y3.8327
G2 X2.2033 Y3.8066 I-0.0314
G3 X1.8155 Y3.0852 I0.4848 J-0.7256
G1 Y2.2838
G3 X1.8586 Y2.0177 I0.8433
X1.9813 Y1.7777 I0.8461 J0.2814
G2 X1.9758 Y1.767 I-0.0055 J-0.004
G1 X1.7796
G2 X1.767 Y1.7796 J0.0126
G1 Y6.5952
G2 X1.7798 Y6.608 I0.0128
G1 X2.0046
G2 X2.0098 Y6.5974 J-0.0066
G3 X1.8858 Y6.3847 I0.7367 J-0.5719
X1.8952 Y6.3385 I0.0388 J-0.0162
G2 X1.9067 Y6.2927 I-0.0314 J-0.0322
G3 X1.8669 Y6.0352 I0.8142 J-0.2575
G1 Y5.3335
G3 X1.9706 Y4.9254 I0.8553
X2.2547 Y4.6146 I0.7682 J0.4171
G2 X2.2687 Y4.5885 I-0.0173 J-0.0261
G1 Y3.8036
G2 X2.2548 Y3.7786 I-0.0294
G3 X1.8669 Y3.0811 I0.4331 J-0.6975
G1 Y2.2838
G3 X1.9254 Y1.9834 I0.8013
X2.0907 Y1.7259 I0.7651 J0.3094
G2 X2.0863 Y1.7156 I-0.0044 J-0.0042
G1 X1.7282
G2 X1.7156 Y1.7282 J0.0126
G1 Y6.6466
G2 X1.7284 Y6.6594 I0.0128
G1 X2.12
G2 X2.1242 Y6.6493 J-0.0059
G3 X1.9344 Y6.3679 I0.6237 J-0.6255
X1.9067 Y6.2927 I0.7865 J-0.3326
X1.9283 Y6.2223 I0.0619 J-0.0196
G2 X1.9552 Y6.1536 I-0.0455 J-0.0575
G3 X1.946 Y6.0352 I0.7783 J-0.1199
G1 Y5.3335
G3 X2.3341 Y4.6581 I0.7817
G2 X2.3478 Y4.6342 I-0.014 J-0.0239
G1 Y3.7559
G2 X2.3343 Y3.7333 I-0.0257
G3 X1.946 Y3.0852 I0.3525 J-0.6515
G1 Y2.2838
G3 X2.0467 Y1.9144 I0.7281
X2.3193 Y1.6455 I0.6415 J0.3777
G2 X2.3169 Y1.6365 I-0.0024 J-0.0042
G1 X1.6489
G2 X1.6365 Y1.6489 J0.0124
G1 Y6.7259
G2 X1.6491 Y6.7385 I0.0125
G1 X2.3626
G2 X2.3648 Y6.7296 J-0.0047
G3 X1.9552 Y6.1536 I0.3687 J-0.6959
X1.9837 Y6.0947 I0.057 J-0.0088
G2 X2.0164 Y6.0381 I-0.0321 J-0.0564
G3 Y6.0352 I0.7179 J-0.0028
G1 Y5.3335
G3 X2.1218 Y4.9623 I0.7064
X2.4045 Y4.6996 I0.6182 J0.3818
G2 X2.4182 Y4.677 I-0.0118 J-0.0226
G1 Y3.7111
G2 X2.4046 Y3.6897 I-0.0235
G3 X2.0164 Y3.0852 I0.2808 J-0.6071
G1 Y2.2838
G3 X2.6843 Y1.6174 I0.6665
G1 X3.2055 Y1.6192
G2 X3.2182 Y1.6064 J-0.0128
G1 Y1.5788
G2 X3.2055 Y1.5661 I-0.0128
G1 X1.5787
G2 X1.5661 Y1.5787 J0.0126
G1 Y6.7962
G2 X1.5788 Y6.8089 I0.0128
G1 X3.2099
G2 X3.2227 Y6.7962 J-0.0128
G1 Y6.7641
G2 X3.2099 Y6.7513 I-0.0128
G1 X2.7343 Y6.7531
G3 X2.0164 Y6.0381 J-0.7179
X2.0436 Y5.9972 I0.044 J-0.0002
G2 X2.0707 Y5.9564 I-0.0171 J-0.0408
G1 Y5.3335
G3 X2.1768 Y4.9766 I0.6534
X2.4589 Y4.7335 I0.5613 J0.366
G2 X2.4725 Y4.7122 I-0.0097 J-0.0213
G1 Y3.6739
G2 X2.459 Y3.654 I-0.0214
G3 X2.0707 Y3.0852 I0.2261 J-0.5712
G1 Y2.2838
G3 X2.6843 Y1.6717 I0.6122
G1 X3.2598 Y1.6735
G2 X3.2725 Y1.6607 J-0.0128
G1 Y1.5245
G2 X3.2598 Y1.5118 I-0.0128
G1 X1.5244
G2 X1.5118 Y1.5244 J0.0126
G1 Y6.8505
G2 X1.5245 Y6.8632 I0.0128
G1 X3.2642
G2 X3.277 Y6.8505 J-0.0128
G1 Y6.7098
G2 X3.2642 Y6.697 I-0.0128
G1 X2.7343 Y6.6988
G3 X2.0707 Y6.0352 J-0.6636
G1 Y5.9564
G3 X2.1208 Y5.8814 I0.0813
G2 X2.1708 Y5.8064 I-0.0313 J-0.075
G1 Y5.3335
G3 X2.2789 Y5.0046 I0.5542
X2.5592 Y4.8015 I0.4591 J0.3385
G2 X2.5726 Y4.783 I-0.0061 J-0.0185
G1 Y3.5985
G2 X2.5594 Y3.5815 I-0.0175
G3 X2.2799 Y3.4 I0.1275 J-0.5023
X2.1708 Y3.0852 I0.3993 J-0.3148
G1 Y2.2838
G3 X2.6843 Y1.7717 I0.5121
G1 X3.3598 Y1.7735
G2 X3.3726 Y1.7607 J-0.0128
G1 Y1.4245
G2 X3.3598 Y1.4117 I-0.0128
G1 X1.4244
G2 X1.4117 Y1.4244 J0.0126
G1 Y6.9505
G2 X1.4245 Y6.9633 I0.0128
G1 X3.3643
G2 X3.377 Y6.9505 J-0.0128
G1 Y6.6098
G2 X3.3643 Y6.597 I-0.0128
G1 X2.7343 Y6.5988
G3 X2.1708 Y6.0352 J-0.5635
G1 Y5.8064
G3 X2.2208 Y5.7313 I0.0813
G2 X2.2708 Y5.6563 I-0.0313 J-0.075
G1 Y5.3335
G3 X2.3817 Y5.0351 I0.4568
X2.6595 Y4.8796 I0.3528 J0.3045
G2 X2.6726 Y4.8643 I-0.0025 J-0.0153
G1 Y3.5098
G2 X2.6598 Y3.4962 I-0.0136
G3 X2.2708 Y3.0852 I0.0232 J-0.4115
G1 Y2.2838
G3 X2.6843 Y1.8717 I0.4121
G1 X3.4598 Y1.8735
G2 X3.4726 Y1.8607 J-0.0128
G1 Y1.3245
G2 X3.4598 Y1.3117 I-0.0128
G1 X1.3243
G2 X1.3117 Y1.3243 J0.0126
G1 Y7.0505
G2 X1.3245 Y7.0633 I0.0128
G1 X3.4643
G2 X3.4771 Y7.0505 J-0.0128
G1 X3.4764 Y6.5312
G3 X3.4768 Y6.5203 I0.1253
G2 X3.4776 Y6.5095 I-0.3513 J-0.0306
X3.4658 Y6.497 I-0.0118 J-0.0007
G1 X2.7343 Y6.4988
G3 X2.2708 Y6.0352 J-0.4635
G1 Y5.6563
G3 X2.3194 Y5.5835 I0.0789
G2 X2.3679 Y5.5106 I-0.0304 J-0.0728
G1 Y5.3335
G3 X2.4758 Y5.0758 I0.3616
X2.7343 Y4.9699 I0.2585 J0.2625
X2.7456 Y4.9703 J0.1813
G2 X2.757 Y4.9706 I0.0113 J-0.1809
X2.7697 Y4.9579 J-0.0128
G1 Y3.4126
G2 X2.757 Y3.3998 I-0.0128
X2.7206 Y3.4007 J0.7333
G3 X2.6843 Y3.4016 I-0.0363 J-0.7324
X2.3679 Y3.0852 J-0.3164
G1 Y2.2838
G3 X2.6843 Y1.9688 I0.315
G1 X3.5595 Y1.9706
G2 X3.5707 Y1.9584 J-0.0113
X3.5696 Y1.9468 I-0.5341 J0.0456
G3 X3.569 Y1.9352 I0.1081 J-0.0116
G1 X3.5697 Y1.2274
G2 X3.557 Y1.2146 I-0.0128
G1 X1.2272
G2 X1.2146 Y1.2272 J0.0126
G1 Y7.1476
G2 X1.2274 Y7.1604 I0.0128
G1 X3.5614
G2 X3.5742 Y7.1476 J-0.0128
G1 X3.5724 Y6.5312
G3 X3.5793 Y6.47 I0.2761
X3.5979 Y6.4113 I0.3558 J0.0809
G2 X3.5903 Y6.3998 I-0.0077 J-0.0032
G1 X2.7343 Y6.4016
G3 X2.3679 Y6.0352 J-0.3664
G1 Y5.5106
G3 X2.412 Y5.4445 I0.0716
G2 X2.4561 Y5.3784 I-0.0275 J-0.0661
G1 Y5.3335
G3 X2.5379 Y5.1376 I0.2753
X2.7343 Y5.057 I0.1964 J0.1989
X2.7898 Y5.0579 J1.7465
G2 X2.8453 Y5.0588 I0.0555 J-1.7456
X2.8578 Y5.0462 J-0.0125
G1 Y3.3242
G2 X2.8453 Y3.3117 I-0.0125
X2.7648 Y3.3126 J3.6739
G3 X2.6843 Y3.3135 I-0.0805 J-3.673
X2.4561 Y3.0852 J-0.2282
G1 Y2.2838
G3 X2.5232 Y2.1231 I0.2259
X2.6843 Y2.057 I0.1611 J0.1631
G1 X3.6943 Y2.0587
G2 X3.699 Y2.0486 J-0.0062
G3 X3.6675 Y1.9957 I0.1442 J-0.1218
X3.6561 Y1.9352 I0.1541 J-0.0605
G1 X3.6578 Y1.139
G2 X3.6453 Y1.1265 I-0.0125
G1 X1.1388
G2 X1.1265 Y1.1388 J0.0124
G1 Y7.236
G2 X1.139 Y7.2485 I0.0125
G1 X3.6498
G2 X3.6623 Y7.236 J-0.0125
G1 X3.6605 Y6.5312
G3 X3.7008 Y6.4029 I0.2245
X3.8067 Y6.3201 I0.1873 J0.1304
G2 X3.8051 Y6.3117 I-0.0015 J-0.0041
G1 X2.7343 Y6.3135
G3 X2.4561 Y6.0352 J-0.2782
G1 Y5.3784
G3 X2.4893 Y5.327 I0.0563
G2 X2.529 Y5.2804 I-0.0291 J-0.065
G3 X2.7343 Y5.1227 I0.2053 J0.0548
G1 X2.9218
Y3.2852
G2 X2.8843 Y3.2477 I-0.0375
G1 X2.6843
G3 X2.5218 Y3.0852 J-0.1625
G1 Y2.2852
G3 X2.6843 Y2.1227 I0.1625
G1 X4.2218
Y2.0477
X3.8343
G3 X3.7218 Y1.9352 J-0.1125
G1 Y1.0625
X1.0625
Y7.3125
X3.7263
Y6.5312
G3 X3.8888 Y6.3687 I0.1625
G1 X4.1843
G2 X4.2218 Y6.3312 J-0.0375
G1 Y6.2477
X2.7343
G3 X2.5218 Y6.0352 J-0.2125
G1 Y5.3352
G3 X2.529 Y5.2804 I0.2125
G2 X2.5293 Y5.2757 Z-0.184 I-0.0121 J-0.0032
X2.5282 Y5.2718 Z-0.1813 I-0.0124 J0.0015
X2.5268 Y5.2695 Z-0.1773 I-0.0113 J0.0054
X2.5262 Y5.2688 Z-0.1725 I-0.0099 J0.0077
G0 Z0.6
M9
M30
%
