%
(InsertMonogram_part2)
(T1  D=0.125 CR=0 - ZMIN=-0.185 - flat end mill)
G90 G94
G17
G20

(2D Pocket2)
M9
T1 M6
S11028 M3
G54
M8
G0 X7.2969 Y4.7515
Z0.6
Z0.2
G1 Z0.1 F40.38
Z-0.0275
G2 X7.2977 Y4.7509 Z-0.0323 I-0.0068 J-0.0105
X7.2997 Y4.7491 Z-0.0363 I-0.0075 J-0.01
X7.3017 Y4.7456 Z-0.039 I-0.0095 J-0.0081
X7.3027 Y4.7409 Z-0.04 I-0.0116 J-0.0047
G1 Y4.7162
G2 X7.2933 Y4.7135 I-0.0051
G1 X7.2752 Y4.7422
G2 X7.2812 Y4.7532 I0.006 J0.0038
G1 X7.2932
G2 X7.3027 Y4.7438 J-0.0094
G1 Y4.7409
G3 X7.3396 Y4.6855 I0.06
G2 X7.3765 Y4.6301 I-0.0231 J-0.0554
G1 Y4.4609
G2 X7.3672 Y4.4582 I-0.0051
G1 X7.1411 Y4.8161
G2 X7.1472 Y4.827 I0.006 J0.0038
G1 X7.3638
G2 X7.3765 Y4.8143 J-0.0128
G1 Y4.6301
G3 X7.4135 Y4.5747 I0.06
G2 X7.4504 Y4.5193 I-0.0231 J-0.0554
G1 Y4.2055
G2 X7.4411 Y4.2028 I-0.0051
G1 X7.0071 Y4.89
G2 X7.0131 Y4.9009 I0.006 J0.0038
G1 X7.4376
G2 X7.4504 Y4.8881 J-0.0128
G1 Y4.5193
G3 X7.4873 Y4.4639 I0.06
G2 X7.5243 Y4.4085 I-0.0231 J-0.0554
G1 Y3.9502
G2 X7.5149 Y3.9475 I-0.0051
G1 X6.8731 Y4.9638
G2 X6.8791 Y4.9748 I0.006 J0.0038
G1 X7.5115
G2 X7.5243 Y4.962 J-0.0128
G1 Y4.4085
G3 X7.5612 Y4.3531 I0.06
G2 X7.5982 Y4.2977 I-0.0231 J-0.0554
G1 Y3.6949
G2 X7.5888 Y3.6922 I-0.0051
G1 X6.739 Y5.0377
G2 X6.7451 Y5.0487 I0.006 J0.0038
G1 X7.5854
G2 X7.5982 Y5.0359 J-0.0128
G1 Y4.2977
G3 X7.6352 Y4.2421 I0.0602
G2 X7.6722 Y4.1866 I-0.0231 J-0.0556
G1 Y3.4214
X6.5977 Y5.1227
X7.6722
Y4.1866
G2 X7.6576 Y4.1821 I-0.008
G1 X7.2859 Y4.7403
G2 X7.2969 Y4.7515 I0.0067 J0.0044
G1 Z-0.0675
G2 X7.2977 Y4.7509 Z-0.0723 I-0.0068 J-0.0105
X7.2997 Y4.7491 Z-0.0763 I-0.0075 J-0.01
X7.3017 Y4.7456 Z-0.079 I-0.0095 J-0.0081
X7.3027 Y4.7409 Z-0.08 I-0.0116 J-0.0047
G1 Y4.7162
G2 X7.2933 Y4.7135 I-0.0051
G1 X7.2752 Y4.7422
G2 X7.2812 Y4.7532 I0.006 J0.0038
G1 X7.2932
G2 X7.3027 Y4.7438 J-0.0094
G1 Y4.7409
G3 X7.3396 Y4.6855 I0.06
G2 X7.3765 Y4.6301 I-0.0231 J-0.0554
G1 Y4.4609
G2 X7.3672 Y4.4582 I-0.0051
G1 X7.1411 Y4.8161
G2 X7.1472 Y4.827 I0.006 J0.0038
G1 X7.3638
G2 X7.3765 Y4.8143 J-0.0128
G1 Y4.6301
G3 X7.4135 Y4.5747 I0.06
G2 X7.4504 Y4.5193 I-0.0231 J-0.0554
G1 Y4.2055
G2 X7.4411 Y4.2028 I-0.0051
G1 X7.0071 Y4.89
G2 X7.0131 Y4.9009 I0.006 J0.0038
G1 X7.4376
G2 X7.4504 Y4.8881 J-0.0128
G1 Y4.5193
G3 X7.4873 Y4.4639 I0.06
G2 X7.5243 Y4.4085 I-0.0231 J-0.0554
G1 Y3.9502
G2 X7.5149 Y3.9475 I-0.0051
G1 X6.8731 Y4.9638
G2 X6.8791 Y4.9748 I0.006 J0.0038
G1 X7.5115
G2 X7.5243 Y4.962 J-0.0128
G1 Y4.4085
G3 X7.5612 Y4.3531 I0.06
G2 X7.5982 Y4.2977 I-0.0231 J-0.0554
G1 Y3.6949
G2 X7.5888 Y3.6922 I-0.0051
G1 X6.739 Y5.0377
G2 X6.7451 Y5.0487 I0.006 J0.0038
G1 X7.5854
G2 X7.5982 Y5.0359 J-0.0128
G1 Y4.2977
G3 X7.6352 Y4.2421 I0.0602
G2 X7.6722 Y4.1866 I-0.0231 J-0.0556
G1 Y3.4214
X6.5977 Y5.1227
X7.6722
Y4.1866
G2 X7.6576 Y4.1821 I-0.008
G1 X7.2859 Y4.7403
G2 X7.2969 Y4.7515 I0.0067 J0.0044
G1 Z-0.1075
G2 X7.2977 Y4.7509 Z-0.1123 I-0.0068 J-0.0105
X7.2997 Y4.7491 Z-0.1163 I-0.0075 J-0.01
X7.3017 Y4.7456 Z-0.119 I-0.0095 J-0.0081
X7.3027 Y4.7409 Z-0.12 I-0.0116 J-0.0047
G1 Y4.7162
G2 X7.2933 Y4.7135 I-0.0051
G1 X7.2752 Y4.7422
G2 X7.2812 Y4.7532 I0.006 J0.0038
G1 X7.2932
G2 X7.3027 Y4.7438 J-0.0094
G1 Y4.7409
G3 X7.3396 Y4.6855 I0.06
G2 X7.3765 Y4.6301 I-0.0231 J-0.0554
G1 Y4.4609
G2 X7.3672 Y4.4582 I-0.0051
G1 X7.1411 Y4.8161
G2 X7.1472 Y4.827 I0.006 J0.0038
G1 X7.3638
G2 X7.3765 Y4.8143 J-0.0128
G1 Y4.6301
G3 X7.4135 Y4.5747 I0.06
G2 X7.4504 Y4.5193 I-0.0231 J-0.0554
G1 Y4.2055
G2 X7.4411 Y4.2028 I-0.0051
G1 X7.0071 Y4.89
G2 X7.0131 Y4.9009 I0.006 J0.0038
G1 X7.4376
G2 X7.4504 Y4.8881 J-0.0128
G1 Y4.5193
G3 X7.4873 Y4.4639 I0.06
G2 X7.5243 Y4.4085 I-0.0231 J-0.0554
G1 Y3.9502
G2 X7.5149 Y3.9475 I-0.0051
G1 X6.8731 Y4.9638
G2 X6.8791 Y4.9748 I0.006 J0.0038
G1 X7.5115
G2 X7.5243 Y4.962 J-0.0128
G1 Y4.4085
G3 X7.5612 Y4.3531 I0.06
G2 X7.5982 Y4.2977 I-0.0231 J-0.0554
G1 Y3.6949
G2 X7.5888 Y3.6922 I-0.0051
G1 X6.739 Y5.0377
G2 X6.7451 Y5.0487 I0.006 J0.0038
G1 X7.5854
G2 X7.5982 Y5.0359 J-0.0128
G1 Y4.2977
G3 X7.6352 Y4.2421 I0.0602
G2 X7.6722 Y4.1866 I-0.0231 J-0.0556
G1 Y3.4214
X6.5977 Y5.1227
X7.6722
Y4.1866
G2 X7.6576 Y4.1821 I-0.008
G1 X7.2859 Y4.7403
G2 X7.2969 Y4.7515 I0.0067 J0.0044
G1 Z-0.1475
G2 X7.2977 Y4.7509 Z-0.1523 I-0.0068 J-0.0105
X7.2997 Y4.7491 Z-0.1563 I-0.0075 J-0.01
X7.3017 Y4.7456 Z-0.159 I-0.0095 J-0.0081
X7.3027 Y4.7409 Z-0.16 I-0.0116 J-0.0047
G1 Y4.7162
G2 X7.2933 Y4.7135 I-0.0051
G1 X7.2752 Y4.7422
G2 X7.2812 Y4.7532 I0.006 J0.0038
G1 X7.2932
G2 X7.3027 Y4.7438 J-0.0094
G1 Y4.7409
G3 X7.3396 Y4.6855 I0.06
G2 X7.3765 Y4.6301 I-0.0231 J-0.0554
G1 Y4.4609
G2 X7.3672 Y4.4582 I-0.0051
G1 X7.1411 Y4.8161
G2 X7.1472 Y4.827 I0.006 J0.0038
G1 X7.3638
G2 X7.3765 Y4.8143 J-0.0128
G1 Y4.6301
G3 X7.4135 Y4.5747 I0.06
G2 X7.4504 Y4.5193 I-0.0231 J-0.0554
G1 Y4.2055
G2 X7.4411 Y4.2028 I-0.0051
G1 X7.0071 Y4.89
G2 X7.0131 Y4.9009 I0.006 J0.0038
G1 X7.4376
G2 X7.4504 Y4.8881 J-0.0128
G1 Y4.5193
G3 X7.4873 Y4.4639 I0.06
G2 X7.5243 Y4.4085 I-0.0231 J-0.0554
G1 Y3.9502
G2 X7.5149 Y3.9475 I-0.0051
G1 X6.8731 Y4.9638
G2 X6.8791 Y4.9748 I0.006 J0.0038
G1 X7.5115
G2 X7.5243 Y4.962 J-0.0128
G1 Y4.4085
G3 X7.5612 Y4.3531 I0.06
G2 X7.5982 Y4.2977 I-0.0231 J-0.0554
G1 Y3.6949
G2 X7.5888 Y3.6922 I-0.0051
G1 X6.739 Y5.0377
G2 X6.7451 Y5.0487 I0.006 J0.0038
G1 X7.5854
G2 X7.5982 Y5.0359 J-0.0128
G1 Y4.2977
G3 X7.6352 Y4.2421 I0.0602
G2 X7.6722 Y4.1866 I-0.0231 J-0.0556
G1 Y3.4214
X6.5977 Y5.1227
X7.6722
Y4.1866
G2 X7.6576 Y4.1821 I-0.008
G1 X7.2859 Y4.7403
G2 X7.2969 Y4.7515 I0.0067 J0.0044
G1 Z-0.1725
G2 X7.2977 Y4.7509 Z-0.1773 I-0.0068 J-0.0105
X7.2997 Y4.7491 Z-0.1813 I-0.0075 J-0.01
X7.3017 Y4.7456 Z-0.184 I-0.0095 J-0.0081
X7.3027 Y4.7409 Z-0.185 I-0.0116 J-0.0047
G1 Y4.7162
G2 X7.2933 Y4.7135 I-0.0051
G1 X7.2752 Y4.7422
G2 X7.2812 Y4.7532 I0.006 J0.0038
G1 X7.2932
G2 X7.3027 Y4.7438 J-0.0094
G1 Y4.7409
G3 X7.3396 Y4.6855 I0.06
G2 X7.3765 Y4.6301 I-0.0231 J-0.0554
G1 Y4.4609
G2 X7.3672 Y4.4582 I-0.0051
G1 X7.1411 Y4.8161
G2 X7.1472 Y4.827 I0.006 J0.0038
G1 X7.3638
G2 X7.3765 Y4.8143 J-0.0128
G1 Y4.6301
G3 X7.4135 Y4.5747 I0.06
G2 X7.4504 Y4.5193 I-0.0231 J-0.0554
G1 Y4.2055
G2 X7.4411 Y4.2028 I-0.0051
G1 X7.0071 Y4.89
G2 X7.0131 Y4.9009 I0.006 J0.0038
G1 X7.4376
G2 X7.4504 Y4.8881 J-0.0128
G1 Y4.5193
G3 X7.4873 Y4.4639 I0.06
G2 X7.5243 Y4.4085 I-0.0231 J-0.0554
G1 Y3.9502
G2 X7.5149 Y3.9475 I-0.0051
G1 X6.8731 Y4.9638
G2 X6.8791 Y4.9748 I0.006 J0.0038
G1 X7.5115
G2 X7.5243 Y4.962 J-0.0128
G1 Y4.4085
G3 X7.5612 Y4.3531 I0.06
G2 X7.5982 Y4.2977 I-0.0231 J-0.0554
G1 Y3.6949
G2 X7.5888 Y3.6922 I-0.0051
G1 X6.739 Y5.0377
G2 X6.7451 Y5.0487 I0.006 J0.0038
G1 X7.5854
G2 X7.5982 Y5.0359 J-0.0128
G1 Y4.2977
G3 X7.6352 Y4.2421 I0.0602
G2 X7.6722 Y4.1866 I-0.0231 J-0.0556
G1 Y3.4214
X6.5977 Y5.1227
X7.6722
Y4.1866
G2 X7.6713 Y4.1819 Z-0.184 I-0.0125
X7.6692 Y4.1785 Z-0.1813 I-0.0116 J0.0047
X7.6673 Y4.1766 Z-0.1773 I-0.0095 J0.0081
X7.6665 Y4.1761 Z-0.1725 I-0.0075 J0.01
G0 Z0.2
X8.9488 Y3.3747
G1 Z0.1 F40.38
Z-0.0275
G2 X8.948 Y3.3753 Z-0.0323 I0.0068 J0.0105
X8.946 Y3.3771 Z-0.0363 I0.0075 J0.01
X8.9439 Y3.3806 Z-0.039 I0.0095 J0.0081
X8.943 Y3.3852 Z-0.04 I0.0116 J0.0047
G1 Y5.0138
G2 X8.9558 Y5.0265 I0.0128
G1 X9.0129
G2 X9.0256 Y5.0138 J-0.0128
G1 Y3.3567
G2 X9.0129 Y3.3439 I-0.0128
G1 X8.9556
G2 X8.943 Y3.3565 J0.0126
G1 Y3.3852
G3 X8.8949 Y3.4574 I-0.0782
G2 X8.8468 Y3.5295 I0.0301 J0.0721
G1 Y5.1227
X9.1218
Y3.2477
X8.8468
Y3.5295
G2 X8.8615 Y3.534 I0.008
G1 X8.9598 Y3.3859
G2 X8.9488 Y3.3747 I-0.0067 J-0.0044
G1 Z-0.0675
G2 X8.948 Y3.3753 Z-0.0723 I0.0068 J0.0105
X8.946 Y3.3771 Z-0.0763 I0.0075 J0.01
X8.9439 Y3.3806 Z-0.079 I0.0095 J0.0081
X8.943 Y3.3852 Z-0.08 I0.0116 J0.0047
G1 Y5.0138
G2 X8.9558 Y5.0265 I0.0128
G1 X9.0129
G2 X9.0256 Y5.0138 J-0.0128
G1 Y3.3567
G2 X9.0129 Y3.3439 I-0.0128
G1 X8.9556
G2 X8.943 Y3.3565 J0.0126
G1 Y3.3852
G3 X8.8949 Y3.4574 I-0.0782
G2 X8.8468 Y3.5295 I0.0301 J0.0721
G1 Y5.1227
X9.1218
Y3.2477
X8.8468
Y3.5295
G2 X8.8615 Y3.534 I0.008
G1 X8.9598 Y3.3859
G2 X8.9488 Y3.3747 I-0.0067 J-0.0044
G1 Z-0.1075
G2 X8.948 Y3.3753 Z-0.1123 I0.0068 J0.0105
X8.946 Y3.3771 Z-0.1163 I0.0075 J0.01
X8.9439 Y3.3806 Z-0.119 I0.0095 J0.0081
X8.943 Y3.3852 Z-0.12 I0.0116 J0.0047
G1 Y5.0138
G2 X8.9558 Y5.0265 I0.0128
G1 X9.0129
G2 X9.0256 Y5.0138 J-0.0128
G1 Y3.3567
G2 X9.0129 Y3.3439 I-0.0128
G1 X8.9556
G2 X8.943 Y3.3565 J0.0126
G1 Y3.3852
G3 X8.8949 Y3.4574 I-0.0782
G2 X8.8468 Y3.5295 I0.0301 J0.0721
G1 Y5.1227
X9.1218
Y3.2477
X8.8468
Y3.5295
G2 X8.8615 Y3.534 I0.008
G1 X8.9598 Y3.3859
G2 X8.9488 Y3.3747 I-0.0067 J-0.0044
G1 Z-0.1475
G2 X8.948 Y3.3753 Z-0.1523 I0.0068 J0.0105
X8.946 Y3.3771 Z-0.1563 I0.0075 J0.01
X8.9439 Y3.3806 Z-0.159 I0.0095 J0.0081
X8.943 Y3.3852 Z-0.16 I0.0116 J0.0047
G1 Y5.0138
G2 X8.9558 Y5.0265 I0.0128
G1 X9.0129
G2 X9.0256 Y5.0138 J-0.0128
G1 Y3.3567
G2 X9.0129 Y3.3439 I-0.0128
G1 X8.9556
G2 X8.943 Y3.3565 J0.0126
G1 Y3.3852
G3 X8.8949 Y3.4574 I-0.0782
G2 X8.8468 Y3.5295 I0.0301 J0.0721
G1 Y5.1227
X9.1218
Y3.2477
X8.8468
Y3.5295
G2 X8.8615 Y3.534 I0.008
G1 X8.9598 Y3.3859
G2 X8.9488 Y3.3747 I-0.0067 J-0.0044
G1 Z-0.1725
G2 X8.948 Y3.3753 Z-0.1773 I0.0068 J0.0105
X8.946 Y3.3771 Z-0.1813 I0.0075 J0.01
X8.9439 Y3.3806 Z-0.184 I0.0095 J0.0081
X8.943 Y3.3852 Z-0.185 I0.0116 J0.0047
G1 Y5.0138
G2 X8.9558 Y5.0265 I0.0128
G1 X9.0129
G2 X9.0256 Y5.0138 J-0.0128
G1 Y3.3567
G2 X9.0129 Y3.3439 I-0.0128
G1 X8.9556
G2 X8.943 Y3.3565 J0.0126
G1 Y3.3852
G3 X8.8949 Y3.4574 I-0.0782
G2 X8.8468 Y3.5295 I0.0301 J0.0721
G1 Y5.1227
X9.1218
Y3.2477
X8.8468
Y3.5295
G2 X8.8477 Y3.5342 Z-0.184 I0.0125
X8.8498 Y3.5376 Z-0.1813 I0.0116 J-0.0047
X8.8518 Y3.5395 Z-0.1773 I0.0095 J-0.0081
X8.8526 Y3.54 Z-0.1725 I0.0075 J-0.01
G0 Z0.2
X5.7941 Y3.6011
G1 Z0.1 F40.38
Z-0.0275
G2 X5.7933 Y3.6016 Z-0.0323 I0.0068 J0.0105
X5.7913 Y3.6035 Z-0.0363 I0.0075 J0.01
X5.7893 Y3.607 Z-0.039 I0.0095 J0.0081
X5.7884 Y3.6116 Z-0.04 I0.0116 J0.0047
G1 Y3.6714
G2 X5.7977 Y3.6741 I0.0051
G1 X5.8444 Y3.6002
G2 X5.8383 Y3.5892 I-0.006 J-0.0038
G1 X5.8011
G2 X5.7884 Y3.602 J0.0128
G1 Y3.6116
G3 X5.7654 Y3.646 I-0.0372
G2 X5.7425 Y3.6804 I0.0143 J0.0344
G1 Y3.8298
G2 X5.7519 Y3.8325 I0.0051
G1 X5.9275 Y3.5544
G2 X5.9215 Y3.5434 I-0.006 J-0.0038
G1 X5.7553
G2 X5.7425 Y3.5562 J0.0128
G1 Y3.6804
G3 X5.7056 Y3.7358 I-0.06
G2 X5.6687 Y3.7912 I0.0231 J0.0554
G1 Y4.0851
G2 X5.678 Y4.0878 I0.0051
G1 X6.0616 Y3.4805
G2 X6.0555 Y3.4696 I-0.006 J-0.0038
G1 X5.6814
G2 X5.6687 Y3.4823 J0.0128
G1 Y3.7912
G3 X5.6317 Y3.8466 I-0.06
G2 X5.5948 Y3.902 I0.0231 J0.0554
G1 Y4.3404
G2 X5.6041 Y4.3431 I0.0051
G1 X6.1956 Y3.4066
G2 X6.1895 Y3.3957 I-0.006 J-0.0038
G1 X5.6076
G2 X5.5948 Y3.4085 J0.0128
G1 Y3.902
G3 X5.5578 Y3.9574 I-0.06
G2 X5.5209 Y4.0128 I0.0231 J0.0554
G1 Y4.5957
G2 X5.5302 Y4.5984 I0.0051
G1 X6.3296 Y3.3328
G2 X6.3236 Y3.3218 I-0.006 J-0.0038
G1 X5.5337
G2 X5.5209 Y3.3346 J0.0128
G1 Y4.0128
G3 X5.4839 Y4.0683 I-0.0602
G2 X5.4468 Y4.1239 I0.0231 J0.0556
G1 Y4.8692
X6.4709 Y3.2477
X5.4468
Y4.1239
G2 X5.4615 Y4.1283 I0.008
G1 X5.8051 Y3.6123
G2 X5.7941 Y3.6011 I-0.0067 J-0.0044
G1 Z-0.0675
G2 X5.7933 Y3.6016 Z-0.0723 I0.0068 J0.0105
X5.7913 Y3.6035 Z-0.0763 I0.0075 J0.01
X5.7893 Y3.607 Z-0.079 I0.0095 J0.0081
X5.7884 Y3.6116 Z-0.08 I0.0116 J0.0047
G1 Y3.6714
G2 X5.7977 Y3.6741 I0.0051
G1 X5.8444 Y3.6002
G2 X5.8383 Y3.5892 I-0.006 J-0.0038
G1 X5.8011
G2 X5.7884 Y3.602 J0.0128
G1 Y3.6116
G3 X5.7654 Y3.646 I-0.0372
G2 X5.7425 Y3.6804 I0.0143 J0.0344
G1 Y3.8298
G2 X5.7519 Y3.8325 I0.0051
G1 X5.9275 Y3.5544
G2 X5.9215 Y3.5434 I-0.006 J-0.0038
G1 X5.7553
G2 X5.7425 Y3.5562 J0.0128
G1 Y3.6804
G3 X5.7056 Y3.7358 I-0.06
G2 X5.6687 Y3.7912 I0.0231 J0.0554
G1 Y4.0851
G2 X5.678 Y4.0878 I0.0051
G1 X6.0616 Y3.4805
G2 X6.0555 Y3.4696 I-0.006 J-0.0038
G1 X5.6814
G2 X5.6687 Y3.4823 J0.0128
G1 Y3.7912
G3 X5.6317 Y3.8466 I-0.06
G2 X5.5948 Y3.902 I0.0231 J0.0554
G1 Y4.3404
G2 X5.6041 Y4.3431 I0.0051
G1 X6.1956 Y3.4066
G2 X6.1895 Y3.3957 I-0.006 J-0.0038
G1 X5.6076
G2 X5.5948 Y3.4085 J0.0128
G1 Y3.902
G3 X5.5578 Y3.9574 I-0.06
G2 X5.5209 Y4.0128 I0.0231 J0.0554
G1 Y4.5957
G2 X5.5302 Y4.5984 I0.0051
G1 X6.3296 Y3.3328
G2 X6.3236 Y3.3218 I-0.006 J-0.0038
G1 X5.5337
G2 X5.5209 Y3.3346 J0.0128
G1 Y4.0128
G3 X5.4839 Y4.0683 I-0.0602
G2 X5.4468 Y4.1239 I0.0231 J0.0556
G1 Y4.8692
X6.4709 Y3.2477
X5.4468
Y4.1239
G2 X5.4615 Y4.1283 I0.008
G1 X5.8051 Y3.6123
G2 X5.7941 Y3.6011 I-0.0067 J-0.0044
G1 Z-0.1075
G2 X5.7933 Y3.6016 Z-0.1123 I0.0068 J0.0105
X5.7913 Y3.6035 Z-0.1163 I0.0075 J0.01
X5.7893 Y3.607 Z-0.119 I0.0095 J0.0081
X5.7884 Y3.6116 Z-0.12 I0.0116 J0.0047
G1 Y3.6714
G2 X5.7977 Y3.6741 I0.0051
G1 X5.8444 Y3.6002
G2 X5.8383 Y3.5892 I-0.006 J-0.0038
G1 X5.8011
G2 X5.7884 Y3.602 J0.0128
G1 Y3.6116
G3 X5.7654 Y3.646 I-0.0372
G2 X5.7425 Y3.6804 I0.0143 J0.0344
G1 Y3.8298
G2 X5.7519 Y3.8325 I0.0051
G1 X5.9275 Y3.5544
G2 X5.9215 Y3.5434 I-0.006 J-0.0038
G1 X5.7553
G2 X5.7425 Y3.5562 J0.0128
G1 Y3.6804
G3 X5.7056 Y3.7358 I-0.06
G2 X5.6687 Y3.7912 I0.0231 J0.0554
G1 Y4.0851
G2 X5.678 Y4.0878 I0.0051
G1 X6.0616 Y3.4805
G2 X6.0555 Y3.4696 I-0.006 J-0.0038
G1 X5.6814
G2 X5.6687 Y3.4823 J0.0128
G1 Y3.7912
G3 X5.6317 Y3.8466 I-0.06
G2 X5.5948 Y3.902 I0.0231 J0.0554
G1 Y4.3404
G2 X5.6041 Y4.3431 I0.0051
G1 X6.1956 Y3.4066
G2 X6.1895 Y3.3957 I-0.006 J-0.0038
G1 X5.6076
G2 X5.5948 Y3.4085 J0.0128
G1 Y3.902
G3 X5.5578 Y3.9574 I-0.06
G2 X5.5209 Y4.0128 I0.0231 J0.0554
G1 Y4.5957
G2 X5.5302 Y4.5984 I0.0051
G1 X6.3296 Y3.3328
G2 X6.3236 Y3.3218 I-0.006 J-0.0038
G1 X5.5337
G2 X5.5209 Y3.3346 J0.0128
G1 Y4.0128
G3 X5.4839 Y4.0683 I-0.0602
G2 X5.4468 Y4.1239 I0.0231 J0.0556
G1 Y4.8692
X6.4709 Y3.2477
X5.4468
Y4.1239
G2 X5.4615 Y4.1283 I0.008
G1 X5.8051 Y3.6123
G2 X5.7941 Y3.6011 I-0.0067 J-0.0044
G1 Z-0.1475
G2 X5.7933 Y3.6016 Z-0.1523 I0.0068 J0.0105
X5.7913 Y3.6035 Z-0.1563 I0.0075 J0.01
X5.7893 Y3.607 Z-0.159 I0.0095 J0.0081
X5.7884 Y3.6116 Z-0.16 I0.0116 J0.0047
G1 Y3.6714
G2 X5.7977 Y3.6741 I0.0051
G1 X5.8444 Y3.6002
G2 X5.8383 Y3.5892 I-0.006 J-0.0038
G1 X5.8011
G2 X5.7884 Y3.602 J0.0128
G1 Y3.6116
G3 X5.7654 Y3.646 I-0.0372
G2 X5.7425 Y3.6804 I0.0143 J0.0344
G1 Y3.8298
G2 X5.7519 Y3.8325 I0.0051
G1 X5.9275 Y3.5544
G2 X5.9215 Y3.5434 I-0.006 J-0.0038
G1 X5.7553
G2 X5.7425 Y3.5562 J0.0128
G1 Y3.6804
G3 X5.7056 Y3.7358 I-0.06
G2 X5.6687 Y3.7912 I0.0231 J0.0554
G1 Y4.0851
G2 X5.678 Y4.0878 I0.0051
G1 X6.0616 Y3.4805
G2 X6.0555 Y3.4696 I-0.006 J-0.0038
G1 X5.6814
G2 X5.6687 Y3.4823 J0.0128
G1 Y3.7912
G3 X5.6317 Y3.8466 I-0.06
G2 X5.5948 Y3.902 I0.0231 J0.0554
G1 Y4.3404
G2 X5.6041 Y4.3431 I0.0051
G1 X6.1956 Y3.4066
G2 X6.1895 Y3.3957 I-0.006 J-0.0038
G1 X5.6076
G2 X5.5948 Y3.4085 J0.0128
G1 Y3.902
G3 X5.5578 Y3.9574 I-0.06
G2 X5.5209 Y4.0128 I0.0231 J0.0554
G1 Y4.5957
G2 X5.5302 Y4.5984 I0.0051
G1 X6.3296 Y3.3328
G2 X6.3236 Y3.3218 I-0.006 J-0.0038
G1 X5.5337
G2 X5.5209 Y3.3346 J0.0128
G1 Y4.0128
G3 X5.4839 Y4.0683 I-0.0602
G2 X5.4468 Y4.1239 I0.0231 J0.0556
G1 Y4.8692
X6.4709 Y3.2477
X5.4468
Y4.1239
G2 X5.4615 Y4.1283 I0.008
G1 X5.8051 Y3.6123
G2 X5.7941 Y3.6011 I-0.0067 J-0.0044
G1 Z-0.1725
G2 X5.7933 Y3.6016 Z-0.1773 I0.0068 J0.0105
X5.7913 Y3.6035 Z-0.1813 I0.0075 J0.01
X5.7893 Y3.607 Z-0.184 I0.0095 J0.0081
X5.7884 Y3.6116 Z-0.185 I0.0116 J0.0047
G1 Y3.6714
G2 X5.7977 Y3.6741 I0.0051
G1 X5.8444 Y3.6002
G2 X5.8383 Y3.5892 I-0.006 J-0.0038
G1 X5.8011
G2 X5.7884 Y3.602 J0.0128
G1 Y3.6116
G3 X5.7654 Y3.646 I-0.0372
G2 X5.7425 Y3.6804 I0.0143 J0.0344
G1 Y3.8298
G2 X5.7519 Y3.8325 I0.0051
G1 X5.9275 Y3.5544
G2 X5.9215 Y3.5434 I-0.006 J-0.0038
G1 X5.7553
G2 X5.7425 Y3.5562 J0.0128
G1 Y3.6804
G3 X5.7056 Y3.7358 I-0.06
G2 X5.6687 Y3.7912 I0.0231 J0.0554
G1 Y4.0851
G2 X5.678 Y4.0878 I0.0051
G1 X6.0616 Y3.4805
G2 X6.0555 Y3.4696 I-0.006 J-0.0038
G1 X5.6814
G2 X5.6687 Y3.4823 J0.0128
G1 Y3.7912
G3 X5.6317 Y3.8466 I-0.06
G2 X5.5948 Y3.902 I0.0231 J0.0554
G1 Y4.3404
G2 X5.6041 Y4.3431 I0.0051
G1 X6.1956 Y3.4066
G2 X6.1895 Y3.3957 I-0.006 J-0.0038
G1 X5.6076
G2 X5.5948 Y3.4085 J0.0128
G1 Y3.902
G3 X5.5578 Y3.9574 I-0.06
G2 X5.5209 Y4.0128 I0.0231 J0.0554
G1 Y4.5957
G2 X5.5302 Y4.5984 I0.0051
G1 X6.3296 Y3.3328
G2 X6.3236 Y3.3218 I-0.006 J-0.0038
G1 X5.5337
G2 X5.5209 Y3.3346 J0.0128
G1 Y4.0128
G3 X5.4839 Y4.0683 I-0.0602
G2 X5.4468 Y4.1239 I0.0231 J0.0556
G1 Y4.8692
X6.4709 Y3.2477
X5.4468
Y4.1239
G2 X5.4477 Y4.1286 Z-0.184 I0.0125
X5.4498 Y4.132 Z-0.1813 I0.0116 J-0.0047
X5.4518 Y4.1339 Z-0.1773 I0.0095 J-0.0081
X5.4526 Y4.1344 Z-0.1725 I0.0075 J-0.01
G0 Z0.2
X4.1573 Y3.3457
G1 Z0.1 F40.38
Z-0.0275
G2 X4.158 Y3.3452 Z-0.0323 I-0.0068 J-0.0105
X4.16 Y3.3433 Z-0.0363 I-0.0075 J-0.01
X4.1621 Y3.3399 Z-0.039 I-0.0095 J-0.0081
X4.163 Y3.3352 Z-0.04 I-0.0116 J-0.0047
G1 Y3.3193
G2 X4.1502 Y3.3066 I-0.0128
G1 X4.1183
G2 X4.1057 Y3.3192 J0.0126
G1 Y5.0511
G2 X4.1184 Y5.0639 I0.0128
G1 X4.1502
G2 X4.163 Y5.0511 J-0.0128
G1 Y3.3352
G3 X4.1881 Y3.2944 I0.0458
G2 X4.177 Y3.2477 I-0.0111 J-0.022
G1 X4.0843
G2 X4.0468 Y3.2852 J0.0375
G1 Y5.0852
G2 X4.0843 Y5.1227 I0.0375
G1 X4.2218
Y3.2477
X4.177
G2 X4.1693 Y3.2535 J0.008
G1 X4.1453 Y3.3368
G2 X4.1573 Y3.3457 I0.0077 J0.0022
G1 Z-0.0675
G2 X4.158 Y3.3452 Z-0.0723 I-0.0068 J-0.0105
X4.16 Y3.3433 Z-0.0763 I-0.0075 J-0.01
X4.1621 Y3.3399 Z-0.079 I-0.0095 J-0.0081
X4.163 Y3.3352 Z-0.08 I-0.0116 J-0.0047
G1 Y3.3193
G2 X4.1502 Y3.3066 I-0.0128
G1 X4.1183
G2 X4.1057 Y3.3192 J0.0126
G1 Y5.0511
G2 X4.1184 Y5.0639 I0.0128
G1 X4.1502
G2 X4.163 Y5.0511 J-0.0128
G1 Y3.3352
G3 X4.1881 Y3.2944 I0.0458
G2 X4.177 Y3.2477 I-0.0111 J-0.022
G1 X4.0843
G2 X4.0468 Y3.2852 J0.0375
G1 Y5.0852
G2 X4.0843 Y5.1227 I0.0375
G1 X4.2218
Y3.2477
X4.177
G2 X4.1693 Y3.2535 J0.008
G1 X4.1453 Y3.3368
G2 X4.1573 Y3.3457 I0.0077 J0.0022
G1 Z-0.1075
G2 X4.158 Y3.3452 Z-0.1123 I-0.0068 J-0.0105
X4.16 Y3.3433 Z-0.1163 I-0.0075 J-0.01
X4.1621 Y3.3399 Z-0.119 I-0.0095 J-0.0081
X4.163 Y3.3352 Z-0.12 I-0.0116 J-0.0047
G1 Y3.3193
G2 X4.1502 Y3.3066 I-0.0128
G1 X4.1183
G2 X4.1057 Y3.3192 J0.0126
G1 Y5.0511
G2 X4.1184 Y5.0639 I0.0128
G1 X4.1502
G2 X4.163 Y5.0511 J-0.0128
G1 Y3.3352
G3 X4.1881 Y3.2944 I0.0458
G2 X4.177 Y3.2477 I-0.0111 J-0.022
G1 X4.0843
G2 X4.0468 Y3.2852 J0.0375
G1 Y5.0852
G2 X4.0843 Y5.1227 I0.0375
G1 X4.2218
Y3.2477
X4.177
G2 X4.1693 Y3.2535 J0.008
G1 X4.1453 Y3.3368
G2 X4.1573 Y3.3457 I0.0077 J0.0022
G1 Z-0.1475
G2 X4.158 Y3.3452 Z-0.1523 I-0.0068 J-0.0105
X4.16 Y3.3433 Z-0.1563 I-0.0075 J-0.01
X4.1621 Y3.3399 Z-0.159 I-0.0095 J-0.0081
X4.163 Y3.3352 Z-0.16 I-0.0116 J-0.0047
G1 Y3.3193
G2 X4.1502 Y3.3066 I-0.0128
G1 X4.1183
G2 X4.1057 Y3.3192 J0.0126
G1 Y5.0511
G2 X4.1184 Y5.0639 I0.0128
G1 X4.1502
G2 X4.163 Y5.0511 J-0.0128
G1 Y3.3352
G3 X4.1881 Y3.2944 I0.0458
G2 X4.177 Y3.2477 I-0.0111 J-0.022
G1 X4.0843
G2 X4.0468 Y3.2852 J0.0375
G1 Y5.0852
G2 X4.0843 Y5.1227 I0.0375
G1 X4.2218
Y3.2477
X4.177
G2 X4.1693 Y3.2535 J0.008
G1 X4.1453 Y3.3368
G2 X4.1573 Y3.3457 I0.0077 J0.0022
G1 Z-0.1725
G2 X4.158 Y3.3452 Z-0.1773 I-0.0068 J-0.0105
X4.16 Y3.3433 Z-0.1813 I-0.0075 J-0.01
X4.1621 Y3.3399 Z-0.184 I-0.0095 J-0.0081
X4.163 Y3.3352 Z-0.185 I-0.0116 J-0.0047
G1 Y3.3193
G2 X4.1502 Y3.3066 I-0.0128
G1 X4.1183
G2 X4.1057 Y3.3192 J0.0126
G1 Y5.0511
G2 X4.1184 Y5.0639 I0.0128
G1 X4.1502
G2 X4.163 Y5.0511 J-0.0128
G1 Y3.3352
G3 X4.1881 Y3.2944 I0.0458
G2 X4.177 Y3.2477 I-0.0111 J-0.022
G1 X4.0843
G2 X4.0468 Y3.2852 J0.0375
G1 Y5.0852
G2 X4.0843 Y5.1227 I0.0375
G1 X4.2218
Y3.2477
X4.177
G2 X4.1723 Y3.2486 Z-0.184 J0.0125
X4.1689 Y3.2507 Z-0.1813 I0.0047 J0.0116
X4.167 Y3.2527 Z-0.1773 I0.0081 J0.0095
X4.1665 Y3.2535 Z-0.1725 I0.01 J0.0075
G0 Z0.6
M9
M30
%
