%
(InsertMonogram_part1)
(T1  D=0.125 CR=0 - ZMIN=-0.185 - flat end mill)
G90 G94
G17
G20

(2D Pocket2)
M9
T1 M6
S11028 M3
G54
M8
G0 X7.2969 Y4.7515
Z0.6
Z0.2
G1 Z0.1 F40.38
Z-0.0275
G2 X7.2977 Y4.7509 Z-0.0323 I-0.0068 J-0.0105
X7.2997 Y4.7491 Z-0.0363 I-0.0075 J-0.01
X7.3017 Y4.7456 Z-0.039 I-0.0095 J-0.0081
X7.3027 Y4.7409 Z-0.04 I-0.0116 J-0.0047
G1 Y4.7162
G2 X7.2933 Y4.7135 I-0.0051
G1 X7.2752 Y4.7422
G2 X7.2812 Y4.7532 I0.006 J0.0038
G1 X7.2932
G2 X7.3027 Y4.7438 J-0.0094
G1 Y4.7409
G3 X7.3396 Y4.6855 I0.06
G2 X7.3765 Y4.6301 I-0.0231 J-0.0554
G1 Y4.4609
G2 X7.3672 Y4.4582 I-0.0051
G1 X7.1411 Y4.8161
G2 X7.1472 Y4.827 I0.006 J0.0038
G1 X7.3638
G2 X7.3765 Y4.8143 J-0.0128
G1 Y4.6301
G3 X7.4135 Y4.5747 I0.06
G2 X7.4504 Y4.5193 I-0.0231 J-0.0554
G1 Y4.2055
G2 X7.4411 Y4.2028 I-0.0051
G1 X7.0071 Y4.89
G2 X7.0131 Y4.9009 I0.006 J0.0038
G1 X7.4376
G2 X7.4504 Y4.8881 J-0.0128
G1 Y4.5193
G3 X7.4873 Y4.4639 I0.06
G2 X7.5243 Y4.4085 I-0.0231 J-0.0554
G1 Y3.9502
G2 X7.5149 Y3.9475 I-0.0051
G1 X6.8731 Y4.9638
G2 X6.8791 Y4.9748 I0.006 J0.0038
G1 X7.5115
G2 X7.5243 Y4.962 J-0.0128
G1 Y4.4085
G3 X7.5612 Y4.3531 I0.06
G2 X7.5982 Y4.2977 I-0.0231 J-0.0554
G1 Y3.6949
G2 X7.5888 Y3.6922 I-0.0051
G1 X6.739 Y5.0377
G2 X6.7451 Y5.0487 I0.006 J0.0038
G1 X7.5854
G2 X7.5982 Y5.0359 J-0.0128
G1 Y4.2977
G3 X7.6352 Y4.2421 I0.0602
G2 X7.6722 Y4.1866 I-0.0231 J-0.0556
G1 Y3.4214
X6.5977 Y5.1227
X7.6722
Y4.1866
G2 X7.6576 Y4.1821 I-0.008
G1 X7.2859 Y4.7403
G2 X7.2969 Y4.7515 I0.0067 J0.0044
G1 Z-0.0675
G2 X7.2977 Y4.7509 Z-0.0723 I-0.0068 J-0.0105
X7.2997 Y4.7491 Z-0.0763 I-0.0075 J-0.01
X7.3017 Y4.7456 Z-0.079 I-0.0095 J-0.0081
X7.3027 Y4.7409 Z-0.08 I-0.0116 J-0.0047
G1 Y4.7162
G2 X7.2933 Y4.7135 I-0.0051
G1 X7.2752 Y4.7422
G2 X7.2812 Y4.7532 I0.006 J0.0038
G1 X7.2932
G2 X7.3027 Y4.7438 J-0.0094
G1 Y4.7409
G3 X7.3396 Y4.6855 I0.06
G2 X7.3765 Y4.6301 I-0.0231 J-0.0554
G1 Y4.4609
G2 X7.3672 Y4.4582 I-0.0051
G1 X7.1411 Y4.8161
G2 X7.1472 Y4.827 I0.006 J0.0038
G1 X7.3638
G2 X7.3765 Y4.8143 J-0.0128
G1 Y4.6301
G3 X7.4135 Y4.5747 I0.06
G2 X7.4504 Y4.5193 I-0.0231 J-0.0554
G1 Y4.2055
G2 X7.4411 Y4.2028 I-0.0051
G1 X7.0071 Y4.89
G2 X7.0131 Y4.9009 I0.006 J0.0038
G1 X7.4376
G2 X7.4504 Y4.8881 J-0.0128
G1 Y4.5193
G3 X7.4873 Y4.4639 I0.06
G2 X7.5243 Y4.4085 I-0.0231 J-0.0554
G1 Y3.9502
G2 X7.5149 Y3.9475 I-0.0051
G1 X6.8731 Y4.9638
G2 X6.8791 Y4.9748 I0.006 J0.0038
G1 X7.5115
G2 X7.5243 Y4.962 J-0.0128
G1 Y4.4085
G3 X7.5612 Y4.3531 I0.06
G2 X7.5982 Y4.2977 I-0.0231 J-0.0554
G1 Y3.6949
G2 X7.5888 Y3.6922 I-0.0051
G1 X6.739 Y5.0377
G2 X6.7451 Y5.0487 I0.006 J0.0038
G1 X7.5854
G2 X7.5982 Y5.0359 J-0.0128
G1 Y4.2977
G3 X7.6352 Y4.2421 I0.0602
G2 X7.6722 Y4.1866 I-0.0231 J-0.0556
G1 Y3.4214
X6.5977 Y5.1227
X7.6722
Y4.1866
G2 X7.6576 Y4.1821 I-0.008
G1 X7.2859 Y4.7403
G2 X7.2969 Y4.7515 I0.0067 J0.0044
G1 Z-0.1075
G2 X7.2977 Y4.7509 Z-0.1123 I-0.0068 J-0.0105
X7.2997 Y4.7491 Z-0.1163 I-0.0075 J-0.01
X7.3017 Y4.7456 Z-0.119 I-0.0095 J-0.0081
X7.3027 Y4.7409 Z-0.12 I-0.0116 J-0.0047
G1 Y4.7162
G2 X7.2933 Y4.7135 I-0.0051
G1 X7.2752 Y4.7422
G2 X7.2812 Y4.7532 I0.006 J0.0038
G1 X7.2932
G2 X7.3027 Y4.7438 J-0.0094
G1 Y4.7409
G3 X7.3396 Y4.6855 I0.06
G2 X7.3765 Y4.6301 I-0.0231 J-0.0554
G1 Y4.4609
G2 X7.3672 Y4.4582 I-0.0051
G1 X7.1411 Y4.8161
G2 X7.1472 Y4.827 I0.006 J0.0038
G1 X7.3638
G2 X7.3765 Y4.8143 J-0.0128
G1 Y4.6301
G3 X7.4135 Y4.5747 I0.06
G2 X7.4504 Y4.5193 I-0.0231 J-0.0554
G1 Y4.2055
G2 X7.4411 Y4.2028 I-0.0051
G1 X7.0071 Y4.89
G2 X7.0131 Y4.9009 I0.006 J0.0038
G1 X7.4376
G2 X7.4504 Y4.8881 J-0.0128
G1 Y4.5193
G3 X7.4873 Y4.4639 I0.06
G2 X7.5243 Y4.4085 I-0.0231 J-0.0554
G1 Y3.9502
G2 X7.5149 Y3.9475 I-0.0051
G1 X6.8731 Y4.9638
G2 X6.8791 Y4.9748 I0.006 J0.0038
G1 X7.5115
G2 X7.5243 Y4.962 J-0.0128
G1 Y4.4085
G3 X7.5612 Y4.3531 I0.06
G2 X7.5982 Y4.2977 I-0.0231 J-0.0554
G1 Y3.6949
G2 X7.5888 Y3.6922 I-0.0051
G1 X6.739 Y5.0377
G2 X6.7451 Y5.0487 I0.006 J0.0038
G1 X7.5854
G2 X7.5982 Y5.0359 J-0.0128
G1 Y4.2977
G3 X7.6352 Y4.2421 I0.0602
G2 X7.6722 Y4.1866 I-0.0231 J-0.0556
G1 Y3.4214
X6.5977 Y5.1227
X7.6722
Y4.1866
G2 X7.6576 Y4.1821 I-0.008
G1 X7.2859 Y4.7403
G2 X7.2969 Y4.7515 I0.0067 J0.0044
G1 Z-0.1475
G2 X7.2977 Y4.7509 Z-0.1523 I-0.0068 J-0.0105
X7.2997 Y4.7491 Z-0.1563 I-0.0075 J-0.01
X7.3017 Y4.7456 Z-0.159 I-0.0095 J-0.0081
X7.3027 Y4.7409 Z-0.16 I-0.0116 J-0.0047
G1 Y4.7162
G2 X7.2933 Y4.7135 I-0.0051
G1 X7.2752 Y4.7422
G2 X7.2812 Y4.7532 I0.006 J0.0038
G1 X7.2932
G2 X7.3027 Y4.7438 J-0.0094
G1 Y4.7409
G3 X7.3396 Y4.6855 I0.06
G2 X7.3765 Y4.6301 I-0.0231 J-0.0554
G1 Y4.4609
G2 X7.3672 Y4.4582 I-0.0051
G1 X7.1411 Y4.8161
G2 X7.1472 Y4.827 I0.006 J0.0038
G1 X7.3638
G2 X7.3765 Y4.8143 J-0.0128
G1 Y4.6301
G3 X7.4135 Y4.5747 I0.06
G2 X7.4504 Y4.5193 I-0.0231 J-0.0554
G1 Y4.2055
G2 X7.4411 Y4.2028 I-0.0051
G1 X7.0071 Y4.89
G2 X7.0131 Y4.9009 I0.006 J0.0038
G1 X7.4376
G2 X7.4504 Y4.8881 J-0.0128
G1 Y4.5193
G3 X7.4873 Y4.4639 I0.06
G2 X7.5243 Y4.4085 I-0.0231 J-0.0554
G1 Y3.9502
G2 X7.5149 Y3.9475 I-0.0051
G1 X6.8731 Y4.9638
G2 X6.8791 Y4.9748 I0.006 J0.0038
G1 X7.5115
G2 X7.5243 Y4.962 J-0.0128
G1 Y4.4085
G3 X7.5612 Y4.3531 I0.06
G2 X7.5982 Y4.2977 I-0.0231 J-0.0554
G1 Y3.6949
G2 X7.5888 Y3.6922 I-0.0051
G1 X6.739 Y5.0377
G2 X6.7451 Y5.0487 I0.006 J0.0038
G1 X7.5854
G2 X7.5982 Y5.0359 J-0.0128
G1 Y4.2977
G3 X7.6352 Y4.2421 I0.0602
G2 X7.6722 Y4.1866 I-0.0231 J-0.0556
G1 Y3.4214
X6.5977 Y5.1227
X7.6722
Y4.1866
G2 X7.6576 Y4.1821 I-0.008
G1 X7.2859 Y4.7403
G2 X7.2969 Y4.7515 I0.0067 J0.0044
G1 Z-0.1725
G2 X7.2977 Y4.7509 Z-0.1773 I-0.0068 J-0.0105
X7.2997 Y4.7491 Z-0.1813 I-0.0075 J-0.01
X7.3017 Y4.7456 Z-0.184 I-0.0095 J-0.0081
X7.3027 Y4.7409 Z-0.185 I-0.0116 J-0.0047
G1 Y4.7162
G2 X7.2933 Y4.7135 I-0.0051
G1 X7.2752 Y4.7422
G2 X7.2812 Y4.7532 I0.006 J0.0038
G1 X7.2932
G2 X7.3027 Y4.7438 J-0.0094
G1 Y4.7409
G3 X7.3396 Y4.6855 I0.06
G2 X7.3765 Y4.6301 I-0.0231 J-0.0554
G1 Y4.4609
G2 X7.3672 Y4.4582 I-0.0051
G1 X7.1411 Y4.8161
G2 X7.1472 Y4.827 I0.006 J0.0038
G1 X7.3638
G2 X7.3765 Y4.8143 J-0.0128
G1 Y4.6301
G3 X7.4135 Y4.5747 I0.06
G2 X7.4504 Y4.5193 I-0.0231 J-0.0554
G1 Y4.2055
G2 X7.4411 Y4.2028 I-0.0051
G1 X7.0071 Y4.89
G2 X7.0131 Y4.9009 I0.006 J0.0038
G1 X7.4376
G2 X7.4504 Y4.8881 J-0.0128
G1 Y4.5193
G3 X7.4873 Y4.4639 I0.06
G2 X7.5243 Y4.4085 I-0.0231 J-0.0554
G1 Y3.9502
G2 X7.5149 Y3.9475 I-0.0051
G1 X6.8731 Y4.9638
G2 X6.8791 Y4.9748 I0.006 J0.0038
G1 X7.5115
G2 X7.5243 Y4.962 J-0.0128
G1 Y4.4085
G3 X7.5612 Y4.3531 I0.06
G2 X7.5982 Y4.2977 I-0.0231 J-0.0554
G1 Y3.6949
G2 X7.5888 Y3.6922 I-0.0051
G1 X6.739 Y5.0377
G2 X6.7451 Y5.0487 I0.006 J0.0038
G1 X7.5854
G2 X7.5982 Y5.0359 J-0.0128
G1 Y4.2977
G3 X7.6352 Y4.2421 I0.0602
G2 X7.6722 Y4.1866 I-0.0231 J-0.0556
G1 Y3.4214
X6.5977 Y5.1227
X7.6722
Y4.1866
G2 X7.6713 Y4.1819 Z-0.184 I-0.0125
X7.6692 Y4.1785 Z-0.1813 I-0.0116 J0.0047
X7.6673 Y4.1766 Z-0.1773 I-0.0095 J0.0081
X7.6665 Y4.1761 Z-0.1725 I-0.0075 J0.01
G0 Z0.2
X8.9488 Y4.9747
G1 Z0.1 F40.38
Z-0.0275
G2 X8.948 Y4.9753 Z-0.0323 I0.0068 J0.0105
X8.946 Y4.9771 Z-0.0363 I0.0075 J0.01
X8.9439 Y4.9806 Z-0.039 I0.0095 J0.0081
X8.943 Y4.9852 Z-0.04 I0.0116 J0.0047
G1 Y5.0138
G2 X8.9558 Y5.0265 I0.0128
G1 X9.0129
G2 X9.0256 Y5.0138 J-0.0128
G1 Y3.3567
G2 X9.0129 Y3.3439 I-0.0128
G1 X8.9556
G2 X8.943 Y3.3565 J0.0126
G1 Y4.9852
G3 X8.9059 Y5.0504 I-0.0758
G2 X8.9258 Y5.1227 I0.0199 J0.0334
G1 X9.1218
Y3.2477
X8.8468
Y5.1227
X8.9258
G2 X8.9336 Y5.1163 J-0.008
G1 X8.9609 Y4.9831
G2 X8.9488 Y4.9747 I-0.0078 J-0.0016
G1 Z-0.0675
G2 X8.948 Y4.9753 Z-0.0723 I0.0068 J0.0105
X8.946 Y4.9771 Z-0.0763 I0.0075 J0.01
X8.9439 Y4.9806 Z-0.079 I0.0095 J0.0081
X8.943 Y4.9852 Z-0.08 I0.0116 J0.0047
G1 Y5.0138
G2 X8.9558 Y5.0265 I0.0128
G1 X9.0129
G2 X9.0256 Y5.0138 J-0.0128
G1 Y3.3567
G2 X9.0129 Y3.3439 I-0.0128
G1 X8.9556
G2 X8.943 Y3.3565 J0.0126
G1 Y4.9852
G3 X8.9059 Y5.0504 I-0.0758
G2 X8.9258 Y5.1227 I0.0199 J0.0334
G1 X9.1218
Y3.2477
X8.8468
Y5.1227
X8.9258
G2 X8.9336 Y5.1163 J-0.008
G1 X8.9609 Y4.9831
G2 X8.9488 Y4.9747 I-0.0078 J-0.0016
G1 Z-0.1075
G2 X8.948 Y4.9753 Z-0.1123 I0.0068 J0.0105
X8.946 Y4.9771 Z-0.1163 I0.0075 J0.01
X8.9439 Y4.9806 Z-0.119 I0.0095 J0.0081
X8.943 Y4.9852 Z-0.12 I0.0116 J0.0047
G1 Y5.0138
G2 X8.9558 Y5.0265 I0.0128
G1 X9.0129
G2 X9.0256 Y5.0138 J-0.0128
G1 Y3.3567
G2 X9.0129 Y3.3439 I-0.0128
G1 X8.9556
G2 X8.943 Y3.3565 J0.0126
G1 Y4.9852
G3 X8.9059 Y5.0504 I-0.0758
G2 X8.9258 Y5.1227 I0.0199 J0.0334
G1 X9.1218
Y3.2477
X8.8468
Y5.1227
X8.9258
G2 X8.9336 Y5.1163 J-0.008
G1 X8.9609 Y4.9831
G2 X8.9488 Y4.9747 I-0.0078 J-0.0016
G1 Z-0.1475
G2 X8.948 Y4.9753 Z-0.1523 I0.0068 J0.0105
X8.946 Y4.9771 Z-0.1563 I0.0075 J0.01
X8.9439 Y4.9806 Z-0.159 I0.0095 J0.0081
X8.943 Y4.9852 Z-0.16 I0.0116 J0.0047
G1 Y5.0138
G2 X8.9558 Y5.0265 I0.0128
G1 X9.0129
G2 X9.0256 Y5.0138 J-0.0128
G1 Y3.3567
G2 X9.0129 Y3.3439 I-0.0128
G1 X8.9556
G2 X8.943 Y3.3565 J0.0126
G1 Y4.9852
G3 X8.9059 Y5.0504 I-0.0758
G2 X8.9258 Y5.1227 I0.0199 J0.0334
G1 X9.1218
Y3.2477
X8.8468
Y5.1227
X8.9258
G2 X8.9336 Y5.1163 J-0.008
G1 X8.9609 Y4.9831
G2 X8.9488 Y4.9747 I-0.0078 J-0.0016
G1 Z-0.1725
G2 X8.948 Y4.9753 Z-0.1773 I0.0068 J0.0105
X8.946 Y4.9771 Z-0.1813 I0.0075 J0.01
X8.9439 Y4.9806 Z-0.184 I0.0095 J0.0081
X8.943 Y4.9852 Z-0.185 I0.0116 J0.0047
G1 Y5.0138
G2 X8.9558 Y5.0265 I0.0128
G1 X9.0129
G2 X9.0256 Y5.0138 J-0.0128
G1 Y3.3567
G2 X9.0129 Y3.3439 I-0.0128
G1 X8.9556
G2 X8.943 Y3.3565 J0.0126
G1 Y4.9852
G3 X8.9059 Y5.0504 I-0.0758
G2 X8.9258 Y5.1227 I0.0199 J0.0334
G1 X9.1218
Y3.2477
X8.8468
Y5.1227
X8.9258
G2 X8.9304 Y5.1218 Z-0.184 J-0.0125
X8.9339 Y5.1197 Z-0.1813 I-0.0047 J-0.0116
X8.9358 Y5.1178 Z-0.1773 I-0.0081 J-0.0095
X8.9363 Y5.117 Z-0.1725 I-0.01 J-0.0075
G0 Z0.2
X6.6675 Y6.793
G1 Z0.1 F40.38
Z-0.0275
G2 X6.668 Y6.7938 Z-0.0323 I0.0105 J-0.0068
X6.6699 Y6.7958 Z-0.0363 I0.01 J-0.0075
X6.6733 Y6.7979 Z-0.039 I0.0081 J-0.0095
X6.678 Y6.7988 Z-0.04 I0.0047 J-0.0116
G1 X6.6953
G2 X6.7081 Y6.786 J-0.0128
G1 Y6.7514
G2 X6.6953 Y6.7386 I-0.0128
G1 X6.2523
G2 X6.2328 Y6.7497 J0.0226
G1 X6.2105 Y6.7877
G2 X6.2168 Y6.7988 I0.0063 J0.0037
G1 X6.678
G3 X6.7315 Y6.8353 J0.0575
G2 X6.7953 Y6.8233 I0.0307 J-0.012
G1 Y6.6642
G2 X6.7825 Y6.6514 I-0.0128
G1 X6.2025
G2 X6.183 Y6.6626 J0.0226
G1 X6.058 Y6.8749
G2 X6.0643 Y6.8859 I0.0063 J0.0037
G1 X6.7825
G2 X6.7953 Y6.8732 J-0.0128
G1 Y6.8233
G3 X6.8389 Y6.758 I0.0708
G2 X6.8824 Y6.6926 I-0.0272 J-0.0654
G1 Y6.577
G2 X6.8697 Y6.5643 I-0.0128
G1 X6.1526
G2 X6.1332 Y6.5754 J0.0226
G1 X5.9054 Y6.962
G2 X5.9118 Y6.9731 I0.0063 J0.0037
G1 X6.8697
G2 X6.8824 Y6.9603 J-0.0128
G1 Y6.6926
G3 X6.926 Y6.6272 I0.0708
G2 X6.9696 Y6.5618 I-0.0272 J-0.0654
G1 Y6.4899
G2 X6.9568 Y6.4771 I-0.0128
G1 X6.1028
G2 X6.0834 Y6.4882 J0.0226
G1 X5.7529 Y7.0492
G2 X5.7592 Y7.0603 I0.0063 J0.0037
G1 X6.9568
G2 X6.9696 Y7.0475 J-0.0128
G1 Y6.5618
G3 X7.0124 Y6.4968 I0.0708
G2 X7.0558 Y6.4323 I-0.0285 J-0.0661
G3 X7.0568 Y6.4186 I0.1354 J0.0029
G2 X7.0588 Y6.4021 I-3.2178 J-0.3976
X7.0479 Y6.3899 I-0.0108 J-0.0013
G1 X6.053
G2 X6.0335 Y6.401 J0.0226
G1 X5.6004 Y7.1364
G2 X5.6067 Y7.1475 I0.0063 J0.0037
G1 X7.044
G2 X7.0568 Y7.1347 J-0.0128
G1 X7.0558 Y6.4352
G3 Y6.4323 I0.1354
X7.1114 Y6.3627 I0.0734 J0.0016
G2 X7.1867 Y6.3151 I-0.0345 J-0.1379
G3 X7.1885 Y6.3129 I0.1565 J0.1286
G2 X7.1838 Y6.3027 I-0.0047 J-0.004
G1 X6.0029
G2 X5.9838 Y6.3136 J0.0221
G1 X5.4477 Y7.2238
G2 X5.4539 Y7.2346 I0.0062 J0.0037
G1 X7.1315
G2 X7.144 Y7.2221 J-0.0125
G1 X7.1422 Y6.4352
G3 X7.1545 Y6.37 I0.1794
X7.1867 Y6.3151 I0.1887 J0.0737
X7.2697 Y6.3005 I0.05 J0.0411
G2 X7.3509 Y6.3227 I0.0813 J-0.1371
G1 X7.7218
Y6.2249
X5.9458
X5.3051 Y7.3125
X7.2218
Y6.4352
G3 X7.3343 Y6.3227 I0.1125
G1 X7.3509
G2 X7.3523 Y6.3104 J-0.0063
G1 X7.3172 Y6.3024
G2 X7.312 Y6.3035 I-0.0014 J0.0061
G1 X6.7088 Y6.7641
X6.6699 Y6.7841
G2 X6.6675 Y6.793 I0.0028 J0.0056
G1 Z-0.0675
G2 X6.668 Y6.7938 Z-0.0723 I0.0105 J-0.0068
X6.6699 Y6.7958 Z-0.0763 I0.01 J-0.0075
X6.6733 Y6.7979 Z-0.079 I0.0081 J-0.0095
X6.678 Y6.7988 Z-0.08 I0.0047 J-0.0116
G1 X6.6953
G2 X6.7081 Y6.786 J-0.0128
G1 Y6.7514
G2 X6.6953 Y6.7386 I-0.0128
G1 X6.2523
G2 X6.2328 Y6.7497 J0.0226
G1 X6.2105 Y6.7877
G2 X6.2168 Y6.7988 I0.0063 J0.0037
G1 X6.678
G3 X6.7315 Y6.8353 J0.0575
G2 X6.7953 Y6.8233 I0.0307 J-0.012
G1 Y6.6642
G2 X6.7825 Y6.6514 I-0.0128
G1 X6.2025
G2 X6.183 Y6.6626 J0.0226
G1 X6.058 Y6.8749
G2 X6.0643 Y6.8859 I0.0063 J0.0037
G1 X6.7825
G2 X6.7953 Y6.8732 J-0.0128
G1 Y6.8233
G3 X6.8389 Y6.758 I0.0708
G2 X6.8824 Y6.6926 I-0.0272 J-0.0654
G1 Y6.577
G2 X6.8697 Y6.5643 I-0.0128
G1 X6.1526
G2 X6.1332 Y6.5754 J0.0226
G1 X5.9054 Y6.962
G2 X5.9118 Y6.9731 I0.0063 J0.0037
G1 X6.8697
G2 X6.8824 Y6.9603 J-0.0128
G1 Y6.6926
G3 X6.926 Y6.6272 I0.0708
G2 X6.9696 Y6.5618 I-0.0272 J-0.0654
G1 Y6.4899
G2 X6.9568 Y6.4771 I-0.0128
G1 X6.1028
G2 X6.0834 Y6.4882 J0.0226
G1 X5.7529 Y7.0492
G2 X5.7592 Y7.0603 I0.0063 J0.0037
G1 X6.9568
G2 X6.9696 Y7.0475 J-0.0128
G1 Y6.5618
G3 X7.0124 Y6.4968 I0.0708
G2 X7.0558 Y6.4323 I-0.0285 J-0.0661
G3 X7.0568 Y6.4186 I0.1354 J0.0029
G2 X7.0588 Y6.4021 I-3.2178 J-0.3976
X7.0479 Y6.3899 I-0.0108 J-0.0013
G1 X6.053
G2 X6.0335 Y6.401 J0.0226
G1 X5.6004 Y7.1364
G2 X5.6067 Y7.1475 I0.0063 J0.0037
G1 X7.044
G2 X7.0568 Y7.1347 J-0.0128
G1 X7.0558 Y6.4352
G3 Y6.4323 I0.1354
X7.1114 Y6.3627 I0.0734 J0.0016
G2 X7.1867 Y6.3151 I-0.0345 J-0.1379
G3 X7.1885 Y6.3129 I0.1565 J0.1286
G2 X7.1838 Y6.3027 I-0.0047 J-0.004
G1 X6.0029
G2 X5.9838 Y6.3136 J0.0221
G1 X5.4477 Y7.2238
G2 X5.4539 Y7.2346 I0.0062 J0.0037
G1 X7.1315
G2 X7.144 Y7.2221 J-0.0125
G1 X7.1422 Y6.4352
G3 X7.1545 Y6.37 I0.1794
X7.1867 Y6.3151 I0.1887 J0.0737
X7.2697 Y6.3005 I0.05 J0.0411
G2 X7.3509 Y6.3227 I0.0813 J-0.1371
G1 X7.7218
Y6.2249
X5.9458
X5.3051 Y7.3125
X7.2218
Y6.4352
G3 X7.3343 Y6.3227 I0.1125
G1 X7.3509
G2 X7.3523 Y6.3104 J-0.0063
G1 X7.3172 Y6.3024
G2 X7.312 Y6.3035 I-0.0014 J0.0061
G1 X6.7088 Y6.7641
X6.6699 Y6.7841
G2 X6.6675 Y6.793 I0.0028 J0.0056
G1 Z-0.1075
G2 X6.668 Y6.7938 Z-0.1123 I0.0105 J-0.0068
X6.6699 Y6.7958 Z-0.1163 I0.01 J-0.0075
X6.6733 Y6.7979 Z-0.119 I0.0081 J-0.0095
X6.678 Y6.7988 Z-0.12 I0.0047 J-0.0116
G1 X6.6953
G2 X6.7081 Y6.786 J-0.0128
G1 Y6.7514
G2 X6.6953 Y6.7386 I-0.0128
G1 X6.2523
G2 X6.2328 Y6.7497 J0.0226
G1 X6.2105 Y6.7877
G2 X6.2168 Y6.7988 I0.0063 J0.0037
G1 X6.678
G3 X6.7315 Y6.8353 J0.0575
G2 X6.7953 Y6.8233 I0.0307 J-0.012
G1 Y6.6642
G2 X6.7825 Y6.6514 I-0.0128
G1 X6.2025
G2 X6.183 Y6.6626 J0.0226
G1 X6.058 Y6.8749
G2 X6.0643 Y6.8859 I0.0063 J0.0037
G1 X6.7825
G2 X6.7953 Y6.8732 J-0.0128
G1 Y6.8233
G3 X6.8389 Y6.758 I0.0708
G2 X6.8824 Y6.6926 I-0.0272 J-0.0654
G1 Y6.577
G2 X6.8697 Y6.5643 I-0.0128
G1 X6.1526
G2 X6.1332 Y6.5754 J0.0226
G1 X5.9054 Y6.962
G2 X5.9118 Y6.9731 I0.0063 J0.0037
G1 X6.8697
G2 X6.8824 Y6.9603 J-0.0128
G1 Y6.6926
G3 X6.926 Y6.6272 I0.0708
G2 X6.9696 Y6.5618 I-0.0272 J-0.0654
G1 Y6.4899
G2 X6.9568 Y6.4771 I-0.0128
G1 X6.1028
G2 X6.0834 Y6.4882 J0.0226
G1 X5.7529 Y7.0492
G2 X5.7592 Y7.0603 I0.0063 J0.0037
G1 X6.9568
G2 X6.9696 Y7.0475 J-0.0128
G1 Y6.5618
G3 X7.0124 Y6.4968 I0.0708
G2 X7.0558 Y6.4323 I-0.0285 J-0.0661
G3 X7.0568 Y6.4186 I0.1354 J0.0029
G2 X7.0588 Y6.4021 I-3.2178 J-0.3976
X7.0479 Y6.3899 I-0.0108 J-0.0013
G1 X6.053
G2 X6.0335 Y6.401 J0.0226
G1 X5.6004 Y7.1364
G2 X5.6067 Y7.1475 I0.0063 J0.0037
G1 X7.044
G2 X7.0568 Y7.1347 J-0.0128
G1 X7.0558 Y6.4352
G3 Y6.4323 I0.1354
X7.1114 Y6.3627 I0.0734 J0.0016
G2 X7.1867 Y6.3151 I-0.0345 J-0.1379
G3 X7.1885 Y6.3129 I0.1565 J0.1286
G2 X7.1838 Y6.3027 I-0.0047 J-0.004
G1 X6.0029
G2 X5.9838 Y6.3136 J0.0221
G1 X5.4477 Y7.2238
G2 X5.4539 Y7.2346 I0.0062 J0.0037
G1 X7.1315
G2 X7.144 Y7.2221 J-0.0125
G1 X7.1422 Y6.4352
G3 X7.1545 Y6.37 I0.1794
X7.1867 Y6.3151 I0.1887 J0.0737
X7.2697 Y6.3005 I0.05 J0.0411
G2 X7.3509 Y6.3227 I0.0813 J-0.1371
G1 X7.7218
Y6.2249
X5.9458
X5.3051 Y7.3125
X7.2218
Y6.4352
G3 X7.3343 Y6.3227 I0.1125
G1 X7.3509
G2 X7.3523 Y6.3104 J-0.0063
G1 X7.3172 Y6.3024
G2 X7.312 Y6.3035 I-0.0014 J0.0061
G1 X6.7088 Y6.7641
X6.6699 Y6.7841
G2 X6.6675 Y6.793 I0.0028 J0.0056
G1 Z-0.1475
G2 X6.668 Y6.7938 Z-0.1523 I0.0105 J-0.0068
X6.6699 Y6.7958 Z-0.1563 I0.01 J-0.0075
X6.6733 Y6.7979 Z-0.159 I0.0081 J-0.0095
X6.678 Y6.7988 Z-0.16 I0.0047 J-0.0116
G1 X6.6953
G2 X6.7081 Y6.786 J-0.0128
G1 Y6.7514
G2 X6.6953 Y6.7386 I-0.0128
G1 X6.2523
G2 X6.2328 Y6.7497 J0.0226
G1 X6.2105 Y6.7877
G2 X6.2168 Y6.7988 I0.0063 J0.0037
G1 X6.678
G3 X6.7315 Y6.8353 J0.0575
G2 X6.7953 Y6.8233 I0.0307 J-0.012
G1 Y6.6642
G2 X6.7825 Y6.6514 I-0.0128
G1 X6.2025
G2 X6.183 Y6.6626 J0.0226
G1 X6.058 Y6.8749
G2 X6.0643 Y6.8859 I0.0063 J0.0037
G1 X6.7825
G2 X6.7953 Y6.8732 J-0.0128
G1 Y6.8233
G3 X6.8389 Y6.758 I0.0708
G2 X6.8824 Y6.6926 I-0.0272 J-0.0654
G1 Y6.577
G2 X6.8697 Y6.5643 I-0.0128
G1 X6.1526
G2 X6.1332 Y6.5754 J0.0226
G1 X5.9054 Y6.962
G2 X5.9118 Y6.9731 I0.0063 J0.0037
G1 X6.8697
G2 X6.8824 Y6.9603 J-0.0128
G1 Y6.6926
G3 X6.926 Y6.6272 I0.0708
G2 X6.9696 Y6.5618 I-0.0272 J-0.0654
G1 Y6.4899
G2 X6.9568 Y6.4771 I-0.0128
G1 X6.1028
G2 X6.0834 Y6.4882 J0.0226
G1 X5.7529 Y7.0492
G2 X5.7592 Y7.0603 I0.0063 J0.0037
G1 X6.9568
G2 X6.9696 Y7.0475 J-0.0128
G1 Y6.5618
G3 X7.0124 Y6.4968 I0.0708
G2 X7.0558 Y6.4323 I-0.0285 J-0.0661
G3 X7.0568 Y6.4186 I0.1354 J0.0029
G2 X7.0588 Y6.4021 I-3.2178 J-0.3976
X7.0479 Y6.3899 I-0.0108 J-0.0013
G1 X6.053
G2 X6.0335 Y6.401 J0.0226
G1 X5.6004 Y7.1364
G2 X5.6067 Y7.1475 I0.0063 J0.0037
G1 X7.044
G2 X7.0568 Y7.1347 J-0.0128
G1 X7.0558 Y6.4352
G3 Y6.4323 I0.1354
X7.1114 Y6.3627 I0.0734 J0.0016
G2 X7.1867 Y6.3151 I-0.0345 J-0.1379
G3 X7.1885 Y6.3129 I0.1565 J0.1286
G2 X7.1838 Y6.3027 I-0.0047 J-0.004
G1 X6.0029
G2 X5.9838 Y6.3136 J0.0221
G1 X5.4477 Y7.2238
G2 X5.4539 Y7.2346 I0.0062 J0.0037
G1 X7.1315
G2 X7.144 Y7.2221 J-0.0125
G1 X7.1422 Y6.4352
G3 X7.1545 Y6.37 I0.1794
X7.1867 Y6.3151 I0.1887 J0.0737
X7.2697 Y6.3005 I0.05 J0.0411
G2 X7.3509 Y6.3227 I0.0813 J-0.1371
G1 X7.7218
Y6.2249
X5.9458
X5.3051 Y7.3125
X7.2218
Y6.4352
G3 X7.3343 Y6.3227 I0.1125
G1 X7.3509
G2 X7.3523 Y6.3104 J-0.0063
G1 X7.3172 Y6.3024
G2 X7.312 Y6.3035 I-0.0014 J0.0061
G1 X6.7088 Y6.7641
X6.6699 Y6.7841
G2 X6.6675 Y6.793 I0.0028 J0.0056
G1 Z-0.1725
G2 X6.668 Y6.7938 Z-0.1773 I0.0105 J-0.0068
X6.6699 Y6.7958 Z-0.1813 I0.01 J-0.0075
X6.6733 Y6.7979 Z-0.184 I0.0081 J-0.0095
X6.678 Y6.7988 Z-0.185 I0.0047 J-0.0116
G1 X6.6953
G2 X6.7081 Y6.786 J-0.0128
G1 Y6.7514
G2 X6.6953 Y6.7386 I-0.0128
G1 X6.2523
G2 X6.2328 Y6.7497 J0.0226
G1 X6.2105 Y6.7877
G2 X6.2168 Y6.7988 I0.0063 J0.0037
G1 X6.678
G3 X6.7315 Y6.8353 J0.0575
G2 X6.7953 Y6.8233 I0.0307 J-0.012
G1 Y6.6642
G2 X6.7825 Y6.6514 I-0.0128
G1 X6.2025
G2 X6.183 Y6.6626 J0.0226
G1 X6.058 Y6.8749
G2 X6.0643 Y6.8859 I0.0063 J0.0037
G1 X6.7825
G2 X6.7953 Y6.8732 J-0.0128
G1 Y6.8233
G3 X6.8389 Y6.758 I0.0708
G2 X6.8824 Y6.6926 I-0.0272 J-0.0654
G1 Y6.577
G2 X6.8697 Y6.5643 I-0.0128
G1 X6.1526
G2 X6.1332 Y6.5754 J0.0226
G1 X5.9054 Y6.962
G2 X5.9118 Y6.9731 I0.0063 J0.0037
G1 X6.8697
G2 X6.8824 Y6.9603 J-0.0128
G1 Y6.6926
G3 X6.926 Y6.6272 I0.0708
G2 X6.9696 Y6.5618 I-0.0272 J-0.0654
G1 Y6.4899
G2 X6.9568 Y6.4771 I-0.0128
G1 X6.1028
G2 X6.0834 Y6.4882 J0.0226
G1 X5.7529 Y7.0492
G2 X5.7592 Y7.0603 I0.0063 J0.0037
G1 X6.9568
G2 X6.9696 Y7.0475 J-0.0128
G1 Y6.5618
G3 X7.0124 Y6.4968 I0.0708
G2 X7.0558 Y6.4323 I-0.0285 J-0.0661
G3 X7.0568 Y6.4186 I0.1354 J0.0029
G2 X7.0588 Y6.4021 I-3.2178 J-0.3976
X7.0479 Y6.3899 I-0.0108 J-0.0013
G1 X6.053
G2 X6.0335 Y6.401 J0.0226
G1 X5.6004 Y7.1364
G2 X5.6067 Y7.1475 I0.0063 J0.0037
G1 X7.044
G2 X7.0568 Y7.1347 J-0.0128
G1 X7.0558 Y6.4352
G3 Y6.4323 I0.1354
X7.1114 Y6.3627 I0.0734 J0.0016
G2 X7.1867 Y6.3151 I-0.0345 J-0.1379
G3 X7.1885 Y6.3129 I0.1565 J0.1286
G2 X7.1838 Y6.3027 I-0.0047 J-0.004
G1 X6.0029
G2 X5.9838 Y6.3136 J0.0221
G1 X5.4477 Y7.2238
G2 X5.4539 Y7.2346 I0.0062 J0.0037
G1 X7.1315
G2 X7.144 Y7.2221 J-0.0125
G1 X7.1422 Y6.4352
G3 X7.1545 Y6.37 I0.1794
X7.1867 Y6.3151 I0.1887 J0.0737
X7.2697 Y6.3005 I0.05 J0.0411
G2 X7.3509 Y6.3227 I0.0813 J-0.1371
G1 X7.7218
Y6.2249
X5.9458
X5.3051 Y7.3125
X7.2218
Y6.4352
G3 X7.3343 Y6.3227 I0.1125
G1 X7.3509
G2 X7.3556 Y6.3218 Z-0.184 J-0.0125
X7.3591 Y6.3197 Z-0.1813 I-0.0047 J-0.0116
X7.3609 Y6.3178 Z-0.1773 I-0.0081 J-0.0095
X7.3615 Y6.317 Z-0.1725 I-0.01 J-0.0075
G0 Z0.2
X5.8212 Y3.595
G1 Z0.1 F40.38
Z-0.0275
G2 X5.8207 Y3.5942 Z-0.0323 I-0.0105 J0.0068
X5.8188 Y3.5922 Z-0.0363 I-0.01 J0.0075
X5.8154 Y3.5902 Z-0.039 I-0.0081 J0.0095
X5.8107 Y3.5892 Z-0.04 I-0.0047 J0.0116
G1 X5.801
G2 X5.7884 Y3.6019 J0.0126
G1 Y3.6714
G2 X5.7977 Y3.6741 I0.0051
G1 X5.8444 Y3.6002
G2 X5.8383 Y3.5892 I-0.006 J-0.0038
G1 X5.8107
G3 X5.7778 Y3.5724 J-0.0406
G2 X5.7425 Y3.5838 I-0.0158 J0.0114
G1 Y3.8298
G2 X5.7519 Y3.8325 I0.0051
G1 X5.9275 Y3.5544
G2 X5.9215 Y3.5434 I-0.006 J-0.0038
G1 X5.7551
G2 X5.7425 Y3.556 J0.0126
G1 Y3.5838
G3 X5.7056 Y3.6392 I-0.06
G2 X5.6687 Y3.6946 I0.0231 J0.0554
G1 Y4.0851
G2 X5.678 Y4.0878 I0.0051
G1 X6.0616 Y3.4805
G2 X6.0555 Y3.4696 I-0.006 J-0.0038
G1 X5.6813
G2 X5.6687 Y3.4822 J0.0126
G1 Y3.6946
G3 X5.6317 Y3.75 I-0.06
G2 X5.5948 Y3.8054 I0.0231 J0.0554
G1 Y4.3404
G2 X5.6041 Y4.3431 I0.0051
G1 X6.1956 Y3.4066
G2 X6.1895 Y3.3957 I-0.006 J-0.0038
G1 X5.6074
G2 X5.5948 Y3.4083 J0.0126
G1 Y3.8054
G3 X5.5578 Y3.8608 I-0.06
G2 X5.5209 Y3.9162 I0.0231 J0.0554
G1 Y4.5957
G2 X5.5302 Y4.5984 I0.0051
G1 X6.3296 Y3.3328
G2 X6.3236 Y3.3218 I-0.006 J-0.0038
G1 X5.5335
G2 X5.5209 Y3.3344 J0.0126
G1 Y3.9162
G3 X5.4839 Y3.9717 I-0.0602
G2 X5.4468 Y4.0273 I0.0231 J0.0556
G1 Y4.8692
X6.4709 Y3.2477
X5.4468
Y4.0273
G2 X5.461 Y4.0324 I0.008
G1 X5.8206 Y3.6045
G2 X5.8212 Y3.595 I-0.0061 J-0.0051
G1 Z-0.0675
G2 X5.8207 Y3.5942 Z-0.0723 I-0.0105 J0.0068
X5.8188 Y3.5922 Z-0.0763 I-0.01 J0.0075
X5.8154 Y3.5902 Z-0.079 I-0.0081 J0.0095
X5.8107 Y3.5892 Z-0.08 I-0.0047 J0.0116
G1 X5.801
G2 X5.7884 Y3.6019 J0.0126
G1 Y3.6714
G2 X5.7977 Y3.6741 I0.0051
G1 X5.8444 Y3.6002
G2 X5.8383 Y3.5892 I-0.006 J-0.0038
G1 X5.8107
G3 X5.7778 Y3.5724 J-0.0406
G2 X5.7425 Y3.5838 I-0.0158 J0.0114
G1 Y3.8298
G2 X5.7519 Y3.8325 I0.0051
G1 X5.9275 Y3.5544
G2 X5.9215 Y3.5434 I-0.006 J-0.0038
G1 X5.7551
G2 X5.7425 Y3.556 J0.0126
G1 Y3.5838
G3 X5.7056 Y3.6392 I-0.06
G2 X5.6687 Y3.6946 I0.0231 J0.0554
G1 Y4.0851
G2 X5.678 Y4.0878 I0.0051
G1 X6.0616 Y3.4805
G2 X6.0555 Y3.4696 I-0.006 J-0.0038
G1 X5.6813
G2 X5.6687 Y3.4822 J0.0126
G1 Y3.6946
G3 X5.6317 Y3.75 I-0.06
G2 X5.5948 Y3.8054 I0.0231 J0.0554
G1 Y4.3404
G2 X5.6041 Y4.3431 I0.0051
G1 X6.1956 Y3.4066
G2 X6.1895 Y3.3957 I-0.006 J-0.0038
G1 X5.6074
G2 X5.5948 Y3.4083 J0.0126
G1 Y3.8054
G3 X5.5578 Y3.8608 I-0.06
G2 X5.5209 Y3.9162 I0.0231 J0.0554
G1 Y4.5957
G2 X5.5302 Y4.5984 I0.0051
G1 X6.3296 Y3.3328
G2 X6.3236 Y3.3218 I-0.006 J-0.0038
G1 X5.5335
G2 X5.5209 Y3.3344 J0.0126
G1 Y3.9162
G3 X5.4839 Y3.9717 I-0.0602
G2 X5.4468 Y4.0273 I0.0231 J0.0556
G1 Y4.8692
X6.4709 Y3.2477
X5.4468
Y4.0273
G2 X5.461 Y4.0324 I0.008
G1 X5.8206 Y3.6045
G2 X5.8212 Y3.595 I-0.0061 J-0.0051
G1 Z-0.1075
G2 X5.8207 Y3.5942 Z-0.1123 I-0.0105 J0.0068
X5.8188 Y3.5922 Z-0.1163 I-0.01 J0.0075
X5.8154 Y3.5902 Z-0.119 I-0.0081 J0.0095
X5.8107 Y3.5892 Z-0.12 I-0.0047 J0.0116
G1 X5.801
G2 X5.7884 Y3.6019 J0.0126
G1 Y3.6714
G2 X5.7977 Y3.6741 I0.0051
G1 X5.8444 Y3.6002
G2 X5.8383 Y3.5892 I-0.006 J-0.0038
G1 X5.8107
G3 X5.7778 Y3.5724 J-0.0406
G2 X5.7425 Y3.5838 I-0.0158 J0.0114
G1 Y3.8298
G2 X5.7519 Y3.8325 I0.0051
G1 X5.9275 Y3.5544
G2 X5.9215 Y3.5434 I-0.006 J-0.0038
G1 X5.7551
G2 X5.7425 Y3.556 J0.0126
G1 Y3.5838
G3 X5.7056 Y3.6392 I-0.06
G2 X5.6687 Y3.6946 I0.0231 J0.0554
G1 Y4.0851
G2 X5.678 Y4.0878 I0.0051
G1 X6.0616 Y3.4805
G2 X6.0555 Y3.4696 I-0.006 J-0.0038
G1 X5.6813
G2 X5.6687 Y3.4822 J0.0126
G1 Y3.6946
G3 X5.6317 Y3.75 I-0.06
G2 X5.5948 Y3.8054 I0.0231 J0.0554
G1 Y4.3404
G2 X5.6041 Y4.3431 I0.0051
G1 X6.1956 Y3.4066
G2 X6.1895 Y3.3957 I-0.006 J-0.0038
G1 X5.6074
G2 X5.5948 Y3.4083 J0.0126
G1 Y3.8054
G3 X5.5578 Y3.8608 I-0.06
G2 X5.5209 Y3.9162 I0.0231 J0.0554
G1 Y4.5957
G2 X5.5302 Y4.5984 I0.0051
G1 X6.3296 Y3.3328
G2 X6.3236 Y3.3218 I-0.006 J-0.0038
G1 X5.5335
G2 X5.5209 Y3.3344 J0.0126
G1 Y3.9162
G3 X5.4839 Y3.9717 I-0.0602
G2 X5.4468 Y4.0273 I0.0231 J0.0556
G1 Y4.8692
X6.4709 Y3.2477
X5.4468
Y4.0273
G2 X5.461 Y4.0324 I0.008
G1 X5.8206 Y3.6045
G2 X5.8212 Y3.595 I-0.0061 J-0.0051
G1 Z-0.1475
G2 X5.8207 Y3.5942 Z-0.1523 I-0.0105 J0.0068
X5.8188 Y3.5922 Z-0.1563 I-0.01 J0.0075
X5.8154 Y3.5902 Z-0.159 I-0.0081 J0.0095
X5.8107 Y3.5892 Z-0.16 I-0.0047 J0.0116
G1 X5.801
G2 X5.7884 Y3.6019 J0.0126
G1 Y3.6714
G2 X5.7977 Y3.6741 I0.0051
G1 X5.8444 Y3.6002
G2 X5.8383 Y3.5892 I-0.006 J-0.0038
G1 X5.8107
G3 X5.7778 Y3.5724 J-0.0406
G2 X5.7425 Y3.5838 I-0.0158 J0.0114
G1 Y3.8298
G2 X5.7519 Y3.8325 I0.0051
G1 X5.9275 Y3.5544
G2 X5.9215 Y3.5434 I-0.006 J-0.0038
G1 X5.7551
G2 X5.7425 Y3.556 J0.0126
G1 Y3.5838
G3 X5.7056 Y3.6392 I-0.06
G2 X5.6687 Y3.6946 I0.0231 J0.0554
G1 Y4.0851
G2 X5.678 Y4.0878 I0.0051
G1 X6.0616 Y3.4805
G2 X6.0555 Y3.4696 I-0.006 J-0.0038
G1 X5.6813
G2 X5.6687 Y3.4822 J0.0126
G1 Y3.6946
G3 X5.6317 Y3.75 I-0.06
G2 X5.5948 Y3.8054 I0.0231 J0.0554
G1 Y4.3404
G2 X5.6041 Y4.3431 I0.0051
G1 X6.1956 Y3.4066
G2 X6.1895 Y3.3957 I-0.006 J-0.0038
G1 X5.6074
G2 X5.5948 Y3.4083 J0.0126
G1 Y3.8054
G3 X5.5578 Y3.8608 I-0.06
G2 X5.5209 Y3.9162 I0.0231 J0.0554
G1 Y4.5957
G2 X5.5302 Y4.5984 I0.0051
G1 X6.3296 Y3.3328
G2 X6.3236 Y3.3218 I-0.006 J-0.0038
G1 X5.5335
G2 X5.5209 Y3.3344 J0.0126
G1 Y3.9162
G3 X5.4839 Y3.9717 I-0.0602
G2 X5.4468 Y4.0273 I0.0231 J0.0556
G1 Y4.8692
X6.4709 Y3.2477
X5.4468
Y4.0273
G2 X5.461 Y4.0324 I0.008
G1 X5.8206 Y3.6045
G2 X5.8212 Y3.595 I-0.0061 J-0.0051
G1 Z-0.1725
G2 X5.8207 Y3.5942 Z-0.1773 I-0.0105 J0.0068
X5.8188 Y3.5922 Z-0.1813 I-0.01 J0.0075
X5.8154 Y3.5902 Z-0.184 I-0.0081 J0.0095
X5.8107 Y3.5892 Z-0.185 I-0.0047 J0.0116
G1 X5.801
G2 X5.7884 Y3.6019 J0.0126
G1 Y3.6714
G2 X5.7977 Y3.6741 I0.0051
G1 X5.8444 Y3.6002
G2 X5.8383 Y3.5892 I-0.006 J-0.0038
G1 X5.8107
G3 X5.7778 Y3.5724 J-0.0406
G2 X5.7425 Y3.5838 I-0.0158 J0.0114
G1 Y3.8298
G2 X5.7519 Y3.8325 I0.0051
G1 X5.9275 Y3.5544
G2 X5.9215 Y3.5434 I-0.006 J-0.0038
G1 X5.7551
G2 X5.7425 Y3.556 J0.0126
G1 Y3.5838
G3 X5.7056 Y3.6392 I-0.06
G2 X5.6687 Y3.6946 I0.0231 J0.0554
G1 Y4.0851
G2 X5.678 Y4.0878 I0.0051
G1 X6.0616 Y3.4805
G2 X6.0555 Y3.4696 I-0.006 J-0.0038
G1 X5.6813
G2 X5.6687 Y3.4822 J0.0126
G1 Y3.6946
G3 X5.6317 Y3.75 I-0.06
G2 X5.5948 Y3.8054 I0.0231 J0.0554
G1 Y4.3404
G2 X5.6041 Y4.3431 I0.0051
G1 X6.1956 Y3.4066
G2 X6.1895 Y3.3957 I-0.006 J-0.0038
G1 X5.6074
G2 X5.5948 Y3.4083 J0.0126
G1 Y3.8054
G3 X5.5578 Y3.8608 I-0.06
G2 X5.5209 Y3.9162 I0.0231 J0.0554
G1 Y4.5957
G2 X5.5302 Y4.5984 I0.0051
G1 X6.3296 Y3.3328
G2 X6.3236 Y3.3218 I-0.006 J-0.0038
G1 X5.5335
G2 X5.5209 Y3.3344 J0.0126
G1 Y3.9162
G3 X5.4839 Y3.9717 I-0.0602
G2 X5.4468 Y4.0273 I0.0231 J0.0556
G1 Y4.8692
X6.4709 Y3.2477
X5.4468
Y4.0273
G2 X5.4477 Y4.032 Z-0.184 I0.0125
X5.4498 Y4.0354 Z-0.1813 I0.0116 J-0.0047
X5.4518 Y4.0373 Z-0.1773 I0.0095 J-0.0081
X5.4526 Y4.0378 Z-0.1725 I0.0075 J-0.01
G0 Z0.2
X4.1114 Y5.0247
G1 Z0.1 F40.38
Z-0.0275
G2 X4.1106 Y5.0253 Z-0.0323 I0.0068 J0.0105
X4.1087 Y5.0271 Z-0.0363 I0.0075 J0.01
X4.1066 Y5.0306 Z-0.039 I0.0095 J0.0081
X4.1057 Y5.0352 Z-0.04 I0.0116 J0.0047
G1 Y5.0511
G2 X4.1184 Y5.0639 I0.0128
G1 X4.1502
G2 X4.163 Y5.0511 J-0.0128
G1 Y3.3193
G2 X4.1502 Y3.3066 I-0.0128
G1 X4.1184
G2 X4.1057 Y3.3193 J0.0128
G1 Y5.0352
G3 X4.0745 Y5.0709 I-0.036
G2 X4.0647 Y5.1172 I0.0034 J0.0249
X4.0843 Y5.1227 I0.0196 J-0.0319
G1 X4.2218
Y3.2477
X4.0843
G2 X4.0468 Y3.2852 J0.0375
G1 Y5.0852
G2 X4.0647 Y5.1172 I0.0375
X4.0758 Y5.1145 I0.0042 J-0.0068
G1 X4.1226 Y5.0355
G2 X4.1114 Y5.0247 I-0.0069 J-0.0041
G1 Z-0.0675
G2 X4.1106 Y5.0253 Z-0.0723 I0.0068 J0.0105
X4.1087 Y5.0271 Z-0.0763 I0.0075 J0.01
X4.1066 Y5.0306 Z-0.079 I0.0095 J0.0081
X4.1057 Y5.0352 Z-0.08 I0.0116 J0.0047
G1 Y5.0511
G2 X4.1184 Y5.0639 I0.0128
G1 X4.1502
G2 X4.163 Y5.0511 J-0.0128
G1 Y3.3193
G2 X4.1502 Y3.3066 I-0.0128
G1 X4.1184
G2 X4.1057 Y3.3193 J0.0128
G1 Y5.0352
G3 X4.0745 Y5.0709 I-0.036
G2 X4.0647 Y5.1172 I0.0034 J0.0249
X4.0843 Y5.1227 I0.0196 J-0.0319
G1 X4.2218
Y3.2477
X4.0843
G2 X4.0468 Y3.2852 J0.0375
G1 Y5.0852
G2 X4.0647 Y5.1172 I0.0375
X4.0758 Y5.1145 I0.0042 J-0.0068
G1 X4.1226 Y5.0355
G2 X4.1114 Y5.0247 I-0.0069 J-0.0041
G1 Z-0.1075
G2 X4.1106 Y5.0253 Z-0.1123 I0.0068 J0.0105
X4.1087 Y5.0271 Z-0.1163 I0.0075 J0.01
X4.1066 Y5.0306 Z-0.119 I0.0095 J0.0081
X4.1057 Y5.0352 Z-0.12 I0.0116 J0.0047
G1 Y5.0511
G2 X4.1184 Y5.0639 I0.0128
G1 X4.1502
G2 X4.163 Y5.0511 J-0.0128
G1 Y3.3193
G2 X4.1502 Y3.3066 I-0.0128
G1 X4.1184
G2 X4.1057 Y3.3193 J0.0128
G1 Y5.0352
G3 X4.0745 Y5.0709 I-0.036
G2 X4.0647 Y5.1172 I0.0034 J0.0249
X4.0843 Y5.1227 I0.0196 J-0.0319
G1 X4.2218
Y3.2477
X4.0843
G2 X4.0468 Y3.2852 J0.0375
G1 Y5.0852
G2 X4.0647 Y5.1172 I0.0375
X4.0758 Y5.1145 I0.0042 J-0.0068
G1 X4.1226 Y5.0355
G2 X4.1114 Y5.0247 I-0.0069 J-0.0041
G1 Z-0.1475
G2 X4.1106 Y5.0253 Z-0.1523 I0.0068 J0.0105
X4.1087 Y5.0271 Z-0.1563 I0.0075 J0.01
X4.1066 Y5.0306 Z-0.159 I0.0095 J0.0081
X4.1057 Y5.0352 Z-0.16 I0.0116 J0.0047
G1 Y5.0511
G2 X4.1184 Y5.0639 I0.0128
G1 X4.1502
G2 X4.163 Y5.0511 J-0.0128
G1 Y3.3193
G2 X4.1502 Y3.3066 I-0.0128
G1 X4.1184
G2 X4.1057 Y3.3193 J0.0128
G1 Y5.0352
G3 X4.0745 Y5.0709 I-0.036
G2 X4.0647 Y5.1172 I0.0034 J0.0249
X4.0843 Y5.1227 I0.0196 J-0.0319
G1 X4.2218
Y3.2477
X4.0843
G2 X4.0468 Y3.2852 J0.0375
G1 Y5.0852
G2 X4.0647 Y5.1172 I0.0375
X4.0758 Y5.1145 I0.0042 J-0.0068
G1 X4.1226 Y5.0355
G2 X4.1114 Y5.0247 I-0.0069 J-0.0041
G1 Z-0.1725
G2 X4.1106 Y5.0253 Z-0.1773 I0.0068 J0.0105
X4.1087 Y5.0271 Z-0.1813 I0.0075 J0.01
X4.1066 Y5.0306 Z-0.184 I0.0095 J0.0081
X4.1057 Y5.0352 Z-0.185 I0.0116 J0.0047
G1 Y5.0511
G2 X4.1184 Y5.0639 I0.0128
G1 X4.1502
G2 X4.163 Y5.0511 J-0.0128
G1 Y3.3193
G2 X4.1502 Y3.3066 I-0.0128
G1 X4.1184
G2 X4.1057 Y3.3193 J0.0128
G1 Y5.0352
G3 X4.0745 Y5.0709 I-0.036
G2 X4.0647 Y5.1172 I0.0034 J0.0249
X4.0843 Y5.1227 I0.0196 J-0.0319
G1 X4.2218
Y3.2477
X4.0843
G2 X4.0468 Y3.2852 J0.0375
G1 Y5.0852
G2 X4.0647 Y5.1172 I0.0375
X4.0691 Y5.1189 Z-0.184 I0.0065 J-0.0106
X4.0732 Z-0.1813 I0.0021 J-0.0123
X4.0758 Y5.1182 Z-0.1773 I-0.0019 J-0.0123
X4.0767 Y5.1178 Z-0.1725 I-0.0046 J-0.0116
G0 Z0.2
X6.4893 Y1.5861
G1 Z0.1 F40.38
Z-0.0275
G2 X6.4887 Y1.5853 Z-0.0323 I-0.0105 J0.0068
X6.4869 Y1.5833 Z-0.0363 I-0.01 J0.0075
X6.4834 Y1.5812 Z-0.039 I-0.0081 J0.0095
X6.4788 Y1.5803 Z-0.04 I-0.0047 J0.0116
G1 X6.4759
G2 X6.4665 Y1.5897 J0.0094
G1 Y1.5955
G2 X6.4759 Y1.6049 I0.0094
G1 X6.8528
G2 X6.8608 Y1.6004 J-0.0094
G1 X6.8663 Y1.5913
G2 X6.8601 Y1.5803 I-0.0062 J-0.0038
G1 X6.4788
G3 X6.4306 Y1.5564 J-0.0604
G2 X6.3797 Y1.5735 I-0.0226 J0.0171
G1 Y1.6789
G2 X6.3924 Y1.6917 I0.0128
G1 X6.8903
G2 X6.9154 Y1.6776 J-0.0294
G1 X7.0207 Y1.5045
G2 X7.0145 Y1.4935 I-0.0062 J-0.0038
G1 X6.3924
G2 X6.3797 Y1.5063 J0.0128
G1 Y1.5735
G3 X6.3363 Y1.6386 I-0.0705
G2 X6.2929 Y1.7037 I0.0271 J0.0651
G1 Y1.7657
G2 X6.3056 Y1.7785 I0.0128
G1 X6.9391
G2 X6.9642 Y1.7644 J-0.0294
G1 X7.1751 Y1.4177
G2 X7.1689 Y1.4067 I-0.0062 J-0.0038
G1 X6.3056
G2 X6.2929 Y1.4195 J0.0128
G1 Y1.7037
G3 X6.2495 Y1.7688 I-0.0705
G2 X6.2061 Y1.8339 I0.0271 J0.0651
G1 Y1.8525
G2 X6.2188 Y1.8653 I0.0128
G1 X6.9879
G2 X7.0131 Y1.8512 J-0.0294
G1 X7.3295 Y1.3309
G2 X7.3233 Y1.3199 I-0.0062 J-0.0038
G1 X6.2188
G2 X6.2061 Y1.3327 J0.0128
G1 Y1.8339
G3 X6.1685 Y1.8876 I-0.0572
G2 X6.18 Y1.9521 I0.0114 J0.0312
G1 X7.0367
G2 X7.0619 Y1.938 J-0.0294
G1 X7.4838 Y1.2441
G2 X7.4776 Y1.2331 I-0.0062 J-0.0038
G1 X6.132
G2 X6.1193 Y1.2459 J0.0128
G1 X6.1192 Y1.9396
G2 X6.1315 Y1.9521 I0.0123 J0.0002
G1 X6.18
G3 X6.2451 Y1.9955 J0.0705
G2 X6.3102 Y2.0389 I0.0651 J-0.0271
G1 X7.0859
G2 X7.1105 Y2.0251 J-0.0288
G1 X7.6384 Y1.1571
G2 X7.6323 Y1.1463 I-0.0061 J-0.0037
G1 X6.045
G2 X6.0324 Y1.1588 J0.0125
G1 X6.0342 Y1.9352
G3 X6.0274 Y1.9832 I-0.1728
X6.0091 Y2.0281 I-0.2201 J-0.0636
G2 X6.0156 Y2.0389 I0.0065 J0.0035
G1 X6.3102
G3 X6.373 Y2.0808 J0.0681
G2 X6.4359 Y2.1227 I0.0629 J-0.0262
G1 X7.1492
X7.794 Y1.0625
X5.9486
Y1.9352
G3 X5.8361 Y2.0477 I-0.1125
G1 X5.4468
Y2.1227
X6.4359
G2 X6.4439 Y2.1154 J-0.008
G1 X6.4905 Y1.5911
G2 X6.4893 Y1.5861 I-0.008 J-0.0007
G1 Z-0.0675
G2 X6.4887 Y1.5853 Z-0.0723 I-0.0105 J0.0068
X6.4869 Y1.5833 Z-0.0763 I-0.01 J0.0075
X6.4834 Y1.5812 Z-0.079 I-0.0081 J0.0095
X6.4788 Y1.5803 Z-0.08 I-0.0047 J0.0116
G1 X6.4759
G2 X6.4665 Y1.5897 J0.0094
G1 Y1.5955
G2 X6.4759 Y1.6049 I0.0094
G1 X6.8528
G2 X6.8608 Y1.6004 J-0.0094
G1 X6.8663 Y1.5913
G2 X6.8601 Y1.5803 I-0.0062 J-0.0038
G1 X6.4788
G3 X6.4306 Y1.5564 J-0.0604
G2 X6.3797 Y1.5735 I-0.0226 J0.0171
G1 Y1.6789
G2 X6.3924 Y1.6917 I0.0128
G1 X6.8903
G2 X6.9154 Y1.6776 J-0.0294
G1 X7.0207 Y1.5045
G2 X7.0145 Y1.4935 I-0.0062 J-0.0038
G1 X6.3924
G2 X6.3797 Y1.5063 J0.0128
G1 Y1.5735
G3 X6.3363 Y1.6386 I-0.0705
G2 X6.2929 Y1.7037 I0.0271 J0.0651
G1 Y1.7657
G2 X6.3056 Y1.7785 I0.0128
G1 X6.9391
G2 X6.9642 Y1.7644 J-0.0294
G1 X7.1751 Y1.4177
G2 X7.1689 Y1.4067 I-0.0062 J-0.0038
G1 X6.3056
G2 X6.2929 Y1.4195 J0.0128
G1 Y1.7037
G3 X6.2495 Y1.7688 I-0.0705
G2 X6.2061 Y1.8339 I0.0271 J0.0651
G1 Y1.8525
G2 X6.2188 Y1.8653 I0.0128
G1 X6.9879
G2 X7.0131 Y1.8512 J-0.0294
G1 X7.3295 Y1.3309
G2 X7.3233 Y1.3199 I-0.0062 J-0.0038
G1 X6.2188
G2 X6.2061 Y1.3327 J0.0128
G1 Y1.8339
G3 X6.1685 Y1.8876 I-0.0572
G2 X6.18 Y1.9521 I0.0114 J0.0312
G1 X7.0367
G2 X7.0619 Y1.938 J-0.0294
G1 X7.4838 Y1.2441
G2 X7.4776 Y1.2331 I-0.0062 J-0.0038
G1 X6.132
G2 X6.1193 Y1.2459 J0.0128
G1 X6.1192 Y1.9396
G2 X6.1315 Y1.9521 I0.0123 J0.0002
G1 X6.18
G3 X6.2451 Y1.9955 J0.0705
G2 X6.3102 Y2.0389 I0.0651 J-0.0271
G1 X7.0859
G2 X7.1105 Y2.0251 J-0.0288
G1 X7.6384 Y1.1571
G2 X7.6323 Y1.1463 I-0.0061 J-0.0037
G1 X6.045
G2 X6.0324 Y1.1588 J0.0125
G1 X6.0342 Y1.9352
G3 X6.0274 Y1.9832 I-0.1728
X6.0091 Y2.0281 I-0.2201 J-0.0636
G2 X6.0156 Y2.0389 I0.0065 J0.0035
G1 X6.3102
G3 X6.373 Y2.0808 J0.0681
G2 X6.4359 Y2.1227 I0.0629 J-0.0262
G1 X7.1492
X7.794 Y1.0625
X5.9486
Y1.9352
G3 X5.8361 Y2.0477 I-0.1125
G1 X5.4468
Y2.1227
X6.4359
G2 X6.4439 Y2.1154 J-0.008
G1 X6.4905 Y1.5911
G2 X6.4893 Y1.5861 I-0.008 J-0.0007
G1 Z-0.1075
G2 X6.4887 Y1.5853 Z-0.1123 I-0.0105 J0.0068
X6.4869 Y1.5833 Z-0.1163 I-0.01 J0.0075
X6.4834 Y1.5812 Z-0.119 I-0.0081 J0.0095
X6.4788 Y1.5803 Z-0.12 I-0.0047 J0.0116
G1 X6.4759
G2 X6.4665 Y1.5897 J0.0094
G1 Y1.5955
G2 X6.4759 Y1.6049 I0.0094
G1 X6.8528
G2 X6.8608 Y1.6004 J-0.0094
G1 X6.8663 Y1.5913
G2 X6.8601 Y1.5803 I-0.0062 J-0.0038
G1 X6.4788
G3 X6.4306 Y1.5564 J-0.0604
G2 X6.3797 Y1.5735 I-0.0226 J0.0171
G1 Y1.6789
G2 X6.3924 Y1.6917 I0.0128
G1 X6.8903
G2 X6.9154 Y1.6776 J-0.0294
G1 X7.0207 Y1.5045
G2 X7.0145 Y1.4935 I-0.0062 J-0.0038
G1 X6.3924
G2 X6.3797 Y1.5063 J0.0128
G1 Y1.5735
G3 X6.3363 Y1.6386 I-0.0705
G2 X6.2929 Y1.7037 I0.0271 J0.0651
G1 Y1.7657
G2 X6.3056 Y1.7785 I0.0128
G1 X6.9391
G2 X6.9642 Y1.7644 J-0.0294
G1 X7.1751 Y1.4177
G2 X7.1689 Y1.4067 I-0.0062 J-0.0038
G1 X6.3056
G2 X6.2929 Y1.4195 J0.0128
G1 Y1.7037
G3 X6.2495 Y1.7688 I-0.0705
G2 X6.2061 Y1.8339 I0.0271 J0.0651
G1 Y1.8525
G2 X6.2188 Y1.8653 I0.0128
G1 X6.9879
G2 X7.0131 Y1.8512 J-0.0294
G1 X7.3295 Y1.3309
G2 X7.3233 Y1.3199 I-0.0062 J-0.0038
G1 X6.2188
G2 X6.2061 Y1.3327 J0.0128
G1 Y1.8339
G3 X6.1685 Y1.8876 I-0.0572
G2 X6.18 Y1.9521 I0.0114 J0.0312
G1 X7.0367
G2 X7.0619 Y1.938 J-0.0294
G1 X7.4838 Y1.2441
G2 X7.4776 Y1.2331 I-0.0062 J-0.0038
G1 X6.132
G2 X6.1193 Y1.2459 J0.0128
G1 X6.1192 Y1.9396
G2 X6.1315 Y1.9521 I0.0123 J0.0002
G1 X6.18
G3 X6.2451 Y1.9955 J0.0705
G2 X6.3102 Y2.0389 I0.0651 J-0.0271
G1 X7.0859
G2 X7.1105 Y2.0251 J-0.0288
G1 X7.6384 Y1.1571
G2 X7.6323 Y1.1463 I-0.0061 J-0.0037
G1 X6.045
G2 X6.0324 Y1.1588 J0.0125
G1 X6.0342 Y1.9352
G3 X6.0274 Y1.9832 I-0.1728
X6.0091 Y2.0281 I-0.2201 J-0.0636
G2 X6.0156 Y2.0389 I0.0065 J0.0035
G1 X6.3102
G3 X6.373 Y2.0808 J0.0681
G2 X6.4359 Y2.1227 I0.0629 J-0.0262
G1 X7.1492
X7.794 Y1.0625
X5.9486
Y1.9352
G3 X5.8361 Y2.0477 I-0.1125
G1 X5.4468
Y2.1227
X6.4359
G2 X6.4439 Y2.1154 J-0.008
G1 X6.4905 Y1.5911
G2 X6.4893 Y1.5861 I-0.008 J-0.0007
G1 Z-0.1475
G2 X6.4887 Y1.5853 Z-0.1523 I-0.0105 J0.0068
X6.4869 Y1.5833 Z-0.1563 I-0.01 J0.0075
X6.4834 Y1.5812 Z-0.159 I-0.0081 J0.0095
X6.4788 Y1.5803 Z-0.16 I-0.0047 J0.0116
G1 X6.4759
G2 X6.4665 Y1.5897 J0.0094
G1 Y1.5955
G2 X6.4759 Y1.6049 I0.0094
G1 X6.8528
G2 X6.8608 Y1.6004 J-0.0094
G1 X6.8663 Y1.5913
G2 X6.8601 Y1.5803 I-0.0062 J-0.0038
G1 X6.4788
G3 X6.4306 Y1.5564 J-0.0604
G2 X6.3797 Y1.5735 I-0.0226 J0.0171
G1 Y1.6789
G2 X6.3924 Y1.6917 I0.0128
G1 X6.8903
G2 X6.9154 Y1.6776 J-0.0294
G1 X7.0207 Y1.5045
G2 X7.0145 Y1.4935 I-0.0062 J-0.0038
G1 X6.3924
G2 X6.3797 Y1.5063 J0.0128
G1 Y1.5735
G3 X6.3363 Y1.6386 I-0.0705
G2 X6.2929 Y1.7037 I0.0271 J0.0651
G1 Y1.7657
G2 X6.3056 Y1.7785 I0.0128
G1 X6.9391
G2 X6.9642 Y1.7644 J-0.0294
G1 X7.1751 Y1.4177
G2 X7.1689 Y1.4067 I-0.0062 J-0.0038
G1 X6.3056
G2 X6.2929 Y1.4195 J0.0128
G1 Y1.7037
G3 X6.2495 Y1.7688 I-0.0705
G2 X6.2061 Y1.8339 I0.0271 J0.0651
G1 Y1.8525
G2 X6.2188 Y1.8653 I0.0128
G1 X6.9879
G2 X7.0131 Y1.8512 J-0.0294
G1 X7.3295 Y1.3309
G2 X7.3233 Y1.3199 I-0.0062 J-0.0038
G1 X6.2188
G2 X6.2061 Y1.3327 J0.0128
G1 Y1.8339
G3 X6.1685 Y1.8876 I-0.0572
G2 X6.18 Y1.9521 I0.0114 J0.0312
G1 X7.0367
G2 X7.0619 Y1.938 J-0.0294
G1 X7.4838 Y1.2441
G2 X7.4776 Y1.2331 I-0.0062 J-0.0038
G1 X6.132
G2 X6.1193 Y1.2459 J0.0128
G1 X6.1192 Y1.9396
G2 X6.1315 Y1.9521 I0.0123 J0.0002
G1 X6.18
G3 X6.2451 Y1.9955 J0.0705
G2 X6.3102 Y2.0389 I0.0651 J-0.0271
G1 X7.0859
G2 X7.1105 Y2.0251 J-0.0288
G1 X7.6384 Y1.1571
G2 X7.6323 Y1.1463 I-0.0061 J-0.0037
G1 X6.045
G2 X6.0324 Y1.1588 J0.0125
G1 X6.0342 Y1.9352
G3 X6.0274 Y1.9832 I-0.1728
X6.0091 Y2.0281 I-0.2201 J-0.0636
G2 X6.0156 Y2.0389 I0.0065 J0.0035
G1 X6.3102
G3 X6.373 Y2.0808 J0.0681
G2 X6.4359 Y2.1227 I0.0629 J-0.0262
G1 X7.1492
X7.794 Y1.0625
X5.9486
Y1.9352
G3 X5.8361 Y2.0477 I-0.1125
G1 X5.4468
Y2.1227
X6.4359
G2 X6.4439 Y2.1154 J-0.008
G1 X6.4905 Y1.5911
G2 X6.4893 Y1.5861 I-0.008 J-0.0007
G1 Z-0.1725
G2 X6.4887 Y1.5853 Z-0.1773 I-0.0105 J0.0068
X6.4869 Y1.5833 Z-0.1813 I-0.01 J0.0075
X6.4834 Y1.5812 Z-0.184 I-0.0081 J0.0095
X6.4788 Y1.5803 Z-0.185 I-0.0047 J0.0116
G1 X6.4759
G2 X6.4665 Y1.5897 J0.0094
G1 Y1.5955
G2 X6.4759 Y1.6049 I0.0094
G1 X6.8528
G2 X6.8608 Y1.6004 J-0.0094
G1 X6.8663 Y1.5913
G2 X6.8601 Y1.5803 I-0.0062 J-0.0038
G1 X6.4788
G3 X6.4306 Y1.5564 J-0.0604
G2 X6.3797 Y1.5735 I-0.0226 J0.0171
G1 Y1.6789
G2 X6.3924 Y1.6917 I0.0128
G1 X6.8903
G2 X6.9154 Y1.6776 J-0.0294
G1 X7.0207 Y1.5045
G2 X7.0145 Y1.4935 I-0.0062 J-0.0038
G1 X6.3924
G2 X6.3797 Y1.5063 J0.0128
G1 Y1.5735
G3 X6.3363 Y1.6386 I-0.0705
G2 X6.2929 Y1.7037 I0.0271 J0.0651
G1 Y1.7657
G2 X6.3056 Y1.7785 I0.0128
G1 X6.9391
G2 X6.9642 Y1.7644 J-0.0294
G1 X7.1751 Y1.4177
G2 X7.1689 Y1.4067 I-0.0062 J-0.0038
G1 X6.3056
G2 X6.2929 Y1.4195 J0.0128
G1 Y1.7037
G3 X6.2495 Y1.7688 I-0.0705
G2 X6.2061 Y1.8339 I0.0271 J0.0651
G1 Y1.8525
G2 X6.2188 Y1.8653 I0.0128
G1 X6.9879
G2 X7.0131 Y1.8512 J-0.0294
G1 X7.3295 Y1.3309
G2 X7.3233 Y1.3199 I-0.0062 J-0.0038
G1 X6.2188
G2 X6.2061 Y1.3327 J0.0128
G1 Y1.8339
G3 X6.1685 Y1.8876 I-0.0572
G2 X6.18 Y1.9521 I0.0114 J0.0312
G1 X7.0367
G2 X7.0619 Y1.938 J-0.0294
G1 X7.4838 Y1.2441
G2 X7.4776 Y1.2331 I-0.0062 J-0.0038
G1 X6.132
G2 X6.1193 Y1.2459 J0.0128
G1 X6.1192 Y1.9396
G2 X6.1315 Y1.9521 I0.0123 J0.0002
G1 X6.18
G3 X6.2451 Y1.9955 J0.0705
G2 X6.3102 Y2.0389 I0.0651 J-0.0271
G1 X7.0859
G2 X7.1105 Y2.0251 J-0.0288
G1 X7.6384 Y1.1571
G2 X7.6323 Y1.1463 I-0.0061 J-0.0037
G1 X6.045
G2 X6.0324 Y1.1588 J0.0125
G1 X6.0342 Y1.9352
G3 X6.0274 Y1.9832 I-0.1728
X6.0091 Y2.0281 I-0.2201 J-0.0636
G2 X6.0156 Y2.0389 I0.0065 J0.0035
G1 X6.3102
G3 X6.373 Y2.0808 J0.0681
G2 X6.4359 Y2.1227 I0.0629 J-0.0262
G1 X7.1492
X7.794 Y1.0625
X5.9486
Y1.9352
G3 X5.8361 Y2.0477 I-0.1125
G1 X5.4468
Y2.1227
X6.4359
G2 X6.4405 Y2.1218 Z-0.184 J-0.0125
X6.444 Y2.1197 Z-0.1813 I-0.0047 J-0.0116
X6.4459 Y2.1178 Z-0.1773 I-0.0081 J-0.0095
X6.4464 Y2.117 Z-0.1725 I-0.01 J-0.0075
G0 Z0.6
M9
M30
%
