%
(InsertMonogram)
(T1  D=0.125 CR=0 - ZMIN=-0.185 - flat end mill)
G90 G94
G17
G20

(2D Pocket2)
M9
T1 M6
S11028 M3
G54
M8
G0 X5.7941 Y3.6011
Z0.6
Z0.2
G1 Z0.1 F40.38
Z-0.0275
G2 X5.7933 Y3.6016 Z-0.0323 I0.0068 J0.0105
X5.7913 Y3.6035 Z-0.0363 I0.0075 J0.01
X5.7893 Y3.607 Z-0.039 I0.0095 J0.0081
X5.7884 Y3.6116 Z-0.04 I0.0116 J0.0047
G1 Y3.6714
G2 X5.7977 Y3.6741 I0.0051
G1 X5.8444 Y3.6002
G2 X5.8383 Y3.5892 I-0.006 J-0.0038
G1 X5.8011
G2 X5.7884 Y3.602 J0.0128
G1 Y3.6116
G3 X5.7654 Y3.646 I-0.0372
G2 X5.7425 Y3.6804 I0.0143 J0.0344
G1 Y3.8298
G2 X5.7519 Y3.8325 I0.0051
G1 X5.9275 Y3.5544
G2 X5.9215 Y3.5434 I-0.006 J-0.0038
G1 X5.7553
G2 X5.7425 Y3.5562 J0.0128
G1 Y3.6804
G3 X5.7056 Y3.7358 I-0.06
G2 X5.6687 Y3.7912 I0.0231 J0.0554
G1 Y4.0851
G2 X5.678 Y4.0878 I0.0051
G1 X6.0616 Y3.4805
G2 X6.0555 Y3.4696 I-0.006 J-0.0038
G1 X5.6814
G2 X5.6687 Y3.4823 J0.0128
G1 Y3.7912
G3 X5.6317 Y3.8466 I-0.06
G2 X5.5948 Y3.902 I0.0231 J0.0554
G1 Y4.3404
G2 X5.6041 Y4.3431 I0.0051
G1 X6.1956 Y3.4066
G2 X6.1895 Y3.3957 I-0.006 J-0.0038
G1 X5.6076
G2 X5.5948 Y3.4085 J0.0128
G1 Y3.902
G3 X5.5578 Y3.9574 I-0.06
G2 X5.5209 Y4.0128 I0.0231 J0.0554
G1 Y4.5957
G2 X5.5302 Y4.5984 I0.0051
G1 X6.3296 Y3.3328
G2 X6.3236 Y3.3218 I-0.006 J-0.0038
G1 X5.5337
G2 X5.5209 Y3.3346 J0.0128
G1 Y4.0128
G3 X5.4839 Y4.0683 I-0.0602
G2 X5.4468 Y4.1239 I0.0231 J0.0556
G1 Y4.8692
X6.4709 Y3.2477
X5.4468
Y4.1239
G2 X5.4615 Y4.1283 I0.008
G1 X5.8051 Y3.6123
G2 X5.7941 Y3.6011 I-0.0067 J-0.0044
G1 Z-0.0675
G2 X5.7933 Y3.6016 Z-0.0723 I0.0068 J0.0105
X5.7913 Y3.6035 Z-0.0763 I0.0075 J0.01
X5.7893 Y3.607 Z-0.079 I0.0095 J0.0081
X5.7884 Y3.6116 Z-0.08 I0.0116 J0.0047
G1 Y3.6714
G2 X5.7977 Y3.6741 I0.0051
G1 X5.8444 Y3.6002
G2 X5.8383 Y3.5892 I-0.006 J-0.0038
G1 X5.8011
G2 X5.7884 Y3.602 J0.0128
G1 Y3.6116
G3 X5.7654 Y3.646 I-0.0372
G2 X5.7425 Y3.6804 I0.0143 J0.0344
G1 Y3.8298
G2 X5.7519 Y3.8325 I0.0051
G1 X5.9275 Y3.5544
G2 X5.9215 Y3.5434 I-0.006 J-0.0038
G1 X5.7553
G2 X5.7425 Y3.5562 J0.0128
G1 Y3.6804
G3 X5.7056 Y3.7358 I-0.06
G2 X5.6687 Y3.7912 I0.0231 J0.0554
G1 Y4.0851
G2 X5.678 Y4.0878 I0.0051
G1 X6.0616 Y3.4805
G2 X6.0555 Y3.4696 I-0.006 J-0.0038
G1 X5.6814
G2 X5.6687 Y3.4823 J0.0128
G1 Y3.7912
G3 X5.6317 Y3.8466 I-0.06
G2 X5.5948 Y3.902 I0.0231 J0.0554
G1 Y4.3404
G2 X5.6041 Y4.3431 I0.0051
G1 X6.1956 Y3.4066
G2 X6.1895 Y3.3957 I-0.006 J-0.0038
G1 X5.6076
G2 X5.5948 Y3.4085 J0.0128
G1 Y3.902
G3 X5.5578 Y3.9574 I-0.06
G2 X5.5209 Y4.0128 I0.0231 J0.0554
G1 Y4.5957
G2 X5.5302 Y4.5984 I0.0051
G1 X6.3296 Y3.3328
G2 X6.3236 Y3.3218 I-0.006 J-0.0038
G1 X5.5337
G2 X5.5209 Y3.3346 J0.0128
G1 Y4.0128
G3 X5.4839 Y4.0683 I-0.0602
G2 X5.4468 Y4.1239 I0.0231 J0.0556
G1 Y4.8692
X6.4709 Y3.2477
X5.4468
Y4.1239
G2 X5.4615 Y4.1283 I0.008
G1 X5.8051 Y3.6123
G2 X5.7941 Y3.6011 I-0.0067 J-0.0044
G1 Z-0.1075
G2 X5.7933 Y3.6016 Z-0.1123 I0.0068 J0.0105
X5.7913 Y3.6035 Z-0.1163 I0.0075 J0.01
X5.7893 Y3.607 Z-0.119 I0.0095 J0.0081
X5.7884 Y3.6116 Z-0.12 I0.0116 J0.0047
G1 Y3.6714
G2 X5.7977 Y3.6741 I0.0051
G1 X5.8444 Y3.6002
G2 X5.8383 Y3.5892 I-0.006 J-0.0038
G1 X5.8011
G2 X5.7884 Y3.602 J0.0128
G1 Y3.6116
G3 X5.7654 Y3.646 I-0.0372
G2 X5.7425 Y3.6804 I0.0143 J0.0344
G1 Y3.8298
G2 X5.7519 Y3.8325 I0.0051
G1 X5.9275 Y3.5544
G2 X5.9215 Y3.5434 I-0.006 J-0.0038
G1 X5.7553
G2 X5.7425 Y3.5562 J0.0128
G1 Y3.6804
G3 X5.7056 Y3.7358 I-0.06
G2 X5.6687 Y3.7912 I0.0231 J0.0554
G1 Y4.0851
G2 X5.678 Y4.0878 I0.0051
G1 X6.0616 Y3.4805
G2 X6.0555 Y3.4696 I-0.006 J-0.0038
G1 X5.6814
G2 X5.6687 Y3.4823 J0.0128
G1 Y3.7912
G3 X5.6317 Y3.8466 I-0.06
G2 X5.5948 Y3.902 I0.0231 J0.0554
G1 Y4.3404
G2 X5.6041 Y4.3431 I0.0051
G1 X6.1956 Y3.4066
G2 X6.1895 Y3.3957 I-0.006 J-0.0038
G1 X5.6076
G2 X5.5948 Y3.4085 J0.0128
G1 Y3.902
G3 X5.5578 Y3.9574 I-0.06
G2 X5.5209 Y4.0128 I0.0231 J0.0554
G1 Y4.5957
G2 X5.5302 Y4.5984 I0.0051
G1 X6.3296 Y3.3328
G2 X6.3236 Y3.3218 I-0.006 J-0.0038
G1 X5.5337
G2 X5.5209 Y3.3346 J0.0128
G1 Y4.0128
G3 X5.4839 Y4.0683 I-0.0602
G2 X5.4468 Y4.1239 I0.0231 J0.0556
G1 Y4.8692
X6.4709 Y3.2477
X5.4468
Y4.1239
G2 X5.4615 Y4.1283 I0.008
G1 X5.8051 Y3.6123
G2 X5.7941 Y3.6011 I-0.0067 J-0.0044
G1 Z-0.1475
G2 X5.7933 Y3.6016 Z-0.1523 I0.0068 J0.0105
X5.7913 Y3.6035 Z-0.1563 I0.0075 J0.01
X5.7893 Y3.607 Z-0.159 I0.0095 J0.0081
X5.7884 Y3.6116 Z-0.16 I0.0116 J0.0047
G1 Y3.6714
G2 X5.7977 Y3.6741 I0.0051
G1 X5.8444 Y3.6002
G2 X5.8383 Y3.5892 I-0.006 J-0.0038
G1 X5.8011
G2 X5.7884 Y3.602 J0.0128
G1 Y3.6116
G3 X5.7654 Y3.646 I-0.0372
G2 X5.7425 Y3.6804 I0.0143 J0.0344
G1 Y3.8298
G2 X5.7519 Y3.8325 I0.0051
G1 X5.9275 Y3.5544
G2 X5.9215 Y3.5434 I-0.006 J-0.0038
G1 X5.7553
G2 X5.7425 Y3.5562 J0.0128
G1 Y3.6804
G3 X5.7056 Y3.7358 I-0.06
G2 X5.6687 Y3.7912 I0.0231 J0.0554
G1 Y4.0851
G2 X5.678 Y4.0878 I0.0051
G1 X6.0616 Y3.4805
G2 X6.0555 Y3.4696 I-0.006 J-0.0038
G1 X5.6814
G2 X5.6687 Y3.4823 J0.0128
G1 Y3.7912
G3 X5.6317 Y3.8466 I-0.06
G2 X5.5948 Y3.902 I0.0231 J0.0554
G1 Y4.3404
G2 X5.6041 Y4.3431 I0.0051
G1 X6.1956 Y3.4066
G2 X6.1895 Y3.3957 I-0.006 J-0.0038
G1 X5.6076
G2 X5.5948 Y3.4085 J0.0128
G1 Y3.902
G3 X5.5578 Y3.9574 I-0.06
G2 X5.5209 Y4.0128 I0.0231 J0.0554
G1 Y4.5957
G2 X5.5302 Y4.5984 I0.0051
G1 X6.3296 Y3.3328
G2 X6.3236 Y3.3218 I-0.006 J-0.0038
G1 X5.5337
G2 X5.5209 Y3.3346 J0.0128
G1 Y4.0128
G3 X5.4839 Y4.0683 I-0.0602
G2 X5.4468 Y4.1239 I0.0231 J0.0556
G1 Y4.8692
X6.4709 Y3.2477
X5.4468
Y4.1239
G2 X5.4615 Y4.1283 I0.008
G1 X5.8051 Y3.6123
G2 X5.7941 Y3.6011 I-0.0067 J-0.0044
G1 Z-0.1725
G2 X5.7933 Y3.6016 Z-0.1773 I0.0068 J0.0105
X5.7913 Y3.6035 Z-0.1813 I0.0075 J0.01
X5.7893 Y3.607 Z-0.184 I0.0095 J0.0081
X5.7884 Y3.6116 Z-0.185 I0.0116 J0.0047
G1 Y3.6714
G2 X5.7977 Y3.6741 I0.0051
G1 X5.8444 Y3.6002
G2 X5.8383 Y3.5892 I-0.006 J-0.0038
G1 X5.8011
G2 X5.7884 Y3.602 J0.0128
G1 Y3.6116
G3 X5.7654 Y3.646 I-0.0372
G2 X5.7425 Y3.6804 I0.0143 J0.0344
G1 Y3.8298
G2 X5.7519 Y3.8325 I0.0051
G1 X5.9275 Y3.5544
G2 X5.9215 Y3.5434 I-0.006 J-0.0038
G1 X5.7553
G2 X5.7425 Y3.5562 J0.0128
G1 Y3.6804
G3 X5.7056 Y3.7358 I-0.06
G2 X5.6687 Y3.7912 I0.0231 J0.0554
G1 Y4.0851
G2 X5.678 Y4.0878 I0.0051
G1 X6.0616 Y3.4805
G2 X6.0555 Y3.4696 I-0.006 J-0.0038
G1 X5.6814
G2 X5.6687 Y3.4823 J0.0128
G1 Y3.7912
G3 X5.6317 Y3.8466 I-0.06
G2 X5.5948 Y3.902 I0.0231 J0.0554
G1 Y4.3404
G2 X5.6041 Y4.3431 I0.0051
G1 X6.1956 Y3.4066
G2 X6.1895 Y3.3957 I-0.006 J-0.0038
G1 X5.6076
G2 X5.5948 Y3.4085 J0.0128
G1 Y3.902
G3 X5.5578 Y3.9574 I-0.06
G2 X5.5209 Y4.0128 I0.0231 J0.0554
G1 Y4.5957
G2 X5.5302 Y4.5984 I0.0051
G1 X6.3296 Y3.3328
G2 X6.3236 Y3.3218 I-0.006 J-0.0038
G1 X5.5337
G2 X5.5209 Y3.3346 J0.0128
G1 Y4.0128
G3 X5.4839 Y4.0683 I-0.0602
G2 X5.4468 Y4.1239 I0.0231 J0.0556
G1 Y4.8692
X6.4709 Y3.2477
X5.4468
Y4.1239
G2 X5.4477 Y4.1286 Z-0.184 I0.0125
X5.4498 Y4.132 Z-0.1813 I0.0116 J-0.0047
X5.4518 Y4.1339 Z-0.1773 I0.0095 J-0.0081
X5.4526 Y4.1344 Z-0.1725 I0.0075 J-0.01
G0 Z0.2
X4.1114 Y5.0247
G1 Z0.1 F40.38
Z-0.0275
G2 X4.1106 Y5.0253 Z-0.0323 I0.0068 J0.0105
X4.1087 Y5.0271 Z-0.0363 I0.0075 J0.01
X4.1066 Y5.0306 Z-0.039 I0.0095 J0.0081
X4.1057 Y5.0352 Z-0.04 I0.0116 J0.0047
G1 Y5.0511
G2 X4.1184 Y5.0639 I0.0128
G1 X4.1502
G2 X4.163 Y5.0511 J-0.0128
G1 Y3.3193
G2 X4.1502 Y3.3066 I-0.0128
G1 X4.1184
G2 X4.1057 Y3.3193 J0.0128
G1 Y5.0352
G3 X4.0745 Y5.0709 I-0.036
G2 X4.0647 Y5.1172 I0.0034 J0.0249
X4.0843 Y5.1227 I0.0196 J-0.0319
G1 X4.2218
Y3.2477
X4.0843
G2 X4.0468 Y3.2852 J0.0375
G1 Y5.0852
G2 X4.0647 Y5.1172 I0.0375
X4.0758 Y5.1145 I0.0042 J-0.0068
G1 X4.1226 Y5.0355
G2 X4.1114 Y5.0247 I-0.0069 J-0.0041
G1 Z-0.0675
G2 X4.1106 Y5.0253 Z-0.0723 I0.0068 J0.0105
X4.1087 Y5.0271 Z-0.0763 I0.0075 J0.01
X4.1066 Y5.0306 Z-0.079 I0.0095 J0.0081
X4.1057 Y5.0352 Z-0.08 I0.0116 J0.0047
G1 Y5.0511
G2 X4.1184 Y5.0639 I0.0128
G1 X4.1502
G2 X4.163 Y5.0511 J-0.0128
G1 Y3.3193
G2 X4.1502 Y3.3066 I-0.0128
G1 X4.1184
G2 X4.1057 Y3.3193 J0.0128
G1 Y5.0352
G3 X4.0745 Y5.0709 I-0.036
G2 X4.0647 Y5.1172 I0.0034 J0.0249
X4.0843 Y5.1227 I0.0196 J-0.0319
G1 X4.2218
Y3.2477
X4.0843
G2 X4.0468 Y3.2852 J0.0375
G1 Y5.0852
G2 X4.0647 Y5.1172 I0.0375
X4.0758 Y5.1145 I0.0042 J-0.0068
G1 X4.1226 Y5.0355
G2 X4.1114 Y5.0247 I-0.0069 J-0.0041
G1 Z-0.1075
G2 X4.1106 Y5.0253 Z-0.1123 I0.0068 J0.0105
X4.1087 Y5.0271 Z-0.1163 I0.0075 J0.01
X4.1066 Y5.0306 Z-0.119 I0.0095 J0.0081
X4.1057 Y5.0352 Z-0.12 I0.0116 J0.0047
G1 Y5.0511
G2 X4.1184 Y5.0639 I0.0128
G1 X4.1502
G2 X4.163 Y5.0511 J-0.0128
G1 Y3.3193
G2 X4.1502 Y3.3066 I-0.0128
G1 X4.1184
G2 X4.1057 Y3.3193 J0.0128
G1 Y5.0352
G3 X4.0745 Y5.0709 I-0.036
G2 X4.0647 Y5.1172 I0.0034 J0.0249
X4.0843 Y5.1227 I0.0196 J-0.0319
G1 X4.2218
Y3.2477
X4.0843
G2 X4.0468 Y3.2852 J0.0375
G1 Y5.0852
G2 X4.0647 Y5.1172 I0.0375
X4.0758 Y5.1145 I0.0042 J-0.0068
G1 X4.1226 Y5.0355
G2 X4.1114 Y5.0247 I-0.0069 J-0.0041
G1 Z-0.1475
G2 X4.1106 Y5.0253 Z-0.1523 I0.0068 J0.0105
X4.1087 Y5.0271 Z-0.1563 I0.0075 J0.01
X4.1066 Y5.0306 Z-0.159 I0.0095 J0.0081
X4.1057 Y5.0352 Z-0.16 I0.0116 J0.0047
G1 Y5.0511
G2 X4.1184 Y5.0639 I0.0128
G1 X4.1502
G2 X4.163 Y5.0511 J-0.0128
G1 Y3.3193
G2 X4.1502 Y3.3066 I-0.0128
G1 X4.1184
G2 X4.1057 Y3.3193 J0.0128
G1 Y5.0352
G3 X4.0745 Y5.0709 I-0.036
G2 X4.0647 Y5.1172 I0.0034 J0.0249
X4.0843 Y5.1227 I0.0196 J-0.0319
G1 X4.2218
Y3.2477
X4.0843
G2 X4.0468 Y3.2852 J0.0375
G1 Y5.0852
G2 X4.0647 Y5.1172 I0.0375
X4.0758 Y5.1145 I0.0042 J-0.0068
G1 X4.1226 Y5.0355
G2 X4.1114 Y5.0247 I-0.0069 J-0.0041
G1 Z-0.1725
G2 X4.1106 Y5.0253 Z-0.1773 I0.0068 J0.0105
X4.1087 Y5.0271 Z-0.1813 I0.0075 J0.01
X4.1066 Y5.0306 Z-0.184 I0.0095 J0.0081
X4.1057 Y5.0352 Z-0.185 I0.0116 J0.0047
G1 Y5.0511
G2 X4.1184 Y5.0639 I0.0128
G1 X4.1502
G2 X4.163 Y5.0511 J-0.0128
G1 Y3.3193
G2 X4.1502 Y3.3066 I-0.0128
G1 X4.1184
G2 X4.1057 Y3.3193 J0.0128
G1 Y5.0352
G3 X4.0745 Y5.0709 I-0.036
G2 X4.0647 Y5.1172 I0.0034 J0.0249
X4.0843 Y5.1227 I0.0196 J-0.0319
G1 X4.2218
Y3.2477
X4.0843
G2 X4.0468 Y3.2852 J0.0375
G1 Y5.0852
G2 X4.0647 Y5.1172 I0.0375
X4.0691 Y5.1189 Z-0.184 I0.0065 J-0.0106
X4.0732 Z-0.1813 I0.0021 J-0.0123
X4.0758 Y5.1182 Z-0.1773 I-0.0019 J-0.0123
X4.0767 Y5.1178 Z-0.1725 I-0.0046 J-0.0116
G0 Z0.2
X1.9716 Y4.4565
G1 Z0.1 F40.38
Z-0.0275
G2 X1.9708 Y4.4571 Z-0.0323 I0.0068 J0.0105
X1.9688 Y4.4589 Z-0.0363 I0.0075 J0.01
X1.9667 Y4.4624 Z-0.039 I0.0095 J0.0081
X1.9658 Y4.467 Z-0.04 I0.0116 J0.0047
G1 Y4.5121
G2 X1.9761 Y4.5166 I0.0061
G3 X2.0106 Y4.4859 I0.7093 J0.7633
G2 X2.0185 Y4.4688 I-0.0147 J-0.0172
G1 Y3.9283
G2 X2.0102 Y3.9108 I-0.0226
G3 X1.9745 Y3.8803 I0.6662 J-0.8163
G2 X1.9658 Y3.8842 I-0.0035 J0.0039
G1 Y4.467
G3 X1.9389 Y4.5074 I-0.0438
G2 X1.912 Y4.5478 I0.0168 J0.0404
G1 Y4.6478
G2 X1.9218 Y4.6514 I0.0056
G3 X2.0581 Y4.5164 I0.8065 J0.6778
G2 X2.0724 Y4.4862 I-0.0248 J-0.0302
G1 Y3.9094
G2 X2.0582 Y3.8803 I-0.0371
G3 X1.9211 Y3.7498 I0.6304 J-0.7996
G2 X1.912 Y3.7532 I-0.0039 J0.0034
G1 Y4.5478
G3 X1.8735 Y4.6055 I-0.0625
G2 X1.835 Y4.6632 I0.024 J0.0577
G1 Y4.9123
G2 X1.8437 Y4.9143 I0.0046
G3 X2.1354 Y4.5531 I0.8903 J0.4208
G2 X2.1493 Y4.5251 I-0.0215 J-0.028
G1 Y3.8693
G2 X2.1355 Y3.8423 I-0.0334
G3 X1.8422 Y3.4917 I0.552 J-0.7597
G2 X1.835 Y3.4934 I-0.0034 J0.0016
G1 Y4.6632
G2 X1.8359 Y4.6679 Z-0.039 I0.0125
X1.838 Y4.6713 Z-0.0363 I0.0116 J-0.0047
X1.84 Y4.6732 Z-0.0323 I0.0095 J-0.0081
X1.8408 Y4.6737 Z-0.0275 I0.0075 J-0.01
G0 Z0.2
Y6.5099
G1 Z0.1 F40.38
Z-0.0275
G2 X1.84 Y6.5104 Z-0.0323 I0.0068 J0.0105
X1.838 Y6.5123 Z-0.0363 I0.0075 J0.01
X1.8359 Y6.5157 Z-0.039 I0.0095 J0.0081
X1.835 Y6.5204 Z-0.04 I0.0116 J0.0047
G1 Y6.5274
G2 X1.8476 Y6.54 I0.0125
G1 X1.8758
G2 X1.882 Y6.5291 J-0.0072
G3 X1.8422 Y6.453 I0.8895 J-0.5136
G2 X1.835 Y6.4546 I-0.0034 J0.0016
G1 Y6.5204
G2 X1.8359 Y6.5251 Z-0.039 I0.0125
X1.838 Y6.5285 Z-0.0363 I0.0116 J-0.0047
X1.84 Y6.5304 Z-0.0323 I0.0095 J-0.0081
X1.8408 Y6.5309 Z-0.0275 I0.0075 J-0.01
G0 Z0.2
X1.8457 Y1.8578
G1 Z0.1 F40.38
Z-0.0275
G2 X1.8467 Y1.8577 Z-0.0323 I-0.0011 J-0.0125
X1.8493 Y1.857 Z-0.0363 I-0.002 J-0.0123
X1.8528 Y1.8549 Z-0.039 I-0.0047 J-0.0116
X1.8557 Y1.8512 Z-0.04 I-0.0081 J-0.0095
G3 X1.8583 Y1.8463 I0.8508 J0.4454
G2 X1.8517 Y1.8354 I-0.0066 J-0.0035
G1 X1.8446
G2 X1.8354 Y1.8446 J0.0092
G1 Y1.872
G2 X1.8441 Y1.874 I0.0046
G3 X1.8557 Y1.8512 I0.8624 J0.4225
X1.9126 Y1.821 I0.0504 J0.0264
G2 X1.9712 Y1.7944 I0.0071 J-0.0622
G3 X1.9839 Y1.7765 I0.7306 J0.5037
G2 X1.9784 Y1.7657 I-0.0055 J-0.004
G1 X1.7784
G2 X1.7657 Y1.7784 J0.0126
G1 X1.7675 Y6.0352
X1.7657 Y6.5965
G2 X1.7785 Y6.6093 I0.0128
G1 X2.0072
G2 X2.0124 Y6.5987 J-0.0066
G3 X1.8676 Y6.3333 I0.7413 J-0.5767
X1.8168 Y6.0352 I0.8484 J-0.298
G1 Y5.3328
G3 X1.9204 Y4.9135 I0.9001
X2.2046 Y4.5883 I0.8256 J0.4346
G2 X2.2186 Y4.5611 I-0.0193 J-0.0271
G1 Y3.832
G2 X2.2046 Y3.8059 I-0.0314
G3 X1.9204 Y3.4941 I0.4878 J-0.73
X1.8168 Y3.0852 I0.7547 J-0.4089
G1 Y2.2833
G3 X1.8602 Y2.0166 I0.8407
X1.9712 Y1.7944 I0.8416 J0.2814
X2.0175 Y1.7765 I0.0363 J0.025
G2 X2.0646 Y1.7609 I0.0108 J-0.0464
G3 X2.0999 Y1.7219 I0.6301 J0.5346
G2 X2.0956 Y1.7117 I-0.0043 J-0.0042
G1 X1.7243
G2 X1.7117 Y1.7243 J0.0126
G1 Y6.6505
G2 X1.7245 Y6.6633 I0.0128
G1 X2.1297
G2 X2.1338 Y6.6532 J-0.0059
G3 X1.8688 Y6.0209 I0.6101 J-0.6273
G1 X1.8699 Y5.7923
X1.8706 Y5.5638
X1.8708 Y5.3352
G3 X1.9746 Y4.9273 I0.8537
X2.2587 Y4.6167 I0.7694 J0.4185
G2 X2.2726 Y4.5907 I-0.0173 J-0.026
G1 Y3.8013
G2 X2.2586 Y3.7763 I-0.0293
G3 X1.8708 Y3.0839 I0.4244 J-0.6925
G1 Y2.2833
G3 X1.9309 Y1.9803 I0.7943
X2.0646 Y1.7609 I0.7639 J0.3152
X2.1354 Y1.7418 I0.0492 J0.0417
G2 X2.2075 Y1.7285 I0.0245 J-0.069
G3 X2.3332 Y1.6418 I0.483 J0.5659
G2 X2.3309 Y1.6329 I-0.0023 J-0.0042
G1 X1.6453
G2 X1.6329 Y1.6453 J0.0124
G1 X1.6347 Y6.0352
X1.6329 Y6.7295
G2 X1.6455 Y6.7421 I0.0125
G1 X2.3776
G2 X2.3797 Y6.7333 J-0.0046
G3 X1.9496 Y6.0352 I0.3547 J-0.7001
G1 Y5.3328
G3 X2.3377 Y4.6602 I0.7769
G2 X2.3514 Y4.6364 I-0.0139 J-0.0238
G1 Y3.7537
G2 X2.3379 Y3.7312 I-0.0256
G3 X1.9496 Y3.0852 I0.3483 J-0.649
G1 Y2.2833
G3 X2.0535 Y1.91 I0.7224
X2.2075 Y1.7285 I0.637 J0.3844
X2.2699 Y1.722 I0.036 J0.0421
G2 X2.3326 Y1.7201 I0.0298 J-0.0549
G3 X2.6843 Y1.6204 I0.3497 J0.5631
G1 X3.2085 Y1.6222
G2 X3.2213 Y1.6094 J-0.0128
G1 Y1.5758
G2 X3.2085 Y1.563 I-0.0128
G1 X1.5757
G2 X1.563 Y1.5757 J0.0126
G1 Y6.7992
G2 X1.5758 Y6.812 I0.0128
G1 X3.213
G2 X3.2257 Y6.7992 J-0.0128
G1 Y6.7611
G2 X3.213 Y6.7483 I-0.0128
G1 X2.7319 Y6.7501
G3 X2.0195 Y6.0352 J-0.7124
G1 Y5.3328
G3 X2.1249 Y4.9627 I0.7022
X2.4076 Y4.7014 I0.6139 J0.3808
G2 X2.4213 Y4.6789 I-0.0116 J-0.0225
G1 Y3.7091
G2 X2.4076 Y3.6878 I-0.0235
G3 X2.1254 Y3.4433 I0.281 J-0.6096
X2.0195 Y3.0852 I0.5524 J-0.3581
G1 Y2.2833
G3 X2.3326 Y1.7201 I0.6629
X2.3889 Y1.7228 I0.0262 J0.0422
G2 X2.4448 Y1.7296 I0.0338 J-0.0446
G3 X2.6843 Y1.6808 I0.2375 J0.5536
G1 X3.2689 Y1.6826
G2 X3.2817 Y1.6698 J-0.0128
G1 Y1.5154
G2 X3.2689 Y1.5026 I-0.0128
G1 X1.5152
G2 X1.5026 Y1.5152 J0.0126
G1 Y6.8596
G2 X1.5154 Y6.8724 I0.0128
G1 X3.2734
G2 X3.2862 Y6.8596 J-0.0128
G1 Y6.7006
G2 X3.2734 Y6.6878 I-0.0128
G1 X2.7319 Y6.6896
G3 X2.0799 Y6.0352 J-0.652
G1 Y5.3328
G3 X2.1865 Y4.9788 I0.641
X2.4681 Y4.7394 I0.5553 J0.3678
G2 X2.4817 Y4.7184 I-0.0095 J-0.021
G1 Y3.6674
G2 X2.4682 Y3.6478 I-0.0211
G3 X2.0799 Y3.0852 I0.216 J-0.5644
G1 Y2.2833
G3 X2.4448 Y1.7296 I0.6024
X2.5349 Y1.7488 I0.0314 J0.0733
G2 X2.6213 Y1.7805 I0.0742 J-0.0686
G3 X2.6843 Y1.7768 I0.0611 J0.5027
G1 X3.3649 Y1.7786
G2 X3.3777 Y1.7658 J-0.0128
G1 Y1.4194
G2 X3.3649 Y1.4066 I-0.0128
G1 X1.4192
G2 X1.4066 Y1.4192 J0.0126
G1 Y6.9556
G2 X1.4194 Y6.9684 I0.0128
G1 X3.3694
G2 X3.3822 Y6.9556 J-0.0128
G1 Y6.6046
G2 X3.3694 Y6.5918 I-0.0128
G1 X2.7319 Y6.5936
G3 X2.1759 Y6.0352 J-0.556
G1 Y5.3328
G3 X2.2841 Y5.0057 I0.5485
X2.5643 Y4.8052 I0.4521 J0.3359
G2 X2.5777 Y4.7869 I-0.0059 J-0.0183
G1 Y3.5943
G2 X2.5644 Y3.5774 I-0.0174
G3 X2.1759 Y3.0852 I0.1183 J-0.4928
G1 Y2.2833
G3 X2.6213 Y1.7805 I0.5064
X2.7004 Y1.8244 I0.0093 J0.0766
G2 X2.7767 Y1.873 I0.0765 J-0.0358
G1 X3.4609 Y1.8746
G2 X3.4737 Y1.8618 J-0.0128
G1 Y1.3234
G2 X3.4609 Y1.3106 I-0.0128
G1 X1.3232
G2 X1.3106 Y1.3232 J0.0126
G1 Y7.0516
G2 X1.3234 Y7.0644 I0.0128
G1 X3.4654
G2 X3.4782 Y7.0516 J-0.0128
G1 X3.4774 Y6.5312
G3 X3.478 Y6.5197 I0.129
G2 X3.4788 Y6.5083 I-0.3347 J-0.0299
X3.467 Y6.4958 I-0.0118 J-0.0006
G1 X2.7319 Y6.4976
G3 X2.4061 Y6.3617 J-0.4582
X2.2719 Y6.0352 I0.33 J-0.3265
G1 Y5.3328
G3 X2.3833 Y5.0353 I0.4529
X2.6607 Y4.8805 I0.3538 J0.3083
G2 X2.6737 Y4.8652 I-0.0025 J-0.0153
G1 Y3.5087
G2 X2.661 Y3.4952 I-0.0135
G3 X2.2719 Y3.0852 I0.0232 J-0.4116
G1 Y2.2833
G3 X2.6843 Y1.8728 I0.4104
G1 X2.7767 Y1.873
G3 X2.8486 Y1.9212 I-0.0002 J0.078
G2 X2.9205 Y1.9693 I0.072 J-0.0298
G1 X3.5595 Y1.9706
G2 X3.5707 Y1.9583 J-0.0113
X3.5696 Y1.9468 I-0.732 J0.0647
G3 X3.569 Y1.9352 I0.1109 J-0.0116
G1 X3.5697 Y1.2274
G2 X3.5569 Y1.2146 I-0.0128
G1 X1.2272
G2 X1.2146 Y1.2272 J0.0126
G1 Y7.1476
G2 X1.2274 Y7.1604 I0.0128
G1 X3.5614
G2 X3.5742 Y7.1476 J-0.0128
G1 X3.5724 Y6.5312
G3 X3.5792 Y6.47 I0.2762
X3.5979 Y6.4113 I0.3553 J0.0807
G2 X3.5902 Y6.3998 I-0.0077 J-0.0032
G1 X2.7319 Y6.4016
G3 X2.474 Y6.2938 J-0.3622
X2.3679 Y6.0352 I0.2621 J-0.2586
G1 Y5.3328
G3 X2.476 Y5.0755 I0.3604
X2.7343 Y4.9699 I0.2584 J0.2634
X2.7456 Y4.9703 J0.1811
G2 X2.7569 Y4.9706 I0.0113 J-0.1808
X2.7697 Y4.9579 J-0.0128
G1 Y3.4126
G2 X2.7569 Y3.3998 I-0.0128
X2.7206 Y3.4007 J0.7329
G3 X2.6843 Y3.4016 I-0.0363 J-0.732
X2.3679 Y3.0852 J-0.3164
G1 Y2.2833
G3 X2.461 Y2.0605 I0.3131
X2.6843 Y1.9688 I0.2233 J0.2261
G1 X2.9205 Y1.9693
G3 X2.9864 Y2.0135 I-0.0001 J0.0716
G2 X3.0524 Y2.0576 I0.0661 J-0.0274
G1 X3.6943 Y2.0587
G2 X3.699 Y2.0486 J-0.0062
G3 X3.6676 Y1.9957 I0.1485 J-0.1241
X3.656 Y1.9352 I0.1529 J-0.0605
G1 X3.6578 Y1.139
G2 X3.6453 Y1.1265 I-0.0125
G1 X1.1389
G2 X1.1265 Y1.1389 J0.0124
G1 Y7.236
G2 X1.139 Y7.2485 I0.0125
G1 X3.6497
G2 X3.6623 Y7.236 J-0.0125
G1 X3.6605 Y6.5312
G3 X3.7009 Y6.403 I0.2237
X3.8066 Y6.3201 I0.1891 J0.1323
G2 X3.8051 Y6.3117 I-0.0016 J-0.004
G1 X2.7319 Y6.3135
G3 X2.5363 Y6.2315 J-0.2741
X2.456 Y6.0352 I0.1998 J-0.1963
G1 Y5.3328
G3 X2.5381 Y5.1372 I0.2741
X2.7343 Y5.057 I0.1963 J0.1998
X2.7898 Y5.0578 J1.7458
G2 X2.8453 Y5.0587 I0.0555 J-1.7449
X2.8578 Y5.0462 J-0.0125
G1 Y3.3243
G2 X2.8453 Y3.3117 I-0.0125
X2.7648 Y3.3126 J3.6729
G3 X2.6843 Y3.3135 I-0.0805 J-3.672
X2.456 Y3.0852 J-0.2283
G1 Y2.2833
G3 X2.5233 Y2.1228 I0.2249
X2.6843 Y2.057 I0.161 J0.1638
G1 X3.0524 Y2.0576
G3 X3.1012 Y2.0902 I-0.0001 J0.053
G2 X3.15 Y2.1227 I0.0488 J-0.0203
G1 X4.2218
Y2.0477
X3.8343
G3 X3.7218 Y1.9352 J-0.1125
G1 Y1.0625
X1.0625
Y7.3125
X3.7263
Y6.5312
G3 X3.8888 Y6.3687 I0.1625
G1 X4.1843
G2 X4.2218 Y6.3312 J-0.0375
G1 Y6.2477
X2.7343
G3 X2.5218 Y6.0352 J-0.2125
G1 Y5.3352
G3 X2.7343 Y5.1227 I0.2125
G1 X2.9218
Y3.2852
G2 X2.8843 Y3.2477 I-0.0375
G1 X2.6843
G3 X2.5218 Y3.0852 J-0.1625
G1 Y2.2852
G3 X2.6843 Y2.1227 I0.1625
G1 X3.15
G2 X3.1514 Y2.1069 J-0.008
G1 X1.8451 Y1.8737
G3 X1.8457 Y1.8578 I0.0014 J-0.0079
G1 Z-0.0675
G2 X1.8467 Y1.8577 Z-0.0723 I-0.0011 J-0.0125
X1.8493 Y1.857 Z-0.0763 I-0.002 J-0.0123
X1.8528 Y1.8549 Z-0.079 I-0.0047 J-0.0116
X1.8557 Y1.8512 Z-0.08 I-0.0081 J-0.0095
G3 X1.8583 Y1.8463 I0.8508 J0.4454
G2 X1.8517 Y1.8354 I-0.0066 J-0.0035
G1 X1.8446
G2 X1.8354 Y1.8446 J0.0092
G1 Y1.872
G2 X1.8441 Y1.874 I0.0046
G3 X1.8557 Y1.8512 I0.8624 J0.4225
X1.8583 Y1.8463 Z-0.0787 I0.8508 J0.4454
G2 X1.8591 Y1.8428 Z-0.076 I-0.0066 J-0.0035
X1.8587 Y1.8403 Z-0.0721 I-0.0075 J0.0001
X1.8584 Y1.8396 Z-0.0675 I-0.007 J0.0025
G0 Z0.2
X1.9716 Y4.4565
G1 Z0.06 F40.38
Z-0.0675
G2 X1.9708 Y4.4571 Z-0.0723 I0.0068 J0.0105
X1.9688 Y4.4589 Z-0.0763 I0.0075 J0.01
X1.9667 Y4.4624 Z-0.079 I0.0095 J0.0081
X1.9658 Y4.467 Z-0.08 I0.0116 J0.0047
G1 Y4.5121
G2 X1.9761 Y4.5166 I0.0061
G3 X2.0106 Y4.4859 I0.7093 J0.7633
G2 X2.0185 Y4.4688 I-0.0147 J-0.0172
G1 Y3.9283
G2 X2.0102 Y3.9108 I-0.0226
G3 X1.9745 Y3.8803 I0.6662 J-0.8163
G2 X1.9658 Y3.8842 I-0.0035 J0.0039
G1 Y4.467
G3 X1.9389 Y4.5074 I-0.0438
G2 X1.912 Y4.5478 I0.0168 J0.0404
G1 Y4.6478
G2 X1.9218 Y4.6514 I0.0056
G3 X2.0581 Y4.5164 I0.8065 J0.6778
G2 X2.0724 Y4.4862 I-0.0248 J-0.0302
G1 Y3.9094
G2 X2.0582 Y3.8803 I-0.0371
G3 X1.9211 Y3.7498 I0.6304 J-0.7996
G2 X1.912 Y3.7532 I-0.0039 J0.0034
G1 Y4.5478
G3 X1.8735 Y4.6055 I-0.0625
G2 X1.835 Y4.6632 I0.024 J0.0577
G1 Y4.9123
G2 X1.8437 Y4.9143 I0.0046
G3 X2.1354 Y4.5531 I0.8903 J0.4208
G2 X2.1493 Y4.5251 I-0.0215 J-0.028
G1 Y3.8693
G2 X2.1355 Y3.8423 I-0.0334
G3 X1.8422 Y3.4917 I0.552 J-0.7597
G2 X1.835 Y3.4934 I-0.0034 J0.0016
G1 Y4.6632
G2 X1.8359 Y4.6679 Z-0.079 I0.0125
X1.838 Y4.6713 Z-0.0763 I0.0116 J-0.0047
X1.84 Y4.6732 Z-0.0723 I0.0095 J-0.0081
X1.8408 Y4.6737 Z-0.0675 I0.0075 J-0.01
G1 Z0.06
Y6.5099
Z-0.0675
G2 X1.84 Y6.5104 Z-0.0723 I0.0068 J0.0105
X1.838 Y6.5123 Z-0.0763 I0.0075 J0.01
X1.8359 Y6.5157 Z-0.079 I0.0095 J0.0081
X1.835 Y6.5204 Z-0.08 I0.0116 J0.0047
G1 Y6.5274
G2 X1.8476 Y6.54 I0.0125
G1 X1.8758
G2 X1.882 Y6.5291 J-0.0072
G3 X1.8422 Y6.453 I0.8895 J-0.5136
G2 X1.835 Y6.4546 I-0.0034 J0.0016
G1 Y6.5204
G3 X1.8094 Y6.5618 I-0.0462
G2 X1.8205 Y6.6093 I0.0111 J0.0224
G1 X2.0072
G2 X2.0124 Y6.5987 J-0.0066
G3 X1.8676 Y6.3333 I0.7413 J-0.5767
X1.8168 Y6.0352 I0.8484 J-0.298
G1 Y5.3328
G3 X1.9204 Y4.9135 I0.9001
X2.2046 Y4.5883 I0.8256 J0.4346
G2 X2.2186 Y4.5611 I-0.0193 J-0.0271
G1 Y3.832
G2 X2.2046 Y3.8059 I-0.0314
G3 X1.9204 Y3.4941 I0.4878 J-0.73
X1.8168 Y3.0852 I0.7547 J-0.4089
G1 Y2.2833
G3 X1.8602 Y2.0166 I0.8407
X1.9839 Y1.7765 I0.8416 J0.2814
G2 X1.9784 Y1.7657 I-0.0055 J-0.004
G1 X1.7784
G2 X1.7657 Y1.7784 J0.0126
G1 X1.7675 Y6.0352
X1.7657 Y6.5965
G2 X1.7785 Y6.6093 I0.0128
G1 X1.8205
G3 X1.861 Y6.6363 J0.0439
G2 X1.9016 Y6.6633 I0.0405 J-0.0169
G1 X2.1297
G2 X2.1338 Y6.6532 J-0.0059
G3 X1.8688 Y6.0209 I0.6101 J-0.6273
G1 X1.8699 Y5.7923
X1.8706 Y5.5638
X1.8708 Y5.3352
G3 X1.9746 Y4.9273 I0.8537
X2.2587 Y4.6167 I0.7694 J0.4185
G2 X2.2726 Y4.5907 I-0.0173 J-0.026
G1 Y3.8013
G2 X2.2586 Y3.7763 I-0.0293
G3 X1.8708 Y3.0839 I0.4244 J-0.6925
G1 Y2.2833
G3 X1.9309 Y1.9803 I0.7943
X2.0999 Y1.7219 I0.7639 J0.3152
G2 X2.0956 Y1.7117 I-0.0043 J-0.0042
G1 X1.7243
G2 X1.7117 Y1.7243 J0.0126
G1 Y6.6505
G2 X1.7245 Y6.6633 I0.0128
G1 X1.9016
G3 X1.9606 Y6.7027 J0.064
G2 X2.0197 Y6.7421 I0.0591 J-0.0246
G1 X2.3776
G2 X2.3797 Y6.7333 J-0.0046
G3 X1.9496 Y6.0352 I0.3547 J-0.7001
G1 Y5.3328
G3 X2.3377 Y4.6602 I0.7769
G2 X2.3514 Y4.6364 I-0.0139 J-0.0238
G1 Y3.7537
G2 X2.3379 Y3.7312 I-0.0256
G3 X1.9496 Y3.0852 I0.3483 J-0.649
G1 Y2.2833
G3 X2.0535 Y1.91 I0.7224
X2.3332 Y1.6418 I0.637 J0.3844
G2 X2.3309 Y1.6329 I-0.0023 J-0.0042
G1 X1.6453
G2 X1.6329 Y1.6453 J0.0124
G1 X1.6347 Y6.0352
X1.6329 Y6.7295
G2 X1.6455 Y6.7421 I0.0125
G1 X2.0197
G3 X2.0721 Y6.777 J0.0568
G2 X2.1245 Y6.812 I0.0524 J-0.0218
G1 X3.213
G2 X3.2257 Y6.7992 J-0.0128
G1 Y6.7611
G2 X3.213 Y6.7483 I-0.0128
G1 X2.7319 Y6.7501
G3 X2.0195 Y6.0352 J-0.7124
G1 Y5.3328
G3 X2.1249 Y4.9627 I0.7022
X2.4076 Y4.7014 I0.6139 J0.3808
G2 X2.4213 Y4.6789 I-0.0116 J-0.0225
G1 Y3.7091
G2 X2.4076 Y3.6878 I-0.0235
G3 X2.1254 Y3.4433 I0.281 J-0.6096
X2.0195 Y3.0852 I0.5524 J-0.3581
G1 Y2.2833
G3 X2.6843 Y1.6204 I0.6629
G1 X3.2085 Y1.6222
G2 X3.2213 Y1.6094 J-0.0128
G1 Y1.5758
G2 X3.2085 Y1.563 I-0.0128
G1 X1.5757
G2 X1.563 Y1.5757 J0.0126
G1 Y6.7992
G2 X1.5758 Y6.812 I0.0128
G1 X2.1245
G3 X2.1698 Y6.8422 J0.0491
G2 X2.2152 Y6.8724 I0.0453 J-0.0189
G1 X3.2734
G2 X3.2862 Y6.8596 J-0.0128
G1 Y6.7006
G2 X3.2734 Y6.6878 I-0.0128
G1 X2.7319 Y6.6896
G3 X2.0799 Y6.0352 J-0.652
G1 Y5.3328
G3 X2.1865 Y4.9788 I0.641
X2.4681 Y4.7394 I0.5553 J0.3678
G2 X2.4817 Y4.7184 I-0.0095 J-0.021
G1 Y3.6674
G2 X2.4682 Y3.6478 I-0.0211
G3 X2.0799 Y3.0852 I0.216 J-0.5644
G1 Y2.2833
G3 X2.6843 Y1.6808 I0.6024
G1 X3.2689 Y1.6826
G2 X3.2817 Y1.6698 J-0.0128
G1 Y1.5154
G2 X3.2689 Y1.5026 I-0.0128
G1 X1.5152
G2 X1.5026 Y1.5152 J0.0126
G1 Y6.8596
G2 X1.5154 Y6.8724 I0.0128
G1 X2.2152
G3 X2.2872 Y6.9204 J0.078
G2 X2.3592 Y6.9684 I0.072 J-0.03
G1 X3.3694
G2 X3.3822 Y6.9556 J-0.0128
G1 Y6.6046
G2 X3.3694 Y6.5918 I-0.0128
G1 X2.7319 Y6.5936
G3 X2.1759 Y6.0352 J-0.556
G1 Y5.3328
G3 X2.2841 Y5.0057 I0.5485
X2.5643 Y4.8052 I0.4521 J0.3359
G2 X2.5777 Y4.7869 I-0.0059 J-0.0183
G1 Y3.5943
G2 X2.5644 Y3.5774 I-0.0174
G3 X2.1759 Y3.0852 I0.1183 J-0.4928
G1 Y2.2833
G3 X2.6843 Y1.7768 I0.5064
G1 X3.3649 Y1.7786
G2 X3.3777 Y1.7658 J-0.0128
G1 Y1.4194
G2 X3.3649 Y1.4066 I-0.0128
G1 X1.4192
G2 X1.4066 Y1.4192 J0.0126
G1 Y6.9556
G2 X1.4194 Y6.9684 I0.0128
G1 X2.3592
G3 X2.4312 Y7.0164 J0.078
G2 X2.5032 Y7.0644 I0.072 J-0.03
G1 X3.4654
G2 X3.4782 Y7.0516 J-0.0128
G1 X3.4774 Y6.5312
G3 X3.478 Y6.5197 I0.129
G2 X3.4788 Y6.5083 I-0.3347 J-0.0299
X3.467 Y6.4958 I-0.0118 J-0.0006
G1 X2.7319 Y6.4976
G3 X2.4061 Y6.3617 J-0.4582
X2.2719 Y6.0352 I0.33 J-0.3265
G1 Y5.3328
G3 X2.3833 Y5.0353 I0.4529
X2.6607 Y4.8805 I0.3538 J0.3083
G2 X2.6737 Y4.8652 I-0.0025 J-0.0153
G1 Y3.5087
G2 X2.661 Y3.4952 I-0.0135
G3 X2.2719 Y3.0852 I0.0232 J-0.4116
G1 Y2.2833
G3 X2.6843 Y1.8728 I0.4104
G1 X3.4609 Y1.8746
G2 X3.4737 Y1.8618 J-0.0128
G1 Y1.3234
G2 X3.4609 Y1.3106 I-0.0128
G1 X1.3232
G2 X1.3106 Y1.3232 J0.0126
G1 Y7.0516
G2 X1.3234 Y7.0644 I0.0128
G1 X2.5032
G3 X2.5752 Y7.1124 J0.078
G2 X2.6472 Y7.1604 I0.072 J-0.03
G1 X3.5614
G2 X3.5742 Y7.1476 J-0.0128
G1 X3.5724 Y6.5312
G3 X3.5792 Y6.47 I0.2762
X3.5979 Y6.4113 I0.3553 J0.0807
G2 X3.5902 Y6.3998 I-0.0077 J-0.0032
G1 X2.7319 Y6.4016
G3 X2.474 Y6.2938 J-0.3622
X2.3679 Y6.0352 I0.2621 J-0.2586
G1 Y5.3328
G3 X2.476 Y5.0755 I0.3604
X2.7343 Y4.9699 I0.2584 J0.2634
X2.7456 Y4.9703 J0.1811
G2 X2.7569 Y4.9706 I0.0113 J-0.1808
X2.7697 Y4.9579 J-0.0128
G1 Y3.4126
G2 X2.7569 Y3.3998 I-0.0128
X2.7206 Y3.4007 J0.7329
G3 X2.6843 Y3.4016 I-0.0363 J-0.732
X2.3679 Y3.0852 J-0.3164
G1 Y2.2833
G3 X2.461 Y2.0605 I0.3131
X2.6843 Y1.9688 I0.2233 J0.2261
G1 X3.5595 Y1.9706
G2 X3.5707 Y1.9583 J-0.0113
X3.5696 Y1.9468 I-0.732 J0.0647
G3 X3.569 Y1.9352 I0.1109 J-0.0116
G1 X3.5697 Y1.2274
G2 X3.5569 Y1.2146 I-0.0128
G1 X1.2272
G2 X1.2146 Y1.2272 J0.0126
G1 Y7.1476
G2 X1.2274 Y7.1604 I0.0128
G1 X2.6472
G3 X2.7132 Y7.2044 J0.0716
G2 X2.7793 Y7.2485 I0.0661 J-0.0275
G1 X3.6497
G2 X3.6623 Y7.236 J-0.0125
G1 X3.6605 Y6.5312
G3 X3.7009 Y6.403 I0.2237
X3.8066 Y6.3201 I0.1891 J0.1323
G2 X3.8051 Y6.3117 I-0.0016 J-0.004
G1 X2.7319 Y6.3135
G3 X2.5363 Y6.2315 J-0.2741
X2.456 Y6.0352 I0.1998 J-0.1963
G1 Y5.3328
G3 X2.5381 Y5.1372 I0.2741
X2.7343 Y5.057 I0.1963 J0.1998
X2.7898 Y5.0578 J1.7458
G2 X2.8453 Y5.0587 I0.0555 J-1.7449
X2.8578 Y5.0462 J-0.0125
G1 Y3.3243
G2 X2.8453 Y3.3117 I-0.0125
X2.7648 Y3.3126 J3.6729
G3 X2.6843 Y3.3135 I-0.0805 J-3.672
X2.456 Y3.0852 J-0.2283
G1 Y2.2833
G3 X2.5233 Y2.1228 I0.2249
X2.6843 Y2.057 I0.161 J0.1638
G1 X3.6943 Y2.0587
G2 X3.699 Y2.0486 J-0.0062
G3 X3.6676 Y1.9957 I0.1485 J-0.1241
X3.656 Y1.9352 I0.1529 J-0.0605
G1 X3.6578 Y1.139
G2 X3.6453 Y1.1265 I-0.0125
G1 X1.1389
G2 X1.1265 Y1.1389 J0.0124
G1 Y7.236
G2 X1.139 Y7.2485 I0.0125
G1 X2.7793
G3 X2.8273 Y7.2805 J0.052
G2 X2.8753 Y7.3125 I0.048 J-0.02
G1 X3.7263
Y6.5312
G3 X3.8888 Y6.3687 I0.1625
G1 X4.1843
G2 X4.2218 Y6.3312 J-0.0375
G1 Y6.2477
X2.7343
G3 X2.5218 Y6.0352 J-0.2125
G1 Y5.3352
G3 X2.7343 Y5.1227 I0.2125
G1 X2.9218
Y3.2852
G2 X2.8843 Y3.2477 I-0.0375
G1 X2.6843
G3 X2.5218 Y3.0852 J-0.1625
G1 Y2.2852
G3 X2.6843 Y2.1227 I0.1625
G1 X4.2218
Y2.0477
X3.8343
G3 X3.7218 Y1.9352 J-0.1125
G1 Y1.0625
X1.0625
Y7.3125
X2.8753
G2 X2.8802 Y7.2981 J-0.008
G1 X1.85 Y6.5103
G2 X1.8408 Y6.5099 I-0.0049 J0.0064
G1 Z-0.1075
G2 X1.84 Y6.5104 Z-0.1123 I0.0068 J0.0105
X1.838 Y6.5123 Z-0.1163 I0.0075 J0.01
X1.8359 Y6.5157 Z-0.119 I0.0095 J0.0081
X1.835 Y6.5204 Z-0.12 I0.0116 J0.0047
G1 Y6.5274
G2 X1.8476 Y6.54 I0.0125
G1 X1.8758
G2 X1.882 Y6.5291 J-0.0072
G3 X1.8422 Y6.453 I0.8895 J-0.5136
G2 X1.835 Y6.4546 I-0.0034 J0.0016
G1 Y6.5204
G2 X1.8359 Y6.5251 Z-0.119 I0.0125
X1.838 Y6.5285 Z-0.1163 I0.0116 J-0.0047
X1.84 Y6.5304 Z-0.1123 I0.0095 J-0.0081
X1.8408 Y6.5309 Z-0.1075 I0.0075 J-0.01
G0 Z0.2
X1.9716 Y4.4565
G1 Z0.02 F40.38
Z-0.1075
G2 X1.9708 Y4.4571 Z-0.1123 I0.0068 J0.0105
X1.9688 Y4.4589 Z-0.1163 I0.0075 J0.01
X1.9667 Y4.4624 Z-0.119 I0.0095 J0.0081
X1.9658 Y4.467 Z-0.12 I0.0116 J0.0047
G1 Y4.5121
G2 X1.9761 Y4.5166 I0.0061
G3 X2.0106 Y4.4859 I0.7093 J0.7633
G2 X2.0185 Y4.4688 I-0.0147 J-0.0172
G1 Y3.9283
G2 X2.0102 Y3.9108 I-0.0226
G3 X1.9745 Y3.8803 I0.6662 J-0.8163
G2 X1.9658 Y3.8842 I-0.0035 J0.0039
G1 Y4.467
G3 X1.9389 Y4.5074 I-0.0438
G2 X1.912 Y4.5478 I0.0168 J0.0404
G1 Y4.6478
G2 X1.9218 Y4.6514 I0.0056
G3 X2.0581 Y4.5164 I0.8065 J0.6778
G2 X2.0724 Y4.4862 I-0.0248 J-0.0302
G1 Y3.9094
G2 X2.0582 Y3.8803 I-0.0371
G3 X1.9211 Y3.7498 I0.6304 J-0.7996
G2 X1.912 Y3.7532 I-0.0039 J0.0034
G1 Y4.5478
G3 X1.8735 Y4.6055 I-0.0625
G2 X1.835 Y4.6632 I0.024 J0.0577
G1 Y4.9123
G2 X1.8437 Y4.9143 I0.0046
G3 X2.1354 Y4.5531 I0.8903 J0.4208
G2 X2.1493 Y4.5251 I-0.0215 J-0.028
G1 Y3.8693
G2 X2.1355 Y3.8423 I-0.0334
G3 X1.8422 Y3.4917 I0.552 J-0.7597
G2 X1.835 Y3.4934 I-0.0034 J0.0016
G1 Y4.6632
G2 X1.8359 Y4.6679 Z-0.119 I0.0125
X1.838 Y4.6713 Z-0.1163 I0.0116 J-0.0047
X1.84 Y4.6732 Z-0.1123 I0.0095 J-0.0081
X1.8408 Y4.6737 Z-0.1075 I0.0075 J-0.01
G0 Z0.2
X1.8457 Y1.8578
G1 Z0.02 F40.38
Z-0.1075
G2 X1.8467 Y1.8577 Z-0.1123 I-0.0011 J-0.0125
X1.8493 Y1.857 Z-0.1163 I-0.002 J-0.0123
X1.8528 Y1.8549 Z-0.119 I-0.0047 J-0.0116
X1.8557 Y1.8512 Z-0.12 I-0.0081 J-0.0095
G3 X1.8583 Y1.8463 I0.8508 J0.4454
G2 X1.8517 Y1.8354 I-0.0066 J-0.0035
G1 X1.8446
G2 X1.8354 Y1.8446 J0.0092
G1 Y1.872
G2 X1.8441 Y1.874 I0.0046
G3 X1.8557 Y1.8512 I0.8624 J0.4225
X1.9126 Y1.821 I0.0504 J0.0264
G2 X1.9712 Y1.7944 I0.0071 J-0.0622
G3 X1.9839 Y1.7765 I0.7306 J0.5037
G2 X1.9784 Y1.7657 I-0.0055 J-0.004
G1 X1.7784
G2 X1.7657 Y1.7784 J0.0126
G1 X1.7675 Y6.0352
X1.7657 Y6.5965
G2 X1.7785 Y6.6093 I0.0128
G1 X2.0072
G2 X2.0124 Y6.5987 J-0.0066
G3 X1.8676 Y6.3333 I0.7413 J-0.5767
X1.8168 Y6.0352 I0.8484 J-0.298
G1 Y5.3328
G3 X1.9204 Y4.9135 I0.9001
X2.2046 Y4.5883 I0.8256 J0.4346
G2 X2.2186 Y4.5611 I-0.0193 J-0.0271
G1 Y3.832
G2 X2.2046 Y3.8059 I-0.0314
G3 X1.9204 Y3.4941 I0.4878 J-0.73
X1.8168 Y3.0852 I0.7547 J-0.4089
G1 Y2.2833
G3 X1.8602 Y2.0166 I0.8407
X1.9712 Y1.7944 I0.8416 J0.2814
X2.0175 Y1.7765 I0.0363 J0.025
G2 X2.0646 Y1.7609 I0.0108 J-0.0464
G3 X2.0999 Y1.7219 I0.6301 J0.5346
G2 X2.0956 Y1.7117 I-0.0043 J-0.0042
G1 X1.7243
G2 X1.7117 Y1.7243 J0.0126
G1 Y6.6505
G2 X1.7245 Y6.6633 I0.0128
G1 X2.1297
G2 X2.1338 Y6.6532 J-0.0059
G3 X1.8688 Y6.0209 I0.6101 J-0.6273
G1 X1.8699 Y5.7923
X1.8706 Y5.5638
X1.8708 Y5.3352
G3 X1.9746 Y4.9273 I0.8537
X2.2587 Y4.6167 I0.7694 J0.4185
G2 X2.2726 Y4.5907 I-0.0173 J-0.026
G1 Y3.8013
G2 X2.2586 Y3.7763 I-0.0293
G3 X1.8708 Y3.0839 I0.4244 J-0.6925
G1 Y2.2833
G3 X1.9309 Y1.9803 I0.7943
X2.0646 Y1.7609 I0.7639 J0.3152
X2.1354 Y1.7418 I0.0492 J0.0417
G2 X2.2075 Y1.7285 I0.0245 J-0.069
G3 X2.3332 Y1.6418 I0.483 J0.5659
G2 X2.3309 Y1.6329 I-0.0023 J-0.0042
G1 X1.6453
G2 X1.6329 Y1.6453 J0.0124
G1 X1.6347 Y6.0352
X1.6329 Y6.7295
G2 X1.6455 Y6.7421 I0.0125
G1 X2.3776
G2 X2.3797 Y6.7333 J-0.0046
G3 X1.9496 Y6.0352 I0.3547 J-0.7001
G1 Y5.3328
G3 X2.3377 Y4.6602 I0.7769
G2 X2.3514 Y4.6364 I-0.0139 J-0.0238
G1 Y3.7537
G2 X2.3379 Y3.7312 I-0.0256
G3 X1.9496 Y3.0852 I0.3483 J-0.649
G1 Y2.2833
G3 X2.0535 Y1.91 I0.7224
X2.2075 Y1.7285 I0.637 J0.3844
X2.2699 Y1.722 I0.036 J0.0421
G2 X2.3326 Y1.7201 I0.0298 J-0.0549
G3 X2.6843 Y1.6204 I0.3497 J0.5631
G1 X3.2085 Y1.6222
G2 X3.2213 Y1.6094 J-0.0128
G1 Y1.5758
G2 X3.2085 Y1.563 I-0.0128
G1 X1.5757
G2 X1.563 Y1.5757 J0.0126
G1 Y6.7992
G2 X1.5758 Y6.812 I0.0128
G1 X3.213
G2 X3.2257 Y6.7992 J-0.0128
G1 Y6.7611
G2 X3.213 Y6.7483 I-0.0128
G1 X2.7319 Y6.7501
G3 X2.0195 Y6.0352 J-0.7124
G1 Y5.3328
G3 X2.1249 Y4.9627 I0.7022
X2.4076 Y4.7014 I0.6139 J0.3808
G2 X2.4213 Y4.6789 I-0.0116 J-0.0225
G1 Y3.7091
G2 X2.4076 Y3.6878 I-0.0235
G3 X2.1254 Y3.4433 I0.281 J-0.6096
X2.0195 Y3.0852 I0.5524 J-0.3581
G1 Y2.2833
G3 X2.3326 Y1.7201 I0.6629
X2.3889 Y1.7228 I0.0262 J0.0422
G2 X2.4448 Y1.7296 I0.0338 J-0.0446
G3 X2.6843 Y1.6808 I0.2375 J0.5536
G1 X3.2689 Y1.6826
G2 X3.2817 Y1.6698 J-0.0128
G1 Y1.5154
G2 X3.2689 Y1.5026 I-0.0128
G1 X1.5152
G2 X1.5026 Y1.5152 J0.0126
G1 Y6.8596
G2 X1.5154 Y6.8724 I0.0128
G1 X3.2734
G2 X3.2862 Y6.8596 J-0.0128
G1 Y6.7006
G2 X3.2734 Y6.6878 I-0.0128
G1 X2.7319 Y6.6896
G3 X2.0799 Y6.0352 J-0.652
G1 Y5.3328
G3 X2.1865 Y4.9788 I0.641
X2.4681 Y4.7394 I0.5553 J0.3678
G2 X2.4817 Y4.7184 I-0.0095 J-0.021
G1 Y3.6674
G2 X2.4682 Y3.6478 I-0.0211
G3 X2.0799 Y3.0852 I0.216 J-0.5644
G1 Y2.2833
G3 X2.4448 Y1.7296 I0.6024
X2.5349 Y1.7488 I0.0314 J0.0733
G2 X2.6213 Y1.7805 I0.0742 J-0.0686
G3 X2.6843 Y1.7768 I0.0611 J0.5027
G1 X3.3649 Y1.7786
G2 X3.3777 Y1.7658 J-0.0128
G1 Y1.4194
G2 X3.3649 Y1.4066 I-0.0128
G1 X1.4192
G2 X1.4066 Y1.4192 J0.0126
G1 Y6.9556
G2 X1.4194 Y6.9684 I0.0128
G1 X3.3694
G2 X3.3822 Y6.9556 J-0.0128
G1 Y6.6046
G2 X3.3694 Y6.5918 I-0.0128
G1 X2.7319 Y6.5936
G3 X2.1759 Y6.0352 J-0.556
G1 Y5.3328
G3 X2.2841 Y5.0057 I0.5485
X2.5643 Y4.8052 I0.4521 J0.3359
G2 X2.5777 Y4.7869 I-0.0059 J-0.0183
G1 Y3.5943
G2 X2.5644 Y3.5774 I-0.0174
G3 X2.1759 Y3.0852 I0.1183 J-0.4928
G1 Y2.2833
G3 X2.6213 Y1.7805 I0.5064
X2.7004 Y1.8244 I0.0093 J0.0766
G2 X2.7767 Y1.873 I0.0765 J-0.0358
G1 X3.4609 Y1.8746
G2 X3.4737 Y1.8618 J-0.0128
G1 Y1.3234
G2 X3.4609 Y1.3106 I-0.0128
G1 X1.3232
G2 X1.3106 Y1.3232 J0.0126
G1 Y7.0516
G2 X1.3234 Y7.0644 I0.0128
G1 X3.4654
G2 X3.4782 Y7.0516 J-0.0128
G1 X3.4774 Y6.5312
G3 X3.478 Y6.5197 I0.129
G2 X3.4788 Y6.5083 I-0.3347 J-0.0299
X3.467 Y6.4958 I-0.0118 J-0.0006
G1 X2.7319 Y6.4976
G3 X2.4061 Y6.3617 J-0.4582
X2.2719 Y6.0352 I0.33 J-0.3265
G1 Y5.3328
G3 X2.3833 Y5.0353 I0.4529
X2.6607 Y4.8805 I0.3538 J0.3083
G2 X2.6737 Y4.8652 I-0.0025 J-0.0153
G1 Y3.5087
G2 X2.661 Y3.4952 I-0.0135
G3 X2.2719 Y3.0852 I0.0232 J-0.4116
G1 Y2.2833
G3 X2.6843 Y1.8728 I0.4104
G1 X2.7767 Y1.873
G3 X2.8486 Y1.9212 I-0.0002 J0.078
G2 X2.9205 Y1.9693 I0.072 J-0.0298
G1 X3.5595 Y1.9706
G2 X3.5707 Y1.9583 J-0.0113
X3.5696 Y1.9468 I-0.732 J0.0647
G3 X3.569 Y1.9352 I0.1109 J-0.0116
G1 X3.5697 Y1.2274
G2 X3.5569 Y1.2146 I-0.0128
G1 X1.2272
G2 X1.2146 Y1.2272 J0.0126
G1 Y7.1476
G2 X1.2274 Y7.1604 I0.0128
G1 X3.5614
G2 X3.5742 Y7.1476 J-0.0128
G1 X3.5724 Y6.5312
G3 X3.5792 Y6.47 I0.2762
X3.5979 Y6.4113 I0.3553 J0.0807
G2 X3.5902 Y6.3998 I-0.0077 J-0.0032
G1 X2.7319 Y6.4016
G3 X2.474 Y6.2938 J-0.3622
X2.3679 Y6.0352 I0.2621 J-0.2586
G1 Y5.3328
G3 X2.476 Y5.0755 I0.3604
X2.7343 Y4.9699 I0.2584 J0.2634
X2.7456 Y4.9703 J0.1811
G2 X2.7569 Y4.9706 I0.0113 J-0.1808
X2.7697 Y4.9579 J-0.0128
G1 Y3.4126
G2 X2.7569 Y3.3998 I-0.0128
X2.7206 Y3.4007 J0.7329
G3 X2.6843 Y3.4016 I-0.0363 J-0.732
X2.3679 Y3.0852 J-0.3164
G1 Y2.2833
G3 X2.461 Y2.0605 I0.3131
X2.6843 Y1.9688 I0.2233 J0.2261
G1 X2.9205 Y1.9693
G3 X2.9864 Y2.0135 I-0.0001 J0.0716
G2 X3.0524 Y2.0576 I0.0661 J-0.0274
G1 X3.6943 Y2.0587
G2 X3.699 Y2.0486 J-0.0062
G3 X3.6676 Y1.9957 I0.1485 J-0.1241
X3.656 Y1.9352 I0.1529 J-0.0605
G1 X3.6578 Y1.139
G2 X3.6453 Y1.1265 I-0.0125
G1 X1.1389
G2 X1.1265 Y1.1389 J0.0124
G1 Y7.236
G2 X1.139 Y7.2485 I0.0125
G1 X3.6497
G2 X3.6623 Y7.236 J-0.0125
G1 X3.6605 Y6.5312
G3 X3.7009 Y6.403 I0.2237
X3.8066 Y6.3201 I0.1891 J0.1323
G2 X3.8051 Y6.3117 I-0.0016 J-0.004
G1 X2.7319 Y6.3135
G3 X2.5363 Y6.2315 J-0.2741
X2.456 Y6.0352 I0.1998 J-0.1963
G1 Y5.3328
G3 X2.5381 Y5.1372 I0.2741
X2.7343 Y5.057 I0.1963 J0.1998
X2.7898 Y5.0578 J1.7458
G2 X2.8453 Y5.0587 I0.0555 J-1.7449
X2.8578 Y5.0462 J-0.0125
G1 Y3.3243
G2 X2.8453 Y3.3117 I-0.0125
X2.7648 Y3.3126 J3.6729
G3 X2.6843 Y3.3135 I-0.0805 J-3.672
X2.456 Y3.0852 J-0.2283
G1 Y2.2833
G3 X2.5233 Y2.1228 I0.2249
X2.6843 Y2.057 I0.161 J0.1638
G1 X3.0524 Y2.0576
G3 X3.1012 Y2.0902 I-0.0001 J0.053
G2 X3.15 Y2.1227 I0.0488 J-0.0203
G1 X4.2218
Y2.0477
X3.8343
G3 X3.7218 Y1.9352 J-0.1125
G1 Y1.0625
X1.0625
Y7.3125
X3.7263
Y6.5312
G3 X3.8888 Y6.3687 I0.1625
G1 X4.1843
G2 X4.2218 Y6.3312 J-0.0375
G1 Y6.2477
X2.7343
G3 X2.5218 Y6.0352 J-0.2125
G1 Y5.3352
G3 X2.7343 Y5.1227 I0.2125
G1 X2.9218
Y3.2852
G2 X2.8843 Y3.2477 I-0.0375
G1 X2.6843
G3 X2.5218 Y3.0852 J-0.1625
G1 Y2.2852
G3 X2.6843 Y2.1227 I0.1625
G1 X3.15
G2 X3.1514 Y2.1069 J-0.008
G1 X1.8451 Y1.8737
G3 X1.8457 Y1.8578 I0.0014 J-0.0079
G1 Z-0.1475
G2 X1.8467 Y1.8577 Z-0.1523 I-0.0011 J-0.0125
X1.8493 Y1.857 Z-0.1563 I-0.002 J-0.0123
X1.8528 Y1.8549 Z-0.159 I-0.0047 J-0.0116
X1.8557 Y1.8512 Z-0.16 I-0.0081 J-0.0095
G3 X1.8583 Y1.8463 I0.8508 J0.4454
G2 X1.8517 Y1.8354 I-0.0066 J-0.0035
G1 X1.8446
G2 X1.8354 Y1.8446 J0.0092
G1 Y1.872
G2 X1.8441 Y1.874 I0.0046
G3 X1.8557 Y1.8512 I0.8624 J0.4225
X1.8583 Y1.8463 Z-0.1587 I0.8508 J0.4454
G2 X1.8591 Y1.8428 Z-0.156 I-0.0066 J-0.0035
X1.8587 Y1.8403 Z-0.1521 I-0.0075 J0.0001
X1.8584 Y1.8396 Z-0.1475 I-0.007 J0.0025
G0 Z0.2
X1.9716 Y4.4565
G1 Z-0.02 F40.38
Z-0.1475
G2 X1.9708 Y4.4571 Z-0.1523 I0.0068 J0.0105
X1.9688 Y4.4589 Z-0.1563 I0.0075 J0.01
X1.9667 Y4.4624 Z-0.159 I0.0095 J0.0081
X1.9658 Y4.467 Z-0.16 I0.0116 J0.0047
G1 Y4.5121
G2 X1.9761 Y4.5166 I0.0061
G3 X2.0106 Y4.4859 I0.7093 J0.7633
G2 X2.0185 Y4.4688 I-0.0147 J-0.0172
G1 Y3.9283
G2 X2.0102 Y3.9108 I-0.0226
G3 X1.9745 Y3.8803 I0.6662 J-0.8163
G2 X1.9658 Y3.8842 I-0.0035 J0.0039
G1 Y4.467
G3 X1.9389 Y4.5074 I-0.0438
G2 X1.912 Y4.5478 I0.0168 J0.0404
G1 Y4.6478
G2 X1.9218 Y4.6514 I0.0056
G3 X2.0581 Y4.5164 I0.8065 J0.6778
G2 X2.0724 Y4.4862 I-0.0248 J-0.0302
G1 Y3.9094
G2 X2.0582 Y3.8803 I-0.0371
G3 X1.9211 Y3.7498 I0.6304 J-0.7996
G2 X1.912 Y3.7532 I-0.0039 J0.0034
G1 Y4.5478
G3 X1.8735 Y4.6055 I-0.0625
G2 X1.835 Y4.6632 I0.024 J0.0577
G1 Y4.9123
G2 X1.8437 Y4.9143 I0.0046
G3 X2.1354 Y4.5531 I0.8903 J0.4208
G2 X2.1493 Y4.5251 I-0.0215 J-0.028
G1 Y3.8693
G2 X2.1355 Y3.8423 I-0.0334
G3 X1.8422 Y3.4917 I0.552 J-0.7597
G2 X1.835 Y3.4934 I-0.0034 J0.0016
G1 Y4.6632
G2 X1.8359 Y4.6679 Z-0.159 I0.0125
X1.838 Y4.6713 Z-0.1563 I0.0116 J-0.0047
X1.84 Y4.6732 Z-0.1523 I0.0095 J-0.0081
X1.8408 Y4.6737 Z-0.1475 I0.0075 J-0.01
G1 Z-0.02
Y6.5099
Z-0.1475
G2 X1.84 Y6.5104 Z-0.1523 I0.0068 J0.0105
X1.838 Y6.5123 Z-0.1563 I0.0075 J0.01
X1.8359 Y6.5157 Z-0.159 I0.0095 J0.0081
X1.835 Y6.5204 Z-0.16 I0.0116 J0.0047
G1 Y6.5274
G2 X1.8476 Y6.54 I0.0125
G1 X1.8758
G2 X1.882 Y6.5291 J-0.0072
G3 X1.8422 Y6.453 I0.8895 J-0.5136
G2 X1.835 Y6.4546 I-0.0034 J0.0016
G1 Y6.5204
G3 X1.8094 Y6.5618 I-0.0462
G2 X1.8205 Y6.6093 I0.0111 J0.0224
G1 X2.0072
G2 X2.0124 Y6.5987 J-0.0066
G3 X1.8676 Y6.3333 I0.7413 J-0.5767
X1.8168 Y6.0352 I0.8484 J-0.298
G1 Y5.3328
G3 X1.9204 Y4.9135 I0.9001
X2.2046 Y4.5883 I0.8256 J0.4346
G2 X2.2186 Y4.5611 I-0.0193 J-0.0271
G1 Y3.832
G2 X2.2046 Y3.8059 I-0.0314
G3 X1.9204 Y3.4941 I0.4878 J-0.73
X1.8168 Y3.0852 I0.7547 J-0.4089
G1 Y2.2833
G3 X1.8602 Y2.0166 I0.8407
X1.9839 Y1.7765 I0.8416 J0.2814
G2 X1.9784 Y1.7657 I-0.0055 J-0.004
G1 X1.7784
G2 X1.7657 Y1.7784 J0.0126
G1 X1.7675 Y6.0352
X1.7657 Y6.5965
G2 X1.7785 Y6.6093 I0.0128
G1 X1.8205
G3 X1.861 Y6.6363 J0.0439
G2 X1.9016 Y6.6633 I0.0405 J-0.0169
G1 X2.1297
G2 X2.1338 Y6.6532 J-0.0059
G3 X1.8688 Y6.0209 I0.6101 J-0.6273
G1 X1.8699 Y5.7923
X1.8706 Y5.5638
X1.8708 Y5.3352
G3 X1.9746 Y4.9273 I0.8537
X2.2587 Y4.6167 I0.7694 J0.4185
G2 X2.2726 Y4.5907 I-0.0173 J-0.026
G1 Y3.8013
G2 X2.2586 Y3.7763 I-0.0293
G3 X1.8708 Y3.0839 I0.4244 J-0.6925
G1 Y2.2833
G3 X1.9309 Y1.9803 I0.7943
X2.0999 Y1.7219 I0.7639 J0.3152
G2 X2.0956 Y1.7117 I-0.0043 J-0.0042
G1 X1.7243
G2 X1.7117 Y1.7243 J0.0126
G1 Y6.6505
G2 X1.7245 Y6.6633 I0.0128
G1 X1.9016
G3 X1.9606 Y6.7027 J0.064
G2 X2.0197 Y6.7421 I0.0591 J-0.0246
G1 X2.3776
G2 X2.3797 Y6.7333 J-0.0046
G3 X1.9496 Y6.0352 I0.3547 J-0.7001
G1 Y5.3328
G3 X2.3377 Y4.6602 I0.7769
G2 X2.3514 Y4.6364 I-0.0139 J-0.0238
G1 Y3.7537
G2 X2.3379 Y3.7312 I-0.0256
G3 X1.9496 Y3.0852 I0.3483 J-0.649
G1 Y2.2833
G3 X2.0535 Y1.91 I0.7224
X2.3332 Y1.6418 I0.637 J0.3844
G2 X2.3309 Y1.6329 I-0.0023 J-0.0042
G1 X1.6453
G2 X1.6329 Y1.6453 J0.0124
G1 X1.6347 Y6.0352
X1.6329 Y6.7295
G2 X1.6455 Y6.7421 I0.0125
G1 X2.0197
G3 X2.0721 Y6.777 J0.0568
G2 X2.1245 Y6.812 I0.0524 J-0.0218
G1 X3.213
G2 X3.2257 Y6.7992 J-0.0128
G1 Y6.7611
G2 X3.213 Y6.7483 I-0.0128
G1 X2.7319 Y6.7501
G3 X2.0195 Y6.0352 J-0.7124
G1 Y5.3328
G3 X2.1249 Y4.9627 I0.7022
X2.4076 Y4.7014 I0.6139 J0.3808
G2 X2.4213 Y4.6789 I-0.0116 J-0.0225
G1 Y3.7091
G2 X2.4076 Y3.6878 I-0.0235
G3 X2.1254 Y3.4433 I0.281 J-0.6096
X2.0195 Y3.0852 I0.5524 J-0.3581
G1 Y2.2833
G3 X2.6843 Y1.6204 I0.6629
G1 X3.2085 Y1.6222
G2 X3.2213 Y1.6094 J-0.0128
G1 Y1.5758
G2 X3.2085 Y1.563 I-0.0128
G1 X1.5757
G2 X1.563 Y1.5757 J0.0126
G1 Y6.7992
G2 X1.5758 Y6.812 I0.0128
G1 X2.1245
G3 X2.1698 Y6.8422 J0.0491
G2 X2.2152 Y6.8724 I0.0453 J-0.0189
G1 X3.2734
G2 X3.2862 Y6.8596 J-0.0128
G1 Y6.7006
G2 X3.2734 Y6.6878 I-0.0128
G1 X2.7319 Y6.6896
G3 X2.0799 Y6.0352 J-0.652
G1 Y5.3328
G3 X2.1865 Y4.9788 I0.641
X2.4681 Y4.7394 I0.5553 J0.3678
G2 X2.4817 Y4.7184 I-0.0095 J-0.021
G1 Y3.6674
G2 X2.4682 Y3.6478 I-0.0211
G3 X2.0799 Y3.0852 I0.216 J-0.5644
G1 Y2.2833
G3 X2.6843 Y1.6808 I0.6024
G1 X3.2689 Y1.6826
G2 X3.2817 Y1.6698 J-0.0128
G1 Y1.5154
G2 X3.2689 Y1.5026 I-0.0128
G1 X1.5152
G2 X1.5026 Y1.5152 J0.0126
G1 Y6.8596
G2 X1.5154 Y6.8724 I0.0128
G1 X2.2152
G3 X2.2872 Y6.9204 J0.078
G2 X2.3592 Y6.9684 I0.072 J-0.03
G1 X3.3694
G2 X3.3822 Y6.9556 J-0.0128
G1 Y6.6046
G2 X3.3694 Y6.5918 I-0.0128
G1 X2.7319 Y6.5936
G3 X2.1759 Y6.0352 J-0.556
G1 Y5.3328
G3 X2.2841 Y5.0057 I0.5485
X2.5643 Y4.8052 I0.4521 J0.3359
G2 X2.5777 Y4.7869 I-0.0059 J-0.0183
G1 Y3.5943
G2 X2.5644 Y3.5774 I-0.0174
G3 X2.1759 Y3.0852 I0.1183 J-0.4928
G1 Y2.2833
G3 X2.6843 Y1.7768 I0.5064
G1 X3.3649 Y1.7786
G2 X3.3777 Y1.7658 J-0.0128
G1 Y1.4194
G2 X3.3649 Y1.4066 I-0.0128
G1 X1.4192
G2 X1.4066 Y1.4192 J0.0126
G1 Y6.9556
G2 X1.4194 Y6.9684 I0.0128
G1 X2.3592
G3 X2.4312 Y7.0164 J0.078
G2 X2.5032 Y7.0644 I0.072 J-0.03
G1 X3.4654
G2 X3.4782 Y7.0516 J-0.0128
G1 X3.4774 Y6.5312
G3 X3.478 Y6.5197 I0.129
G2 X3.4788 Y6.5083 I-0.3347 J-0.0299
X3.467 Y6.4958 I-0.0118 J-0.0006
G1 X2.7319 Y6.4976
G3 X2.4061 Y6.3617 J-0.4582
X2.2719 Y6.0352 I0.33 J-0.3265
G1 Y5.3328
G3 X2.3833 Y5.0353 I0.4529
X2.6607 Y4.8805 I0.3538 J0.3083
G2 X2.6737 Y4.8652 I-0.0025 J-0.0153
G1 Y3.5087
G2 X2.661 Y3.4952 I-0.0135
G3 X2.2719 Y3.0852 I0.0232 J-0.4116
G1 Y2.2833
G3 X2.6843 Y1.8728 I0.4104
G1 X3.4609 Y1.8746
G2 X3.4737 Y1.8618 J-0.0128
G1 Y1.3234
G2 X3.4609 Y1.3106 I-0.0128
G1 X1.3232
G2 X1.3106 Y1.3232 J0.0126
G1 Y7.0516
G2 X1.3234 Y7.0644 I0.0128
G1 X2.5032
G3 X2.5752 Y7.1124 J0.078
G2 X2.6472 Y7.1604 I0.072 J-0.03
G1 X3.5614
G2 X3.5742 Y7.1476 J-0.0128
G1 X3.5724 Y6.5312
G3 X3.5792 Y6.47 I0.2762
X3.5979 Y6.4113 I0.3553 J0.0807
G2 X3.5902 Y6.3998 I-0.0077 J-0.0032
G1 X2.7319 Y6.4016
G3 X2.474 Y6.2938 J-0.3622
X2.3679 Y6.0352 I0.2621 J-0.2586
G1 Y5.3328
G3 X2.476 Y5.0755 I0.3604
X2.7343 Y4.9699 I0.2584 J0.2634
X2.7456 Y4.9703 J0.1811
G2 X2.7569 Y4.9706 I0.0113 J-0.1808
X2.7697 Y4.9579 J-0.0128
G1 Y3.4126
G2 X2.7569 Y3.3998 I-0.0128
X2.7206 Y3.4007 J0.7329
G3 X2.6843 Y3.4016 I-0.0363 J-0.732
X2.3679 Y3.0852 J-0.3164
G1 Y2.2833
G3 X2.461 Y2.0605 I0.3131
X2.6843 Y1.9688 I0.2233 J0.2261
G1 X3.5595 Y1.9706
G2 X3.5707 Y1.9583 J-0.0113
X3.5696 Y1.9468 I-0.732 J0.0647
G3 X3.569 Y1.9352 I0.1109 J-0.0116
G1 X3.5697 Y1.2274
G2 X3.5569 Y1.2146 I-0.0128
G1 X1.2272
G2 X1.2146 Y1.2272 J0.0126
G1 Y7.1476
G2 X1.2274 Y7.1604 I0.0128
G1 X2.6472
G3 X2.7132 Y7.2044 J0.0716
G2 X2.7793 Y7.2485 I0.0661 J-0.0275
G1 X3.6497
G2 X3.6623 Y7.236 J-0.0125
G1 X3.6605 Y6.5312
G3 X3.7009 Y6.403 I0.2237
X3.8066 Y6.3201 I0.1891 J0.1323
G2 X3.8051 Y6.3117 I-0.0016 J-0.004
G1 X2.7319 Y6.3135
G3 X2.5363 Y6.2315 J-0.2741
X2.456 Y6.0352 I0.1998 J-0.1963
G1 Y5.3328
G3 X2.5381 Y5.1372 I0.2741
X2.7343 Y5.057 I0.1963 J0.1998
X2.7898 Y5.0578 J1.7458
G2 X2.8453 Y5.0587 I0.0555 J-1.7449
X2.8578 Y5.0462 J-0.0125
G1 Y3.3243
G2 X2.8453 Y3.3117 I-0.0125
X2.7648 Y3.3126 J3.6729
G3 X2.6843 Y3.3135 I-0.0805 J-3.672
X2.456 Y3.0852 J-0.2283
G1 Y2.2833
G3 X2.5233 Y2.1228 I0.2249
X2.6843 Y2.057 I0.161 J0.1638
G1 X3.6943 Y2.0587
G2 X3.699 Y2.0486 J-0.0062
G3 X3.6676 Y1.9957 I0.1485 J-0.1241
X3.656 Y1.9352 I0.1529 J-0.0605
G1 X3.6578 Y1.139
G2 X3.6453 Y1.1265 I-0.0125
G1 X1.1389
G2 X1.1265 Y1.1389 J0.0124
G1 Y7.236
G2 X1.139 Y7.2485 I0.0125
G1 X2.7793
G3 X2.8273 Y7.2805 J0.052
G2 X2.8753 Y7.3125 I0.048 J-0.02
G1 X3.7263
Y6.5312
G3 X3.8888 Y6.3687 I0.1625
G1 X4.1843
G2 X4.2218 Y6.3312 J-0.0375
G1 Y6.2477
X2.7343
G3 X2.5218 Y6.0352 J-0.2125
G1 Y5.3352
G3 X2.7343 Y5.1227 I0.2125
G1 X2.9218
Y3.2852
G2 X2.8843 Y3.2477 I-0.0375
G1 X2.6843
G3 X2.5218 Y3.0852 J-0.1625
G1 Y2.2852
G3 X2.6843 Y2.1227 I0.1625
G1 X4.2218
Y2.0477
X3.8343
G3 X3.7218 Y1.9352 J-0.1125
G1 Y1.0625
X1.0625
Y7.3125
X2.8753
G2 X2.8802 Y7.2981 J-0.008
G1 X1.85 Y6.5103
G2 X1.8408 Y6.5099 I-0.0049 J0.0064
G1 Z-0.1725
G2 X1.84 Y6.5104 Z-0.1773 I0.0068 J0.0105
X1.838 Y6.5123 Z-0.1813 I0.0075 J0.01
X1.8359 Y6.5157 Z-0.184 I0.0095 J0.0081
X1.835 Y6.5204 Z-0.185 I0.0116 J0.0047
G1 Y6.5274
G2 X1.8476 Y6.54 I0.0125
G1 X1.8758
G2 X1.882 Y6.5291 J-0.0072
G3 X1.8422 Y6.453 I0.8895 J-0.5136
G2 X1.835 Y6.4546 I-0.0034 J0.0016
G1 Y6.5204
G2 X1.8359 Y6.5251 Z-0.184 I0.0125
X1.838 Y6.5285 Z-0.1813 I0.0116 J-0.0047
X1.84 Y6.5304 Z-0.1773 I0.0095 J-0.0081
X1.8408 Y6.5309 Z-0.1725 I0.0075 J-0.01
G0 Z0.2
X1.9716 Y4.4565
G1 Z-0.06 F40.38
Z-0.1725
G2 X1.9708 Y4.4571 Z-0.1773 I0.0068 J0.0105
X1.9688 Y4.4589 Z-0.1813 I0.0075 J0.01
X1.9667 Y4.4624 Z-0.184 I0.0095 J0.0081
X1.9658 Y4.467 Z-0.185 I0.0116 J0.0047
G1 Y4.5121
G2 X1.9761 Y4.5166 I0.0061
G3 X2.0106 Y4.4859 I0.7093 J0.7633
G2 X2.0185 Y4.4688 I-0.0147 J-0.0172
G1 Y3.9283
G2 X2.0102 Y3.9108 I-0.0226
G3 X1.9745 Y3.8803 I0.6662 J-0.8163
G2 X1.9658 Y3.8842 I-0.0035 J0.0039
G1 Y4.467
G3 X1.9389 Y4.5074 I-0.0438
G2 X1.912 Y4.5478 I0.0168 J0.0404
G1 Y4.6478
G2 X1.9218 Y4.6514 I0.0056
G3 X2.0581 Y4.5164 I0.8065 J0.6778
G2 X2.0724 Y4.4862 I-0.0248 J-0.0302
G1 Y3.9094
G2 X2.0582 Y3.8803 I-0.0371
G3 X1.9211 Y3.7498 I0.6304 J-0.7996
G2 X1.912 Y3.7532 I-0.0039 J0.0034
G1 Y4.5478
G3 X1.8735 Y4.6055 I-0.0625
G2 X1.835 Y4.6632 I0.024 J0.0577
G1 Y4.9123
G2 X1.8437 Y4.9143 I0.0046
G3 X2.1354 Y4.5531 I0.8903 J0.4208
G2 X2.1493 Y4.5251 I-0.0215 J-0.028
G1 Y3.8693
G2 X2.1355 Y3.8423 I-0.0334
G3 X1.8422 Y3.4917 I0.552 J-0.7597
G2 X1.835 Y3.4934 I-0.0034 J0.0016
G1 Y4.6632
G2 X1.8359 Y4.6679 Z-0.184 I0.0125
X1.838 Y4.6713 Z-0.1813 I0.0116 J-0.0047
X1.84 Y4.6732 Z-0.1773 I0.0095 J-0.0081
X1.8408 Y4.6737 Z-0.1725 I0.0075 J-0.01
G0 Z0.2
X1.8457 Y1.8578
G1 Z-0.06 F40.38
Z-0.1725
G2 X1.8467 Y1.8577 Z-0.1773 I-0.0011 J-0.0125
X1.8493 Y1.857 Z-0.1813 I-0.002 J-0.0123
X1.8528 Y1.8549 Z-0.184 I-0.0047 J-0.0116
X1.8557 Y1.8512 Z-0.185 I-0.0081 J-0.0095
G3 X1.8583 Y1.8463 I0.8508 J0.4454
G2 X1.8517 Y1.8354 I-0.0066 J-0.0035
G1 X1.8446
G2 X1.8354 Y1.8446 J0.0092
G1 Y1.872
G2 X1.8441 Y1.874 I0.0046
G3 X1.8557 Y1.8512 I0.8624 J0.4225
X1.9126 Y1.821 I0.0504 J0.0264
G2 X1.9712 Y1.7944 I0.0071 J-0.0622
G3 X1.9839 Y1.7765 I0.7306 J0.5037
G2 X1.9784 Y1.7657 I-0.0055 J-0.004
G1 X1.7784
G2 X1.7657 Y1.7784 J0.0126
G1 X1.7675 Y6.0352
X1.7657 Y6.5965
G2 X1.7785 Y6.6093 I0.0128
G1 X2.0072
G2 X2.0124 Y6.5987 J-0.0066
G3 X1.8676 Y6.3333 I0.7413 J-0.5767
X1.8168 Y6.0352 I0.8484 J-0.298
G1 Y5.3328
G3 X1.9204 Y4.9135 I0.9001
X2.2046 Y4.5883 I0.8256 J0.4346
G2 X2.2186 Y4.5611 I-0.0193 J-0.0271
G1 Y3.832
G2 X2.2046 Y3.8059 I-0.0314
G3 X1.9204 Y3.4941 I0.4878 J-0.73
X1.8168 Y3.0852 I0.7547 J-0.4089
G1 Y2.2833
G3 X1.8602 Y2.0166 I0.8407
X1.9712 Y1.7944 I0.8416 J0.2814
X2.0175 Y1.7765 I0.0363 J0.025
G2 X2.0646 Y1.7609 I0.0108 J-0.0464
G3 X2.0999 Y1.7219 I0.6301 J0.5346
G2 X2.0956 Y1.7117 I-0.0043 J-0.0042
G1 X1.7243
G2 X1.7117 Y1.7243 J0.0126
G1 Y6.6505
G2 X1.7245 Y6.6633 I0.0128
G1 X2.1297
G2 X2.1338 Y6.6532 J-0.0059
G3 X1.8688 Y6.0209 I0.6101 J-0.6273
G1 X1.8699 Y5.7923
X1.8706 Y5.5638
X1.8708 Y5.3352
G3 X1.9746 Y4.9273 I0.8537
X2.2587 Y4.6167 I0.7694 J0.4185
G2 X2.2726 Y4.5907 I-0.0173 J-0.026
G1 Y3.8013
G2 X2.2586 Y3.7763 I-0.0293
G3 X1.8708 Y3.0839 I0.4244 J-0.6925
G1 Y2.2833
G3 X1.9309 Y1.9803 I0.7943
X2.0646 Y1.7609 I0.7639 J0.3152
X2.1354 Y1.7418 I0.0492 J0.0417
G2 X2.2075 Y1.7285 I0.0245 J-0.069
G3 X2.3332 Y1.6418 I0.483 J0.5659
G2 X2.3309 Y1.6329 I-0.0023 J-0.0042
G1 X1.6453
G2 X1.6329 Y1.6453 J0.0124
G1 X1.6347 Y6.0352
X1.6329 Y6.7295
G2 X1.6455 Y6.7421 I0.0125
G1 X2.3776
G2 X2.3797 Y6.7333 J-0.0046
G3 X1.9496 Y6.0352 I0.3547 J-0.7001
G1 Y5.3328
G3 X2.3377 Y4.6602 I0.7769
G2 X2.3514 Y4.6364 I-0.0139 J-0.0238
G1 Y3.7537
G2 X2.3379 Y3.7312 I-0.0256
G3 X1.9496 Y3.0852 I0.3483 J-0.649
G1 Y2.2833
G3 X2.0535 Y1.91 I0.7224
X2.2075 Y1.7285 I0.637 J0.3844
X2.2699 Y1.722 I0.036 J0.0421
G2 X2.3326 Y1.7201 I0.0298 J-0.0549
G3 X2.6843 Y1.6204 I0.3497 J0.5631
G1 X3.2085 Y1.6222
G2 X3.2213 Y1.6094 J-0.0128
G1 Y1.5758
G2 X3.2085 Y1.563 I-0.0128
G1 X1.5757
G2 X1.563 Y1.5757 J0.0126
G1 Y6.7992
G2 X1.5758 Y6.812 I0.0128
G1 X3.213
G2 X3.2257 Y6.7992 J-0.0128
G1 Y6.7611
G2 X3.213 Y6.7483 I-0.0128
G1 X2.7319 Y6.7501
G3 X2.0195 Y6.0352 J-0.7124
G1 Y5.3328
G3 X2.1249 Y4.9627 I0.7022
X2.4076 Y4.7014 I0.6139 J0.3808
G2 X2.4213 Y4.6789 I-0.0116 J-0.0225
G1 Y3.7091
G2 X2.4076 Y3.6878 I-0.0235
G3 X2.1254 Y3.4433 I0.281 J-0.6096
X2.0195 Y3.0852 I0.5524 J-0.3581
G1 Y2.2833
G3 X2.3326 Y1.7201 I0.6629
X2.3889 Y1.7228 I0.0262 J0.0422
G2 X2.4448 Y1.7296 I0.0338 J-0.0446
G3 X2.6843 Y1.6808 I0.2375 J0.5536
G1 X3.2689 Y1.6826
G2 X3.2817 Y1.6698 J-0.0128
G1 Y1.5154
G2 X3.2689 Y1.5026 I-0.0128
G1 X1.5152
G2 X1.5026 Y1.5152 J0.0126
G1 Y6.8596
G2 X1.5154 Y6.8724 I0.0128
G1 X3.2734
G2 X3.2862 Y6.8596 J-0.0128
G1 Y6.7006
G2 X3.2734 Y6.6878 I-0.0128
G1 X2.7319 Y6.6896
G3 X2.0799 Y6.0352 J-0.652
G1 Y5.3328
G3 X2.1865 Y4.9788 I0.641
X2.4681 Y4.7394 I0.5553 J0.3678
G2 X2.4817 Y4.7184 I-0.0095 J-0.021
G1 Y3.6674
G2 X2.4682 Y3.6478 I-0.0211
G3 X2.0799 Y3.0852 I0.216 J-0.5644
G1 Y2.2833
G3 X2.4448 Y1.7296 I0.6024
X2.5349 Y1.7488 I0.0314 J0.0733
G2 X2.6213 Y1.7805 I0.0742 J-0.0686
G3 X2.6843 Y1.7768 I0.0611 J0.5027
G1 X3.3649 Y1.7786
G2 X3.3777 Y1.7658 J-0.0128
G1 Y1.4194
G2 X3.3649 Y1.4066 I-0.0128
G1 X1.4192
G2 X1.4066 Y1.4192 J0.0126
G1 Y6.9556
G2 X1.4194 Y6.9684 I0.0128
G1 X3.3694
G2 X3.3822 Y6.9556 J-0.0128
G1 Y6.6046
G2 X3.3694 Y6.5918 I-0.0128
G1 X2.7319 Y6.5936
G3 X2.1759 Y6.0352 J-0.556
G1 Y5.3328
G3 X2.2841 Y5.0057 I0.5485
X2.5643 Y4.8052 I0.4521 J0.3359
G2 X2.5777 Y4.7869 I-0.0059 J-0.0183
G1 Y3.5943
G2 X2.5644 Y3.5774 I-0.0174
G3 X2.1759 Y3.0852 I0.1183 J-0.4928
G1 Y2.2833
G3 X2.6213 Y1.7805 I0.5064
X2.7004 Y1.8244 I0.0093 J0.0766
G2 X2.7767 Y1.873 I0.0765 J-0.0358
G1 X3.4609 Y1.8746
G2 X3.4737 Y1.8618 J-0.0128
G1 Y1.3234
G2 X3.4609 Y1.3106 I-0.0128
G1 X1.3232
G2 X1.3106 Y1.3232 J0.0126
G1 Y7.0516
G2 X1.3234 Y7.0644 I0.0128
G1 X3.4654
G2 X3.4782 Y7.0516 J-0.0128
G1 X3.4774 Y6.5312
G3 X3.478 Y6.5197 I0.129
G2 X3.4788 Y6.5083 I-0.3347 J-0.0299
X3.467 Y6.4958 I-0.0118 J-0.0006
G1 X2.7319 Y6.4976
G3 X2.4061 Y6.3617 J-0.4582
X2.2719 Y6.0352 I0.33 J-0.3265
G1 Y5.3328
G3 X2.3833 Y5.0353 I0.4529
X2.6607 Y4.8805 I0.3538 J0.3083
G2 X2.6737 Y4.8652 I-0.0025 J-0.0153
G1 Y3.5087
G2 X2.661 Y3.4952 I-0.0135
G3 X2.2719 Y3.0852 I0.0232 J-0.4116
G1 Y2.2833
G3 X2.6843 Y1.8728 I0.4104
G1 X2.7767 Y1.873
G3 X2.8486 Y1.9212 I-0.0002 J0.078
G2 X2.9205 Y1.9693 I0.072 J-0.0298
G1 X3.5595 Y1.9706
G2 X3.5707 Y1.9583 J-0.0113
X3.5696 Y1.9468 I-0.732 J0.0647
G3 X3.569 Y1.9352 I0.1109 J-0.0116
G1 X3.5697 Y1.2274
G2 X3.5569 Y1.2146 I-0.0128
G1 X1.2272
G2 X1.2146 Y1.2272 J0.0126
G1 Y7.1476
G2 X1.2274 Y7.1604 I0.0128
G1 X3.5614
G2 X3.5742 Y7.1476 J-0.0128
G1 X3.5724 Y6.5312
G3 X3.5792 Y6.47 I0.2762
X3.5979 Y6.4113 I0.3553 J0.0807
G2 X3.5902 Y6.3998 I-0.0077 J-0.0032
G1 X2.7319 Y6.4016
G3 X2.474 Y6.2938 J-0.3622
X2.3679 Y6.0352 I0.2621 J-0.2586
G1 Y5.3328
G3 X2.476 Y5.0755 I0.3604
X2.7343 Y4.9699 I0.2584 J0.2634
X2.7456 Y4.9703 J0.1811
G2 X2.7569 Y4.9706 I0.0113 J-0.1808
X2.7697 Y4.9579 J-0.0128
G1 Y3.4126
G2 X2.7569 Y3.3998 I-0.0128
X2.7206 Y3.4007 J0.7329
G3 X2.6843 Y3.4016 I-0.0363 J-0.732
X2.3679 Y3.0852 J-0.3164
G1 Y2.2833
G3 X2.461 Y2.0605 I0.3131
X2.6843 Y1.9688 I0.2233 J0.2261
G1 X2.9205 Y1.9693
G3 X2.9864 Y2.0135 I-0.0001 J0.0716
G2 X3.0524 Y2.0576 I0.0661 J-0.0274
G1 X3.6943 Y2.0587
G2 X3.699 Y2.0486 J-0.0062
G3 X3.6676 Y1.9957 I0.1485 J-0.1241
X3.656 Y1.9352 I0.1529 J-0.0605
G1 X3.6578 Y1.139
G2 X3.6453 Y1.1265 I-0.0125
G1 X1.1389
G2 X1.1265 Y1.1389 J0.0124
G1 Y7.236
G2 X1.139 Y7.2485 I0.0125
G1 X3.6497
G2 X3.6623 Y7.236 J-0.0125
G1 X3.6605 Y6.5312
G3 X3.7009 Y6.403 I0.2237
X3.8066 Y6.3201 I0.1891 J0.1323
G2 X3.8051 Y6.3117 I-0.0016 J-0.004
G1 X2.7319 Y6.3135
G3 X2.5363 Y6.2315 J-0.2741
X2.456 Y6.0352 I0.1998 J-0.1963
G1 Y5.3328
G3 X2.5381 Y5.1372 I0.2741
X2.7343 Y5.057 I0.1963 J0.1998
X2.7898 Y5.0578 J1.7458
G2 X2.8453 Y5.0587 I0.0555 J-1.7449
X2.8578 Y5.0462 J-0.0125
G1 Y3.3243
G2 X2.8453 Y3.3117 I-0.0125
X2.7648 Y3.3126 J3.6729
G3 X2.6843 Y3.3135 I-0.0805 J-3.672
X2.456 Y3.0852 J-0.2283
G1 Y2.2833
G3 X2.5233 Y2.1228 I0.2249
X2.6843 Y2.057 I0.161 J0.1638
G1 X3.0524 Y2.0576
G3 X3.1012 Y2.0902 I-0.0001 J0.053
G2 X3.15 Y2.1227 I0.0488 J-0.0203
G1 X4.2218
Y2.0477
X3.8343
G3 X3.7218 Y1.9352 J-0.1125
G1 Y1.0625
X1.0625
Y7.3125
X3.7263
Y6.5312
G3 X3.8888 Y6.3687 I0.1625
G1 X4.1843
G2 X4.2218 Y6.3312 J-0.0375
G1 Y6.2477
X2.7343
G3 X2.5218 Y6.0352 J-0.2125
G1 Y5.3352
G3 X2.7343 Y5.1227 I0.2125
G1 X2.9218
Y3.2852
G2 X2.8843 Y3.2477 I-0.0375
G1 X2.6843
G3 X2.5218 Y3.0852 J-0.1625
G1 Y2.2852
G3 X2.6843 Y2.1227 I0.1625
G1 X3.15
G2 X3.1546 Y2.1218 Z-0.184 J-0.0125
X3.1581 Y2.1197 Z-0.1813 I-0.0047 J-0.0116
X3.1599 Y2.1178 Z-0.1773 I-0.0081 J-0.0095
X3.1605 Y2.117 Z-0.1725 I-0.01 J-0.0075
G0 Z0.2
X6.4893 Y1.5861
G1 Z0.1 F40.38
Z-0.0275
G2 X6.4887 Y1.5853 Z-0.0323 I-0.0105 J0.0068
X6.4869 Y1.5833 Z-0.0363 I-0.01 J0.0075
X6.4834 Y1.5812 Z-0.039 I-0.0081 J0.0095
X6.4788 Y1.5803 Z-0.04 I-0.0047 J0.0116
G1 X6.4759
G2 X6.4665 Y1.5897 J0.0094
G1 Y1.5955
G2 X6.4759 Y1.6049 I0.0094
G1 X6.8528
G2 X6.8608 Y1.6004 J-0.0094
G1 X6.8663 Y1.5913
G2 X6.8601 Y1.5803 I-0.0062 J-0.0038
G1 X6.4788
G3 X6.4306 Y1.5564 J-0.0604
G2 X6.3797 Y1.5735 I-0.0226 J0.0171
G1 Y1.6789
G2 X6.3924 Y1.6917 I0.0128
G1 X6.8903
G2 X6.9154 Y1.6776 J-0.0294
G1 X7.0207 Y1.5045
G2 X7.0145 Y1.4935 I-0.0062 J-0.0038
G1 X6.3924
G2 X6.3797 Y1.5063 J0.0128
G1 Y1.5735
G3 X6.3363 Y1.6386 I-0.0705
G2 X6.2929 Y1.7037 I0.0271 J0.0651
G1 Y1.7657
G2 X6.3056 Y1.7785 I0.0128
G1 X6.9391
G2 X6.9642 Y1.7644 J-0.0294
G1 X7.1751 Y1.4177
G2 X7.1689 Y1.4067 I-0.0062 J-0.0038
G1 X6.3056
G2 X6.2929 Y1.4195 J0.0128
G1 Y1.7037
G3 X6.2495 Y1.7688 I-0.0705
G2 X6.2061 Y1.8339 I0.0271 J0.0651
G1 Y1.8525
G2 X6.2188 Y1.8653 I0.0128
G1 X6.9879
G2 X7.013 Y1.8512 J-0.0294
G1 X7.3294 Y1.3309
G2 X7.3232 Y1.3199 I-0.0062 J-0.0038
G1 X6.2188
G2 X6.2061 Y1.3327 J0.0128
G1 Y1.8339
G3 X6.1685 Y1.8876 I-0.0572
G2 X6.18 Y1.9521 I0.0114 J0.0312
G1 X7.0367
G2 X7.0619 Y1.938 J-0.0294
G1 X7.4838 Y1.2441
G2 X7.4776 Y1.2331 I-0.0062 J-0.0038
G1 X6.132
G2 X6.1193 Y1.2459 J0.0128
G1 X6.1192 Y1.9397
G2 X6.1315 Y1.9521 I0.0123 J0.0002
G1 X6.18
G3 X6.2451 Y1.9955 J0.0705
G2 X6.3102 Y2.0389 I0.0651 J-0.0271
G1 X7.0859
G2 X7.1105 Y2.0251 J-0.0288
G1 X7.6384 Y1.1571
G2 X7.6323 Y1.1463 I-0.0061 J-0.0037
G1 X6.045
G2 X6.0325 Y1.1588 J0.0125
G1 X6.0342 Y1.9352
G3 X6.0275 Y1.9832 I-0.1743
X6.0091 Y2.028 I-0.2132 J-0.0611
G2 X6.0156 Y2.0389 I0.0065 J0.0035
G1 X6.3102
G3 X6.3731 Y2.0808 J0.0681
G2 X6.4359 Y2.1227 I0.0629 J-0.0262
G1 X7.1492
X7.794 Y1.0625
X5.9486
Y1.9352
G3 X5.8361 Y2.0477 I-0.1125
G1 X5.4468
Y2.1227
X6.4359
G2 X6.4439 Y2.1154 J-0.008
G1 X6.4905 Y1.5911
G2 X6.4893 Y1.5861 I-0.008 J-0.0007
G1 Z-0.0675
G2 X6.4887 Y1.5853 Z-0.0723 I-0.0105 J0.0068
X6.4869 Y1.5833 Z-0.0763 I-0.01 J0.0075
X6.4834 Y1.5812 Z-0.079 I-0.0081 J0.0095
X6.4788 Y1.5803 Z-0.08 I-0.0047 J0.0116
G1 X6.4759
G2 X6.4665 Y1.5897 J0.0094
G1 Y1.5955
G2 X6.4759 Y1.6049 I0.0094
G1 X6.8528
G2 X6.8608 Y1.6004 J-0.0094
G1 X6.8663 Y1.5913
G2 X6.8601 Y1.5803 I-0.0062 J-0.0038
G1 X6.4788
G3 X6.4306 Y1.5564 J-0.0604
G2 X6.3797 Y1.5735 I-0.0226 J0.0171
G1 Y1.6789
G2 X6.3924 Y1.6917 I0.0128
G1 X6.8903
G2 X6.9154 Y1.6776 J-0.0294
G1 X7.0207 Y1.5045
G2 X7.0145 Y1.4935 I-0.0062 J-0.0038
G1 X6.3924
G2 X6.3797 Y1.5063 J0.0128
G1 Y1.5735
G3 X6.3363 Y1.6386 I-0.0705
G2 X6.2929 Y1.7037 I0.0271 J0.0651
G1 Y1.7657
G2 X6.3056 Y1.7785 I0.0128
G1 X6.9391
G2 X6.9642 Y1.7644 J-0.0294
G1 X7.1751 Y1.4177
G2 X7.1689 Y1.4067 I-0.0062 J-0.0038
G1 X6.3056
G2 X6.2929 Y1.4195 J0.0128
G1 Y1.7037
G3 X6.2495 Y1.7688 I-0.0705
G2 X6.2061 Y1.8339 I0.0271 J0.0651
G1 Y1.8525
G2 X6.2188 Y1.8653 I0.0128
G1 X6.9879
G2 X7.013 Y1.8512 J-0.0294
G1 X7.3294 Y1.3309
G2 X7.3232 Y1.3199 I-0.0062 J-0.0038
G1 X6.2188
G2 X6.2061 Y1.3327 J0.0128
G1 Y1.8339
G3 X6.1685 Y1.8876 I-0.0572
G2 X6.18 Y1.9521 I0.0114 J0.0312
G1 X7.0367
G2 X7.0619 Y1.938 J-0.0294
G1 X7.4838 Y1.2441
G2 X7.4776 Y1.2331 I-0.0062 J-0.0038
G1 X6.132
G2 X6.1193 Y1.2459 J0.0128
G1 X6.1192 Y1.9397
G2 X6.1315 Y1.9521 I0.0123 J0.0002
G1 X6.18
G3 X6.2451 Y1.9955 J0.0705
G2 X6.3102 Y2.0389 I0.0651 J-0.0271
G1 X7.0859
G2 X7.1105 Y2.0251 J-0.0288
G1 X7.6384 Y1.1571
G2 X7.6323 Y1.1463 I-0.0061 J-0.0037
G1 X6.045
G2 X6.0325 Y1.1588 J0.0125
G1 X6.0342 Y1.9352
G3 X6.0275 Y1.9832 I-0.1743
X6.0091 Y2.028 I-0.2132 J-0.0611
G2 X6.0156 Y2.0389 I0.0065 J0.0035
G1 X6.3102
G3 X6.3731 Y2.0808 J0.0681
G2 X6.4359 Y2.1227 I0.0629 J-0.0262
G1 X7.1492
X7.794 Y1.0625
X5.9486
Y1.9352
G3 X5.8361 Y2.0477 I-0.1125
G1 X5.4468
Y2.1227
X6.4359
G2 X6.4439 Y2.1154 J-0.008
G1 X6.4905 Y1.5911
G2 X6.4893 Y1.5861 I-0.008 J-0.0007
G1 Z-0.1075
G2 X6.4887 Y1.5853 Z-0.1123 I-0.0105 J0.0068
X6.4869 Y1.5833 Z-0.1163 I-0.01 J0.0075
X6.4834 Y1.5812 Z-0.119 I-0.0081 J0.0095
X6.4788 Y1.5803 Z-0.12 I-0.0047 J0.0116
G1 X6.4759
G2 X6.4665 Y1.5897 J0.0094
G1 Y1.5955
G2 X6.4759 Y1.6049 I0.0094
G1 X6.8528
G2 X6.8608 Y1.6004 J-0.0094
G1 X6.8663 Y1.5913
G2 X6.8601 Y1.5803 I-0.0062 J-0.0038
G1 X6.4788
G3 X6.4306 Y1.5564 J-0.0604
G2 X6.3797 Y1.5735 I-0.0226 J0.0171
G1 Y1.6789
G2 X6.3924 Y1.6917 I0.0128
G1 X6.8903
G2 X6.9154 Y1.6776 J-0.0294
G1 X7.0207 Y1.5045
G2 X7.0145 Y1.4935 I-0.0062 J-0.0038
G1 X6.3924
G2 X6.3797 Y1.5063 J0.0128
G1 Y1.5735
G3 X6.3363 Y1.6386 I-0.0705
G2 X6.2929 Y1.7037 I0.0271 J0.0651
G1 Y1.7657
G2 X6.3056 Y1.7785 I0.0128
G1 X6.9391
G2 X6.9642 Y1.7644 J-0.0294
G1 X7.1751 Y1.4177
G2 X7.1689 Y1.4067 I-0.0062 J-0.0038
G1 X6.3056
G2 X6.2929 Y1.4195 J0.0128
G1 Y1.7037
G3 X6.2495 Y1.7688 I-0.0705
G2 X6.2061 Y1.8339 I0.0271 J0.0651
G1 Y1.8525
G2 X6.2188 Y1.8653 I0.0128
G1 X6.9879
G2 X7.013 Y1.8512 J-0.0294
G1 X7.3294 Y1.3309
G2 X7.3232 Y1.3199 I-0.0062 J-0.0038
G1 X6.2188
G2 X6.2061 Y1.3327 J0.0128
G1 Y1.8339
G3 X6.1685 Y1.8876 I-0.0572
G2 X6.18 Y1.9521 I0.0114 J0.0312
G1 X7.0367
G2 X7.0619 Y1.938 J-0.0294
G1 X7.4838 Y1.2441
G2 X7.4776 Y1.2331 I-0.0062 J-0.0038
G1 X6.132
G2 X6.1193 Y1.2459 J0.0128
G1 X6.1192 Y1.9397
G2 X6.1315 Y1.9521 I0.0123 J0.0002
G1 X6.18
G3 X6.2451 Y1.9955 J0.0705
G2 X6.3102 Y2.0389 I0.0651 J-0.0271
G1 X7.0859
G2 X7.1105 Y2.0251 J-0.0288
G1 X7.6384 Y1.1571
G2 X7.6323 Y1.1463 I-0.0061 J-0.0037
G1 X6.045
G2 X6.0325 Y1.1588 J0.0125
G1 X6.0342 Y1.9352
G3 X6.0275 Y1.9832 I-0.1743
X6.0091 Y2.028 I-0.2132 J-0.0611
G2 X6.0156 Y2.0389 I0.0065 J0.0035
G1 X6.3102
G3 X6.3731 Y2.0808 J0.0681
G2 X6.4359 Y2.1227 I0.0629 J-0.0262
G1 X7.1492
X7.794 Y1.0625
X5.9486
Y1.9352
G3 X5.8361 Y2.0477 I-0.1125
G1 X5.4468
Y2.1227
X6.4359
G2 X6.4439 Y2.1154 J-0.008
G1 X6.4905 Y1.5911
G2 X6.4893 Y1.5861 I-0.008 J-0.0007
G1 Z-0.1475
G2 X6.4887 Y1.5853 Z-0.1523 I-0.0105 J0.0068
X6.4869 Y1.5833 Z-0.1563 I-0.01 J0.0075
X6.4834 Y1.5812 Z-0.159 I-0.0081 J0.0095
X6.4788 Y1.5803 Z-0.16 I-0.0047 J0.0116
G1 X6.4759
G2 X6.4665 Y1.5897 J0.0094
G1 Y1.5955
G2 X6.4759 Y1.6049 I0.0094
G1 X6.8528
G2 X6.8608 Y1.6004 J-0.0094
G1 X6.8663 Y1.5913
G2 X6.8601 Y1.5803 I-0.0062 J-0.0038
G1 X6.4788
G3 X6.4306 Y1.5564 J-0.0604
G2 X6.3797 Y1.5735 I-0.0226 J0.0171
G1 Y1.6789
G2 X6.3924 Y1.6917 I0.0128
G1 X6.8903
G2 X6.9154 Y1.6776 J-0.0294
G1 X7.0207 Y1.5045
G2 X7.0145 Y1.4935 I-0.0062 J-0.0038
G1 X6.3924
G2 X6.3797 Y1.5063 J0.0128
G1 Y1.5735
G3 X6.3363 Y1.6386 I-0.0705
G2 X6.2929 Y1.7037 I0.0271 J0.0651
G1 Y1.7657
G2 X6.3056 Y1.7785 I0.0128
G1 X6.9391
G2 X6.9642 Y1.7644 J-0.0294
G1 X7.1751 Y1.4177
G2 X7.1689 Y1.4067 I-0.0062 J-0.0038
G1 X6.3056
G2 X6.2929 Y1.4195 J0.0128
G1 Y1.7037
G3 X6.2495 Y1.7688 I-0.0705
G2 X6.2061 Y1.8339 I0.0271 J0.0651
G1 Y1.8525
G2 X6.2188 Y1.8653 I0.0128
G1 X6.9879
G2 X7.013 Y1.8512 J-0.0294
G1 X7.3294 Y1.3309
G2 X7.3232 Y1.3199 I-0.0062 J-0.0038
G1 X6.2188
G2 X6.2061 Y1.3327 J0.0128
G1 Y1.8339
G3 X6.1685 Y1.8876 I-0.0572
G2 X6.18 Y1.9521 I0.0114 J0.0312
G1 X7.0367
G2 X7.0619 Y1.938 J-0.0294
G1 X7.4838 Y1.2441
G2 X7.4776 Y1.2331 I-0.0062 J-0.0038
G1 X6.132
G2 X6.1193 Y1.2459 J0.0128
G1 X6.1192 Y1.9397
G2 X6.1315 Y1.9521 I0.0123 J0.0002
G1 X6.18
G3 X6.2451 Y1.9955 J0.0705
G2 X6.3102 Y2.0389 I0.0651 J-0.0271
G1 X7.0859
G2 X7.1105 Y2.0251 J-0.0288
G1 X7.6384 Y1.1571
G2 X7.6323 Y1.1463 I-0.0061 J-0.0037
G1 X6.045
G2 X6.0325 Y1.1588 J0.0125
G1 X6.0342 Y1.9352
G3 X6.0275 Y1.9832 I-0.1743
X6.0091 Y2.028 I-0.2132 J-0.0611
G2 X6.0156 Y2.0389 I0.0065 J0.0035
G1 X6.3102
G3 X6.3731 Y2.0808 J0.0681
G2 X6.4359 Y2.1227 I0.0629 J-0.0262
G1 X7.1492
X7.794 Y1.0625
X5.9486
Y1.9352
G3 X5.8361 Y2.0477 I-0.1125
G1 X5.4468
Y2.1227
X6.4359
G2 X6.4439 Y2.1154 J-0.008
G1 X6.4905 Y1.5911
G2 X6.4893 Y1.5861 I-0.008 J-0.0007
G1 Z-0.1725
G2 X6.4887 Y1.5853 Z-0.1773 I-0.0105 J0.0068
X6.4869 Y1.5833 Z-0.1813 I-0.01 J0.0075
X6.4834 Y1.5812 Z-0.184 I-0.0081 J0.0095
X6.4788 Y1.5803 Z-0.185 I-0.0047 J0.0116
G1 X6.4759
G2 X6.4665 Y1.5897 J0.0094
G1 Y1.5955
G2 X6.4759 Y1.6049 I0.0094
G1 X6.8528
G2 X6.8608 Y1.6004 J-0.0094
G1 X6.8663 Y1.5913
G2 X6.8601 Y1.5803 I-0.0062 J-0.0038
G1 X6.4788
G3 X6.4306 Y1.5564 J-0.0604
G2 X6.3797 Y1.5735 I-0.0226 J0.0171
G1 Y1.6789
G2 X6.3924 Y1.6917 I0.0128
G1 X6.8903
G2 X6.9154 Y1.6776 J-0.0294
G1 X7.0207 Y1.5045
G2 X7.0145 Y1.4935 I-0.0062 J-0.0038
G1 X6.3924
G2 X6.3797 Y1.5063 J0.0128
G1 Y1.5735
G3 X6.3363 Y1.6386 I-0.0705
G2 X6.2929 Y1.7037 I0.0271 J0.0651
G1 Y1.7657
G2 X6.3056 Y1.7785 I0.0128
G1 X6.9391
G2 X6.9642 Y1.7644 J-0.0294
G1 X7.1751 Y1.4177
G2 X7.1689 Y1.4067 I-0.0062 J-0.0038
G1 X6.3056
G2 X6.2929 Y1.4195 J0.0128
G1 Y1.7037
G3 X6.2495 Y1.7688 I-0.0705
G2 X6.2061 Y1.8339 I0.0271 J0.0651
G1 Y1.8525
G2 X6.2188 Y1.8653 I0.0128
G1 X6.9879
G2 X7.013 Y1.8512 J-0.0294
G1 X7.3294 Y1.3309
G2 X7.3232 Y1.3199 I-0.0062 J-0.0038
G1 X6.2188
G2 X6.2061 Y1.3327 J0.0128
G1 Y1.8339
G3 X6.1685 Y1.8876 I-0.0572
G2 X6.18 Y1.9521 I0.0114 J0.0312
G1 X7.0367
G2 X7.0619 Y1.938 J-0.0294
G1 X7.4838 Y1.2441
G2 X7.4776 Y1.2331 I-0.0062 J-0.0038
G1 X6.132
G2 X6.1193 Y1.2459 J0.0128
G1 X6.1192 Y1.9397
G2 X6.1315 Y1.9521 I0.0123 J0.0002
G1 X6.18
G3 X6.2451 Y1.9955 J0.0705
G2 X6.3102 Y2.0389 I0.0651 J-0.0271
G1 X7.0859
G2 X7.1105 Y2.0251 J-0.0288
G1 X7.6384 Y1.1571
G2 X7.6323 Y1.1463 I-0.0061 J-0.0037
G1 X6.045
G2 X6.0325 Y1.1588 J0.0125
G1 X6.0342 Y1.9352
G3 X6.0275 Y1.9832 I-0.1743
X6.0091 Y2.028 I-0.2132 J-0.0611
G2 X6.0156 Y2.0389 I0.0065 J0.0035
G1 X6.3102
G3 X6.3731 Y2.0808 J0.0681
G2 X6.4359 Y2.1227 I0.0629 J-0.0262
G1 X7.1492
X7.794 Y1.0625
X5.9486
Y1.9352
G3 X5.8361 Y2.0477 I-0.1125
G1 X5.4468
Y2.1227
X6.4359
G2 X6.4406 Y2.1218 Z-0.184 J-0.0125
X6.444 Y2.1197 Z-0.1813 I-0.0047 J-0.0116
X6.4459 Y2.1178 Z-0.1773 I-0.0081 J-0.0095
X6.4464 Y2.117 Z-0.1725 I-0.01 J-0.0075
G0 Z0.2
X7.2969 Y4.7515
G1 Z0.1 F40.38
Z-0.0275
G2 X7.2977 Y4.7509 Z-0.0323 I-0.0068 J-0.0105
X7.2997 Y4.7491 Z-0.0363 I-0.0075 J-0.01
X7.3017 Y4.7456 Z-0.039 I-0.0095 J-0.0081
X7.3027 Y4.7409 Z-0.04 I-0.0116 J-0.0047
G1 Y4.7162
G2 X7.2933 Y4.7135 I-0.0051
G1 X7.2752 Y4.7422
G2 X7.2812 Y4.7532 I0.006 J0.0038
G1 X7.2932
G2 X7.3027 Y4.7438 J-0.0094
G1 Y4.7409
G3 X7.3396 Y4.6855 I0.06
G2 X7.3765 Y4.6301 I-0.0231 J-0.0554
G1 Y4.4609
G2 X7.3672 Y4.4582 I-0.0051
G1 X7.1411 Y4.8161
G2 X7.1472 Y4.827 I0.006 J0.0038
G1 X7.3638
G2 X7.3765 Y4.8143 J-0.0128
G1 Y4.6301
G3 X7.4135 Y4.5747 I0.06
G2 X7.4504 Y4.5193 I-0.0231 J-0.0554
G1 Y4.2055
G2 X7.4411 Y4.2028 I-0.0051
G1 X7.0071 Y4.89
G2 X7.0131 Y4.9009 I0.006 J0.0038
G1 X7.4376
G2 X7.4504 Y4.8881 J-0.0128
G1 Y4.5193
G3 X7.4873 Y4.4639 I0.06
G2 X7.5243 Y4.4085 I-0.0231 J-0.0554
G1 Y3.9502
G2 X7.5149 Y3.9475 I-0.0051
G1 X6.8731 Y4.9638
G2 X6.8791 Y4.9748 I0.006 J0.0038
G1 X7.5115
G2 X7.5243 Y4.962 J-0.0128
G1 Y4.4085
G3 X7.5612 Y4.3531 I0.06
G2 X7.5982 Y4.2977 I-0.0231 J-0.0554
G1 Y3.6949
G2 X7.5888 Y3.6922 I-0.0051
G1 X6.739 Y5.0377
G2 X6.7451 Y5.0487 I0.006 J0.0038
G1 X7.5854
G2 X7.5982 Y5.0359 J-0.0128
G1 Y4.2977
G3 X7.6352 Y4.2421 I0.0602
G2 X7.6722 Y4.1866 I-0.0231 J-0.0556
G1 Y3.4214
X6.5977 Y5.1227
X7.6722
Y4.1866
G2 X7.6576 Y4.1821 I-0.008
G1 X7.2859 Y4.7403
G2 X7.2969 Y4.7515 I0.0067 J0.0044
G1 Z-0.0675
G2 X7.2977 Y4.7509 Z-0.0723 I-0.0068 J-0.0105
X7.2997 Y4.7491 Z-0.0763 I-0.0075 J-0.01
X7.3017 Y4.7456 Z-0.079 I-0.0095 J-0.0081
X7.3027 Y4.7409 Z-0.08 I-0.0116 J-0.0047
G1 Y4.7162
G2 X7.2933 Y4.7135 I-0.0051
G1 X7.2752 Y4.7422
G2 X7.2812 Y4.7532 I0.006 J0.0038
G1 X7.2932
G2 X7.3027 Y4.7438 J-0.0094
G1 Y4.7409
G3 X7.3396 Y4.6855 I0.06
G2 X7.3765 Y4.6301 I-0.0231 J-0.0554
G1 Y4.4609
G2 X7.3672 Y4.4582 I-0.0051
G1 X7.1411 Y4.8161
G2 X7.1472 Y4.827 I0.006 J0.0038
G1 X7.3638
G2 X7.3765 Y4.8143 J-0.0128
G1 Y4.6301
G3 X7.4135 Y4.5747 I0.06
G2 X7.4504 Y4.5193 I-0.0231 J-0.0554
G1 Y4.2055
G2 X7.4411 Y4.2028 I-0.0051
G1 X7.0071 Y4.89
G2 X7.0131 Y4.9009 I0.006 J0.0038
G1 X7.4376
G2 X7.4504 Y4.8881 J-0.0128
G1 Y4.5193
G3 X7.4873 Y4.4639 I0.06
G2 X7.5243 Y4.4085 I-0.0231 J-0.0554
G1 Y3.9502
G2 X7.5149 Y3.9475 I-0.0051
G1 X6.8731 Y4.9638
G2 X6.8791 Y4.9748 I0.006 J0.0038
G1 X7.5115
G2 X7.5243 Y4.962 J-0.0128
G1 Y4.4085
G3 X7.5612 Y4.3531 I0.06
G2 X7.5982 Y4.2977 I-0.0231 J-0.0554
G1 Y3.6949
G2 X7.5888 Y3.6922 I-0.0051
G1 X6.739 Y5.0377
G2 X6.7451 Y5.0487 I0.006 J0.0038
G1 X7.5854
G2 X7.5982 Y5.0359 J-0.0128
G1 Y4.2977
G3 X7.6352 Y4.2421 I0.0602
G2 X7.6722 Y4.1866 I-0.0231 J-0.0556
G1 Y3.4214
X6.5977 Y5.1227
X7.6722
Y4.1866
G2 X7.6576 Y4.1821 I-0.008
G1 X7.2859 Y4.7403
G2 X7.2969 Y4.7515 I0.0067 J0.0044
G1 Z-0.1075
G2 X7.2977 Y4.7509 Z-0.1123 I-0.0068 J-0.0105
X7.2997 Y4.7491 Z-0.1163 I-0.0075 J-0.01
X7.3017 Y4.7456 Z-0.119 I-0.0095 J-0.0081
X7.3027 Y4.7409 Z-0.12 I-0.0116 J-0.0047
G1 Y4.7162
G2 X7.2933 Y4.7135 I-0.0051
G1 X7.2752 Y4.7422
G2 X7.2812 Y4.7532 I0.006 J0.0038
G1 X7.2932
G2 X7.3027 Y4.7438 J-0.0094
G1 Y4.7409
G3 X7.3396 Y4.6855 I0.06
G2 X7.3765 Y4.6301 I-0.0231 J-0.0554
G1 Y4.4609
G2 X7.3672 Y4.4582 I-0.0051
G1 X7.1411 Y4.8161
G2 X7.1472 Y4.827 I0.006 J0.0038
G1 X7.3638
G2 X7.3765 Y4.8143 J-0.0128
G1 Y4.6301
G3 X7.4135 Y4.5747 I0.06
G2 X7.4504 Y4.5193 I-0.0231 J-0.0554
G1 Y4.2055
G2 X7.4411 Y4.2028 I-0.0051
G1 X7.0071 Y4.89
G2 X7.0131 Y4.9009 I0.006 J0.0038
G1 X7.4376
G2 X7.4504 Y4.8881 J-0.0128
G1 Y4.5193
G3 X7.4873 Y4.4639 I0.06
G2 X7.5243 Y4.4085 I-0.0231 J-0.0554
G1 Y3.9502
G2 X7.5149 Y3.9475 I-0.0051
G1 X6.8731 Y4.9638
G2 X6.8791 Y4.9748 I0.006 J0.0038
G1 X7.5115
G2 X7.5243 Y4.962 J-0.0128
G1 Y4.4085
G3 X7.5612 Y4.3531 I0.06
G2 X7.5982 Y4.2977 I-0.0231 J-0.0554
G1 Y3.6949
G2 X7.5888 Y3.6922 I-0.0051
G1 X6.739 Y5.0377
G2 X6.7451 Y5.0487 I0.006 J0.0038
G1 X7.5854
G2 X7.5982 Y5.0359 J-0.0128
G1 Y4.2977
G3 X7.6352 Y4.2421 I0.0602
G2 X7.6722 Y4.1866 I-0.0231 J-0.0556
G1 Y3.4214
X6.5977 Y5.1227
X7.6722
Y4.1866
G2 X7.6576 Y4.1821 I-0.008
G1 X7.2859 Y4.7403
G2 X7.2969 Y4.7515 I0.0067 J0.0044
G1 Z-0.1475
G2 X7.2977 Y4.7509 Z-0.1523 I-0.0068 J-0.0105
X7.2997 Y4.7491 Z-0.1563 I-0.0075 J-0.01
X7.3017 Y4.7456 Z-0.159 I-0.0095 J-0.0081
X7.3027 Y4.7409 Z-0.16 I-0.0116 J-0.0047
G1 Y4.7162
G2 X7.2933 Y4.7135 I-0.0051
G1 X7.2752 Y4.7422
G2 X7.2812 Y4.7532 I0.006 J0.0038
G1 X7.2932
G2 X7.3027 Y4.7438 J-0.0094
G1 Y4.7409
G3 X7.3396 Y4.6855 I0.06
G2 X7.3765 Y4.6301 I-0.0231 J-0.0554
G1 Y4.4609
G2 X7.3672 Y4.4582 I-0.0051
G1 X7.1411 Y4.8161
G2 X7.1472 Y4.827 I0.006 J0.0038
G1 X7.3638
G2 X7.3765 Y4.8143 J-0.0128
G1 Y4.6301
G3 X7.4135 Y4.5747 I0.06
G2 X7.4504 Y4.5193 I-0.0231 J-0.0554
G1 Y4.2055
G2 X7.4411 Y4.2028 I-0.0051
G1 X7.0071 Y4.89
G2 X7.0131 Y4.9009 I0.006 J0.0038
G1 X7.4376
G2 X7.4504 Y4.8881 J-0.0128
G1 Y4.5193
G3 X7.4873 Y4.4639 I0.06
G2 X7.5243 Y4.4085 I-0.0231 J-0.0554
G1 Y3.9502
G2 X7.5149 Y3.9475 I-0.0051
G1 X6.8731 Y4.9638
G2 X6.8791 Y4.9748 I0.006 J0.0038
G1 X7.5115
G2 X7.5243 Y4.962 J-0.0128
G1 Y4.4085
G3 X7.5612 Y4.3531 I0.06
G2 X7.5982 Y4.2977 I-0.0231 J-0.0554
G1 Y3.6949
G2 X7.5888 Y3.6922 I-0.0051
G1 X6.739 Y5.0377
G2 X6.7451 Y5.0487 I0.006 J0.0038
G1 X7.5854
G2 X7.5982 Y5.0359 J-0.0128
G1 Y4.2977
G3 X7.6352 Y4.2421 I0.0602
G2 X7.6722 Y4.1866 I-0.0231 J-0.0556
G1 Y3.4214
X6.5977 Y5.1227
X7.6722
Y4.1866
G2 X7.6576 Y4.1821 I-0.008
G1 X7.2859 Y4.7403
G2 X7.2969 Y4.7515 I0.0067 J0.0044
G1 Z-0.1725
G2 X7.2977 Y4.7509 Z-0.1773 I-0.0068 J-0.0105
X7.2997 Y4.7491 Z-0.1813 I-0.0075 J-0.01
X7.3017 Y4.7456 Z-0.184 I-0.0095 J-0.0081
X7.3027 Y4.7409 Z-0.185 I-0.0116 J-0.0047
G1 Y4.7162
G2 X7.2933 Y4.7135 I-0.0051
G1 X7.2752 Y4.7422
G2 X7.2812 Y4.7532 I0.006 J0.0038
G1 X7.2932
G2 X7.3027 Y4.7438 J-0.0094
G1 Y4.7409
G3 X7.3396 Y4.6855 I0.06
G2 X7.3765 Y4.6301 I-0.0231 J-0.0554
G1 Y4.4609
G2 X7.3672 Y4.4582 I-0.0051
G1 X7.1411 Y4.8161
G2 X7.1472 Y4.827 I0.006 J0.0038
G1 X7.3638
G2 X7.3765 Y4.8143 J-0.0128
G1 Y4.6301
G3 X7.4135 Y4.5747 I0.06
G2 X7.4504 Y4.5193 I-0.0231 J-0.0554
G1 Y4.2055
G2 X7.4411 Y4.2028 I-0.0051
G1 X7.0071 Y4.89
G2 X7.0131 Y4.9009 I0.006 J0.0038
G1 X7.4376
G2 X7.4504 Y4.8881 J-0.0128
G1 Y4.5193
G3 X7.4873 Y4.4639 I0.06
G2 X7.5243 Y4.4085 I-0.0231 J-0.0554
G1 Y3.9502
G2 X7.5149 Y3.9475 I-0.0051
G1 X6.8731 Y4.9638
G2 X6.8791 Y4.9748 I0.006 J0.0038
G1 X7.5115
G2 X7.5243 Y4.962 J-0.0128
G1 Y4.4085
G3 X7.5612 Y4.3531 I0.06
G2 X7.5982 Y4.2977 I-0.0231 J-0.0554
G1 Y3.6949
G2 X7.5888 Y3.6922 I-0.0051
G1 X6.739 Y5.0377
G2 X6.7451 Y5.0487 I0.006 J0.0038
G1 X7.5854
G2 X7.5982 Y5.0359 J-0.0128
G1 Y4.2977
G3 X7.6352 Y4.2421 I0.0602
G2 X7.6722 Y4.1866 I-0.0231 J-0.0556
G1 Y3.4214
X6.5977 Y5.1227
X7.6722
Y4.1866
G2 X7.6713 Y4.1819 Z-0.184 I-0.0125
X7.6692 Y4.1785 Z-0.1813 I-0.0116 J0.0047
X7.6673 Y4.1766 Z-0.1773 I-0.0095 J0.0081
X7.6665 Y4.1761 Z-0.1725 I-0.0075 J0.01
G0 Z0.2
X8.9488 Y4.9747
G1 Z0.1 F40.38
Z-0.0275
G2 X8.948 Y4.9753 Z-0.0323 I0.0068 J0.0105
X8.946 Y4.9771 Z-0.0363 I0.0075 J0.01
X8.9439 Y4.9806 Z-0.039 I0.0095 J0.0081
X8.943 Y4.9852 Z-0.04 I0.0116 J0.0047
G1 Y5.0138
G2 X8.9558 Y5.0265 I0.0128
G1 X9.0129
G2 X9.0256 Y5.0138 J-0.0128
G1 Y3.3567
G2 X9.0129 Y3.3439 I-0.0128
G1 X8.9558
G2 X8.943 Y3.3567 J0.0128
G1 Y4.9852
G3 X8.9059 Y5.0504 I-0.0758
G2 X8.9258 Y5.1227 I0.0199 J0.0334
G1 X9.1218
Y3.2477
X8.8468
Y5.1227
X8.9258
G2 X8.9336 Y5.1163 J-0.008
G1 X8.9609 Y4.9831
G2 X8.9488 Y4.9747 I-0.0078 J-0.0016
G1 Z-0.0675
G2 X8.948 Y4.9753 Z-0.0723 I0.0068 J0.0105
X8.946 Y4.9771 Z-0.0763 I0.0075 J0.01
X8.9439 Y4.9806 Z-0.079 I0.0095 J0.0081
X8.943 Y4.9852 Z-0.08 I0.0116 J0.0047
G1 Y5.0138
G2 X8.9558 Y5.0265 I0.0128
G1 X9.0129
G2 X9.0256 Y5.0138 J-0.0128
G1 Y3.3567
G2 X9.0129 Y3.3439 I-0.0128
G1 X8.9558
G2 X8.943 Y3.3567 J0.0128
G1 Y4.9852
G3 X8.9059 Y5.0504 I-0.0758
G2 X8.9258 Y5.1227 I0.0199 J0.0334
G1 X9.1218
Y3.2477
X8.8468
Y5.1227
X8.9258
G2 X8.9336 Y5.1163 J-0.008
G1 X8.9609 Y4.9831
G2 X8.9488 Y4.9747 I-0.0078 J-0.0016
G1 Z-0.1075
G2 X8.948 Y4.9753 Z-0.1123 I0.0068 J0.0105
X8.946 Y4.9771 Z-0.1163 I0.0075 J0.01
X8.9439 Y4.9806 Z-0.119 I0.0095 J0.0081
X8.943 Y4.9852 Z-0.12 I0.0116 J0.0047
G1 Y5.0138
G2 X8.9558 Y5.0265 I0.0128
G1 X9.0129
G2 X9.0256 Y5.0138 J-0.0128
G1 Y3.3567
G2 X9.0129 Y3.3439 I-0.0128
G1 X8.9558
G2 X8.943 Y3.3567 J0.0128
G1 Y4.9852
G3 X8.9059 Y5.0504 I-0.0758
G2 X8.9258 Y5.1227 I0.0199 J0.0334
G1 X9.1218
Y3.2477
X8.8468
Y5.1227
X8.9258
G2 X8.9336 Y5.1163 J-0.008
G1 X8.9609 Y4.9831
G2 X8.9488 Y4.9747 I-0.0078 J-0.0016
G1 Z-0.1475
G2 X8.948 Y4.9753 Z-0.1523 I0.0068 J0.0105
X8.946 Y4.9771 Z-0.1563 I0.0075 J0.01
X8.9439 Y4.9806 Z-0.159 I0.0095 J0.0081
X8.943 Y4.9852 Z-0.16 I0.0116 J0.0047
G1 Y5.0138
G2 X8.9558 Y5.0265 I0.0128
G1 X9.0129
G2 X9.0256 Y5.0138 J-0.0128
G1 Y3.3567
G2 X9.0129 Y3.3439 I-0.0128
G1 X8.9558
G2 X8.943 Y3.3567 J0.0128
G1 Y4.9852
G3 X8.9059 Y5.0504 I-0.0758
G2 X8.9258 Y5.1227 I0.0199 J0.0334
G1 X9.1218
Y3.2477
X8.8468
Y5.1227
X8.9258
G2 X8.9336 Y5.1163 J-0.008
G1 X8.9609 Y4.9831
G2 X8.9488 Y4.9747 I-0.0078 J-0.0016
G1 Z-0.1725
G2 X8.948 Y4.9753 Z-0.1773 I0.0068 J0.0105
X8.946 Y4.9771 Z-0.1813 I0.0075 J0.01
X8.9439 Y4.9806 Z-0.184 I0.0095 J0.0081
X8.943 Y4.9852 Z-0.185 I0.0116 J0.0047
G1 Y5.0138
G2 X8.9558 Y5.0265 I0.0128
G1 X9.0129
G2 X9.0256 Y5.0138 J-0.0128
G1 Y3.3567
G2 X9.0129 Y3.3439 I-0.0128
G1 X8.9558
G2 X8.943 Y3.3567 J0.0128
G1 Y4.9852
G3 X8.9059 Y5.0504 I-0.0758
G2 X8.9258 Y5.1227 I0.0199 J0.0334
G1 X9.1218
Y3.2477
X8.8468
Y5.1227
X8.9258
G2 X8.9304 Y5.1218 Z-0.184 J-0.0125
X8.9339 Y5.1197 Z-0.1813 I-0.0047 J-0.0116
X8.9358 Y5.1178 Z-0.1773 I-0.0081 J-0.0095
X8.9363 Y5.117 Z-0.1725 I-0.01 J-0.0075
G0 Z0.2
X10.5551 Y6.4174
G1 Z0.1 F40.38
Z-0.0275
G2 X10.5558 Y6.4168 Z-0.0323 I-0.0068 J-0.0105
X10.5578 Y6.415 Z-0.0363 I-0.0075 J-0.01
X10.5599 Y6.4115 Z-0.039 I-0.0095 J-0.0081
X10.5608 Y6.4069 Z-0.04 I-0.0116 J-0.0047
G1 Y6.3514
G2 X10.5506 Y6.3472 I-0.006
G1 X10.4722 Y6.4256
G2 X10.4764 Y6.4358 I0.0042 J0.0042
G1 X10.548
G2 X10.5608 Y6.423 J-0.0128
G1 Y6.4069
G3 X10.6009 Y6.3467 I0.0652
G2 X10.6411 Y6.2865 I-0.0251 J-0.0602
G1 Y6.1576
G2 X10.6309 Y6.1534 I-0.006
G1 X10.2784 Y6.5059
G2 X10.2826 Y6.5161 I0.0042 J0.0042
G1 X10.6283
G2 X10.6411 Y6.5033 J-0.0128
G1 Y6.2865
G3 X10.6812 Y6.2263 I0.0652
G2 X10.7213 Y6.1661 I-0.0251 J-0.0602
G1 Y5.9496
G2 X10.7117 Y5.9464 I-0.0053
G3 X10.6757 Y5.9932 I-1.0497 J-0.7716
X10.6362 Y6.0371 I-0.4329 J-0.3495
G1 X10.0846 Y6.5861
G2 X10.0889 Y6.5963 I0.0042 J0.0042
G1 X10.7085
G2 X10.7213 Y6.5835 J-0.0128
G1 Y6.1661
G2 X10.7204 Y6.1614 Z-0.039 I-0.0125
X10.7183 Y6.158 Z-0.0363 I-0.0116 J0.0047
X10.7164 Y6.1561 Z-0.0323 I-0.0095 J0.0081
X10.7156 Y6.1556 Z-0.0275 I-0.0075 J0.01
G0 Z0.2
X10.5551 Y1.9773
G1 Z0.1 F40.38
Z-0.0275
G2 X10.5558 Y1.9768 Z-0.0323 I-0.0068 J-0.0105
X10.5578 Y1.9749 Z-0.0363 I-0.0075 J-0.01
X10.5599 Y1.9715 Z-0.039 I-0.0095 J-0.0081
X10.5608 Y1.9668 Z-0.04 I-0.0116 J-0.0047
G1 Y1.952
G2 X10.548 Y1.9392 I-0.0128
G1 X10.4791
G2 X10.4754 Y1.9481 J0.0052
G1 X10.5506 Y2.0233
G2 X10.5608 Y2.0191 I0.0042 J-0.0042
G1 Y1.9668
G3 X10.5942 Y1.9175 I0.0532
G2 X10.5829 Y1.8589 I-0.0113 J-0.0282
G1 X10.2853
G2 X10.2817 Y1.8678 J0.0052
G1 X10.6309 Y2.2171
G2 X10.6411 Y2.2129 I0.0042 J-0.0042
G1 Y1.8717
G2 X10.6283 Y1.8589 I-0.0128
G1 X10.5829
G3 X10.5227 Y1.8188 J-0.0652
G2 X10.4625 Y1.7787 I-0.0602 J0.0251
G1 X10.0916
G2 X10.0879 Y1.7876 J0.0052
G1 X10.6362 Y2.3333
G3 X10.6757 Y2.3772 I-0.3934 J0.3934
X10.7117 Y2.424 I-1.0136 J0.8184
G2 X10.7213 Y2.4209 I0.0043 J-0.0031
G1 Y1.7915
G2 X10.7085 Y1.7787 I-0.0128
G1 X10.4625
G3 X10.4066 Y1.7414 J-0.0607
G2 X10.3506 Y1.704 I-0.056 J0.0233
G1 X9.9113
G2 X9.9077 Y1.7129 J0.0052
G1 X10.5834 Y2.3861
G3 X10.7902 Y2.8852 I-0.4991 J0.4991
G1 Y5.4852
G3 X10.5834 Y5.9843 I-0.7058
G1 X10.0029 Y6.5623
G2 X9.9884 Y6.5974 I0.0351 J0.0351
G1 Y6.6582
G2 X10.0011 Y6.671 I0.0128
G1 X10.7832
G2 X10.796 Y6.6582 J-0.0128
G1 Y1.7168
G2 X10.7832 Y1.704 I-0.0128
G1 X10.3506
G3 X10.3072 Y1.6751 J-0.047
G2 X10.2639 Y1.6462 I-0.0434 J0.0181
G1 X9.7574
G2 X9.7545 Y1.6555 J0.0051
G3 X9.8001 Y1.6893 I-0.5731 J0.82
X9.8425 Y1.727 I-0.2958 J0.376
G1 X10.5425 Y2.427
G3 X10.7323 Y2.8852 I-0.4582 J0.4582
G1 Y5.4852
G3 X10.5425 Y5.9434 I-0.648
G1 X9.9448 Y6.5386
G2 X9.9306 Y6.5731 I0.0345 J0.0345
G1 Y6.7163
G2 X9.9431 Y6.7288 I0.0125
G1 X10.8413
G2 X10.8538 Y6.7163 J-0.0125
G1 Y1.6587
G2 X10.8413 Y1.6462 I-0.0125
G1 X10.2639
G3 X10.2086 Y1.6094 J-0.0599
G2 X10.1533 Y1.5725 I-0.0553 J0.023
G1 X9.3713
G2 X9.3587 Y1.5851 J0.0126
G1 Y1.6
G2 X9.3715 Y1.6127 I0.0128
X9.3779 Y1.6125 J-0.1028
G3 X9.3843 Y1.6123 I0.0064 J0.1026
X9.604 Y1.6553 J0.5822
X9.7904 Y1.7791 I-0.2132 J0.5235
G1 X10.4904 Y2.4791
G3 X10.6586 Y2.8852 I-0.4061 J0.4061
G1 Y5.4852
G3 X10.4904 Y5.8913 I-0.5743
G1 X9.8714 Y6.5078
G2 X9.8568 Y6.543 I0.0352 J0.0352
G1 Y6.7897
G2 X9.8696 Y6.8025 I0.0128
G1 X10.9147
G2 X10.9275 Y6.7897 J-0.0128
G1 Y1.5853
G2 X10.9147 Y1.5725 I-0.0128
G1 X10.1533
G3 X10.1223 Y1.5519 J-0.0335
G2 X10.0914 Y1.5312 I-0.0309 J0.0129
G1 X9.3301
G2 X9.3175 Y1.5439 J0.0126
G1 Y1.6412
G2 X9.3302 Y1.654 I0.0128
X9.3573 Y1.6531 J-0.4332
G3 X9.3843 Y1.6523 I0.027 J0.4323
X9.7612 Y1.8083 J0.5333
G1 X10.4612 Y2.5083
G3 X10.6174 Y2.8852 I-0.3769 J0.3769
G1 Y5.4852
G3 X10.4612 Y5.8622 I-0.533
G1 X9.8301 Y6.4907
G2 X9.8156 Y6.5259 I0.0352 J0.0352
G1 Y6.831
G2 X9.8283 Y6.8438 I0.0128
G1 X10.956
G2 X10.9688 Y6.831 J-0.0128
G1 Y1.544
G2 X10.956 Y1.5312 I-0.0128
G1 X10.0914
G3 X10.0194 Y1.4832 J-0.078
G2 X9.9474 Y1.4352 I-0.072 J0.03
G1 X9.2341
G2 X9.2215 Y1.4479 J0.0126
G1 Y1.7372
G2 X9.2342 Y1.75 I0.0128
X9.3093 Y1.7491 J-3.1295
G3 X9.3843 Y1.7482 I0.075 J3.1286
X9.6934 Y1.8762 J0.437
G1 X10.3934 Y2.5762
G3 X10.5214 Y2.8852 I-0.309 J0.309
G1 Y5.4852
G3 X10.3934 Y5.7943 I-0.437
G1 X9.7341 Y6.451
G2 X9.7196 Y6.4861 I0.0352 J0.0352
G1 Y6.927
G2 X9.7323 Y6.9398 I0.0128
G1 X11.052
G2 X11.0648 Y6.927 J-0.0128
G1 Y1.448
G2 X11.052 Y1.4352 I-0.0128
G1 X9.9474
G3 X9.8754 Y1.3872 J-0.078
G2 X9.8034 Y1.3392 I-0.072 J0.03
G1 X9.1381
G2 X9.1255 Y1.3519 J0.0126
G1 Y1.8332
G2 X9.1382 Y1.846 I0.0128
G1 X9.3887
G3 X9.6255 Y1.9441 J0.3349
G1 X10.3255 Y2.6441
G3 X10.4254 Y2.8852 I-0.2412 J0.2412
G1 Y5.4852
G3 X10.3255 Y5.7264 I-0.341
G1 X9.638 Y6.4113
G2 X9.6236 Y6.4462 I0.0349 J0.0349
G1 Y7.023
G2 X9.6363 Y7.0358 I0.0128
G1 X11.148
G2 X11.1608 Y7.023 J-0.0128
G1 Y1.352
G2 X11.148 Y1.3392 I-0.0128
G1 X9.8034
G3 X9.7314 Y1.2912 J-0.078
G2 X9.6594 Y1.2432 I-0.072 J0.03
G1 X9.0421
G2 X9.0295 Y1.2559 J0.0126
G1 Y1.9292
G2 X9.0422 Y1.942 I0.0128
X9.2133 Y1.9411 J-16.2546
G3 X9.3843 Y1.9402 I0.171 J16.2537
X9.5576 Y2.012 J0.245
G1 X10.2576 Y2.712
G3 X10.3294 Y2.8852 I-0.1733 J0.1733
G1 Y5.4852
G3 X10.2576 Y5.6585 I-0.245
G1 X9.557 Y6.3579
G3 X9.5457 Y6.3679 I-0.086 J-0.086
G1 X9.5337 Y6.3772
G2 X9.5252 Y6.3978 I0.0139 J0.0178
G1 X9.5276 Y6.4169
G3 X9.5287 Y6.4352 I-0.1458 J0.0184
G1 X9.5276 Y7.119
G2 X9.5403 Y7.1318 I0.0128
G1 X11.244
G2 X11.2568 Y7.119 J-0.0128
G1 Y1.256
G2 X11.244 Y1.2432 I-0.0128
G1 X9.6594
G3 X9.5874 Y1.1952 J-0.078
G2 X9.5154 Y1.1472 I-0.072 J0.03
G1 X8.9458
G2 X8.9335 Y1.1596 J0.0124
G1 Y2.0255
G2 X8.946 Y2.038 I0.0125
G1 X9.3843 Y2.0362
G3 X9.4897 Y2.0799 J0.149
G1 X10.1897 Y2.7799
G3 X10.2333 Y2.8852 I-0.1054 J0.1054
G1 Y5.4852
G3 X10.1897 Y5.5906 I-0.149
G1 X9.4897 Y6.2906
G3 X9.4547 Y6.3155 I-0.0922 J-0.0922
X9.4141 Y6.3294 I-0.0753 J-0.154
G2 X9.4082 Y6.3421 I0.0018 J0.0085
G3 X9.4266 Y6.3871 I-0.1962 J0.1064
X9.4333 Y6.4352 I-0.1683 J0.0481
G1 X9.4316 Y7.2152
G2 X9.4441 Y7.2278 I0.0125
G1 X11.3402
G2 X11.3528 Y7.2152 J-0.0125
G1 Y1.1598
G2 X11.3402 Y1.1472 I-0.0125
G1 X9.5154
G3 X9.4518 Y1.1049 J-0.0688
G2 X9.3883 Y1.0625 I-0.0636 J0.0265
G1 X8.8487
Y2.1227
X9.3843
G3 X9.4285 Y2.141 J0.0625
G1 X10.1285 Y2.841
G3 X10.1468 Y2.8852 I-0.0442 J0.0442
G1 Y5.4852
G3 X10.1285 Y5.5294 I-0.0625
G1 X9.4285 Y6.2294
G3 X9.3843 Y6.2477 I-0.0442 J-0.0442
G1 X8.8468
Y6.3227
X9.2343
G3 X9.3468 Y6.4352 J0.1125
G1 Y7.3125
X11.4375
Y1.0625
X9.3883
G2 X9.3834 Y1.0768 J0.008
G1 X10.5458 Y1.9769
G2 X10.5551 Y1.9773 I0.0049 J-0.0063
G1 Z-0.0675
G2 X10.5558 Y1.9768 Z-0.0723 I-0.0068 J-0.0105
X10.5578 Y1.9749 Z-0.0763 I-0.0075 J-0.01
X10.5599 Y1.9715 Z-0.079 I-0.0095 J-0.0081
X10.5608 Y1.9668 Z-0.08 I-0.0116 J-0.0047
G1 Y1.952
G2 X10.548 Y1.9392 I-0.0128
G1 X10.4791
G2 X10.4754 Y1.9481 J0.0052
G1 X10.5506 Y2.0233
G2 X10.5608 Y2.0191 I0.0042 J-0.0042
G1 Y1.9668
G3 X10.5942 Y1.9175 I0.0532
G2 X10.5829 Y1.8589 I-0.0113 J-0.0282
G1 X10.2853
G2 X10.2817 Y1.8678 J0.0052
G1 X10.6309 Y2.2171
G2 X10.6411 Y2.2129 I0.0042 J-0.0042
G1 Y1.8717
G2 X10.6283 Y1.8589 I-0.0128
G1 X10.5829
G3 X10.5227 Y1.8188 J-0.0652
G2 X10.4625 Y1.7787 I-0.0602 J0.0251
G1 X10.0916
G2 X10.0879 Y1.7876 J0.0052
G1 X10.6362 Y2.3333
G3 X10.6757 Y2.3772 I-0.3934 J0.3934
X10.7117 Y2.424 I-1.0136 J0.8184
G2 X10.7213 Y2.4209 I0.0043 J-0.0031
G1 Y1.7915
G2 X10.7085 Y1.7787 I-0.0128
G1 X10.4625
G2 X10.4579 Y1.7796 Z-0.079 J0.0125
X10.4544 Y1.7817 Z-0.0763 I0.0047 J0.0116
X10.4526 Y1.7836 Z-0.0723 I0.0081 J0.0095
X10.452 Y1.7844 Z-0.0675 I0.01 J0.0075
G0 Z0.2
X10.5551 Y6.4174
G1 Z0.06 F40.38
Z-0.0675
G2 X10.5558 Y6.4168 Z-0.0723 I-0.0068 J-0.0105
X10.5578 Y6.415 Z-0.0763 I-0.0075 J-0.01
X10.5599 Y6.4115 Z-0.079 I-0.0095 J-0.0081
X10.5608 Y6.4069 Z-0.08 I-0.0116 J-0.0047
G1 Y6.3514
G2 X10.5506 Y6.3472 I-0.006
G1 X10.4722 Y6.4256
G2 X10.4764 Y6.4358 I0.0042 J0.0042
G1 X10.548
G2 X10.5608 Y6.423 J-0.0128
G1 Y6.4069
G3 X10.6009 Y6.3467 I0.0652
G2 X10.6411 Y6.2865 I-0.0251 J-0.0602
G1 Y6.1576
G2 X10.6309 Y6.1534 I-0.006
G1 X10.2784 Y6.5059
G2 X10.2826 Y6.5161 I0.0042 J0.0042
G1 X10.6283
G2 X10.6411 Y6.5033 J-0.0128
G1 Y6.2865
G3 X10.6812 Y6.2263 I0.0652
G2 X10.7213 Y6.1661 I-0.0251 J-0.0602
G1 Y5.9496
G2 X10.7117 Y5.9464 I-0.0053
G3 X10.6757 Y5.9932 I-1.0497 J-0.7716
X10.6362 Y6.0371 I-0.4329 J-0.3495
G1 X10.0846 Y6.5861
G2 X10.0889 Y6.5963 I0.0042 J0.0042
G1 X10.7085
G2 X10.7213 Y6.5835 J-0.0128
G1 Y6.1661
G3 X10.7586 Y6.1101 I0.0607
G2 X10.796 Y6.0541 I-0.0233 J-0.056
G1 Y1.7168
G2 X10.7832 Y1.704 I-0.0128
G1 X9.9113
G2 X9.9077 Y1.7129 J0.0052
G1 X10.5834 Y2.3861
G3 X10.7902 Y2.8852 I-0.4991 J0.4991
G1 Y5.4852
G3 X10.5834 Y5.9843 I-0.7058
G1 X10.0029 Y6.5623
G2 X9.9884 Y6.5974 I0.0351 J0.0351
G1 Y6.6582
G2 X10.0011 Y6.671 I0.0128
G1 X10.7832
G2 X10.796 Y6.6582 J-0.0128
G1 Y6.0541
G3 X10.8249 Y6.0108 I0.047
G2 X10.8538 Y5.9674 I-0.0181 J-0.0434
G1 Y1.6587
G2 X10.8413 Y1.6462 I-0.0125
G1 X9.7574
G2 X9.7545 Y1.6555 J0.0051
G3 X9.8001 Y1.6893 I-0.5731 J0.82
X9.8425 Y1.727 I-0.2958 J0.376
G1 X10.5425 Y2.427
G3 X10.7323 Y2.8852 I-0.4582 J0.4582
G1 Y5.4852
G3 X10.5425 Y5.9434 I-0.648
G1 X9.9448 Y6.5386
G2 X9.9306 Y6.5731 I0.0345 J0.0345
G1 Y6.7163
G2 X9.9431 Y6.7288 I0.0125
G1 X10.8413
G2 X10.8538 Y6.7163 J-0.0125
G1 Y5.9674
G3 X10.8906 Y5.9121 I0.0599
G2 X10.9275 Y5.8568 I-0.023 J-0.0553
G1 Y1.5853
G2 X10.9147 Y1.5725 I-0.0128
G1 X9.3713
G2 X9.3587 Y1.5851 J0.0126
G1 Y1.6
G2 X9.3715 Y1.6127 I0.0128
X9.3779 Y1.6125 J-0.1028
G3 X9.3843 Y1.6123 I0.0064 J0.1026
X9.604 Y1.6553 J0.5822
X9.7904 Y1.7791 I-0.2132 J0.5235
G1 X10.4904 Y2.4791
G3 X10.6586 Y2.8852 I-0.4061 J0.4061
G1 Y5.4852
G3 X10.4904 Y5.8913 I-0.5743
G1 X9.8714 Y6.5078
G2 X9.8568 Y6.543 I0.0352 J0.0352
G1 Y6.7897
G2 X9.8696 Y6.8025 I0.0128
G1 X10.9147
G2 X10.9275 Y6.7897 J-0.0128
G1 Y5.8568
G3 X10.9481 Y5.8259 I0.0335
G2 X10.9688 Y5.7949 I-0.0129 J-0.0309
G1 Y1.544
G2 X10.956 Y1.5312 I-0.0128
G1 X9.3301
G2 X9.3175 Y1.5439 J0.0126
G1 Y1.6412
G2 X9.3302 Y1.654 I0.0128
X9.3573 Y1.6531 J-0.4332
G3 X9.3843 Y1.6523 I0.027 J0.4323
X9.7612 Y1.8083 J0.5333
G1 X10.4612 Y2.5083
G3 X10.6174 Y2.8852 I-0.3769 J0.3769
G1 Y5.4852
G3 X10.4612 Y5.8622 I-0.533
G1 X9.8301 Y6.4907
G2 X9.8156 Y6.5259 I0.0352 J0.0352
G1 Y6.831
G2 X9.8283 Y6.8438 I0.0128
G1 X10.956
G2 X10.9688 Y6.831 J-0.0128
G1 Y5.7949
G3 X11.0168 Y5.7229 I0.078
G2 X11.0648 Y5.6509 I-0.03 J-0.072
G1 Y1.448
G2 X11.052 Y1.4352 I-0.0128
G1 X9.2341
G2 X9.2215 Y1.4479 J0.0126
G1 Y1.7372
G2 X9.2342 Y1.75 I0.0128
X9.3093 Y1.7491 J-3.1295
G3 X9.3843 Y1.7482 I0.075 J3.1286
X9.6934 Y1.8762 J0.437
G1 X10.3934 Y2.5762
G3 X10.5214 Y2.8852 I-0.309 J0.309
G1 Y5.4852
G3 X10.3934 Y5.7943 I-0.437
G1 X9.7341 Y6.451
G2 X9.7196 Y6.4861 I0.0352 J0.0352
G1 Y6.927
G2 X9.7323 Y6.9398 I0.0128
G1 X11.052
G2 X11.0648 Y6.927 J-0.0128
G1 Y5.6509
G3 X11.1128 Y5.5789 I0.078
G2 X11.1608 Y5.5069 I-0.03 J-0.072
G1 Y1.352
G2 X11.148 Y1.3392 I-0.0128
G1 X9.1381
G2 X9.1255 Y1.3519 J0.0126
G1 Y1.8332
G2 X9.1382 Y1.846 I0.0128
G1 X9.3887
G3 X9.6255 Y1.9441 J0.3349
G1 X10.3255 Y2.6441
G3 X10.4254 Y2.8852 I-0.2412 J0.2412
G1 Y5.4852
G3 X10.3255 Y5.7264 I-0.341
G1 X9.638 Y6.4113
G2 X9.6236 Y6.4462 I0.0349 J0.0349
G1 Y7.023
G2 X9.6363 Y7.0358 I0.0128
G1 X11.148
G2 X11.1608 Y7.023 J-0.0128
G1 Y5.5069
G3 X11.2088 Y5.4349 I0.078
G2 X11.2568 Y5.3629 I-0.03 J-0.072
G1 Y1.256
G2 X11.244 Y1.2432 I-0.0128
G1 X9.0421
G2 X9.0295 Y1.2559 J0.0126
G1 Y1.9292
G2 X9.0422 Y1.942 I0.0128
X9.2133 Y1.9411 J-16.2546
G3 X9.3843 Y1.9402 I0.171 J16.2537
X9.5576 Y2.012 J0.245
G1 X10.2576 Y2.712
G3 X10.3294 Y2.8852 I-0.1733 J0.1733
G1 Y5.4852
G3 X10.2576 Y5.6585 I-0.245
G1 X9.557 Y6.3579
G3 X9.5457 Y6.3679 I-0.086 J-0.086
G1 X9.5337 Y6.3772
G2 X9.5252 Y6.3978 I0.0139 J0.0178
G1 X9.5276 Y6.4169
G3 X9.5287 Y6.4352 I-0.1458 J0.0184
G1 X9.5276 Y7.119
G2 X9.5403 Y7.1318 I0.0128
G1 X11.244
G2 X11.2568 Y7.119 J-0.0128
G1 Y5.3629
G3 X11.3048 Y5.2909 I0.078
G2 X11.3528 Y5.2189 I-0.03 J-0.072
G1 Y1.1598
G2 X11.3402 Y1.1472 I-0.0125
G1 X8.9458
G2 X8.9335 Y1.1596 J0.0124
G1 Y2.0255
G2 X8.946 Y2.038 I0.0125
G1 X9.3843 Y2.0362
G3 X9.4897 Y2.0799 J0.149
G1 X10.1897 Y2.7799
G3 X10.2333 Y2.8852 I-0.1054 J0.1054
G1 Y5.4852
G3 X10.1897 Y5.5906 I-0.149
G1 X9.4897 Y6.2906
G3 X9.4547 Y6.3155 I-0.0922 J-0.0922
X9.4141 Y6.3294 I-0.0753 J-0.154
G2 X9.4082 Y6.3421 I0.0018 J0.0085
G3 X9.4266 Y6.3871 I-0.1962 J0.1064
X9.4333 Y6.4352 I-0.1683 J0.0481
G1 X9.4316 Y7.2152
G2 X9.4441 Y7.2278 I0.0125
G1 X11.3402
G2 X11.3528 Y7.2152 J-0.0125
G1 Y5.2189
G3 X11.3951 Y5.1554 I0.0688
G2 X11.4375 Y5.0918 I-0.0265 J-0.0636
G1 Y1.0625
X8.8487
Y2.1227
X9.3843
G3 X9.4285 Y2.141 J0.0625
G1 X10.1285 Y2.841
G3 X10.1468 Y2.8852 I-0.0442 J0.0442
G1 Y5.4852
G3 X10.1285 Y5.5294 I-0.0625
G1 X9.4285 Y6.2294
G3 X9.3843 Y6.2477 I-0.0442 J-0.0442
G1 X8.8468
Y6.3227
X9.2343
G3 X9.3468 Y6.4352 J0.1125
G1 Y7.3125
X11.4375
Y5.0918
G2 X11.4228 Y5.0874 I-0.008
G1 X10.5441 Y6.4062
G2 X10.5551 Y6.4174 I0.0067 J0.0044
G1 Z-0.1075
G2 X10.5558 Y6.4168 Z-0.1123 I-0.0068 J-0.0105
X10.5578 Y6.415 Z-0.1163 I-0.0075 J-0.01
X10.5599 Y6.4115 Z-0.119 I-0.0095 J-0.0081
X10.5608 Y6.4069 Z-0.12 I-0.0116 J-0.0047
G1 Y6.3514
G2 X10.5506 Y6.3472 I-0.006
G1 X10.4722 Y6.4256
G2 X10.4764 Y6.4358 I0.0042 J0.0042
G1 X10.548
G2 X10.5608 Y6.423 J-0.0128
G1 Y6.4069
G3 X10.6009 Y6.3467 I0.0652
G2 X10.6411 Y6.2865 I-0.0251 J-0.0602
G1 Y6.1576
G2 X10.6309 Y6.1534 I-0.006
G1 X10.2784 Y6.5059
G2 X10.2826 Y6.5161 I0.0042 J0.0042
G1 X10.6283
G2 X10.6411 Y6.5033 J-0.0128
G1 Y6.2865
G3 X10.6812 Y6.2263 I0.0652
G2 X10.7213 Y6.1661 I-0.0251 J-0.0602
G1 Y5.9496
G2 X10.7117 Y5.9464 I-0.0053
G3 X10.6757 Y5.9932 I-1.0497 J-0.7716
X10.6362 Y6.0371 I-0.4329 J-0.3495
G1 X10.0846 Y6.5861
G2 X10.0889 Y6.5963 I0.0042 J0.0042
G1 X10.7085
G2 X10.7213 Y6.5835 J-0.0128
G1 Y6.1661
G2 X10.7204 Y6.1614 Z-0.119 I-0.0125
X10.7183 Y6.158 Z-0.1163 I-0.0116 J0.0047
X10.7164 Y6.1561 Z-0.1123 I-0.0095 J0.0081
X10.7156 Y6.1556 Z-0.1075 I-0.0075 J0.01
G0 Z0.2
X10.5551 Y1.9773
G1 Z0.02 F40.38
Z-0.1075
G2 X10.5558 Y1.9768 Z-0.1123 I-0.0068 J-0.0105
X10.5578 Y1.9749 Z-0.1163 I-0.0075 J-0.01
X10.5599 Y1.9715 Z-0.119 I-0.0095 J-0.0081
X10.5608 Y1.9668 Z-0.12 I-0.0116 J-0.0047
G1 Y1.952
G2 X10.548 Y1.9392 I-0.0128
G1 X10.4791
G2 X10.4754 Y1.9481 J0.0052
G1 X10.5506 Y2.0233
G2 X10.5608 Y2.0191 I0.0042 J-0.0042
G1 Y1.9668
G3 X10.5942 Y1.9175 I0.0532
G2 X10.5829 Y1.8589 I-0.0113 J-0.0282
G1 X10.2853
G2 X10.2817 Y1.8678 J0.0052
G1 X10.6309 Y2.2171
G2 X10.6411 Y2.2129 I0.0042 J-0.0042
G1 Y1.8717
G2 X10.6283 Y1.8589 I-0.0128
G1 X10.5829
G3 X10.5227 Y1.8188 J-0.0652
G2 X10.4625 Y1.7787 I-0.0602 J0.0251
G1 X10.0916
G2 X10.0879 Y1.7876 J0.0052
G1 X10.6362 Y2.3333
G3 X10.6757 Y2.3772 I-0.3934 J0.3934
X10.7117 Y2.424 I-1.0136 J0.8184
G2 X10.7213 Y2.4209 I0.0043 J-0.0031
G1 Y1.7915
G2 X10.7085 Y1.7787 I-0.0128
G1 X10.4625
G3 X10.4066 Y1.7414 J-0.0607
G2 X10.3506 Y1.704 I-0.056 J0.0233
G1 X9.9113
G2 X9.9077 Y1.7129 J0.0052
G1 X10.5834 Y2.3861
G3 X10.7902 Y2.8852 I-0.4991 J0.4991
G1 Y5.4852
G3 X10.5834 Y5.9843 I-0.7058
G1 X10.0029 Y6.5623
G2 X9.9884 Y6.5974 I0.0351 J0.0351
G1 Y6.6582
G2 X10.0011 Y6.671 I0.0128
G1 X10.7832
G2 X10.796 Y6.6582 J-0.0128
G1 Y1.7168
G2 X10.7832 Y1.704 I-0.0128
G1 X10.3506
G3 X10.3072 Y1.6751 J-0.047
G2 X10.2639 Y1.6462 I-0.0434 J0.0181
G1 X9.7574
G2 X9.7545 Y1.6555 J0.0051
G3 X9.8001 Y1.6893 I-0.5731 J0.82
X9.8425 Y1.727 I-0.2958 J0.376
G1 X10.5425 Y2.427
G3 X10.7323 Y2.8852 I-0.4582 J0.4582
G1 Y5.4852
G3 X10.5425 Y5.9434 I-0.648
G1 X9.9448 Y6.5386
G2 X9.9306 Y6.5731 I0.0345 J0.0345
G1 Y6.7163
G2 X9.9431 Y6.7288 I0.0125
G1 X10.8413
G2 X10.8538 Y6.7163 J-0.0125
G1 Y1.6587
G2 X10.8413 Y1.6462 I-0.0125
G1 X10.2639
G3 X10.2086 Y1.6094 J-0.0599
G2 X10.1533 Y1.5725 I-0.0553 J0.023
G1 X9.3713
G2 X9.3587 Y1.5851 J0.0126
G1 Y1.6
G2 X9.3715 Y1.6127 I0.0128
X9.3779 Y1.6125 J-0.1028
G3 X9.3843 Y1.6123 I0.0064 J0.1026
X9.604 Y1.6553 J0.5822
X9.7904 Y1.7791 I-0.2132 J0.5235
G1 X10.4904 Y2.4791
G3 X10.6586 Y2.8852 I-0.4061 J0.4061
G1 Y5.4852
G3 X10.4904 Y5.8913 I-0.5743
G1 X9.8714 Y6.5078
G2 X9.8568 Y6.543 I0.0352 J0.0352
G1 Y6.7897
G2 X9.8696 Y6.8025 I0.0128
G1 X10.9147
G2 X10.9275 Y6.7897 J-0.0128
G1 Y1.5853
G2 X10.9147 Y1.5725 I-0.0128
G1 X10.1533
G3 X10.1223 Y1.5519 J-0.0335
G2 X10.0914 Y1.5312 I-0.0309 J0.0129
G1 X9.3301
G2 X9.3175 Y1.5439 J0.0126
G1 Y1.6412
G2 X9.3302 Y1.654 I0.0128
X9.3573 Y1.6531 J-0.4332
G3 X9.3843 Y1.6523 I0.027 J0.4323
X9.7612 Y1.8083 J0.5333
G1 X10.4612 Y2.5083
G3 X10.6174 Y2.8852 I-0.3769 J0.3769
G1 Y5.4852
G3 X10.4612 Y5.8622 I-0.533
G1 X9.8301 Y6.4907
G2 X9.8156 Y6.5259 I0.0352 J0.0352
G1 Y6.831
G2 X9.8283 Y6.8438 I0.0128
G1 X10.956
G2 X10.9688 Y6.831 J-0.0128
G1 Y1.544
G2 X10.956 Y1.5312 I-0.0128
G1 X10.0914
G3 X10.0194 Y1.4832 J-0.078
G2 X9.9474 Y1.4352 I-0.072 J0.03
G1 X9.2341
G2 X9.2215 Y1.4479 J0.0126
G1 Y1.7372
G2 X9.2342 Y1.75 I0.0128
X9.3093 Y1.7491 J-3.1295
G3 X9.3843 Y1.7482 I0.075 J3.1286
X9.6934 Y1.8762 J0.437
G1 X10.3934 Y2.5762
G3 X10.5214 Y2.8852 I-0.309 J0.309
G1 Y5.4852
G3 X10.3934 Y5.7943 I-0.437
G1 X9.7341 Y6.451
G2 X9.7196 Y6.4861 I0.0352 J0.0352
G1 Y6.927
G2 X9.7323 Y6.9398 I0.0128
G1 X11.052
G2 X11.0648 Y6.927 J-0.0128
G1 Y1.448
G2 X11.052 Y1.4352 I-0.0128
G1 X9.9474
G3 X9.8754 Y1.3872 J-0.078
G2 X9.8034 Y1.3392 I-0.072 J0.03
G1 X9.1381
G2 X9.1255 Y1.3519 J0.0126
G1 Y1.8332
G2 X9.1382 Y1.846 I0.0128
G1 X9.3887
G3 X9.6255 Y1.9441 J0.3349
G1 X10.3255 Y2.6441
G3 X10.4254 Y2.8852 I-0.2412 J0.2412
G1 Y5.4852
G3 X10.3255 Y5.7264 I-0.341
G1 X9.638 Y6.4113
G2 X9.6236 Y6.4462 I0.0349 J0.0349
G1 Y7.023
G2 X9.6363 Y7.0358 I0.0128
G1 X11.148
G2 X11.1608 Y7.023 J-0.0128
G1 Y1.352
G2 X11.148 Y1.3392 I-0.0128
G1 X9.8034
G3 X9.7314 Y1.2912 J-0.078
G2 X9.6594 Y1.2432 I-0.072 J0.03
G1 X9.0421
G2 X9.0295 Y1.2559 J0.0126
G1 Y1.9292
G2 X9.0422 Y1.942 I0.0128
X9.2133 Y1.9411 J-16.2546
G3 X9.3843 Y1.9402 I0.171 J16.2537
X9.5576 Y2.012 J0.245
G1 X10.2576 Y2.712
G3 X10.3294 Y2.8852 I-0.1733 J0.1733
G1 Y5.4852
G3 X10.2576 Y5.6585 I-0.245
G1 X9.557 Y6.3579
G3 X9.5457 Y6.3679 I-0.086 J-0.086
G1 X9.5337 Y6.3772
G2 X9.5252 Y6.3978 I0.0139 J0.0178
G1 X9.5276 Y6.4169
G3 X9.5287 Y6.4352 I-0.1458 J0.0184
G1 X9.5276 Y7.119
G2 X9.5403 Y7.1318 I0.0128
G1 X11.244
G2 X11.2568 Y7.119 J-0.0128
G1 Y1.256
G2 X11.244 Y1.2432 I-0.0128
G1 X9.6594
G3 X9.5874 Y1.1952 J-0.078
G2 X9.5154 Y1.1472 I-0.072 J0.03
G1 X8.9458
G2 X8.9335 Y1.1596 J0.0124
G1 Y2.0255
G2 X8.946 Y2.038 I0.0125
G1 X9.3843 Y2.0362
G3 X9.4897 Y2.0799 J0.149
G1 X10.1897 Y2.7799
G3 X10.2333 Y2.8852 I-0.1054 J0.1054
G1 Y5.4852
G3 X10.1897 Y5.5906 I-0.149
G1 X9.4897 Y6.2906
G3 X9.4547 Y6.3155 I-0.0922 J-0.0922
X9.4141 Y6.3294 I-0.0753 J-0.154
G2 X9.4082 Y6.3421 I0.0018 J0.0085
G3 X9.4266 Y6.3871 I-0.1962 J0.1064
X9.4333 Y6.4352 I-0.1683 J0.0481
G1 X9.4316 Y7.2152
G2 X9.4441 Y7.2278 I0.0125
G1 X11.3402
G2 X11.3528 Y7.2152 J-0.0125
G1 Y1.1598
G2 X11.3402 Y1.1472 I-0.0125
G1 X9.5154
G3 X9.4518 Y1.1049 J-0.0688
G2 X9.3883 Y1.0625 I-0.0636 J0.0265
G1 X8.8487
Y2.1227
X9.3843
G3 X9.4285 Y2.141 J0.0625
G1 X10.1285 Y2.841
G3 X10.1468 Y2.8852 I-0.0442 J0.0442
G1 Y5.4852
G3 X10.1285 Y5.5294 I-0.0625
G1 X9.4285 Y6.2294
G3 X9.3843 Y6.2477 I-0.0442 J-0.0442
G1 X8.8468
Y6.3227
X9.2343
G3 X9.3468 Y6.4352 J0.1125
G1 Y7.3125
X11.4375
Y1.0625
X9.3883
G2 X9.3834 Y1.0768 J0.008
G1 X10.5458 Y1.9769
G2 X10.5551 Y1.9773 I0.0049 J-0.0063
G1 Z-0.1475
G2 X10.5558 Y1.9768 Z-0.1523 I-0.0068 J-0.0105
X10.5578 Y1.9749 Z-0.1563 I-0.0075 J-0.01
X10.5599 Y1.9715 Z-0.159 I-0.0095 J-0.0081
X10.5608 Y1.9668 Z-0.16 I-0.0116 J-0.0047
G1 Y1.952
G2 X10.548 Y1.9392 I-0.0128
G1 X10.4791
G2 X10.4754 Y1.9481 J0.0052
G1 X10.5506 Y2.0233
G2 X10.5608 Y2.0191 I0.0042 J-0.0042
G1 Y1.9668
G3 X10.5942 Y1.9175 I0.0532
G2 X10.5829 Y1.8589 I-0.0113 J-0.0282
G1 X10.2853
G2 X10.2817 Y1.8678 J0.0052
G1 X10.6309 Y2.2171
G2 X10.6411 Y2.2129 I0.0042 J-0.0042
G1 Y1.8717
G2 X10.6283 Y1.8589 I-0.0128
G1 X10.5829
G3 X10.5227 Y1.8188 J-0.0652
G2 X10.4625 Y1.7787 I-0.0602 J0.0251
G1 X10.0916
G2 X10.0879 Y1.7876 J0.0052
G1 X10.6362 Y2.3333
G3 X10.6757 Y2.3772 I-0.3934 J0.3934
X10.7117 Y2.424 I-1.0136 J0.8184
G2 X10.7213 Y2.4209 I0.0043 J-0.0031
G1 Y1.7915
G2 X10.7085 Y1.7787 I-0.0128
G1 X10.4625
G2 X10.4579 Y1.7796 Z-0.159 J0.0125
X10.4544 Y1.7817 Z-0.1563 I0.0047 J0.0116
X10.4526 Y1.7836 Z-0.1523 I0.0081 J0.0095
X10.452 Y1.7844 Z-0.1475 I0.01 J0.0075
G0 Z0.2
X10.5551 Y6.4174
G1 Z-0.02 F40.38
Z-0.1475
G2 X10.5558 Y6.4168 Z-0.1523 I-0.0068 J-0.0105
X10.5578 Y6.415 Z-0.1563 I-0.0075 J-0.01
X10.5599 Y6.4115 Z-0.159 I-0.0095 J-0.0081
X10.5608 Y6.4069 Z-0.16 I-0.0116 J-0.0047
G1 Y6.3514
G2 X10.5506 Y6.3472 I-0.006
G1 X10.4722 Y6.4256
G2 X10.4764 Y6.4358 I0.0042 J0.0042
G1 X10.548
G2 X10.5608 Y6.423 J-0.0128
G1 Y6.4069
G3 X10.6009 Y6.3467 I0.0652
G2 X10.6411 Y6.2865 I-0.0251 J-0.0602
G1 Y6.1576
G2 X10.6309 Y6.1534 I-0.006
G1 X10.2784 Y6.5059
G2 X10.2826 Y6.5161 I0.0042 J0.0042
G1 X10.6283
G2 X10.6411 Y6.5033 J-0.0128
G1 Y6.2865
G3 X10.6812 Y6.2263 I0.0652
G2 X10.7213 Y6.1661 I-0.0251 J-0.0602
G1 Y5.9496
G2 X10.7117 Y5.9464 I-0.0053
G3 X10.6757 Y5.9932 I-1.0497 J-0.7716
X10.6362 Y6.0371 I-0.4329 J-0.3495
G1 X10.0846 Y6.5861
G2 X10.0889 Y6.5963 I0.0042 J0.0042
G1 X10.7085
G2 X10.7213 Y6.5835 J-0.0128
G1 Y6.1661
G3 X10.7586 Y6.1101 I0.0607
G2 X10.796 Y6.0541 I-0.0233 J-0.056
G1 Y1.7168
G2 X10.7832 Y1.704 I-0.0128
G1 X9.9113
G2 X9.9077 Y1.7129 J0.0052
G1 X10.5834 Y2.3861
G3 X10.7902 Y2.8852 I-0.4991 J0.4991
G1 Y5.4852
G3 X10.5834 Y5.9843 I-0.7058
G1 X10.0029 Y6.5623
G2 X9.9884 Y6.5974 I0.0351 J0.0351
G1 Y6.6582
G2 X10.0011 Y6.671 I0.0128
G1 X10.7832
G2 X10.796 Y6.6582 J-0.0128
G1 Y6.0541
G3 X10.8249 Y6.0108 I0.047
G2 X10.8538 Y5.9674 I-0.0181 J-0.0434
G1 Y1.6587
G2 X10.8413 Y1.6462 I-0.0125
G1 X9.7574
G2 X9.7545 Y1.6555 J0.0051
G3 X9.8001 Y1.6893 I-0.5731 J0.82
X9.8425 Y1.727 I-0.2958 J0.376
G1 X10.5425 Y2.427
G3 X10.7323 Y2.8852 I-0.4582 J0.4582
G1 Y5.4852
G3 X10.5425 Y5.9434 I-0.648
G1 X9.9448 Y6.5386
G2 X9.9306 Y6.5731 I0.0345 J0.0345
G1 Y6.7163
G2 X9.9431 Y6.7288 I0.0125
G1 X10.8413
G2 X10.8538 Y6.7163 J-0.0125
G1 Y5.9674
G3 X10.8906 Y5.9121 I0.0599
G2 X10.9275 Y5.8568 I-0.023 J-0.0553
G1 Y1.5853
G2 X10.9147 Y1.5725 I-0.0128
G1 X9.3713
G2 X9.3587 Y1.5851 J0.0126
G1 Y1.6
G2 X9.3715 Y1.6127 I0.0128
X9.3779 Y1.6125 J-0.1028
G3 X9.3843 Y1.6123 I0.0064 J0.1026
X9.604 Y1.6553 J0.5822
X9.7904 Y1.7791 I-0.2132 J0.5235
G1 X10.4904 Y2.4791
G3 X10.6586 Y2.8852 I-0.4061 J0.4061
G1 Y5.4852
G3 X10.4904 Y5.8913 I-0.5743
G1 X9.8714 Y6.5078
G2 X9.8568 Y6.543 I0.0352 J0.0352
G1 Y6.7897
G2 X9.8696 Y6.8025 I0.0128
G1 X10.9147
G2 X10.9275 Y6.7897 J-0.0128
G1 Y5.8568
G3 X10.9481 Y5.8259 I0.0335
G2 X10.9688 Y5.7949 I-0.0129 J-0.0309
G1 Y1.544
G2 X10.956 Y1.5312 I-0.0128
G1 X9.3301
G2 X9.3175 Y1.5439 J0.0126
G1 Y1.6412
G2 X9.3302 Y1.654 I0.0128
X9.3573 Y1.6531 J-0.4332
G3 X9.3843 Y1.6523 I0.027 J0.4323
X9.7612 Y1.8083 J0.5333
G1 X10.4612 Y2.5083
G3 X10.6174 Y2.8852 I-0.3769 J0.3769
G1 Y5.4852
G3 X10.4612 Y5.8622 I-0.533
G1 X9.8301 Y6.4907
G2 X9.8156 Y6.5259 I0.0352 J0.0352
G1 Y6.831
G2 X9.8283 Y6.8438 I0.0128
G1 X10.956
G2 X10.9688 Y6.831 J-0.0128
G1 Y5.7949
G3 X11.0168 Y5.7229 I0.078
G2 X11.0648 Y5.6509 I-0.03 J-0.072
G1 Y1.448
G2 X11.052 Y1.4352 I-0.0128
G1 X9.2341
G2 X9.2215 Y1.4479 J0.0126
G1 Y1.7372
G2 X9.2342 Y1.75 I0.0128
X9.3093 Y1.7491 J-3.1295
G3 X9.3843 Y1.7482 I0.075 J3.1286
X9.6934 Y1.8762 J0.437
G1 X10.3934 Y2.5762
G3 X10.5214 Y2.8852 I-0.309 J0.309
G1 Y5.4852
G3 X10.3934 Y5.7943 I-0.437
G1 X9.7341 Y6.451
G2 X9.7196 Y6.4861 I0.0352 J0.0352
G1 Y6.927
G2 X9.7323 Y6.9398 I0.0128
G1 X11.052
G2 X11.0648 Y6.927 J-0.0128
G1 Y5.6509
G3 X11.1128 Y5.5789 I0.078
G2 X11.1608 Y5.5069 I-0.03 J-0.072
G1 Y1.352
G2 X11.148 Y1.3392 I-0.0128
G1 X9.1381
G2 X9.1255 Y1.3519 J0.0126
G1 Y1.8332
G2 X9.1382 Y1.846 I0.0128
G1 X9.3887
G3 X9.6255 Y1.9441 J0.3349
G1 X10.3255 Y2.6441
G3 X10.4254 Y2.8852 I-0.2412 J0.2412
G1 Y5.4852
G3 X10.3255 Y5.7264 I-0.341
G1 X9.638 Y6.4113
G2 X9.6236 Y6.4462 I0.0349 J0.0349
G1 Y7.023
G2 X9.6363 Y7.0358 I0.0128
G1 X11.148
G2 X11.1608 Y7.023 J-0.0128
G1 Y5.5069
G3 X11.2088 Y5.4349 I0.078
G2 X11.2568 Y5.3629 I-0.03 J-0.072
G1 Y1.256
G2 X11.244 Y1.2432 I-0.0128
G1 X9.0421
