%
(InsertMonogram_part4)
(T1  D=0.125 CR=0 - ZMIN=-0.185 - flat end mill)
G90 G94
G17
G20

(2D Pocket5)
M9
T1 M6
S11028 M3
G54
M8
G0 X10.5155 Y6.3756
Z0.6
Z0.2
G1 Z0.1 F40.38
Z-0.0375
G2 X10.5146 Y6.3755 Z-0.0423 I-0.0027 J0.0122
X10.5119 Y6.3754 Z-0.0463 I-0.0017 J0.0124
X10.5079 Y6.3763 Z-0.049 I0.001 J0.0125
X10.504 Y6.379 Z-0.05 I0.0049 J0.0115
G1 X10.4469 Y6.4361
G2 X10.4511 Y6.4463 I0.0042 J0.0042
G1 X10.5585
G2 X10.5713 Y6.4335 J-0.0128
G1 Y6.3261
G2 X10.5611 Y6.3219 I-0.006
G1 X10.504 Y6.379
G3 X10.4331 Y6.3932 I-0.0461 J-0.0461
G2 X10.3621 Y6.4074 I-0.0248 J0.0603
G1 X10.2531 Y6.5164
G2 X10.2574 Y6.5265 I0.0042 J0.0042
G1 X10.6387
G2 X10.6515 Y6.5137 J-0.0128
G1 Y6.1324
G2 X10.6414 Y6.1281 I-0.006
G1 X10.3621 Y6.4074
G3 X10.2918 Y6.4213 I-0.0456 J-0.0456
G2 X10.2214 Y6.4353 I-0.0247 J0.0598
G1 X10.0594 Y6.5966
G2 X10.0636 Y6.6068 I0.0042 J0.0042
G1 X10.719
G2 X10.7318 Y6.594 J-0.0128
G1 Y5.916
G2 X10.7224 Y5.9131 I-0.0051
G3 X10.6784 Y5.9737 I-0.8474 J-0.5683
X10.6288 Y6.0297 I-0.4861 J-0.3805
G1 X10.2214 Y6.4353
G2 X10.2188 Y6.4392 Z-0.049 I0.0088 J0.0088
X10.2178 Y6.4431 Z-0.0463 I0.0115 J0.0049
X10.2179 Y6.4458 Z-0.0423 I0.0125 J0.001
X10.2181 Y6.4468 Z-0.0375 I0.0124 J-0.0017
G0 Z0.2
X10.5029 Y1.9822
G1 Z0.1 F40.38
Z-0.0375
G2 X10.5027 Y1.9832 Z-0.0423 I0.0122 J0.0027
X10.5026 Y1.9859 Z-0.0463 I0.0124 J0.0017
X10.5036 Y1.9898 Z-0.049 I0.0125 J-0.001
X10.5063 Y1.9937 Z-0.05 I0.0115 J-0.0049
G1 X10.5611 Y2.0486
G2 X10.5713 Y2.0443 I0.0042 J-0.0042
G1 Y1.9415
G2 X10.5585 Y1.9287 I-0.0128
G1 X10.4557
G2 X10.4514 Y1.9389 J0.006
G1 X10.5063 Y1.9937
G3 X10.5205 Y2.0647 I-0.0461 J0.0461
G2 X10.5346 Y2.1356 I0.0603 J0.0248
G1 X10.6414 Y2.2423
G2 X10.6515 Y2.2381 I0.0042 J-0.0042
G1 Y1.8613
G2 X10.6387 Y1.8485 I-0.0128
G1 X10.2619
G2 X10.2577 Y1.8586 J0.006
G1 X10.5346 Y2.1356
G3 X10.5487 Y2.2053 I-0.0454 J0.0454
G2 X10.5627 Y2.275 I0.0592 J0.0243
G1 X10.6288 Y2.3407
G3 X10.6784 Y2.3968 I-0.4365 J0.4365
X10.7224 Y2.4573 I-0.8035 J0.6289
G2 X10.7318 Y2.4545 I0.0043 J-0.0029
G1 Y1.781
G2 X10.719 Y1.7682 I-0.0128
G1 X10.0681
G2 X10.0639 Y1.7784 J0.006
G1 X10.5627 Y2.275
G3 X10.5762 Y2.3397 I-0.0424 J0.0426
G2 X10.5888 Y2.4047 I0.057 J0.0227
G3 X10.781 Y2.8852 I-0.5044 J0.4805
G1 Y5.4852
G3 X10.5769 Y5.9779 I-0.6967
G1 X9.9938 Y6.5585
G2 X9.9792 Y6.5937 I0.0352 J0.0352
G1 Y6.6674
G2 X9.992 Y6.6801 I0.0128
G1 X10.7924
G2 X10.8051 Y6.6674 J-0.0128
G1 Y1.7076
G2 X10.7924 Y1.6949 I-0.0128
G1 X9.891
G2 X9.8868 Y1.705 J0.006
G1 X10.5769 Y2.3926
G3 X10.5888 Y2.4047 I-0.4926 J0.4926
X10.6003 Y2.4786 I-0.0475 J0.0453
G2 X10.6046 Y2.5533 I0.069 J0.0335
G3 X10.7015 Y2.8852 I-0.5203 J0.3319
G1 Y5.4852
G3 X10.5207 Y5.9216 I-0.6171
G1 X9.914 Y6.5259
G2 X9.8997 Y6.5603 I0.0345 J0.0345
G1 Y6.7471
G2 X9.9122 Y6.7596 I0.0125
G1 X10.8721
G2 X10.8846 Y6.7471 J-0.0125
G1 Y1.6279
G2 X10.8721 Y1.6154 I-0.0125
G1 X9.6385
G2 X9.6367 Y1.624 J0.0045
G3 X9.7344 Y1.678 I-0.2764 J0.6148
X9.8207 Y1.7489 I-0.315 J0.4722
G1 X10.5207 Y2.4489
G3 X10.6046 Y2.5533 I-0.4364 J0.4364
X10.6022 Y2.6172 I-0.0473 J0.0302
G2 X10.5939 Y2.6805 I0.0521 J0.0391
G3 X10.6335 Y2.8852 I-0.5095 J0.2048
G1 Y5.4852
G3 X10.4726 Y5.8735 I-0.5491
G1 X9.8462 Y6.4974
G2 X9.8317 Y6.5325 I0.0352 J0.0352
G1 Y6.8149
G2 X9.8444 Y6.8277 I0.0128
G1 X10.9399
G2 X10.9527 Y6.8149 J-0.0128
G1 Y1.5601
G2 X10.9399 Y1.5473 I-0.0128
G1 X9.3462
G2 X9.3336 Y1.56 J0.0126
G1 Y1.6251
G2 X9.3463 Y1.6379 I0.0128
X9.3653 Y1.6373 J-0.3043
G3 X9.3843 Y1.6367 I0.019 J0.3037
X9.7726 Y1.7969 J0.5506
G1 X10.4726 Y2.4969
G3 X10.5939 Y2.6805 I-0.3883 J0.3883
X10.5711 Y2.7746 I-0.0774 J0.0311
G2 X10.5329 Y2.8637 I0.0725 J0.0837
G3 X10.5334 Y2.8852 I-0.4486 J0.0216
G1 Y5.4852
G3 X10.4019 Y5.8028 I-0.4491
G1 X9.7462 Y6.456
G2 X9.7316 Y6.4911 I0.0352 J0.0352
G1 Y6.9149
G2 X9.7444 Y6.9277 I0.0128
G1 X11.0399
G2 X11.0527 Y6.9149 J-0.0128
G1 Y1.4601
G2 X11.0399 Y1.4473 I-0.0128
G1 X9.2461
G2 X9.2335 Y1.4599 J0.0126
G1 Y1.7251
G2 X9.2463 Y1.7379 I0.0128
X9.3153 Y1.737 J-2.6464
G3 X9.3843 Y1.7361 I0.069 J2.6455
X9.7019 Y1.8677 J0.4491
G1 X10.4019 Y2.5677
G3 X10.5329 Y2.8637 I-0.3176 J0.3176
X10.4841 Y2.9417 I-0.0806 J0.0039
G2 X10.4334 Y3.0185 I0.0329 J0.0768
G1 Y5.4852
G3 X10.3312 Y5.7321 I-0.3491
G1 X9.6461 Y6.4146
G2 X9.6316 Y6.4496 I0.0351 J0.0351
G1 Y7.0149
G2 X9.6444 Y7.0277 I0.0128
G1 X11.1399
G2 X11.1527 Y7.0149 J-0.0128
G1 Y1.3601
G2 X11.1399 Y1.3473 I-0.0128
G1 X9.1461
G2 X9.1335 Y1.3599 J0.0126
G1 Y1.8252
G2 X9.1463 Y1.8379 I0.0128
X9.2653 Y1.837 J-7.871
G3 X9.3843 Y1.8361 I0.119 J7.8701
X9.6312 Y1.9384 J0.3491
G1 X10.3312 Y2.6384
G3 X10.4334 Y2.8852 I-0.2468 J0.2468
G1 Y3.0185
G3 X10.3834 Y3.0935 I-0.0813
G2 X10.3334 Y3.1685 I0.0313 J0.075
G1 Y5.4852
G3 X10.2604 Y5.6613 I-0.2491
G1 X9.5598 Y6.3607
G3 X9.5499 Y6.3695 I-0.0809 J-0.0809
G1 X9.5378 Y6.3791
G2 X9.5294 Y6.3994 I0.014 J0.0177
X9.5316 Y6.4173 I2.8904 J-0.3421
G3 X9.5327 Y6.4352 I-0.144 J0.0179
G1 X9.5316 Y7.115
G2 X9.5444 Y7.1277 I0.0128
G1 X11.24
G2 X11.2527 Y7.115 J-0.0128
G1 Y1.26
G2 X11.24 Y1.2473 I-0.0128
G1 X9.0461
G2 X9.0335 Y1.2599 J0.0126
G1 Y1.9252
G2 X9.0463 Y1.938 I0.0128
G1 X9.3843 Y1.9362
G3 X9.5604 Y2.0091 J0.2491
G1 X10.2604 Y2.7091
G3 X10.3334 Y2.8852 I-0.1761 J0.1761
G1 Y3.1685
G3 X10.2834 Y3.2436 I-0.0813
G2 X10.2333 Y3.3186 I0.0313 J0.0751
G1 Y5.4852
G3 X10.1897 Y5.5906 I-0.149
G1 X9.4897 Y6.2906
G3 X9.4547 Y6.3155 I-0.0922 J-0.0923
X9.4141 Y6.3294 I-0.0753 J-0.154
G2 X9.4082 Y6.3421 I0.0018 J0.0085
G3 X9.4265 Y6.3871 I-0.2031 J0.109
X9.4333 Y6.4352 I-0.1667 J0.0481
G1 X9.4316 Y7.2153
G2 X9.4441 Y7.2278 I0.0125
G1 X11.3403
G2 X11.3528 Y7.2153 J-0.0125
G1 Y1.1597
G2 X11.3403 Y1.1472 I-0.0125
G1 X8.9458
G2 X8.9334 Y1.1596 J0.0124
G1 Y2.0255
G2 X8.946 Y2.038 I0.0125
G1 X9.3843 Y2.0362
G3 X9.4897 Y2.0799 J0.149
G1 X10.1897 Y2.7799
G3 X10.2333 Y2.8852 I-0.1054 J0.1054
G1 Y3.3186
G3 X10.1901 Y3.3835 I-0.0703
G2 X10.1468 Y3.4484 I0.027 J0.0649
G1 Y5.4852
G3 X10.1285 Y5.5294 I-0.0625
G1 X9.4285 Y6.2294
G3 X9.3843 Y6.2477 I-0.0442 J-0.0442
G1 X8.8468
Y6.3227
X9.2343
G3 X9.3468 Y6.4352 J0.1125
G1 Y7.3125
X11.4375
Y1.0625
X8.8487
Y2.1227
X9.3843
G3 X9.4285 Y2.141 J0.0625
G1 X10.1285 Y2.841
G3 X10.1468 Y2.8852 I-0.0442 J0.0442
G1 Y3.4484
G2 X10.1626 Y3.4501 I0.008
G1 X10.4873 Y1.9788
G3 X10.4968 Y1.9727 I0.0078 J0.0017
X10.5029 Y1.9822 I-0.0017 J0.0078
G1 Z-0.0875
G2 X10.5027 Y1.9832 Z-0.0923 I0.0122 J0.0027
X10.5026 Y1.9859 Z-0.0963 I0.0124 J0.0017
X10.5036 Y1.9898 Z-0.099 I0.0125 J-0.001
X10.5063 Y1.9937 Z-0.1 I0.0115 J-0.0049
G1 X10.5611 Y2.0486
G2 X10.5713 Y2.0443 I0.0042 J-0.0042
G1 Y1.9415
G2 X10.5585 Y1.9287 I-0.0128
G1 X10.4557
G2 X10.4514 Y1.9389 J0.006
G1 X10.5063 Y1.9937
G3 X10.5205 Y2.0647 I-0.0461 J0.0461
G2 X10.5346 Y2.1356 I0.0603 J0.0248
G1 X10.6414 Y2.2423
G2 X10.6515 Y2.2381 I0.0042 J-0.0042
G1 Y1.8613
G2 X10.6387 Y1.8485 I-0.0128
G1 X10.2619
G2 X10.2577 Y1.8586 J0.006
G1 X10.5346 Y2.1356
G3 X10.5487 Y2.2053 I-0.0454 J0.0454
G2 X10.5627 Y2.275 I0.0592 J0.0243
G1 X10.6288 Y2.3407
G3 X10.6784 Y2.3968 I-0.4365 J0.4365
X10.7224 Y2.4573 I-0.8035 J0.6289
G2 X10.7318 Y2.4545 I0.0043 J-0.0029
G1 Y1.781
G2 X10.719 Y1.7682 I-0.0128
G1 X10.0681
G2 X10.0639 Y1.7784 J0.006
G1 X10.5627 Y2.275
G2 X10.5667 Y2.2776 Z-0.099 I0.0088 J-0.0088
X10.5706 Y2.2786 Z-0.0963 I0.0049 J-0.0115
X10.5733 Y2.2785 Z-0.0923 I0.001 J-0.0125
X10.5742 Y2.2783 Z-0.0875 I-0.0017 J-0.0124
G0 Z0.2
X10.5155 Y6.3756
G1 Z0.05 F40.38
Z-0.0875
G2 X10.5146 Y6.3755 Z-0.0923 I-0.0027 J0.0122
X10.5119 Y6.3754 Z-0.0963 I-0.0017 J0.0124
X10.5079 Y6.3763 Z-0.099 I0.001 J0.0125
X10.504 Y6.379 Z-0.1 I0.0049 J0.0115
G1 X10.4469 Y6.4361
G2 X10.4511 Y6.4463 I0.0042 J0.0042
G1 X10.5585
G2 X10.5713 Y6.4335 J-0.0128
G1 Y6.3261
G2 X10.5611 Y6.3219 I-0.006
G1 X10.504 Y6.379
G3 X10.4331 Y6.3932 I-0.0461 J-0.0461
G2 X10.3621 Y6.4074 I-0.0248 J0.0603
G1 X10.2531 Y6.5164
G2 X10.2574 Y6.5265 I0.0042 J0.0042
G1 X10.6387
G2 X10.6515 Y6.5137 J-0.0128
G1 Y6.1324
G2 X10.6414 Y6.1281 I-0.006
G1 X10.3621 Y6.4074
G3 X10.2918 Y6.4213 I-0.0456 J-0.0456
G2 X10.2214 Y6.4353 I-0.0247 J0.0598
G1 X10.0594 Y6.5966
G2 X10.0636 Y6.6068 I0.0042 J0.0042
G1 X10.719
G2 X10.7318 Y6.594 J-0.0128
G1 Y5.916
G2 X10.7224 Y5.9131 I-0.0051
G3 X10.6784 Y5.9737 I-0.8474 J-0.5683
X10.6288 Y6.0297 I-0.4861 J-0.3805
G1 X10.2214 Y6.4353
G3 X10.1566 Y6.4481 I-0.042 J-0.0422
G2 X10.0918 Y6.4609 I-0.0228 J0.055
G1 X9.9938 Y6.5585
G2 X9.9792 Y6.5937 I0.0352 J0.0352
G1 Y6.6674
G2 X9.992 Y6.6801 I0.0128
G1 X10.7924
G2 X10.8051 Y6.6674 J-0.0128
G1 Y1.7076
G2 X10.7924 Y1.6949 I-0.0128
G1 X9.891
G2 X9.8868 Y1.705 J0.006
G1 X10.5769 Y2.3926
G3 X10.781 Y2.8852 I-0.4926 J0.4926
G1 Y5.4852
G3 X10.5769 Y5.9779 I-0.6967
G1 X10.0918 Y6.4609
G3 X10.0215 Y6.4748 I-0.0455 J-0.0457
G2 X9.9513 Y6.4887 I-0.0247 J0.0596
G1 X9.914 Y6.5259
G2 X9.8997 Y6.5603 I0.0345 J0.0345
G1 Y6.7471
G2 X9.9122 Y6.7596 I0.0125
G1 X10.8721
G2 X10.8846 Y6.7471 J-0.0125
G1 Y1.6279
G2 X10.8721 Y1.6154 I-0.0125
G1 X9.6385
G2 X9.6367 Y1.624 J0.0045
G3 X9.7344 Y1.678 I-0.2764 J0.6148
X9.8207 Y1.7489 I-0.315 J0.4722
G1 X10.5207 Y2.4489
G3 X10.7015 Y2.8852 I-0.4364 J0.4364
G1 Y5.4852
G3 X10.5207 Y5.9216 I-0.6171
G1 X9.9513 Y6.4887
G3 X9.8916 Y6.4957 I-0.0343 J-0.0344
G2 X9.8348 Y6.5153 I-0.0204 J0.0331
X9.8317 Y6.5325 I0.0466 J0.0173
G1 Y6.8149
G2 X9.8444 Y6.8277 I0.0128
G1 X10.9399
G2 X10.9527 Y6.8149 J-0.0128
G1 Y1.5601
G2 X10.9399 Y1.5473 I-0.0128
G1 X9.3462
G2 X9.3336 Y1.56 J0.0126
G1 Y1.6251
G2 X9.3463 Y1.6379 I0.0128
X9.3653 Y1.6373 J-0.3043
G3 X9.3843 Y1.6367 I0.019 J0.3037
X9.7726 Y1.7969 J0.5506
G1 X10.4726 Y2.4969
G3 X10.6335 Y2.8852 I-0.3883 J0.3883
G1 Y5.4852
G3 X10.4726 Y5.8735 I-0.5491
G1 X9.8462 Y6.4974
G2 X9.8348 Y6.5153 I0.0352 J0.0352
G3 X9.7777 Y6.5729 I-0.0919 J-0.034
G2 X9.7316 Y6.6396 I0.0254 J0.0668
G1 Y6.9149
G2 X9.7444 Y6.9277 I0.0128
G1 X11.0399
G2 X11.0527 Y6.9149 J-0.0128
G1 Y1.4601
G2 X11.0399 Y1.4473 I-0.0128
G1 X9.2461
G2 X9.2335 Y1.4599 J0.0126
G1 Y1.7251
G2 X9.2463 Y1.7379 I0.0128
X9.3153 Y1.737 J-2.6464
G3 X9.3843 Y1.7361 I0.069 J2.6455
X9.7019 Y1.8677 J0.4491
G1 X10.4019 Y2.5677
G3 X10.5334 Y2.8852 I-0.3176 J0.3176
G1 Y5.4852
G3 X10.4019 Y5.8028 I-0.4491
G1 X9.7462 Y6.456
G2 X9.7316 Y6.4911 I0.0352 J0.0352
G1 Y6.6396
G3 X9.6816 Y6.7147 I-0.0813
G2 X9.6316 Y6.7897 I0.0313 J0.075
G1 Y7.0149
G2 X9.6444 Y7.0277 I0.0128
G1 X11.1399
G2 X11.1527 Y7.0149 J-0.0128
G1 Y1.3601
G2 X11.1399 Y1.3473 I-0.0128
G1 X9.1461
G2 X9.1335 Y1.3599 J0.0126
G1 Y1.8252
G2 X9.1463 Y1.8379 I0.0128
X9.2653 Y1.837 J-7.871
G3 X9.3843 Y1.8361 I0.119 J7.8701
X9.6312 Y1.9384 J0.3491
G1 X10.3312 Y2.6384
G3 X10.4334 Y2.8852 I-0.2468 J0.2468
G1 Y5.4852
G3 X10.3312 Y5.7321 I-0.3491
G1 X9.6461 Y6.4146
G2 X9.6316 Y6.4496 I0.0351 J0.0351
G1 Y6.7897
G3 X9.5817 Y6.8643 I-0.0808
G2 X9.5319 Y6.9389 I0.0311 J0.0748
G1 X9.5316 Y7.115
G2 X9.5444 Y7.1277 I0.0128
G1 X11.24
G2 X11.2527 Y7.115 J-0.0128
G1 Y1.26
G2 X11.24 Y1.2473 I-0.0128
G1 X9.0461
G2 X9.0335 Y1.2599 J0.0126
G1 Y1.9252
G2 X9.0463 Y1.938 I0.0128
G1 X9.3843 Y1.9362
G3 X9.5604 Y2.0091 J0.2491
G1 X10.2604 Y2.7091
G3 X10.3334 Y2.8852 I-0.1761 J0.1761
G1 Y5.4852
G3 X10.2604 Y5.6613 I-0.2491
G1 X9.5598 Y6.3607
G3 X9.5499 Y6.3695 I-0.0809 J-0.0809
G1 X9.5378 Y6.3791
G2 X9.5294 Y6.3994 I0.014 J0.0177
X9.5316 Y6.4173 I2.8904 J-0.3421
G3 X9.5327 Y6.4352 I-0.144 J0.0179
G1 X9.5319 Y6.9389
G3 X9.4819 Y7.0136 I-0.081 J-0.0001
G2 X9.4318 Y7.0883 I0.031 J0.0749
G1 X9.4316 Y7.2153
G2 X9.4441 Y7.2278 I0.0125
G1 X11.3403
G2 X11.3528 Y7.2153 J-0.0125
G1 Y1.1597
G2 X11.3403 Y1.1472 I-0.0125
G1 X8.9458
G2 X8.9334 Y1.1596 J0.0124
G1 Y2.0255
G2 X8.946 Y2.038 I0.0125
G1 X9.3843 Y2.0362
G3 X9.4897 Y2.0799 J0.149
G1 X10.1897 Y2.7799
G3 X10.2333 Y2.8852 I-0.1054 J0.1054
G1 Y5.4852
G3 X10.1897 Y5.5906 I-0.149
G1 X9.4897 Y6.2906
G3 X9.4547 Y6.3155 I-0.0922 J-0.0923
X9.4141 Y6.3294 I-0.0753 J-0.154
G2 X9.4082 Y6.3421 I0.0018 J0.0085
G3 X9.4265 Y6.3871 I-0.2031 J0.109
X9.4333 Y6.4352 I-0.1667 J0.0481
G1 X9.4318 Y7.0883
G3 X9.3893 Y7.152 I-0.0692 J-0.0002
G2 X9.3468 Y7.2156 I0.0264 J0.0637
G1 Y7.3125
X11.4375
Y1.0625
X8.8487
Y2.1227
X9.3843
G3 X9.4285 Y2.141 J0.0625
G1 X10.1285 Y2.841
G3 X10.1468 Y2.8852 I-0.0442 J0.0442
G1 Y5.4852
G3 X10.1285 Y5.5294 I-0.0625
G1 X9.4285 Y6.2294
G3 X9.3843 Y6.2477 I-0.0442 J-0.0442
G1 X8.8468
Y6.3227
X9.2343
G3 X9.3468 Y6.4352 J0.1125
G1 Y7.2156
G2 X9.3595 Y7.2221 I0.008
G1 X10.5185 Y6.3899
G2 X10.5155 Y6.3756 I-0.0047 J-0.0065
G1 Z-0.1375
G2 X10.5146 Y6.3755 Z-0.1423 I-0.0027 J0.0122
X10.5119 Y6.3754 Z-0.1463 I-0.0017 J0.0124
X10.5079 Y6.3763 Z-0.149 I0.001 J0.0125
X10.504 Y6.379 Z-0.15 I0.0049 J0.0115
G1 X10.4469 Y6.4361
G2 X10.4511 Y6.4463 I0.0042 J0.0042
G1 X10.5585
G2 X10.5713 Y6.4335 J-0.0128
G1 Y6.3261
G2 X10.5611 Y6.3219 I-0.006
G1 X10.504 Y6.379
G3 X10.4331 Y6.3932 I-0.0461 J-0.0461
G2 X10.3621 Y6.4074 I-0.0248 J0.0603
G1 X10.2531 Y6.5164
G2 X10.2574 Y6.5265 I0.0042 J0.0042
G1 X10.6387
G2 X10.6515 Y6.5137 J-0.0128
G1 Y6.1324
G2 X10.6414 Y6.1281 I-0.006
G1 X10.3621 Y6.4074
G3 X10.2918 Y6.4213 I-0.0456 J-0.0456
G2 X10.2214 Y6.4353 I-0.0247 J0.0598
G1 X10.0594 Y6.5966
G2 X10.0636 Y6.6068 I0.0042 J0.0042
G1 X10.719
G2 X10.7318 Y6.594 J-0.0128
G1 Y5.916
G2 X10.7224 Y5.9131 I-0.0051
G3 X10.6784 Y5.9737 I-0.8474 J-0.5683
X10.6288 Y6.0297 I-0.4861 J-0.3805
G1 X10.2214 Y6.4353
G2 X10.2188 Y6.4392 Z-0.149 I0.0088 J0.0088
X10.2178 Y6.4431 Z-0.1463 I0.0115 J0.0049
X10.2179 Y6.4458 Z-0.1423 I0.0125 J0.001
X10.2181 Y6.4468 Z-0.1375 I0.0124 J-0.0017
G0 Z0.2
X10.5029 Y1.9822
G1 Z0 F40.38
Z-0.1375
G2 X10.5027 Y1.9832 Z-0.1423 I0.0122 J0.0027
X10.5026 Y1.9859 Z-0.1463 I0.0124 J0.0017
X10.5036 Y1.9898 Z-0.149 I0.0125 J-0.001
X10.5063 Y1.9937 Z-0.15 I0.0115 J-0.0049
G1 X10.5611 Y2.0486
G2 X10.5713 Y2.0443 I0.0042 J-0.0042
G1 Y1.9415
G2 X10.5585 Y1.9287 I-0.0128
G1 X10.4557
G2 X10.4514 Y1.9389 J0.006
G1 X10.5063 Y1.9937
G3 X10.5205 Y2.0647 I-0.0461 J0.0461
G2 X10.5346 Y2.1356 I0.0603 J0.0248
G1 X10.6414 Y2.2423
G2 X10.6515 Y2.2381 I0.0042 J-0.0042
G1 Y1.8613
G2 X10.6387 Y1.8485 I-0.0128
G1 X10.2619
G2 X10.2577 Y1.8586 J0.006
G1 X10.5346 Y2.1356
G3 X10.5487 Y2.2053 I-0.0454 J0.0454
G2 X10.5627 Y2.275 I0.0592 J0.0243
G1 X10.6288 Y2.3407
G3 X10.6784 Y2.3968 I-0.4365 J0.4365
X10.7224 Y2.4573 I-0.8035 J0.6289
G2 X10.7318 Y2.4545 I0.0043 J-0.0029
G1 Y1.781
G2 X10.719 Y1.7682 I-0.0128
G1 X10.0681
G2 X10.0639 Y1.7784 J0.006
G1 X10.5627 Y2.275
G3 X10.5762 Y2.3397 I-0.0424 J0.0426
G2 X10.5888 Y2.4047 I0.057 J0.0227
G3 X10.781 Y2.8852 I-0.5044 J0.4805
G1 Y5.4852
G3 X10.5769 Y5.9779 I-0.6967
G1 X9.9938 Y6.5585
G2 X9.9792 Y6.5937 I0.0352 J0.0352
G1 Y6.6674
G2 X9.992 Y6.6801 I0.0128
G1 X10.7924
G2 X10.8051 Y6.6674 J-0.0128
G1 Y1.7076
G2 X10.7924 Y1.6949 I-0.0128
G1 X9.891
G2 X9.8868 Y1.705 J0.006
G1 X10.5769 Y2.3926
G3 X10.5888 Y2.4047 I-0.4926 J0.4926
X10.6003 Y2.4786 I-0.0475 J0.0453
G2 X10.6046 Y2.5533 I0.069 J0.0335
G3 X10.7015 Y2.8852 I-0.5203 J0.3319
G1 Y5.4852
G3 X10.5207 Y5.9216 I-0.6171
G1 X9.914 Y6.5259
G2 X9.8997 Y6.5603 I0.0345 J0.0345
G1 Y6.7471
G2 X9.9122 Y6.7596 I0.0125
G1 X10.8721
G2 X10.8846 Y6.7471 J-0.0125
G1 Y1.6279
G2 X10.8721 Y1.6154 I-0.0125
G1 X9.6385
G2 X9.6367 Y1.624 J0.0045
G3 X9.7344 Y1.678 I-0.2764 J0.6148
X9.8207 Y1.7489 I-0.315 J0.4722
G1 X10.5207 Y2.4489
G3 X10.6046 Y2.5533 I-0.4364 J0.4364
X10.6022 Y2.6172 I-0.0473 J0.0302
G2 X10.5939 Y2.6805 I0.0521 J0.0391
G3 X10.6335 Y2.8852 I-0.5095 J0.2048
G1 Y5.4852
G3 X10.4726 Y5.8735 I-0.5491
G1 X9.8462 Y6.4974
G2 X9.8317 Y6.5325 I0.0352 J0.0352
G1 Y6.8149
G2 X9.8444 Y6.8277 I0.0128
G1 X10.9399
G2 X10.9527 Y6.8149 J-0.0128
G1 Y1.5601
G2 X10.9399 Y1.5473 I-0.0128
G1 X9.3462
G2 X9.3336 Y1.56 J0.0126
G1 Y1.6251
G2 X9.3463 Y1.6379 I0.0128
X9.3653 Y1.6373 J-0.3043
G3 X9.3843 Y1.6367 I0.019 J0.3037
X9.7726 Y1.7969 J0.5506
G1 X10.4726 Y2.4969
G3 X10.5939 Y2.6805 I-0.3883 J0.3883
X10.5711 Y2.7746 I-0.0774 J0.0311
G2 X10.5329 Y2.8637 I0.0725 J0.0837
G3 X10.5334 Y2.8852 I-0.4486 J0.0216
G1 Y5.4852
G3 X10.4019 Y5.8028 I-0.4491
G1 X9.7462 Y6.456
G2 X9.7316 Y6.4911 I0.0352 J0.0352
G1 Y6.9149
G2 X9.7444 Y6.9277 I0.0128
G1 X11.0399
G2 X11.0527 Y6.9149 J-0.0128
G1 Y1.4601
G2 X11.0399 Y1.4473 I-0.0128
G1 X9.2461
G2 X9.2335 Y1.4599 J0.0126
G1 Y1.7251
G2 X9.2463 Y1.7379 I0.0128
X9.3153 Y1.737 J-2.6464
G3 X9.3843 Y1.7361 I0.069 J2.6455
X9.7019 Y1.8677 J0.4491
G1 X10.4019 Y2.5677
G3 X10.5329 Y2.8637 I-0.3176 J0.3176
X10.4841 Y2.9417 I-0.0806 J0.0039
G2 X10.4334 Y3.0185 I0.0329 J0.0768
G1 Y5.4852
G3 X10.3312 Y5.7321 I-0.3491
G1 X9.6461 Y6.4146
G2 X9.6316 Y6.4496 I0.0351 J0.0351
G1 Y7.0149
G2 X9.6444 Y7.0277 I0.0128
G1 X11.1399
G2 X11.1527 Y7.0149 J-0.0128
G1 Y1.3601
G2 X11.1399 Y1.3473 I-0.0128
G1 X9.1461
G2 X9.1335 Y1.3599 J0.0126
G1 Y1.8252
G2 X9.1463 Y1.8379 I0.0128
X9.2653 Y1.837 J-7.871
G3 X9.3843 Y1.8361 I0.119 J7.8701
X9.6312 Y1.9384 J0.3491
G1 X10.3312 Y2.6384
G3 X10.4334 Y2.8852 I-0.2468 J0.2468
G1 Y3.0185
G3 X10.3834 Y3.0935 I-0.0813
G2 X10.3334 Y3.1685 I0.0313 J0.075
G1 Y5.4852
G3 X10.2604 Y5.6613 I-0.2491
G1 X9.5598 Y6.3607
G3 X9.5499 Y6.3695 I-0.0809 J-0.0809
G1 X9.5378 Y6.3791
G2 X9.5294 Y6.3994 I0.014 J0.0177
X9.5316 Y6.4173 I2.8904 J-0.3421
G3 X9.5327 Y6.4352 I-0.144 J0.0179
G1 X9.5316 Y7.115
G2 X9.5444 Y7.1277 I0.0128
G1 X11.24
G2 X11.2527 Y7.115 J-0.0128
G1 Y1.26
G2 X11.24 Y1.2473 I-0.0128
G1 X9.0461
G2 X9.0335 Y1.2599 J0.0126
G1 Y1.9252
G2 X9.0463 Y1.938 I0.0128
G1 X9.3843 Y1.9362
G3 X9.5604 Y2.0091 J0.2491
G1 X10.2604 Y2.7091
G3 X10.3334 Y2.8852 I-0.1761 J0.1761
G1 Y3.1685
G3 X10.2834 Y3.2436 I-0.0813
G2 X10.2333 Y3.3186 I0.0313 J0.0751
G1 Y5.4852
G3 X10.1897 Y5.5906 I-0.149
G1 X9.4897 Y6.2906
G3 X9.4547 Y6.3155 I-0.0922 J-0.0923
X9.4141 Y6.3294 I-0.0753 J-0.154
G2 X9.4082 Y6.3421 I0.0018 J0.0085
G3 X9.4265 Y6.3871 I-0.2031 J0.109
X9.4333 Y6.4352 I-0.1667 J0.0481
G1 X9.4316 Y7.2153
G2 X9.4441 Y7.2278 I0.0125
G1 X11.3403
G2 X11.3528 Y7.2153 J-0.0125
G1 Y1.1597
G2 X11.3403 Y1.1472 I-0.0125
G1 X8.9458
G2 X8.9334 Y1.1596 J0.0124
G1 Y2.0255
G2 X8.946 Y2.038 I0.0125
G1 X9.3843 Y2.0362
G3 X9.4897 Y2.0799 J0.149
G1 X10.1897 Y2.7799
G3 X10.2333 Y2.8852 I-0.1054 J0.1054
G1 Y3.3186
G3 X10.1901 Y3.3835 I-0.0703
G2 X10.1468 Y3.4484 I0.027 J0.0649
G1 Y5.4852
G3 X10.1285 Y5.5294 I-0.0625
G1 X9.4285 Y6.2294
G3 X9.3843 Y6.2477 I-0.0442 J-0.0442
G1 X8.8468
Y6.3227
X9.2343
G3 X9.3468 Y6.4352 J0.1125
G1 Y7.3125
X11.4375
Y1.0625
X8.8487
Y2.1227
X9.3843
G3 X9.4285 Y2.141 J0.0625
G1 X10.1285 Y2.841
G3 X10.1468 Y2.8852 I-0.0442 J0.0442
G1 Y3.4484
G2 X10.1626 Y3.4501 I0.008
G1 X10.4873 Y1.9788
G3 X10.4968 Y1.9727 I0.0078 J0.0017
X10.5029 Y1.9822 I-0.0017 J0.0078
G1 Z-0.1725
G2 X10.5027 Y1.9832 Z-0.1773 I0.0122 J0.0027
X10.5026 Y1.9859 Z-0.1813 I0.0124 J0.0017
X10.5036 Y1.9898 Z-0.184 I0.0125 J-0.001
X10.5063 Y1.9937 Z-0.185 I0.0115 J-0.0049
G1 X10.5611 Y2.0486
G2 X10.5713 Y2.0443 I0.0042 J-0.0042
G1 Y1.9415
G2 X10.5585 Y1.9287 I-0.0128
G1 X10.4557
G2 X10.4514 Y1.9389 J0.006
G1 X10.5063 Y1.9937
G3 X10.5205 Y2.0647 I-0.0461 J0.0461
G2 X10.5346 Y2.1356 I0.0603 J0.0248
G1 X10.6414 Y2.2423
G2 X10.6515 Y2.2381 I0.0042 J-0.0042
G1 Y1.8613
G2 X10.6387 Y1.8485 I-0.0128
G1 X10.2619
G2 X10.2577 Y1.8586 J0.006
G1 X10.5346 Y2.1356
G3 X10.5487 Y2.2053 I-0.0454 J0.0454
G2 X10.5627 Y2.275 I0.0592 J0.0243
G1 X10.6288 Y2.3407
G3 X10.6784 Y2.3968 I-0.4365 J0.4365
X10.7224 Y2.4573 I-0.8035 J0.6289
G2 X10.7318 Y2.4545 I0.0043 J-0.0029
G1 Y1.781
G2 X10.719 Y1.7682 I-0.0128
G1 X10.0681
G2 X10.0639 Y1.7784 J0.006
G1 X10.5627 Y2.275
G2 X10.5667 Y2.2776 Z-0.184 I0.0088 J-0.0088
X10.5706 Y2.2786 Z-0.1813 I0.0049 J-0.0115
X10.5733 Y2.2785 Z-0.1773 I0.001 J-0.0125
X10.5742 Y2.2783 Z-0.1725 I-0.0017 J-0.0124
G0 Z0.2
X10.5155 Y6.3756
G1 Z-0.05 F40.38
Z-0.1725
G2 X10.5146 Y6.3755 Z-0.1773 I-0.0027 J0.0122
X10.5119 Y6.3754 Z-0.1813 I-0.0017 J0.0124
X10.5079 Y6.3763 Z-0.184 I0.001 J0.0125
X10.504 Y6.379 Z-0.185 I0.0049 J0.0115
G1 X10.4469 Y6.4361
G2 X10.4511 Y6.4463 I0.0042 J0.0042
G1 X10.5585
G2 X10.5713 Y6.4335 J-0.0128
G1 Y6.3261
G2 X10.5611 Y6.3219 I-0.006
G1 X10.504 Y6.379
G3 X10.4331 Y6.3932 I-0.0461 J-0.0461
G2 X10.3621 Y6.4074 I-0.0248 J0.0603
G1 X10.2531 Y6.5164
G2 X10.2574 Y6.5265 I0.0042 J0.0042
G1 X10.6387
G2 X10.6515 Y6.5137 J-0.0128
G1 Y6.1324
G2 X10.6414 Y6.1281 I-0.006
G1 X10.3621 Y6.4074
G3 X10.2918 Y6.4213 I-0.0456 J-0.0456
G2 X10.2214 Y6.4353 I-0.0247 J0.0598
G1 X10.0594 Y6.5966
G2 X10.0636 Y6.6068 I0.0042 J0.0042
G1 X10.719
G2 X10.7318 Y6.594 J-0.0128
G1 Y5.916
G2 X10.7224 Y5.9131 I-0.0051
G3 X10.6784 Y5.9737 I-0.8474 J-0.5683
X10.6288 Y6.0297 I-0.4861 J-0.3805
G1 X10.2214 Y6.4353
G3 X10.1566 Y6.4481 I-0.042 J-0.0422
G2 X10.0918 Y6.4609 I-0.0228 J0.055
G1 X9.9938 Y6.5585
G2 X9.9792 Y6.5937 I0.0352 J0.0352
G1 Y6.6674
G2 X9.992 Y6.6801 I0.0128
G1 X10.7924
G2 X10.8051 Y6.6674 J-0.0128
G1 Y1.7076
G2 X10.7924 Y1.6949 I-0.0128
G1 X9.891
G2 X9.8868 Y1.705 J0.006
G1 X10.5769 Y2.3926
G3 X10.781 Y2.8852 I-0.4926 J0.4926
G1 Y5.4852
G3 X10.5769 Y5.9779 I-0.6967
G1 X10.0918 Y6.4609
G3 X10.0215 Y6.4748 I-0.0455 J-0.0457
G2 X9.9513 Y6.4887 I-0.0247 J0.0596
G1 X9.914 Y6.5259
G2 X9.8997 Y6.5603 I0.0345 J0.0345
G1 Y6.7471
G2 X9.9122 Y6.7596 I0.0125
G1 X10.8721
G2 X10.8846 Y6.7471 J-0.0125
G1 Y1.6279
G2 X10.8721 Y1.6154 I-0.0125
G1 X9.6385
G2 X9.6367 Y1.624 J0.0045
G3 X9.7344 Y1.678 I-0.2764 J0.6148
X9.8207 Y1.7489 I-0.315 J0.4722
G1 X10.5207 Y2.4489
G3 X10.7015 Y2.8852 I-0.4364 J0.4364
G1 Y5.4852
G3 X10.5207 Y5.9216 I-0.6171
G1 X9.9513 Y6.4887
G3 X9.8916 Y6.4957 I-0.0343 J-0.0344
G2 X9.8348 Y6.5153 I-0.0204 J0.0331
X9.8317 Y6.5325 I0.0466 J0.0173
G1 Y6.8149
G2 X9.8444 Y6.8277 I0.0128
G1 X10.9399
G2 X10.9527 Y6.8149 J-0.0128
G1 Y1.5601
G2 X10.9399 Y1.5473 I-0.0128
G1 X9.3462
G2 X9.3336 Y1.56 J0.0126
G1 Y1.6251
G2 X9.3463 Y1.6379 I0.0128
X9.3653 Y1.6373 J-0.3043
G3 X9.3843 Y1.6367 I0.019 J0.3037
X9.7726 Y1.7969 J0.5506
G1 X10.4726 Y2.4969
G3 X10.6335 Y2.8852 I-0.3883 J0.3883
G1 Y5.4852
G3 X10.4726 Y5.8735 I-0.5491
G1 X9.8462 Y6.4974
G2 X9.8348 Y6.5153 I0.0352 J0.0352
G3 X9.7777 Y6.5729 I-0.0919 J-0.034
G2 X9.7316 Y6.6396 I0.0254 J0.0668
G1 Y6.9149
G2 X9.7444 Y6.9277 I0.0128
G1 X11.0399
G2 X11.0527 Y6.9149 J-0.0128
G1 Y1.4601
G2 X11.0399 Y1.4473 I-0.0128
G1 X9.2461
G2 X9.2335 Y1.4599 J0.0126
G1 Y1.7251
G2 X9.2463 Y1.7379 I0.0128
X9.3153 Y1.737 J-2.6464
G3 X9.3843 Y1.7361 I0.069 J2.6455
X9.7019 Y1.8677 J0.4491
G1 X10.4019 Y2.5677
G3 X10.5334 Y2.8852 I-0.3176 J0.3176
G1 Y5.4852
G3 X10.4019 Y5.8028 I-0.4491
G1 X9.7462 Y6.456
G2 X9.7316 Y6.4911 I0.0352 J0.0352
G1 Y6.6396
G3 X9.6816 Y6.7147 I-0.0813
G2 X9.6316 Y6.7897 I0.0313 J0.075
G1 Y7.0149
G2 X9.6444 Y7.0277 I0.0128
G1 X11.1399
G2 X11.1527 Y7.0149 J-0.0128
G1 Y1.3601
G2 X11.1399 Y1.3473 I-0.0128
G1 X9.1461
G2 X9.1335 Y1.3599 J0.0126
G1 Y1.8252
G2 X9.1463 Y1.8379 I0.0128
X9.2653 Y1.837 J-7.871
G3 X9.3843 Y1.8361 I0.119 J7.8701
X9.6312 Y1.9384 J0.3491
G1 X10.3312 Y2.6384
G3 X10.4334 Y2.8852 I-0.2468 J0.2468
G1 Y5.4852
G3 X10.3312 Y5.7321 I-0.3491
G1 X9.6461 Y6.4146
G2 X9.6316 Y6.4496 I0.0351 J0.0351
G1 Y6.7897
G3 X9.5817 Y6.8643 I-0.0808
G2 X9.5319 Y6.9389 I0.0311 J0.0748
G1 X9.5316 Y7.115
G2 X9.5444 Y7.1277 I0.0128
G1 X11.24
G2 X11.2527 Y7.115 J-0.0128
G1 Y1.26
G2 X11.24 Y1.2473 I-0.0128
G1 X9.0461
G2 X9.0335 Y1.2599 J0.0126
G1 Y1.9252
G2 X9.0463 Y1.938 I0.0128
G1 X9.3843 Y1.9362
G3 X9.5604 Y2.0091 J0.2491
G1 X10.2604 Y2.7091
G3 X10.3334 Y2.8852 I-0.1761 J0.1761
G1 Y5.4852
G3 X10.2604 Y5.6613 I-0.2491
G1 X9.5598 Y6.3607
G3 X9.5499 Y6.3695 I-0.0809 J-0.0809
G1 X9.5378 Y6.3791
G2 X9.5294 Y6.3994 I0.014 J0.0177
X9.5316 Y6.4173 I2.8904 J-0.3421
G3 X9.5327 Y6.4352 I-0.144 J0.0179
G1 X9.5319 Y6.9389
G3 X9.4819 Y7.0136 I-0.081 J-0.0001
G2 X9.4318 Y7.0883 I0.031 J0.0749
G1 X9.4316 Y7.2153
G2 X9.4441 Y7.2278 I0.0125
G1 X11.3403
G2 X11.3528 Y7.2153 J-0.0125
G1 Y1.1597
G2 X11.3403 Y1.1472 I-0.0125
G1 X8.9458
G2 X8.9334 Y1.1596 J0.0124
G1 Y2.0255
G2 X8.946 Y2.038 I0.0125
G1 X9.3843 Y2.0362
G3 X9.4897 Y2.0799 J0.149
G1 X10.1897 Y2.7799
G3 X10.2333 Y2.8852 I-0.1054 J0.1054
G1 Y5.4852
G3 X10.1897 Y5.5906 I-0.149
G1 X9.4897 Y6.2906
G3 X9.4547 Y6.3155 I-0.0922 J-0.0923
X9.4141 Y6.3294 I-0.0753 J-0.154
G2 X9.4082 Y6.3421 I0.0018 J0.0085
G3 X9.4265 Y6.3871 I-0.2031 J0.109
X9.4333 Y6.4352 I-0.1667 J0.0481
G1 X9.4318 Y7.0883
G3 X9.3893 Y7.152 I-0.0692 J-0.0002
G2 X9.3468 Y7.2156 I0.0264 J0.0637
G1 Y7.3125
X11.4375
Y1.0625
X8.8487
Y2.1227
X9.3843
G3 X9.4285 Y2.141 J0.0625
G1 X10.1285 Y2.841
G3 X10.1468 Y2.8852 I-0.0442 J0.0442
G1 Y5.4852
G3 X10.1285 Y5.5294 I-0.0625
G1 X9.4285 Y6.2294
G3 X9.3843 Y6.2477 I-0.0442 J-0.0442
G1 X8.8468
Y6.3227
X9.2343
G3 X9.3468 Y6.4352 J0.1125
G1 Y7.2156
G2 X9.3477 Y7.2203 Z-0.184 I0.0125
X9.3498 Y7.2237 Z-0.1813 I0.0116 J-0.0047
X9.3518 Y7.2256 Z-0.1773 I0.0095 J-0.0081
X9.3526 Y7.2261 Z-0.1725 I0.0075 J-0.01
G0 Z0.6
M9
M30
%
