%
(InsertMonogram_part1)
(T1  D=0.125 CR=0 - ZMIN=-0.185 - flat end mill)
G90 G94
G17
G20

(2D Pocket4)
M9
T1 M6
S11028 M3
G54
M8
G0 X6.6675 Y6.793
Z0.6
Z0.2
G1 Z0.1 F40.38
Z-0.0275
G2 X6.668 Y6.7938 Z-0.0323 I0.0105 J-0.0068
X6.6699 Y6.7958 Z-0.0363 I0.01 J-0.0075
X6.6733 Y6.7979 Z-0.039 I0.0081 J-0.0095
X6.678 Y6.7988 Z-0.04 I0.0047 J-0.0116
G1 X6.6953
G2 X6.7081 Y6.786 J-0.0128
G1 Y6.7514
G2 X6.6953 Y6.7386 I-0.0128
G1 X6.2558
G2 X6.2311 Y6.7527 J0.0286
G1 X6.2105 Y6.7877
G2 X6.2168 Y6.7988 I0.0063 J0.0037
G1 X6.678
G3 X6.7315 Y6.8353 J0.0575
G2 X6.7953 Y6.8233 I0.0307 J-0.012
G1 Y6.6642
G2 X6.7825 Y6.6514 I-0.0128
G1 X6.2059
G2 X6.1813 Y6.6655 J0.0286
G1 X6.058 Y6.8749
G2 X6.0643 Y6.8859 I0.0063 J0.0037
G1 X6.7825
G2 X6.7953 Y6.8732 J-0.0128
G1 Y6.8233
G3 X6.8389 Y6.758 I0.0708
G2 X6.8824 Y6.6926 I-0.0272 J-0.0654
G1 Y6.577
G2 X6.8697 Y6.5643 I-0.0128
G1 X6.1561
G2 X6.1314 Y6.5784 J0.0286
G1 X5.9054 Y6.962
G2 X5.9118 Y6.9731 I0.0063 J0.0037
G1 X6.8697
G2 X6.8824 Y6.9603 J-0.0128
G1 Y6.6926
G3 X6.926 Y6.6272 I0.0708
G2 X6.9696 Y6.5618 I-0.0272 J-0.0654
G1 Y6.4899
G2 X6.9568 Y6.4771 I-0.0128
G1 X6.1063
G2 X6.0816 Y6.4912 J0.0286
G1 X5.7529 Y7.0492
G2 X5.7592 Y7.0603 I0.0063 J0.0037
G1 X6.9568
G2 X6.9696 Y7.0475 J-0.0128
G1 Y6.5618
G3 X7.0124 Y6.4968 I0.0708
G2 X7.0558 Y6.4323 I-0.0285 J-0.0661
G3 X7.0568 Y6.4186 I0.1354 J0.0029
G2 X7.0588 Y6.4021 I-3.2178 J-0.3976
X7.0479 Y6.3899 I-0.0108 J-0.0013
G1 X6.0565
G2 X6.0318 Y6.404 J0.0286
G1 X5.6004 Y7.1364
G2 X5.6067 Y7.1475 I0.0063 J0.0037
G1 X7.044
G2 X7.0568 Y7.1347 J-0.0128
G1 X7.0558 Y6.4352
G3 Y6.4323 I0.1354
X7.1114 Y6.3627 I0.0734 J0.0016
G2 X7.1867 Y6.3151 I-0.0345 J-0.1379
G3 X7.1885 Y6.3129 I0.1565 J0.1286
G2 X7.1838 Y6.3027 I-0.0047 J-0.004
G1 X6.0063
G2 X5.9821 Y6.3165 J0.0281
G1 X5.4477 Y7.2238
G2 X5.4539 Y7.2346 I0.0062 J0.0037
G1 X7.1315
G2 X7.144 Y7.2221 J-0.0125
G1 X7.1422 Y6.4352
G3 X7.1545 Y6.37 I0.1794
X7.1867 Y6.3151 I0.1887 J0.0737
X7.2697 Y6.3005 I0.05 J0.0411
G2 X7.3509 Y6.3227 I0.0813 J-0.1371
G1 X7.7218
Y6.2249
X5.9458
X5.3051 Y7.3125
X7.2218
Y6.4352
G3 X7.3343 Y6.3227 I0.1125
G1 X7.3509
G2 X7.3523 Y6.3104 J-0.0063
G1 X7.3172 Y6.3024
G2 X7.312 Y6.3035 I-0.0014 J0.0061
G1 X6.7088 Y6.7641
X6.6699 Y6.7841
G2 X6.6675 Y6.793 I0.0028 J0.0056
G1 Z-0.0675
G2 X6.668 Y6.7938 Z-0.0723 I0.0105 J-0.0068
X6.6699 Y6.7958 Z-0.0763 I0.01 J-0.0075
X6.6733 Y6.7979 Z-0.079 I0.0081 J-0.0095
X6.678 Y6.7988 Z-0.08 I0.0047 J-0.0116
G1 X6.6953
G2 X6.7081 Y6.786 J-0.0128
G1 Y6.7514
G2 X6.6953 Y6.7386 I-0.0128
G1 X6.2558
G2 X6.2311 Y6.7527 J0.0286
G1 X6.2105 Y6.7877
G2 X6.2168 Y6.7988 I0.0063 J0.0037
G1 X6.678
G3 X6.7315 Y6.8353 J0.0575
G2 X6.7953 Y6.8233 I0.0307 J-0.012
G1 Y6.6642
G2 X6.7825 Y6.6514 I-0.0128
G1 X6.2059
G2 X6.1813 Y6.6655 J0.0286
G1 X6.058 Y6.8749
G2 X6.0643 Y6.8859 I0.0063 J0.0037
G1 X6.7825
G2 X6.7953 Y6.8732 J-0.0128
G1 Y6.8233
G3 X6.8389 Y6.758 I0.0708
G2 X6.8824 Y6.6926 I-0.0272 J-0.0654
G1 Y6.577
G2 X6.8697 Y6.5643 I-0.0128
G1 X6.1561
G2 X6.1314 Y6.5784 J0.0286
G1 X5.9054 Y6.962
G2 X5.9118 Y6.9731 I0.0063 J0.0037
G1 X6.8697
G2 X6.8824 Y6.9603 J-0.0128
G1 Y6.6926
G3 X6.926 Y6.6272 I0.0708
G2 X6.9696 Y6.5618 I-0.0272 J-0.0654
G1 Y6.4899
G2 X6.9568 Y6.4771 I-0.0128
G1 X6.1063
G2 X6.0816 Y6.4912 J0.0286
G1 X5.7529 Y7.0492
G2 X5.7592 Y7.0603 I0.0063 J0.0037
G1 X6.9568
G2 X6.9696 Y7.0475 J-0.0128
G1 Y6.5618
G3 X7.0124 Y6.4968 I0.0708
G2 X7.0558 Y6.4323 I-0.0285 J-0.0661
G3 X7.0568 Y6.4186 I0.1354 J0.0029
G2 X7.0588 Y6.4021 I-3.2178 J-0.3976
X7.0479 Y6.3899 I-0.0108 J-0.0013
G1 X6.0565
G2 X6.0318 Y6.404 J0.0286
G1 X5.6004 Y7.1364
G2 X5.6067 Y7.1475 I0.0063 J0.0037
G1 X7.044
G2 X7.0568 Y7.1347 J-0.0128
G1 X7.0558 Y6.4352
G3 Y6.4323 I0.1354
X7.1114 Y6.3627 I0.0734 J0.0016
G2 X7.1867 Y6.3151 I-0.0345 J-0.1379
G3 X7.1885 Y6.3129 I0.1565 J0.1286
G2 X7.1838 Y6.3027 I-0.0047 J-0.004
G1 X6.0063
G2 X5.9821 Y6.3165 J0.0281
G1 X5.4477 Y7.2238
G2 X5.4539 Y7.2346 I0.0062 J0.0037
G1 X7.1315
G2 X7.144 Y7.2221 J-0.0125
G1 X7.1422 Y6.4352
G3 X7.1545 Y6.37 I0.1794
X7.1867 Y6.3151 I0.1887 J0.0737
X7.2697 Y6.3005 I0.05 J0.0411
G2 X7.3509 Y6.3227 I0.0813 J-0.1371
G1 X7.7218
Y6.2249
X5.9458
X5.3051 Y7.3125
X7.2218
Y6.4352
G3 X7.3343 Y6.3227 I0.1125
G1 X7.3509
G2 X7.3523 Y6.3104 J-0.0063
G1 X7.3172 Y6.3024
G2 X7.312 Y6.3035 I-0.0014 J0.0061
G1 X6.7088 Y6.7641
X6.6699 Y6.7841
G2 X6.6675 Y6.793 I0.0028 J0.0056
G1 Z-0.1075
G2 X6.668 Y6.7938 Z-0.1123 I0.0105 J-0.0068
X6.6699 Y6.7958 Z-0.1163 I0.01 J-0.0075
X6.6733 Y6.7979 Z-0.119 I0.0081 J-0.0095
X6.678 Y6.7988 Z-0.12 I0.0047 J-0.0116
G1 X6.6953
G2 X6.7081 Y6.786 J-0.0128
G1 Y6.7514
G2 X6.6953 Y6.7386 I-0.0128
G1 X6.2558
G2 X6.2311 Y6.7527 J0.0286
G1 X6.2105 Y6.7877
G2 X6.2168 Y6.7988 I0.0063 J0.0037
G1 X6.678
G3 X6.7315 Y6.8353 J0.0575
G2 X6.7953 Y6.8233 I0.0307 J-0.012
G1 Y6.6642
G2 X6.7825 Y6.6514 I-0.0128
G1 X6.2059
G2 X6.1813 Y6.6655 J0.0286
G1 X6.058 Y6.8749
G2 X6.0643 Y6.8859 I0.0063 J0.0037
G1 X6.7825
G2 X6.7953 Y6.8732 J-0.0128
G1 Y6.8233
G3 X6.8389 Y6.758 I0.0708
G2 X6.8824 Y6.6926 I-0.0272 J-0.0654
G1 Y6.577
G2 X6.8697 Y6.5643 I-0.0128
G1 X6.1561
G2 X6.1314 Y6.5784 J0.0286
G1 X5.9054 Y6.962
G2 X5.9118 Y6.9731 I0.0063 J0.0037
G1 X6.8697
G2 X6.8824 Y6.9603 J-0.0128
G1 Y6.6926
G3 X6.926 Y6.6272 I0.0708
G2 X6.9696 Y6.5618 I-0.0272 J-0.0654
G1 Y6.4899
G2 X6.9568 Y6.4771 I-0.0128
G1 X6.1063
G2 X6.0816 Y6.4912 J0.0286
G1 X5.7529 Y7.0492
G2 X5.7592 Y7.0603 I0.0063 J0.0037
G1 X6.9568
G2 X6.9696 Y7.0475 J-0.0128
G1 Y6.5618
G3 X7.0124 Y6.4968 I0.0708
G2 X7.0558 Y6.4323 I-0.0285 J-0.0661
G3 X7.0568 Y6.4186 I0.1354 J0.0029
G2 X7.0588 Y6.4021 I-3.2178 J-0.3976
X7.0479 Y6.3899 I-0.0108 J-0.0013
G1 X6.0565
G2 X6.0318 Y6.404 J0.0286
G1 X5.6004 Y7.1364
G2 X5.6067 Y7.1475 I0.0063 J0.0037
G1 X7.044
G2 X7.0568 Y7.1347 J-0.0128
G1 X7.0558 Y6.4352
G3 Y6.4323 I0.1354
X7.1114 Y6.3627 I0.0734 J0.0016
G2 X7.1867 Y6.3151 I-0.0345 J-0.1379
G3 X7.1885 Y6.3129 I0.1565 J0.1286
G2 X7.1838 Y6.3027 I-0.0047 J-0.004
G1 X6.0063
G2 X5.9821 Y6.3165 J0.0281
G1 X5.4477 Y7.2238
G2 X5.4539 Y7.2346 I0.0062 J0.0037
G1 X7.1315
G2 X7.144 Y7.2221 J-0.0125
G1 X7.1422 Y6.4352
G3 X7.1545 Y6.37 I0.1794
X7.1867 Y6.3151 I0.1887 J0.0737
X7.2697 Y6.3005 I0.05 J0.0411
G2 X7.3509 Y6.3227 I0.0813 J-0.1371
G1 X7.7218
Y6.2249
X5.9458
X5.3051 Y7.3125
X7.2218
Y6.4352
G3 X7.3343 Y6.3227 I0.1125
G1 X7.3509
G2 X7.3523 Y6.3104 J-0.0063
G1 X7.3172 Y6.3024
G2 X7.312 Y6.3035 I-0.0014 J0.0061
G1 X6.7088 Y6.7641
X6.6699 Y6.7841
G2 X6.6675 Y6.793 I0.0028 J0.0056
G1 Z-0.1475
G2 X6.668 Y6.7938 Z-0.1523 I0.0105 J-0.0068
X6.6699 Y6.7958 Z-0.1563 I0.01 J-0.0075
X6.6733 Y6.7979 Z-0.159 I0.0081 J-0.0095
X6.678 Y6.7988 Z-0.16 I0.0047 J-0.0116
G1 X6.6953
G2 X6.7081 Y6.786 J-0.0128
G1 Y6.7514
G2 X6.6953 Y6.7386 I-0.0128
G1 X6.2558
G2 X6.2311 Y6.7527 J0.0286
G1 X6.2105 Y6.7877
G2 X6.2168 Y6.7988 I0.0063 J0.0037
G1 X6.678
G3 X6.7315 Y6.8353 J0.0575
G2 X6.7953 Y6.8233 I0.0307 J-0.012
G1 Y6.6642
G2 X6.7825 Y6.6514 I-0.0128
G1 X6.2059
G2 X6.1813 Y6.6655 J0.0286
G1 X6.058 Y6.8749
G2 X6.0643 Y6.8859 I0.0063 J0.0037
G1 X6.7825
G2 X6.7953 Y6.8732 J-0.0128
G1 Y6.8233
G3 X6.8389 Y6.758 I0.0708
G2 X6.8824 Y6.6926 I-0.0272 J-0.0654
G1 Y6.577
G2 X6.8697 Y6.5643 I-0.0128
G1 X6.1561
G2 X6.1314 Y6.5784 J0.0286
G1 X5.9054 Y6.962
G2 X5.9118 Y6.9731 I0.0063 J0.0037
G1 X6.8697
G2 X6.8824 Y6.9603 J-0.0128
G1 Y6.6926
G3 X6.926 Y6.6272 I0.0708
G2 X6.9696 Y6.5618 I-0.0272 J-0.0654
G1 Y6.4899
G2 X6.9568 Y6.4771 I-0.0128
G1 X6.1063
G2 X6.0816 Y6.4912 J0.0286
G1 X5.7529 Y7.0492
G2 X5.7592 Y7.0603 I0.0063 J0.0037
G1 X6.9568
G2 X6.9696 Y7.0475 J-0.0128
G1 Y6.5618
G3 X7.0124 Y6.4968 I0.0708
G2 X7.0558 Y6.4323 I-0.0285 J-0.0661
G3 X7.0568 Y6.4186 I0.1354 J0.0029
G2 X7.0588 Y6.4021 I-3.2178 J-0.3976
X7.0479 Y6.3899 I-0.0108 J-0.0013
G1 X6.0565
G2 X6.0318 Y6.404 J0.0286
G1 X5.6004 Y7.1364
G2 X5.6067 Y7.1475 I0.0063 J0.0037
G1 X7.044
G2 X7.0568 Y7.1347 J-0.0128
G1 X7.0558 Y6.4352
G3 Y6.4323 I0.1354
X7.1114 Y6.3627 I0.0734 J0.0016
G2 X7.1867 Y6.3151 I-0.0345 J-0.1379
G3 X7.1885 Y6.3129 I0.1565 J0.1286
G2 X7.1838 Y6.3027 I-0.0047 J-0.004
G1 X6.0063
G2 X5.9821 Y6.3165 J0.0281
G1 X5.4477 Y7.2238
G2 X5.4539 Y7.2346 I0.0062 J0.0037
G1 X7.1315
G2 X7.144 Y7.2221 J-0.0125
G1 X7.1422 Y6.4352
G3 X7.1545 Y6.37 I0.1794
X7.1867 Y6.3151 I0.1887 J0.0737
X7.2697 Y6.3005 I0.05 J0.0411
G2 X7.3509 Y6.3227 I0.0813 J-0.1371
G1 X7.7218
Y6.2249
X5.9458
X5.3051 Y7.3125
X7.2218
Y6.4352
G3 X7.3343 Y6.3227 I0.1125
G1 X7.3509
G2 X7.3523 Y6.3104 J-0.0063
G1 X7.3172 Y6.3024
G2 X7.312 Y6.3035 I-0.0014 J0.0061
G1 X6.7088 Y6.7641
X6.6699 Y6.7841
G2 X6.6675 Y6.793 I0.0028 J0.0056
G1 Z-0.1725
G2 X6.668 Y6.7938 Z-0.1773 I0.0105 J-0.0068
X6.6699 Y6.7958 Z-0.1813 I0.01 J-0.0075
X6.6733 Y6.7979 Z-0.184 I0.0081 J-0.0095
X6.678 Y6.7988 Z-0.185 I0.0047 J-0.0116
G1 X6.6953
G2 X6.7081 Y6.786 J-0.0128
G1 Y6.7514
G2 X6.6953 Y6.7386 I-0.0128
G1 X6.2558
G2 X6.2311 Y6.7527 J0.0286
G1 X6.2105 Y6.7877
G2 X6.2168 Y6.7988 I0.0063 J0.0037
G1 X6.678
G3 X6.7315 Y6.8353 J0.0575
G2 X6.7953 Y6.8233 I0.0307 J-0.012
G1 Y6.6642
G2 X6.7825 Y6.6514 I-0.0128
G1 X6.2059
G2 X6.1813 Y6.6655 J0.0286
G1 X6.058 Y6.8749
G2 X6.0643 Y6.8859 I0.0063 J0.0037
G1 X6.7825
G2 X6.7953 Y6.8732 J-0.0128
G1 Y6.8233
G3 X6.8389 Y6.758 I0.0708
G2 X6.8824 Y6.6926 I-0.0272 J-0.0654
G1 Y6.577
G2 X6.8697 Y6.5643 I-0.0128
G1 X6.1561
G2 X6.1314 Y6.5784 J0.0286
G1 X5.9054 Y6.962
G2 X5.9118 Y6.9731 I0.0063 J0.0037
G1 X6.8697
G2 X6.8824 Y6.9603 J-0.0128
G1 Y6.6926
G3 X6.926 Y6.6272 I0.0708
G2 X6.9696 Y6.5618 I-0.0272 J-0.0654
G1 Y6.4899
G2 X6.9568 Y6.4771 I-0.0128
G1 X6.1063
G2 X6.0816 Y6.4912 J0.0286
G1 X5.7529 Y7.0492
G2 X5.7592 Y7.0603 I0.0063 J0.0037
G1 X6.9568
G2 X6.9696 Y7.0475 J-0.0128
G1 Y6.5618
G3 X7.0124 Y6.4968 I0.0708
G2 X7.0558 Y6.4323 I-0.0285 J-0.0661
G3 X7.0568 Y6.4186 I0.1354 J0.0029
G2 X7.0588 Y6.4021 I-3.2178 J-0.3976
X7.0479 Y6.3899 I-0.0108 J-0.0013
G1 X6.0565
G2 X6.0318 Y6.404 J0.0286
G1 X5.6004 Y7.1364
G2 X5.6067 Y7.1475 I0.0063 J0.0037
G1 X7.044
G2 X7.0568 Y7.1347 J-0.0128
G1 X7.0558 Y6.4352
G3 Y6.4323 I0.1354
X7.1114 Y6.3627 I0.0734 J0.0016
G2 X7.1867 Y6.3151 I-0.0345 J-0.1379
G3 X7.1885 Y6.3129 I0.1565 J0.1286
G2 X7.1838 Y6.3027 I-0.0047 J-0.004
G1 X6.0063
G2 X5.9821 Y6.3165 J0.0281
G1 X5.4477 Y7.2238
G2 X5.4539 Y7.2346 I0.0062 J0.0037
G1 X7.1315
G2 X7.144 Y7.2221 J-0.0125
G1 X7.1422 Y6.4352
G3 X7.1545 Y6.37 I0.1794
X7.1867 Y6.3151 I0.1887 J0.0737
X7.2697 Y6.3005 I0.05 J0.0411
G2 X7.3509 Y6.3227 I0.0813 J-0.1371
G1 X7.7218
Y6.2249
X5.9458
X5.3051 Y7.3125
X7.2218
Y6.4352
G3 X7.3343 Y6.3227 I0.1125
G1 X7.3509
G2 X7.3556 Y6.3218 Z-0.184 J-0.0125
X7.3591 Y6.3197 Z-0.1813 I-0.0047 J-0.0116
X7.3609 Y6.3178 Z-0.1773 I-0.0081 J-0.0095
X7.3615 Y6.317 Z-0.1725 I-0.01 J-0.0075
G0 Z0.2
X6.4893 Y1.5861
G1 Z0.1 F40.38
Z-0.0275
G2 X6.4887 Y1.5853 Z-0.0323 I-0.0105 J0.0068
X6.4869 Y1.5833 Z-0.0363 I-0.01 J0.0075
X6.4834 Y1.5812 Z-0.039 I-0.0081 J0.0095
X6.4788 Y1.5803 Z-0.04 I-0.0047 J0.0116
Y1.6049 J0.0123
G1 X6.8528
G2 X6.8608 Y1.6004 J-0.0094
G1 X6.8663 Y1.5913
G2 X6.8601 Y1.5803 I-0.0062 J-0.0038
G1 X6.4788
G3 X6.4306 Y1.5564 J-0.0603
G2 X6.3797 Y1.5734 I-0.0226 J0.0171
G1 Y1.6789
G2 X6.3924 Y1.6917 I0.0128
G1 X6.8903
G2 X6.9154 Y1.6776 J-0.0294
G1 X7.0207 Y1.5045
G2 X7.0145 Y1.4935 I-0.0062 J-0.0038
G1 X6.3923
G2 X6.3797 Y1.5061 J0.0126
G1 Y1.5734
G3 X6.3363 Y1.6385 I-0.0705
G2 X6.2929 Y1.7036 I0.0271 J0.0651
G1 Y1.7657
G2 X6.3056 Y1.7785 I0.0128
G1 X6.9391
G2 X6.9642 Y1.7644 J-0.0294
G1 X7.1751 Y1.4177
G2 X7.1689 Y1.4067 I-0.0062 J-0.0038
G1 X6.3055
G2 X6.2929 Y1.4193 J0.0126
G1 Y1.7036
G3 X6.2495 Y1.7688 I-0.0705
G2 X6.2061 Y1.8339 I0.0271 J0.0651
G1 Y1.8525
G2 X6.2188 Y1.8653 I0.0128
G1 X6.9879
G2 X7.0131 Y1.8512 J-0.0294
G1 X7.3295 Y1.3309
G2 X7.3233 Y1.3199 I-0.0062 J-0.0038
G1 X6.2187
G2 X6.2061 Y1.3325 J0.0126
G1 Y1.8339
G3 X6.1685 Y1.8876 I-0.0572
G2 X6.1799 Y1.9521 I0.0114 J0.0313
G1 X7.0367
G2 X7.0619 Y1.938 J-0.0294
G1 X7.4838 Y1.2441
G2 X7.4776 Y1.2331 I-0.0062 J-0.0038
G1 X6.1319
G2 X6.1193 Y1.2457 J0.0126
G1 X6.1192 Y1.9396
G2 X6.1315 Y1.9521 I0.0123 J0.0002
G1 X6.1799
G3 X6.245 Y1.9955 J0.0705
G2 X6.3101 Y2.0389 I0.0651 J-0.0271
G1 X7.0859
G2 X7.1105 Y2.0251 J-0.0288
G1 X7.6384 Y1.1571
G2 X7.6323 Y1.1463 I-0.0061 J-0.0037
G1 X6.0448
G2 X6.0324 Y1.1587 J0.0124
G1 X6.0342 Y1.9352
G3 X6.0274 Y1.9832 I-0.1728
X6.0091 Y2.0281 I-0.2201 J-0.0636
G2 X6.0156 Y2.0389 I0.0065 J0.0035
G1 X6.3101
G3 X6.373 Y2.0808 J0.0681
G2 X6.4358 Y2.1227 I0.0629 J-0.0262
G1 X7.1492
X7.794 Y1.0625
X5.9486
Y1.9352
G3 X5.8361 Y2.0477 I-0.1125
G1 X5.4468
Y2.1227
X6.4358
G2 X6.4438 Y2.1154 J-0.008
G1 X6.4905 Y1.5911
G2 X6.4893 Y1.5861 I-0.008 J-0.0007
G1 Z-0.0675
G2 X6.4887 Y1.5853 Z-0.0723 I-0.0105 J0.0068
X6.4869 Y1.5833 Z-0.0763 I-0.01 J0.0075
X6.4834 Y1.5812 Z-0.079 I-0.0081 J0.0095
X6.4788 Y1.5803 Z-0.08 I-0.0047 J0.0116
Y1.6049 J0.0123
G1 X6.8528
G2 X6.8608 Y1.6004 J-0.0094
G1 X6.8663 Y1.5913
G2 X6.8601 Y1.5803 I-0.0062 J-0.0038
G1 X6.4788
G3 X6.4306 Y1.5564 J-0.0603
G2 X6.3797 Y1.5734 I-0.0226 J0.0171
G1 Y1.6789
G2 X6.3924 Y1.6917 I0.0128
G1 X6.8903
G2 X6.9154 Y1.6776 J-0.0294
G1 X7.0207 Y1.5045
G2 X7.0145 Y1.4935 I-0.0062 J-0.0038
G1 X6.3923
G2 X6.3797 Y1.5061 J0.0126
G1 Y1.5734
G3 X6.3363 Y1.6385 I-0.0705
G2 X6.2929 Y1.7036 I0.0271 J0.0651
G1 Y1.7657
G2 X6.3056 Y1.7785 I0.0128
G1 X6.9391
G2 X6.9642 Y1.7644 J-0.0294
G1 X7.1751 Y1.4177
G2 X7.1689 Y1.4067 I-0.0062 J-0.0038
G1 X6.3055
G2 X6.2929 Y1.4193 J0.0126
G1 Y1.7036
G3 X6.2495 Y1.7688 I-0.0705
G2 X6.2061 Y1.8339 I0.0271 J0.0651
G1 Y1.8525
G2 X6.2188 Y1.8653 I0.0128
G1 X6.9879
G2 X7.0131 Y1.8512 J-0.0294
G1 X7.3295 Y1.3309
G2 X7.3233 Y1.3199 I-0.0062 J-0.0038
G1 X6.2187
G2 X6.2061 Y1.3325 J0.0126
G1 Y1.8339
G3 X6.1685 Y1.8876 I-0.0572
G2 X6.1799 Y1.9521 I0.0114 J0.0313
G1 X7.0367
G2 X7.0619 Y1.938 J-0.0294
G1 X7.4838 Y1.2441
G2 X7.4776 Y1.2331 I-0.0062 J-0.0038
G1 X6.1319
G2 X6.1193 Y1.2457 J0.0126
G1 X6.1192 Y1.9396
G2 X6.1315 Y1.9521 I0.0123 J0.0002
G1 X6.1799
G3 X6.245 Y1.9955 J0.0705
G2 X6.3101 Y2.0389 I0.0651 J-0.0271
G1 X7.0859
G2 X7.1105 Y2.0251 J-0.0288
G1 X7.6384 Y1.1571
G2 X7.6323 Y1.1463 I-0.0061 J-0.0037
G1 X6.0448
G2 X6.0324 Y1.1587 J0.0124
G1 X6.0342 Y1.9352
G3 X6.0274 Y1.9832 I-0.1728
X6.0091 Y2.0281 I-0.2201 J-0.0636
G2 X6.0156 Y2.0389 I0.0065 J0.0035
G1 X6.3101
G3 X6.373 Y2.0808 J0.0681
G2 X6.4358 Y2.1227 I0.0629 J-0.0262
G1 X7.1492
X7.794 Y1.0625
X5.9486
Y1.9352
G3 X5.8361 Y2.0477 I-0.1125
G1 X5.4468
Y2.1227
X6.4358
G2 X6.4438 Y2.1154 J-0.008
G1 X6.4905 Y1.5911
G2 X6.4893 Y1.5861 I-0.008 J-0.0007
G1 Z-0.1075
G2 X6.4887 Y1.5853 Z-0.1123 I-0.0105 J0.0068
X6.4869 Y1.5833 Z-0.1163 I-0.01 J0.0075
X6.4834 Y1.5812 Z-0.119 I-0.0081 J0.0095
X6.4788 Y1.5803 Z-0.12 I-0.0047 J0.0116
Y1.6049 J0.0123
G1 X6.8528
G2 X6.8608 Y1.6004 J-0.0094
G1 X6.8663 Y1.5913
G2 X6.8601 Y1.5803 I-0.0062 J-0.0038
G1 X6.4788
G3 X6.4306 Y1.5564 J-0.0603
G2 X6.3797 Y1.5734 I-0.0226 J0.0171
G1 Y1.6789
G2 X6.3924 Y1.6917 I0.0128
G1 X6.8903
G2 X6.9154 Y1.6776 J-0.0294
G1 X7.0207 Y1.5045
G2 X7.0145 Y1.4935 I-0.0062 J-0.0038
G1 X6.3923
G2 X6.3797 Y1.5061 J0.0126
G1 Y1.5734
G3 X6.3363 Y1.6385 I-0.0705
G2 X6.2929 Y1.7036 I0.0271 J0.0651
G1 Y1.7657
G2 X6.3056 Y1.7785 I0.0128
G1 X6.9391
G2 X6.9642 Y1.7644 J-0.0294
G1 X7.1751 Y1.4177
G2 X7.1689 Y1.4067 I-0.0062 J-0.0038
G1 X6.3055
G2 X6.2929 Y1.4193 J0.0126
G1 Y1.7036
G3 X6.2495 Y1.7688 I-0.0705
G2 X6.2061 Y1.8339 I0.0271 J0.0651
G1 Y1.8525
G2 X6.2188 Y1.8653 I0.0128
G1 X6.9879
G2 X7.0131 Y1.8512 J-0.0294
G1 X7.3295 Y1.3309
G2 X7.3233 Y1.3199 I-0.0062 J-0.0038
G1 X6.2187
G2 X6.2061 Y1.3325 J0.0126
G1 Y1.8339
G3 X6.1685 Y1.8876 I-0.0572
G2 X6.1799 Y1.9521 I0.0114 J0.0313
G1 X7.0367
G2 X7.0619 Y1.938 J-0.0294
G1 X7.4838 Y1.2441
G2 X7.4776 Y1.2331 I-0.0062 J-0.0038
G1 X6.1319
G2 X6.1193 Y1.2457 J0.0126
G1 X6.1192 Y1.9396
G2 X6.1315 Y1.9521 I0.0123 J0.0002
G1 X6.1799
G3 X6.245 Y1.9955 J0.0705
G2 X6.3101 Y2.0389 I0.0651 J-0.0271
G1 X7.0859
G2 X7.1105 Y2.0251 J-0.0288
G1 X7.6384 Y1.1571
G2 X7.6323 Y1.1463 I-0.0061 J-0.0037
G1 X6.0448
G2 X6.0324 Y1.1587 J0.0124
G1 X6.0342 Y1.9352
G3 X6.0274 Y1.9832 I-0.1728
X6.0091 Y2.0281 I-0.2201 J-0.0636
G2 X6.0156 Y2.0389 I0.0065 J0.0035
G1 X6.3101
G3 X6.373 Y2.0808 J0.0681
G2 X6.4358 Y2.1227 I0.0629 J-0.0262
G1 X7.1492
X7.794 Y1.0625
X5.9486
Y1.9352
G3 X5.8361 Y2.0477 I-0.1125
G1 X5.4468
Y2.1227
X6.4358
G2 X6.4438 Y2.1154 J-0.008
G1 X6.4905 Y1.5911
G2 X6.4893 Y1.5861 I-0.008 J-0.0007
G1 Z-0.1475
G2 X6.4887 Y1.5853 Z-0.1523 I-0.0105 J0.0068
X6.4869 Y1.5833 Z-0.1563 I-0.01 J0.0075
X6.4834 Y1.5812 Z-0.159 I-0.0081 J0.0095
X6.4788 Y1.5803 Z-0.16 I-0.0047 J0.0116
Y1.6049 J0.0123
G1 X6.8528
G2 X6.8608 Y1.6004 J-0.0094
G1 X6.8663 Y1.5913
G2 X6.8601 Y1.5803 I-0.0062 J-0.0038
G1 X6.4788
G3 X6.4306 Y1.5564 J-0.0603
G2 X6.3797 Y1.5734 I-0.0226 J0.0171
G1 Y1.6789
G2 X6.3924 Y1.6917 I0.0128
G1 X6.8903
G2 X6.9154 Y1.6776 J-0.0294
G1 X7.0207 Y1.5045
G2 X7.0145 Y1.4935 I-0.0062 J-0.0038
G1 X6.3923
G2 X6.3797 Y1.5061 J0.0126
G1 Y1.5734
G3 X6.3363 Y1.6385 I-0.0705
G2 X6.2929 Y1.7036 I0.0271 J0.0651
G1 Y1.7657
G2 X6.3056 Y1.7785 I0.0128
G1 X6.9391
G2 X6.9642 Y1.7644 J-0.0294
G1 X7.1751 Y1.4177
G2 X7.1689 Y1.4067 I-0.0062 J-0.0038
G1 X6.3055
G2 X6.2929 Y1.4193 J0.0126
G1 Y1.7036
G3 X6.2495 Y1.7688 I-0.0705
G2 X6.2061 Y1.8339 I0.0271 J0.0651
G1 Y1.8525
G2 X6.2188 Y1.8653 I0.0128
G1 X6.9879
G2 X7.0131 Y1.8512 J-0.0294
G1 X7.3295 Y1.3309
G2 X7.3233 Y1.3199 I-0.0062 J-0.0038
G1 X6.2187
G2 X6.2061 Y1.3325 J0.0126
G1 Y1.8339
G3 X6.1685 Y1.8876 I-0.0572
G2 X6.1799 Y1.9521 I0.0114 J0.0313
G1 X7.0367
G2 X7.0619 Y1.938 J-0.0294
G1 X7.4838 Y1.2441
G2 X7.4776 Y1.2331 I-0.0062 J-0.0038
G1 X6.1319
G2 X6.1193 Y1.2457 J0.0126
G1 X6.1192 Y1.9396
G2 X6.1315 Y1.9521 I0.0123 J0.0002
G1 X6.1799
G3 X6.245 Y1.9955 J0.0705
G2 X6.3101 Y2.0389 I0.0651 J-0.0271
G1 X7.0859
G2 X7.1105 Y2.0251 J-0.0288
G1 X7.6384 Y1.1571
G2 X7.6323 Y1.1463 I-0.0061 J-0.0037
G1 X6.0448
G2 X6.0324 Y1.1587 J0.0124
G1 X6.0342 Y1.9352
G3 X6.0274 Y1.9832 I-0.1728
X6.0091 Y2.0281 I-0.2201 J-0.0636
G2 X6.0156 Y2.0389 I0.0065 J0.0035
G1 X6.3101
G3 X6.373 Y2.0808 J0.0681
G2 X6.4358 Y2.1227 I0.0629 J-0.0262
G1 X7.1492
X7.794 Y1.0625
X5.9486
Y1.9352
G3 X5.8361 Y2.0477 I-0.1125
G1 X5.4468
Y2.1227
X6.4358
G2 X6.4438 Y2.1154 J-0.008
G1 X6.4905 Y1.5911
G2 X6.4893 Y1.5861 I-0.008 J-0.0007
G1 Z-0.1725
G2 X6.4887 Y1.5853 Z-0.1773 I-0.0105 J0.0068
X6.4869 Y1.5833 Z-0.1813 I-0.01 J0.0075
X6.4834 Y1.5812 Z-0.184 I-0.0081 J0.0095
X6.4788 Y1.5803 Z-0.185 I-0.0047 J0.0116
Y1.6049 J0.0123
G1 X6.8528
G2 X6.8608 Y1.6004 J-0.0094
G1 X6.8663 Y1.5913
G2 X6.8601 Y1.5803 I-0.0062 J-0.0038
G1 X6.4788
G3 X6.4306 Y1.5564 J-0.0603
G2 X6.3797 Y1.5734 I-0.0226 J0.0171
G1 Y1.6789
G2 X6.3924 Y1.6917 I0.0128
G1 X6.8903
G2 X6.9154 Y1.6776 J-0.0294
G1 X7.0207 Y1.5045
G2 X7.0145 Y1.4935 I-0.0062 J-0.0038
G1 X6.3923
G2 X6.3797 Y1.5061 J0.0126
G1 Y1.5734
G3 X6.3363 Y1.6385 I-0.0705
G2 X6.2929 Y1.7036 I0.0271 J0.0651
G1 Y1.7657
G2 X6.3056 Y1.7785 I0.0128
G1 X6.9391
G2 X6.9642 Y1.7644 J-0.0294
G1 X7.1751 Y1.4177
G2 X7.1689 Y1.4067 I-0.0062 J-0.0038
G1 X6.3055
G2 X6.2929 Y1.4193 J0.0126
G1 Y1.7036
G3 X6.2495 Y1.7688 I-0.0705
G2 X6.2061 Y1.8339 I0.0271 J0.0651
G1 Y1.8525
G2 X6.2188 Y1.8653 I0.0128
G1 X6.9879
G2 X7.0131 Y1.8512 J-0.0294
G1 X7.3295 Y1.3309
G2 X7.3233 Y1.3199 I-0.0062 J-0.0038
G1 X6.2187
G2 X6.2061 Y1.3325 J0.0126
G1 Y1.8339
G3 X6.1685 Y1.8876 I-0.0572
G2 X6.1799 Y1.9521 I0.0114 J0.0313
G1 X7.0367
G2 X7.0619 Y1.938 J-0.0294
G1 X7.4838 Y1.2441
G2 X7.4776 Y1.2331 I-0.0062 J-0.0038
G1 X6.1319
G2 X6.1193 Y1.2457 J0.0126
G1 X6.1192 Y1.9396
G2 X6.1315 Y1.9521 I0.0123 J0.0002
G1 X6.1799
G3 X6.245 Y1.9955 J0.0705
G2 X6.3101 Y2.0389 I0.0651 J-0.0271
G1 X7.0859
G2 X7.1105 Y2.0251 J-0.0288
G1 X7.6384 Y1.1571
G2 X7.6323 Y1.1463 I-0.0061 J-0.0037
G1 X6.0448
G2 X6.0324 Y1.1587 J0.0124
G1 X6.0342 Y1.9352
G3 X6.0274 Y1.9832 I-0.1728
X6.0091 Y2.0281 I-0.2201 J-0.0636
G2 X6.0156 Y2.0389 I0.0065 J0.0035
G1 X6.3101
G3 X6.373 Y2.0808 J0.0681
G2 X6.4358 Y2.1227 I0.0629 J-0.0262
G1 X7.1492
X7.794 Y1.0625
X5.9486
Y1.9352
G3 X5.8361 Y2.0477 I-0.1125
G1 X5.4468
Y2.1227
X6.4358
G2 X6.4405 Y2.1218 Z-0.184 J-0.0125
X6.4439 Y2.1197 Z-0.1813 I-0.0047 J-0.0116
X6.4458 Y2.1178 Z-0.1773 I-0.0081 J-0.0095
X6.4463 Y2.117 Z-0.1725 I-0.01 J-0.0075
G0 Z0.6
M9
M30
%
