%
(1001)
(T1  D=0.125 CR=0 - ZMIN=-0.49 - flat end mill)
G90 G94
G17
G20

(2D Pocket2)
M9
T1 M6
S11028 M3
G54
M8
G0 X0.823 Y0.7582
Z0.6
Z0.2
G1 Z0.1 F35
Z-0.0275
G2 X0.8225 Y0.7574 Z-0.0323 I-0.0105 J0.0068
X0.8206 Y0.7554 Z-0.0363 I-0.01 J0.0075
X0.8172 Y0.7534 Z-0.039 I-0.0081 J0.0095
X0.8125 Y0.7524 Z-0.04 I-0.0047 J0.0116
X0.7661 Y0.7566 J0.2596 F771967.01
X0.7524 Y0.7731 I0.003 J0.0165
G1 Y6.4769
G2 X0.7661 Y6.4934 I0.0167
X0.8589 I0.0464 J-0.2554
X0.8726 Y6.4769 I-0.003 J-0.0165
G1 Y0.7731
G2 X0.8589 Y0.7566 I-0.0167
X0.8125 Y0.7524 I-0.0464 J0.2554
G3 X0.7399 Y0.7074 J-0.081
G2 X0.6587 Y0.6809 I-0.0536 J0.0266
X0.6465 Y0.7009 I0.0104 J0.02
G1 Y6.5477
G2 X0.6608 Y6.5701 I0.0247
X0.8125 Y6.6035 I0.1507 J-0.3233
X0.9642 Y6.5701 J-0.3613
X0.9785 Y6.5477 I-0.0105 J-0.0224
G1 Y0.7023
G2 X0.9642 Y0.6799 I-0.0247
X0.8118 Y0.6465 I-0.1507 J0.3233
X0.6595 Y0.6805 I0.0007 J0.3613
X0.6587 Y0.6809 I0.0095 J0.0205
G3 X0.5937 Y0.6786 I-0.0304 J-0.0585
G2 X0.537 Y0.7103 I-0.0195 J0.0317
G1 Y6.6067
G2 X0.5516 Y6.6341 I0.033
X0.8125 Y6.713 I0.2596 J-0.3876
X1.0734 Y6.6341 J-0.4708
X1.088 Y6.6067 I-0.0184 J-0.0274
G1 Y0.6433
G2 X1.0734 Y0.6159 I-0.033
X0.8125 Y0.537 I-0.2596 J0.3876
X0.5516 Y0.6159 J0.4708
X0.537 Y0.6433 I0.0184 J0.0274
G1 Y0.7103
G3 X0.4812 Y0.7939 I-0.0906
G2 X0.4254 Y0.8776 I0.0348 J0.0836
G1 Y6.6583
G2 X0.4404 Y6.6902 I0.0414
X1.1846 I0.3721 J-0.4483
X1.1996 Y6.6583 I-0.0264 J-0.0318
G1 Y0.5917
G2 X1.1846 Y0.5598 I-0.0414
X0.4404 I-0.3721 J0.4483
X0.4254 Y0.5917 I0.0264 J0.0318
G1 Y0.8776
G3 X0.369 Y0.9623 I-0.0918
G2 X0.3125 Y1.047 I0.0353 J0.0847
G1 Y6.7254
G2 X1.3125 I0.5 J-0.4832
G1 Y0.5246
G2 X0.3125 I-0.5 J0.4832
G1 Y1.047
G2 X0.3245 Y1.0539 I0.008
G1 X0.8203 Y0.7695
G2 X0.823 Y0.7582 I-0.004 J-0.0069
G1 Z-0.0675 F35
G2 X0.8225 Y0.7574 Z-0.0723 I-0.0105 J0.0068
X0.8206 Y0.7554 Z-0.0763 I-0.01 J0.0075
X0.8172 Y0.7534 Z-0.079 I-0.0081 J0.0095
X0.8125 Y0.7524 Z-0.08 I-0.0047 J0.0116
X0.7661 Y0.7566 J0.2596 F771967.01
X0.7524 Y0.7731 I0.003 J0.0165
G1 Y6.4769
G2 X0.7661 Y6.4934 I0.0167
X0.8589 I0.0464 J-0.2554
X0.8726 Y6.4769 I-0.003 J-0.0165
G1 Y0.7731
G2 X0.8589 Y0.7566 I-0.0167
X0.8125 Y0.7524 I-0.0464 J0.2554
G3 X0.7399 Y0.7074 J-0.081
G2 X0.6587 Y0.6809 I-0.0536 J0.0266
X0.6465 Y0.7009 I0.0104 J0.02
G1 Y6.5477
G2 X0.6608 Y6.5701 I0.0247
X0.8125 Y6.6035 I0.1507 J-0.3233
X0.9642 Y6.5701 J-0.3613
X0.9785 Y6.5477 I-0.0105 J-0.0224
G1 Y0.7023
G2 X0.9642 Y0.6799 I-0.0247
X0.8118 Y0.6465 I-0.1507 J0.3233
X0.6595 Y0.6805 I0.0007 J0.3613
X0.6587 Y0.6809 I0.0095 J0.0205
G3 X0.5937 Y0.6786 I-0.0304 J-0.0585
G2 X0.537 Y0.7103 I-0.0195 J0.0317
G1 Y6.6067
G2 X0.5516 Y6.6341 I0.033
X0.8125 Y6.713 I0.2596 J-0.3876
X1.0734 Y6.6341 J-0.4708
X1.088 Y6.6067 I-0.0184 J-0.0274
G1 Y0.6433
G2 X1.0734 Y0.6159 I-0.033
X0.8125 Y0.537 I-0.2596 J0.3876
X0.5516 Y0.6159 J0.4708
X0.537 Y0.6433 I0.0184 J0.0274
G1 Y0.7103
G3 X0.4812 Y0.7939 I-0.0906
G2 X0.4254 Y0.8776 I0.0348 J0.0836
G1 Y6.6583
G2 X0.4404 Y6.6902 I0.0414
X1.1846 I0.3721 J-0.4483
X1.1996 Y6.6583 I-0.0264 J-0.0318
G1 Y0.5917
G2 X1.1846 Y0.5598 I-0.0414
X0.4404 I-0.3721 J0.4483
X0.4254 Y0.5917 I0.0264 J0.0318
G1 Y0.8776
G3 X0.369 Y0.9623 I-0.0918
G2 X0.3125 Y1.047 I0.0353 J0.0847
G1 Y6.7254
G2 X1.3125 I0.5 J-0.4832
G1 Y0.5246
G2 X0.3125 I-0.5 J0.4832
G1 Y1.047
G2 X0.3245 Y1.0539 I0.008
G1 X0.8203 Y0.7695
G2 X0.823 Y0.7582 I-0.004 J-0.0069
G1 Z-0.0855 F35
G2 X0.8225 Y0.7574 Z-0.0903 I-0.0105 J0.0068
X0.8206 Y0.7554 Z-0.0943 I-0.01 J0.0075
X0.8172 Y0.7534 Z-0.097 I-0.0081 J0.0095
X0.8125 Y0.7524 Z-0.098 I-0.0047 J0.0116
X0.7661 Y0.7566 J0.2596 F771967.01
X0.7524 Y0.7731 I0.003 J0.0165
G1 Y6.4769
G2 X0.7661 Y6.4934 I0.0167
X0.8589 I0.0464 J-0.2554
X0.8726 Y6.4769 I-0.003 J-0.0165
G1 Y0.7731
G2 X0.8589 Y0.7566 I-0.0167
X0.8125 Y0.7524 I-0.0464 J0.2554
G3 X0.7399 Y0.7074 J-0.081
G2 X0.6587 Y0.6809 I-0.0536 J0.0266
X0.6465 Y0.7009 I0.0104 J0.02
G1 Y6.5477
G2 X0.6608 Y6.5701 I0.0247
X0.8125 Y6.6035 I0.1507 J-0.3233
X0.9642 Y6.5701 J-0.3613
X0.9785 Y6.5477 I-0.0105 J-0.0224
G1 Y0.7023
G2 X0.9642 Y0.6799 I-0.0247
X0.8118 Y0.6465 I-0.1507 J0.3233
X0.6595 Y0.6805 I0.0007 J0.3613
X0.6587 Y0.6809 I0.0095 J0.0205
G3 X0.5937 Y0.6786 I-0.0304 J-0.0585
G2 X0.537 Y0.7103 I-0.0195 J0.0317
G1 Y6.6067
G2 X0.5516 Y6.6341 I0.033
X0.8125 Y6.713 I0.2596 J-0.3876
X1.0734 Y6.6341 J-0.4708
X1.088 Y6.6067 I-0.0184 J-0.0274
G1 Y0.6433
G2 X1.0734 Y0.6159 I-0.033
X0.8125 Y0.537 I-0.2596 J0.3876
X0.5516 Y0.6159 J0.4708
X0.537 Y0.6433 I0.0184 J0.0274
G1 Y0.7103
G3 X0.4812 Y0.7939 I-0.0906
G2 X0.4254 Y0.8776 I0.0348 J0.0836
G1 Y6.6583
G2 X0.4404 Y6.6902 I0.0414
X1.1846 I0.3721 J-0.4483
X1.1996 Y6.6583 I-0.0264 J-0.0318
G1 Y0.5917
G2 X1.1846 Y0.5598 I-0.0414
X0.4404 I-0.3721 J0.4483
X0.4254 Y0.5917 I0.0264 J0.0318
G1 Y0.8776
G3 X0.369 Y0.9623 I-0.0918
G2 X0.3125 Y1.047 I0.0353 J0.0847
G1 Y6.7254
G2 X1.3125 I0.5 J-0.4832
G1 Y0.5246
G2 X0.3125 I-0.5 J0.4832
G1 Y1.047
G2 X0.3134 Y1.0517 Z-0.097 I0.0125 F35
X0.3155 Y1.0551 Z-0.0943 I0.0116 J-0.0047
X0.3175 Y1.057 Z-0.0903 I0.0095 J-0.0081
X0.3182 Y1.0575 Z-0.0855 I0.0075 J-0.01
G0 Z0.2
X3.073 Y0.7582
G1 Z0.1 F35
Z-0.0275
G2 X3.0725 Y0.7574 Z-0.0323 I-0.0105 J0.0068
X3.0706 Y0.7554 Z-0.0363 I-0.01 J0.0075
X3.0672 Y0.7534 Z-0.039 I-0.0081 J0.0095
X3.0625 Y0.7524 Z-0.04 I-0.0047 J0.0116
X3.0161 Y0.7566 J0.2596 F771967.01
X3.0024 Y0.7731 I0.003 J0.0165
G1 Y6.4769
G2 X3.0161 Y6.4934 I0.0167
X3.1089 I0.0464 J-0.2554
X3.1226 Y6.4769 I-0.003 J-0.0165
G1 Y0.7731
G2 X3.1089 Y0.7566 I-0.0167
X3.0625 Y0.7524 I-0.0464 J0.2554
G3 X2.9842 Y0.7066 J-0.0898
G2 X2.8965 Y0.7296 I-0.0409 J0.0229
G1 Y6.5477
G2 X2.9108 Y6.5701 I0.0247
X3.0625 Y6.6035 I0.1507 J-0.3233
X3.2142 Y6.5701 J-0.3613
X3.2285 Y6.5477 I-0.0105 J-0.0224
G1 Y0.7023
G2 X3.2142 Y0.6799 I-0.0247
X3.0625 Y0.6465 I-0.1507 J0.3233
X2.9108 Y0.6799 J0.3613
X2.8965 Y0.7023 I0.0105 J0.0224
G1 Y0.7296
G3 X2.8417 Y0.8117 I-0.089
G2 X2.787 Y0.8939 I0.0342 J0.0822
G1 Y6.6067
G2 X2.8016 Y6.6341 I0.033
X3.0625 Y6.713 I0.2596 J-0.3876
X3.3234 Y6.6341 J-0.4708
X3.338 Y6.6067 I-0.0184 J-0.0274
G1 Y0.6433
G2 X3.3234 Y0.6159 I-0.033
X3.0625 Y0.537 I-0.2596 J0.3876
X2.8016 Y0.6159 J0.4708
X2.787 Y0.6433 I0.0184 J0.0274
G1 Y0.8939
G3 X2.7312 Y0.9775 I-0.0906
G2 X2.6754 Y1.0612 I0.0348 J0.0836
G1 Y6.6583
G2 X2.6904 Y6.6902 I0.0414
X3.4346 I0.3721 J-0.4483
X3.4496 Y6.6583 I-0.0264 J-0.0318
G1 Y0.5917
G2 X3.4346 Y0.5598 I-0.0414
X2.69 Y0.5602 I-0.3721 J0.4483
X2.6754 Y0.5912 I0.0257 J0.031
G1 Y1.0612
G3 X2.619 Y1.1459 I-0.0918
G2 X2.5625 Y1.2306 I0.0353 J0.0847
G1 Y6.7254
G2 X3.5625 I0.5 J-0.4832
G1 Y0.5246
G2 X2.5625 I-0.5 J0.4832
G1 Y1.2306
G2 X2.576 Y1.2364 I0.008
G1 X3.0718 Y0.7683
G2 X3.073 Y0.7582 I-0.0055 J-0.0058
G1 Z-0.0675 F35
G2 X3.0725 Y0.7574 Z-0.0723 I-0.0105 J0.0068
X3.0706 Y0.7554 Z-0.0763 I-0.01 J0.0075
X3.0672 Y0.7534 Z-0.079 I-0.0081 J0.0095
X3.0625 Y0.7524 Z-0.08 I-0.0047 J0.0116
X3.0161 Y0.7566 J0.2596 F771967.01
X3.0024 Y0.7731 I0.003 J0.0165
G1 Y6.4769
G2 X3.0161 Y6.4934 I0.0167
X3.1089 I0.0464 J-0.2554
X3.1226 Y6.4769 I-0.003 J-0.0165
G1 Y0.7731
G2 X3.1089 Y0.7566 I-0.0167
X3.0625 Y0.7524 I-0.0464 J0.2554
G3 X2.9842 Y0.7066 J-0.0898
G2 X2.8965 Y0.7296 I-0.0409 J0.0229
G1 Y6.5477
G2 X2.9108 Y6.5701 I0.0247
X3.0625 Y6.6035 I0.1507 J-0.3233
X3.2142 Y6.5701 J-0.3613
X3.2285 Y6.5477 I-0.0105 J-0.0224
G1 Y0.7023
G2 X3.2142 Y0.6799 I-0.0247
X3.0625 Y0.6465 I-0.1507 J0.3233
X2.9108 Y0.6799 J0.3613
X2.8965 Y0.7023 I0.0105 J0.0224
G1 Y0.7296
G3 X2.8417 Y0.8117 I-0.089
G2 X2.787 Y0.8939 I0.0342 J0.0822
G1 Y6.6067
G2 X2.8016 Y6.6341 I0.033
X3.0625 Y6.713 I0.2596 J-0.3876
X3.3234 Y6.6341 J-0.4708
X3.338 Y6.6067 I-0.0184 J-0.0274
G1 Y0.6433
G2 X3.3234 Y0.6159 I-0.033
X3.0625 Y0.537 I-0.2596 J0.3876
X2.8016 Y0.6159 J0.4708
X2.787 Y0.6433 I0.0184 J0.0274
G1 Y0.8939
G3 X2.7312 Y0.9775 I-0.0906
G2 X2.6754 Y1.0612 I0.0348 J0.0836
G1 Y6.6583
G2 X2.6904 Y6.6902 I0.0414
X3.4346 I0.3721 J-0.4483
X3.4496 Y6.6583 I-0.0264 J-0.0318
G1 Y0.5917
G2 X3.4346 Y0.5598 I-0.0414
X2.69 Y0.5602 I-0.3721 J0.4483
X2.6754 Y0.5912 I0.0257 J0.031
G1 Y1.0612
G3 X2.619 Y1.1459 I-0.0918
G2 X2.5625 Y1.2306 I0.0353 J0.0847
G1 Y6.7254
G2 X3.5625 I0.5 J-0.4832
G1 Y0.5246
G2 X2.5625 I-0.5 J0.4832
G1 Y1.2306
G2 X2.576 Y1.2364 I0.008
G1 X3.0718 Y0.7683
G2 X3.073 Y0.7582 I-0.0055 J-0.0058
G1 Z-0.0855 F35
G2 X3.0725 Y0.7574 Z-0.0903 I-0.0105 J0.0068
X3.0706 Y0.7554 Z-0.0943 I-0.01 J0.0075
X3.0672 Y0.7534 Z-0.097 I-0.0081 J0.0095
X3.0625 Y0.7524 Z-0.098 I-0.0047 J0.0116
X3.0161 Y0.7566 J0.2596 F771967.01
X3.0024 Y0.7731 I0.003 J0.0165
G1 Y6.4769
G2 X3.0161 Y6.4934 I0.0167
X3.1089 I0.0464 J-0.2554
X3.1226 Y6.4769 I-0.003 J-0.0165
G1 Y0.7731
G2 X3.1089 Y0.7566 I-0.0167
X3.0625 Y0.7524 I-0.0464 J0.2554
G3 X2.9842 Y0.7066 J-0.0898
G2 X2.8965 Y0.7296 I-0.0409 J0.0229
G1 Y6.5477
G2 X2.9108 Y6.5701 I0.0247
X3.0625 Y6.6035 I0.1507 J-0.3233
X3.2142 Y6.5701 J-0.3613
X3.2285 Y6.5477 I-0.0105 J-0.0224
G1 Y0.7023
G2 X3.2142 Y0.6799 I-0.0247
X3.0625 Y0.6465 I-0.1507 J0.3233
X2.9108 Y0.6799 J0.3613
X2.8965 Y0.7023 I0.0105 J0.0224
G1 Y0.7296
G3 X2.8417 Y0.8117 I-0.089
G2 X2.787 Y0.8939 I0.0342 J0.0822
G1 Y6.6067
G2 X2.8016 Y6.6341 I0.033
X3.0625 Y6.713 I0.2596 J-0.3876
X3.3234 Y6.6341 J-0.4708
X3.338 Y6.6067 I-0.0184 J-0.0274
G1 Y0.6433
G2 X3.3234 Y0.6159 I-0.033
X3.0625 Y0.537 I-0.2596 J0.3876
X2.8016 Y0.6159 J0.4708
X2.787 Y0.6433 I0.0184 J0.0274
G1 Y0.8939
G3 X2.7312 Y0.9775 I-0.0906
G2 X2.6754 Y1.0612 I0.0348 J0.0836
G1 Y6.6583
G2 X2.6904 Y6.6902 I0.0414
X3.4346 I0.3721 J-0.4483
X3.4496 Y6.6583 I-0.0264 J-0.0318
G1 Y0.5917
G2 X3.4346 Y0.5598 I-0.0414
X2.69 Y0.5602 I-0.3721 J0.4483
X2.6754 Y0.5912 I0.0257 J0.031
G1 Y1.0612
G3 X2.619 Y1.1459 I-0.0918
G2 X2.5625 Y1.2306 I0.0353 J0.0847
G1 Y6.7254
G2 X3.5625 I0.5 J-0.4832
G1 Y0.5246
G2 X2.5625 I-0.5 J0.4832
G1 Y1.2306
G2 X2.5634 Y1.2352 Z-0.097 I0.0125 F35
X2.5655 Y1.2387 Z-0.0943 I0.0116 J-0.0047
X2.5675 Y1.2406 Z-0.0903 I0.0095 J-0.0081
X2.5682 Y1.2411 Z-0.0855 I0.0075 J-0.01
G0 Z0.6

(2D Contour1)
M8
X1.725 Y0.3991
Z0.6
Z0.2
G1 Z0.0794 F35
Z-0.0275
G18 G3 X1.7125 Z-0.04 I-0.0125
G1 X1.7
G17 G2 X1.6875 Y0.4116 J0.0125
G1 Y6.8385 F771967.01
G3 X1.6754 Y6.8754 I-0.0625
X-0.0504 I-0.8629 J-0.6332
X-0.0625 Y6.8385 I0.0504 J-0.037
G1 Y0.4116
G3 X-0.0504 Y0.3746 I0.0625
X1.6754 I0.8629 J0.6332
X1.6875 Y0.4116 I-0.0504 J0.037
G2 X1.7 Y0.4241 I0.0125 F35
G1 X1.7125
G18 G2 X1.725 Z-0.0275 K0.0125
G1 Y0.3991
Z-0.0675
G3 X1.7125 Z-0.08 I-0.0125
G1 X1.7
G17 G2 X1.6875 Y0.4116 J0.0125
G1 Y6.8385 F771967.01
G3 X1.6754 Y6.8754 I-0.0625
X-0.0504 I-0.8629 J-0.6332
X-0.0625 Y6.8385 I0.0504 J-0.037
G1 Y0.4116
G3 X-0.0504 Y0.3746 I0.0625
X1.6754 I0.8629 J0.6332
X1.6875 Y0.4116 I-0.0504 J0.037
G2 X1.7 Y0.4241 I0.0125 F35
G1 X1.7125
G18 G2 X1.725 Z-0.0675 K0.0125
G1 Y0.3991
Z-0.1075
G3 X1.7125 Z-0.12 I-0.0125
G1 X1.7
G17 G2 X1.6875 Y0.4116 J0.0125
G1 Y6.8385 F771967.01
G3 X1.6754 Y6.8754 I-0.0625
X-0.0504 I-0.8629 J-0.6332
X-0.0625 Y6.8385 I0.0504 J-0.037
G1 Y0.4116
G3 X-0.0504 Y0.3746 I0.0625
X1.6754 I0.8629 J0.6332
X1.6875 Y0.4116 I-0.0504 J0.037
G2 X1.7 Y0.4241 I0.0125 F35
G1 X1.7125
G18 G2 X1.725 Z-0.1075 K0.0125
G1 Y0.3991
Z-0.1475
G3 X1.7125 Z-0.16 I-0.0125
G1 X1.7
G17 G2 X1.6875 Y0.4116 J0.0125
G1 Y6.8385 F771967.01
G3 X1.6754 Y6.8754 I-0.0625
X-0.0504 I-0.8629 J-0.6332
X-0.0625 Y6.8385 I0.0504 J-0.037
G1 Y0.4116
G3 X-0.0504 Y0.3746 I0.0625
X1.6754 I0.8629 J0.6332
X1.6875 Y0.4116 I-0.0504 J0.037
G2 X1.7 Y0.4241 I0.0125 F35
G1 X1.7125
G18 G2 X1.725 Z-0.1475 K0.0125
G1 Y0.3991
Z-0.1875
G3 X1.7125 Z-0.2 I-0.0125
G1 X1.7
G17 G2 X1.6875 Y0.4116 J0.0125
G1 Y6.8385 F771967.01
G3 X1.6754 Y6.8754 I-0.0625
X-0.0504 I-0.8629 J-0.6332
X-0.0625 Y6.8385 I0.0504 J-0.037
G1 Y0.4116
G3 X-0.0504 Y0.3746 I0.0625
X1.6754 I0.8629 J0.6332
X1.6875 Y0.4116 I-0.0504 J0.037
G2 X1.7 Y0.4241 I0.0125 F35
G1 X1.7125
G18 G2 X1.725 Z-0.1875 K0.0125
G1 Y0.3991
Z-0.2275
G3 X1.7125 Z-0.24 I-0.0125
G1 X1.7
G17 G2 X1.6875 Y0.4116 J0.0125
G1 Y6.8385 F771967.01
G3 X1.6754 Y6.8754 I-0.0625
X-0.0504 I-0.8629 J-0.6332
X-0.0625 Y6.8385 I0.0504 J-0.037
G1 Y0.4116
G3 X-0.0504 Y0.3746 I0.0625
X1.6754 I0.8629 J0.6332
X1.6875 Y0.4116 I-0.0504 J0.037
G2 X1.7 Y0.4241 I0.0125 F35
G1 X1.7125
G18 G2 X1.725 Z-0.2275 K0.0125
G1 Y0.3991
Z-0.2675
G3 X1.7125 Z-0.28 I-0.0125
G1 X1.7
G17 G2 X1.6875 Y0.4116 J0.0125
G1 Y6.8385 F771967.01
G3 X1.6754 Y6.8754 I-0.0625
X-0.0504 I-0.8629 J-0.6332
X-0.0625 Y6.8385 I0.0504 J-0.037
G1 Y0.4116
G3 X-0.0504 Y0.3746 I0.0625
X1.6754 I0.8629 J0.6332
X1.6875 Y0.4116 I-0.0504 J0.037
G2 X1.7 Y0.4241 I0.0125 F35
G1 X1.7125
G18 G2 X1.725 Z-0.2675 K0.0125
G1 Y0.3991
Z-0.3075
G3 X1.7125 Z-0.32 I-0.0125
G1 X1.7
G17 G2 X1.6875 Y0.4116 J0.0125
G1 Y6.8385 F771967.01
G3 X1.6754 Y6.8754 I-0.0625
X-0.0504 I-0.8629 J-0.6332
X-0.0625 Y6.8385 I0.0504 J-0.037
G1 Y0.4116
G3 X-0.0504 Y0.3746 I0.0625
X1.6754 I0.8629 J0.6332
X1.6875 Y0.4116 I-0.0504 J0.037
G2 X1.7 Y0.4241 I0.0125 F35
G1 X1.7125
G18 G2 X1.725 Z-0.3075 K0.0125
G1 Y0.3991
Z-0.3475
G3 X1.7125 Z-0.36 I-0.0125
G1 X1.7
G17 G2 X1.6875 Y0.4116 J0.0125
G1 Y6.8385 F771967.01
G3 X1.6754 Y6.8754 I-0.0625
X-0.0504 I-0.8629 J-0.6332
X-0.0625 Y6.8385 I0.0504 J-0.037
G1 Y0.4116
G3 X-0.0504 Y0.3746 I0.0625
X1.6754 I0.8629 J0.6332
X1.6875 Y0.4116 I-0.0504 J0.037
G2 X1.7 Y0.4241 I0.0125 F35
G1 X1.7125
G18 G2 X1.725 Z-0.3475 K0.0125
G1 Y0.3991
Z-0.3875
G3 X1.7125 Z-0.4 I-0.0125
G1 X1.7
G17 G2 X1.6875 Y0.4116 J0.0125
G1 Y6.8385 F771967.01
G3 X1.6754 Y6.8754 I-0.0625
X-0.0504 I-0.8629 J-0.6332
X-0.0625 Y6.8385 I0.0504 J-0.037
G1 Y0.4116
G3 X-0.0504 Y0.3746 I0.0625
X1.6754 I0.8629 J0.6332
X1.6875 Y0.4116 I-0.0504 J0.037
G2 X1.7 Y0.4241 I0.0125 F35
G1 X1.7125
G18 G2 X1.725 Z-0.3875 K0.0125
G1 Y0.3991
Z-0.4275
G3 X1.7125 Z-0.44 I-0.0125
G1 X1.7
G17 G2 X1.6875 Y0.4116 J0.0125
G1 Y6.8385 F771967.01
G3 X1.6754 Y6.8754 I-0.0625
X-0.0504 I-0.8629 J-0.6332
X-0.0625 Y6.8385 I0.0504 J-0.037
G1 Y0.4116
G3 X-0.0504 Y0.3746 I0.0625
X1.6754 I0.8629 J0.6332
X1.6875 Y0.4116 I-0.0504 J0.037
G2 X1.7 Y0.4241 I0.0125 F35
G1 X1.7125
G18 G2 X1.725 Z-0.4275 K0.0125
G1 Y0.3991
Z-0.4525
G3 X1.7125 Z-0.465 I-0.0125
G1 X1.7
G17 G2 X1.6875 Y0.4116 J0.0125
G1 Y1.8933 F771967.01
Z-0.4588
Y2.1433
Z-0.465 F35
Y5.1067 F771967.01
Z-0.4588
Y5.3567
Z-0.465 F35
Y6.8385 F771967.01
G3 X1.6754 Y6.8754 I-0.0625
X-0.0504 I-0.8629 J-0.6332
X-0.0625 Y6.8385 I0.0504 J-0.037
G1 Y5.3567
Z-0.4588
Y5.1067
Z-0.465 F35
Y2.1433 F771967.01
Z-0.4588
Y1.8933
Z-0.465 F35
Y0.4116 F771967.01
G3 X-0.0504 Y0.3746 I0.0625
X1.6754 I0.8629 J0.6332
X1.6875 Y0.4116 I-0.0504 J0.037
G2 X1.7 Y0.4241 I0.0125 F35
G1 X1.7125
G18 G2 X1.725 Z-0.4525 K0.0125
G1 Y0.3991
Z-0.4775
G3 X1.7125 Z-0.49 I-0.0125
G1 X1.7
G17 G2 X1.6875 Y0.4116 J0.0125
G1 Y1.8933 F771967.01
Z-0.4588
Y2.1433
Z-0.49 F35
Y5.1067 F771967.01
Z-0.4588
Y5.3567
Z-0.49 F35
Y6.8385 F771967.01
G3 X1.6754 Y6.8754 I-0.0625
X-0.0504 I-0.8629 J-0.6332
X-0.0625 Y6.8385 I0.0504 J-0.037
G1 Y5.3567
Z-0.4588
Y5.1067
Z-0.49 F35
Y2.1433 F771967.01
Z-0.4588
Y1.8933
Z-0.49 F35
Y0.4116 F771967.01
G3 X-0.0504 Y0.3746 I0.0625
X1.6754 I0.8629 J0.6332
X1.6875 Y0.4116 I-0.0504 J0.037
G2 X1.7 Y0.4241 I0.0125 F35
G1 X1.7125
G18 G2 X1.725 Z-0.4775 K0.0125
G1 Z-0.0275
X2.162 Y0.3625
X2.1622 Y0.3627 Z-0.0303
X2.163 Y0.3632 Z-0.0329
X2.1642 Y0.3641 Z-0.0353
X2.1658 Y0.3652 Z-0.0373
X2.1677 Y0.3667 Z-0.0388
X2.1698 Y0.3682 Z-0.0397
X2.1721 Y0.3699 Z-0.04
X2.1821 Y0.3773
G17 G2 X2.1996 Y0.3746 I0.0074 J-0.0101
G3 X3.9254 I0.8629 J0.6332 F771967.01
X3.9375 Y0.4116 I-0.0504 J0.037
G1 Y6.8385
G3 X3.9254 Y6.8754 I-0.0625
X2.1996 I-0.8629 J-0.6332
X2.1875 Y6.8385 I0.0504 J-0.037
G1 Y0.4116
G3 X2.1996 Y0.3746 I0.0625
G2 X2.1969 Y0.3571 I-0.0101 J-0.0074 F35
G1 X2.1869 Y0.3497
X2.1846 Y0.3481 Z-0.0397
X2.1825 Y0.3465 Z-0.0388
X2.1806 Y0.3451 Z-0.0373
X2.179 Y0.3439 Z-0.0353
X2.1778 Y0.343 Z-0.0329
X2.177 Y0.3425 Z-0.0303
X2.1768 Y0.3423 Z-0.0275
X2.162 Y0.3625
Z-0.0675
X2.1622 Y0.3627 Z-0.0703
X2.163 Y0.3632 Z-0.0729
X2.1642 Y0.3641 Z-0.0753
X2.1658 Y0.3652 Z-0.0773
X2.1677 Y0.3667 Z-0.0788
X2.1698 Y0.3682 Z-0.0797
X2.1721 Y0.3699 Z-0.08
X2.1821 Y0.3773
G2 X2.1996 Y0.3746 I0.0074 J-0.0101
G3 X3.9254 I0.8629 J0.6332 F771967.01
X3.9375 Y0.4116 I-0.0504 J0.037
G1 Y6.8385
G3 X3.9254 Y6.8754 I-0.0625
X2.1996 I-0.8629 J-0.6332
X2.1875 Y6.8385 I0.0504 J-0.037
G1 Y0.4116
G3 X2.1996 Y0.3746 I0.0625
G2 X2.1969 Y0.3571 I-0.0101 J-0.0074 F35
G1 X2.1869 Y0.3497
X2.1846 Y0.3481 Z-0.0797
X2.1825 Y0.3465 Z-0.0788
X2.1806 Y0.3451 Z-0.0773
X2.179 Y0.3439 Z-0.0753
X2.1778 Y0.343 Z-0.0729
X2.177 Y0.3425 Z-0.0703
X2.1768 Y0.3423 Z-0.0675
X2.162 Y0.3625
Z-0.1075
X2.1622 Y0.3627 Z-0.1103
X2.163 Y0.3632 Z-0.1129
X2.1642 Y0.3641 Z-0.1153
X2.1658 Y0.3652 Z-0.1173
X2.1677 Y0.3667 Z-0.1188
X2.1698 Y0.3682 Z-0.1197
X2.1721 Y0.3699 Z-0.12
X2.1821 Y0.3773
G2 X2.1996 Y0.3746 I0.0074 J-0.0101
G3 X3.9254 I0.8629 J0.6332 F771967.01
X3.9375 Y0.4116 I-0.0504 J0.037
G1 Y6.8385
G3 X3.9254 Y6.8754 I-0.0625
X2.1996 I-0.8629 J-0.6332
X2.1875 Y6.8385 I0.0504 J-0.037
G1 Y0.4116
G3 X2.1996 Y0.3746 I0.0625
G2 X2.1969 Y0.3571 I-0.0101 J-0.0074 F35
G1 X2.1869 Y0.3497
X2.1846 Y0.3481 Z-0.1197
X2.1825 Y0.3465 Z-0.1188
X2.1806 Y0.3451 Z-0.1173
X2.179 Y0.3439 Z-0.1153
X2.1778 Y0.343 Z-0.1129
X2.177 Y0.3425 Z-0.1103
X2.1768 Y0.3423 Z-0.1075
X2.162 Y0.3625
Z-0.1475
X2.1622 Y0.3627 Z-0.1503
X2.163 Y0.3632 Z-0.1529
X2.1642 Y0.3641 Z-0.1553
X2.1658 Y0.3652 Z-0.1573
X2.1677 Y0.3667 Z-0.1588
X2.1698 Y0.3682 Z-0.1597
X2.1721 Y0.3699 Z-0.16
X2.1821 Y0.3773
G2 X2.1996 Y0.3746 I0.0074 J-0.0101
G3 X3.9254 I0.8629 J0.6332 F771967.01
X3.9375 Y0.4116 I-0.0504 J0.037
G1 Y6.8385
G3 X3.9254 Y6.8754 I-0.0625
X2.1996 I-0.8629 J-0.6332
X2.1875 Y6.8385 I0.0504 J-0.037
G1 Y0.4116
G3 X2.1996 Y0.3746 I0.0625
G2 X2.1969 Y0.3571 I-0.0101 J-0.0074 F35
G1 X2.1869 Y0.3497
X2.1846 Y0.3481 Z-0.1597
X2.1825 Y0.3465 Z-0.1588
X2.1806 Y0.3451 Z-0.1573
X2.179 Y0.3439 Z-0.1553
X2.1778 Y0.343 Z-0.1529
X2.177 Y0.3425 Z-0.1503
X2.1768 Y0.3423 Z-0.1475
X2.162 Y0.3625
Z-0.1875
X2.1622 Y0.3627 Z-0.1903
X2.163 Y0.3632 Z-0.1929
X2.1642 Y0.3641 Z-0.1953
X2.1658 Y0.3652 Z-0.1973
X2.1677 Y0.3667 Z-0.1988
X2.1698 Y0.3682 Z-0.1997
X2.1721 Y0.3699 Z-0.2
X2.1821 Y0.3773
G2 X2.1996 Y0.3746 I0.0074 J-0.0101
G3 X3.9254 I0.8629 J0.6332 F771967.01
X3.9375 Y0.4116 I-0.0504 J0.037
G1 Y6.8385
G3 X3.9254 Y6.8754 I-0.0625
X2.1996 I-0.8629 J-0.6332
X2.1875 Y6.8385 I0.0504 J-0.037
G1 Y0.4116
G3 X2.1996 Y0.3746 I0.0625
G2 X2.1969 Y0.3571 I-0.0101 J-0.0074 F35
G1 X2.1869 Y0.3497
X2.1846 Y0.3481 Z-0.1997
X2.1825 Y0.3465 Z-0.1988
X2.1806 Y0.3451 Z-0.1973
X2.179 Y0.3439 Z-0.1953
X2.1778 Y0.343 Z-0.1929
X2.177 Y0.3425 Z-0.1903
X2.1768 Y0.3423 Z-0.1875
X2.162 Y0.3625
Z-0.2275
X2.1622 Y0.3627 Z-0.2303
X2.163 Y0.3632 Z-0.2329
X2.1642 Y0.3641 Z-0.2353
X2.1658 Y0.3652 Z-0.2373
X2.1677 Y0.3667 Z-0.2388
X2.1698 Y0.3682 Z-0.2397
X2.1721 Y0.3699 Z-0.24
X2.1821 Y0.3773
G2 X2.1996 Y0.3746 I0.0074 J-0.0101
G3 X3.9254 I0.8629 J0.6332 F771967.01
X3.9375 Y0.4116 I-0.0504 J0.037
G1 Y6.8385
G3 X3.9254 Y6.8754 I-0.0625
X2.1996 I-0.8629 J-0.6332
X2.1875 Y6.8385 I0.0504 J-0.037
G1 Y0.4116
G3 X2.1996 Y0.3746 I0.0625
G2 X2.1969 Y0.3571 I-0.0101 J-0.0074 F35
G1 X2.1869 Y0.3497
X2.1846 Y0.3481 Z-0.2397
X2.1825 Y0.3465 Z-0.2388
X2.1806 Y0.3451 Z-0.2373
X2.179 Y0.3439 Z-0.2353
X2.1778 Y0.343 Z-0.2329
X2.177 Y0.3425 Z-0.2303
X2.1768 Y0.3423 Z-0.2275
X2.162 Y0.3625
Z-0.2675
X2.1622 Y0.3627 Z-0.2703
X2.163 Y0.3632 Z-0.2729
X2.1642 Y0.3641 Z-0.2753
X2.1658 Y0.3652 Z-0.2773
X2.1677 Y0.3667 Z-0.2788
X2.1698 Y0.3682 Z-0.2797
X2.1721 Y0.3699 Z-0.28
X2.1821 Y0.3773
G2 X2.1996 Y0.3746 I0.0074 J-0.0101
G3 X3.9254 I0.8629 J0.6332 F771967.01
X3.9375 Y0.4116 I-0.0504 J0.037
G1 Y6.8385
G3 X3.9254 Y6.8754 I-0.0625
X2.1996 I-0.8629 J-0.6332
X2.1875 Y6.8385 I0.0504 J-0.037
G1 Y0.4116
G3 X2.1996 Y0.3746 I0.0625
G2 X2.1969 Y0.3571 I-0.0101 J-0.0074 F35
G1 X2.1869 Y0.3497
X2.1846 Y0.3481 Z-0.2797
X2.1825 Y0.3465 Z-0.2788
X2.1806 Y0.3451 Z-0.2773
X2.179 Y0.3439 Z-0.2753
X2.1778 Y0.343 Z-0.2729
X2.177 Y0.3425 Z-0.2703
X2.1768 Y0.3423 Z-0.2675
X2.162 Y0.3625
Z-0.3075
X2.1622 Y0.3627 Z-0.3103
X2.163 Y0.3632 Z-0.3129
X2.1642 Y0.3641 Z-0.3153
X2.1658 Y0.3652 Z-0.3173
X2.1677 Y0.3667 Z-0.3188
X2.1698 Y0.3682 Z-0.3197
X2.1721 Y0.3699 Z-0.32
X2.1821 Y0.3773
G2 X2.1996 Y0.3746 I0.0074 J-0.0101
G3 X3.9254 I0.8629 J0.6332 F771967.01
X3.9375 Y0.4116 I-0.0504 J0.037
G1 Y6.8385
G3 X3.9254 Y6.8754 I-0.0625
X2.1996 I-0.8629 J-0.6332
X2.1875 Y6.8385 I0.0504 J-0.037
G1 Y0.4116
G3 X2.1996 Y0.3746 I0.0625
G2 X2.1969 Y0.3571 I-0.0101 J-0.0074 F35
G1 X2.1869 Y0.3497
X2.1846 Y0.3481 Z-0.3197
X2.1825 Y0.3465 Z-0.3188
X2.1806 Y0.3451 Z-0.3173
X2.179 Y0.3439 Z-0.3153
X2.1778 Y0.343 Z-0.3129
X2.177 Y0.3425 Z-0.3103
X2.1768 Y0.3423 Z-0.3075
X2.162 Y0.3625
Z-0.3475
X2.1622 Y0.3627 Z-0.3503
X2.163 Y0.3632 Z-0.3529
X2.1642 Y0.3641 Z-0.3553
X2.1658 Y0.3652 Z-0.3573
X2.1677 Y0.3667 Z-0.3588
X2.1698 Y0.3682 Z-0.3597
X2.1721 Y0.3699 Z-0.36
X2.1821 Y0.3773
G2 X2.1996 Y0.3746 I0.0074 J-0.0101
G3 X3.9254 I0.8629 J0.6332 F771967.01
X3.9375 Y0.4116 I-0.0504 J0.037
G1 Y6.8385
G3 X3.9254 Y6.8754 I-0.0625
X2.1996 I-0.8629 J-0.6332
X2.1875 Y6.8385 I0.0504 J-0.037
G1 Y0.4116
G3 X2.1996 Y0.3746 I0.0625
G2 X2.1969 Y0.3571 I-0.0101 J-0.0074 F35
G1 X2.1869 Y0.3497
X2.1846 Y0.3481 Z-0.3597
X2.1825 Y0.3465 Z-0.3588
X2.1806 Y0.3451 Z-0.3573
X2.179 Y0.3439 Z-0.3553
X2.1778 Y0.343 Z-0.3529
X2.177 Y0.3425 Z-0.3503
X2.1768 Y0.3423 Z-0.3475
X2.162 Y0.3625
Z-0.3875
X2.1622 Y0.3627 Z-0.3903
X2.163 Y0.3632 Z-0.3929
X2.1642 Y0.3641 Z-0.3953
X2.1658 Y0.3652 Z-0.3973
X2.1677 Y0.3667 Z-0.3988
X2.1698 Y0.3682 Z-0.3997
X2.1721 Y0.3699 Z-0.4
X2.1821 Y0.3773
G2 X2.1996 Y0.3746 I0.0074 J-0.0101
G3 X3.9254 I0.8629 J0.6332 F771967.01
X3.9375 Y0.4116 I-0.0504 J0.037
G1 Y6.8385
G3 X3.9254 Y6.8754 I-0.0625
X2.1996 I-0.8629 J-0.6332
X2.1875 Y6.8385 I0.0504 J-0.037
G1 Y0.4116
G3 X2.1996 Y0.3746 I0.0625
G2 X2.1969 Y0.3571 I-0.0101 J-0.0074 F35
G1 X2.1869 Y0.3497
X2.1846 Y0.3481 Z-0.3997
X2.1825 Y0.3465 Z-0.3988
X2.1806 Y0.3451 Z-0.3973
X2.179 Y0.3439 Z-0.3953
X2.1778 Y0.343 Z-0.3929
X2.177 Y0.3425 Z-0.3903
X2.1768 Y0.3423 Z-0.3875
X2.162 Y0.3625
Z-0.4275
X2.1622 Y0.3627 Z-0.4303
X2.163 Y0.3632 Z-0.4329
X2.1642 Y0.3641 Z-0.4353
X2.1658 Y0.3652 Z-0.4373
X2.1677 Y0.3667 Z-0.4388
X2.1698 Y0.3682 Z-0.4397
X2.1721 Y0.3699 Z-0.44
X2.1821 Y0.3773
G2 X2.1996 Y0.3746 I0.0074 J-0.0101
G3 X3.9254 I0.8629 J0.6332 F771967.01
X3.9375 Y0.4116 I-0.0504 J0.037
G1 Y6.8385
G3 X3.9254 Y6.8754 I-0.0625
X2.1996 I-0.8629 J-0.6332
X2.1875 Y6.8385 I0.0504 J-0.037
G1 Y0.4116
G3 X2.1996 Y0.3746 I0.0625
G2 X2.1969 Y0.3571 I-0.0101 J-0.0074 F35
G1 X2.1869 Y0.3497
X2.1846 Y0.3481 Z-0.4397
X2.1825 Y0.3465 Z-0.4388
X2.1806 Y0.3451 Z-0.4373
X2.179 Y0.3439 Z-0.4353
X2.1778 Y0.343 Z-0.4329
X2.177 Y0.3425 Z-0.4303
X2.1768 Y0.3423 Z-0.4275
X2.162 Y0.3625
Z-0.4525
X2.1622 Y0.3627 Z-0.4553
X2.163 Y0.3632 Z-0.4579
X2.1642 Y0.3641 Z-0.4603
X2.1658 Y0.3652 Z-0.4623
X2.1677 Y0.3667 Z-0.4638
X2.1698 Y0.3682 Z-0.4647
X2.1721 Y0.3699 Z-0.465
X2.1821 Y0.3773
G2 X2.1996 Y0.3746 I0.0074 J-0.0101
G3 X3.9254 I0.8629 J0.6332 F771967.01
X3.9375 Y0.4116 I-0.0504 J0.037
G1 Y1.8933
Z-0.4588
Y2.1433
Z-0.465 F35
Y5.1067 F771967.01
Z-0.4588
Y5.3567
Z-0.465 F35
Y6.8385 F771967.01
G3 X3.9254 Y6.8754 I-0.0625
X2.1996 I-0.8629 J-0.6332
X2.1875 Y6.8385 I0.0504 J-0.037
G1 Y5.3567
Z-0.4588
Y5.1067
Z-0.465 F35
Y2.1433 F771967.01
Z-0.4588
Y1.8933
Z-0.465 F35
Y0.4116 F771967.01
G3 X2.1996 Y0.3746 I0.0625
G2 X2.1969 Y0.3571 I-0.0101 J-0.0074 F35
G1 X2.1869 Y0.3497
X2.1846 Y0.3481 Z-0.4647
X2.1825 Y0.3465 Z-0.4638
X2.1806 Y0.3451 Z-0.4623
X2.179 Y0.3439 Z-0.4603
X2.1778 Y0.343 Z-0.4579
X2.177 Y0.3425 Z-0.4553
X2.1768 Y0.3423 Z-0.4525
X2.162 Y0.3625
Z-0.4775
X2.1622 Y0.3627 Z-0.4803
X2.163 Y0.3632 Z-0.4829
X2.1642 Y0.3641 Z-0.4853
X2.1658 Y0.3652 Z-0.4873
X2.1677 Y0.3667 Z-0.4888
X2.1698 Y0.3682 Z-0.4897
X2.1721 Y0.3699 Z-0.49
X2.1821 Y0.3773
G2 X2.1996 Y0.3746 I0.0074 J-0.0101
G3 X3.9254 I0.8629 J0.6332 F771967.01
X3.9375 Y0.4116 I-0.0504 J0.037
G1 Y1.8933
Z-0.4588
Y2.1433
Z-0.49 F35
Y5.1067 F771967.01
Z-0.4588
Y5.3567
Z-0.49 F35
Y6.8385 F771967.01
G3 X3.9254 Y6.8754 I-0.0625
X2.1996 I-0.8629 J-0.6332
X2.1875 Y6.8385 I0.0504 J-0.037
G1 Y5.3567
Z-0.4588
Y5.1067
Z-0.49 F35
Y2.1433 F771967.01
Z-0.4588
Y1.8933
Z-0.49 F35
Y0.4116 F771967.01
G3 X2.1996 Y0.3746 I0.0625
G2 X2.1969 Y0.3571 I-0.0101 J-0.0074 F35
G1 X2.1869 Y0.3497
X2.1846 Y0.3481 Z-0.4897
X2.1825 Y0.3465 Z-0.4888
X2.1806 Y0.3451 Z-0.4873
X2.179 Y0.3439 Z-0.4853
X2.1778 Y0.343 Z-0.4829
X2.177 Y0.3425 Z-0.4803
X2.1768 Y0.3423 Z-0.4775
G0 Z0.6
M9
M30
%
