%
(SmallStraightTrack_1_8_flat)
(T2  D=0.125 CR=0 - ZMIN=-0.4449 - flat end mill)
G90 G94
G17
G20

(2D Contour2)
M9
T2 M6
S11028 M3
G54
M8
G0 X0.939 Y0.4482
Z0.6
Z0.2
G1 Z0.0794 F35
Z-0.0275
X0.9393 Z-0.0303
X0.9402 Z-0.0329
X0.9417 Z-0.0353
X0.9437 Z-0.0373
X0.9461 Z-0.0388
X0.9487 Z-0.0397
X0.9515 Z-0.04
X0.964
G2 X0.9765 Y0.4357 J-0.0125
X0.9 Y0.2846 I-0.1875 F35.38
G3 X0.8745 Y0.2342 I0.037 J-0.0504
G1 Y0
G3 X0.937 Y-0.0625 I0.0625
G1 X1.5748
G3 X1.6373 Y0 J0.0625
G1 Y2.3622
G3 X1.5748 Y2.4247 I-0.0625
G1 X0.9719
Y2.6065
G3 X0.9554 Y3.0637 I-0.1845 J0.2223
X0.7874 Y3.1176 I-0.168 J-0.235
X0.6029 Y2.6065 J-0.2889
G1 Y2.4247
X0
G3 X-0.0625 Y2.3622 J-0.0625
G1 Y0
G3 X0 Y-0.0625 I0.0625
G1 X0.6378
G3 X0.7003 Y0 J0.0625
G1 Y0.2283
G3 X0.676 Y0.2861 I-0.062 J0.0079
G2 X0.902 Y0.5853 I0.113 J0.1496
X0.9765 Y0.4357 I-0.113 J-0.1496
X0.964 Y0.4232 I-0.0125 F35
G1 X0.9515
X0.9487 Z-0.0397
X0.9461 Z-0.0388
X0.9437 Z-0.0373
X0.9417 Z-0.0353
X0.9402 Z-0.0329
X0.9393 Z-0.0303
X0.939 Z-0.0275
Y0.4482
Z-0.0675
X0.9393 Z-0.0703
X0.9402 Z-0.0729
X0.9417 Z-0.0753
X0.9437 Z-0.0773
X0.9461 Z-0.0788
X0.9487 Z-0.0797
X0.9515 Z-0.08
X0.964
G2 X0.9765 Y0.4357 J-0.0125
X0.9 Y0.2846 I-0.1875 F35.38
G3 X0.8745 Y0.2342 I0.037 J-0.0504
G1 Y0
G3 X0.937 Y-0.0625 I0.0625
G1 X1.5748
G3 X1.6373 Y0 J0.0625
G1 Y2.3622
G3 X1.5748 Y2.4247 I-0.0625
G1 X0.9719
Y2.6065
G3 X0.9554 Y3.0637 I-0.1845 J0.2223
X0.7874 Y3.1176 I-0.168 J-0.235
X0.6029 Y2.6065 J-0.2889
G1 Y2.4247
X0
G3 X-0.0625 Y2.3622 J-0.0625
G1 Y0
G3 X0 Y-0.0625 I0.0625
G1 X0.6378
G3 X0.7003 Y0 J0.0625
G1 Y0.2283
G3 X0.676 Y0.2861 I-0.062 J0.0079
G2 X0.902 Y0.5853 I0.113 J0.1496
X0.9765 Y0.4357 I-0.113 J-0.1496
X0.964 Y0.4232 I-0.0125 F35
G1 X0.9515
X0.9487 Z-0.0797
X0.9461 Z-0.0788
X0.9437 Z-0.0773
X0.9417 Z-0.0753
X0.9402 Z-0.0729
X0.9393 Z-0.0703
X0.939 Z-0.0675
Y0.4482
Z-0.1075
X0.9393 Z-0.1103
X0.9402 Z-0.1129
X0.9417 Z-0.1153
X0.9437 Z-0.1173
X0.9461 Z-0.1188
X0.9487 Z-0.1197
X0.9515 Z-0.12
X0.964
G2 X0.9765 Y0.4357 J-0.0125
X0.9 Y0.2846 I-0.1875 F35.38
G3 X0.8745 Y0.2342 I0.037 J-0.0504
G1 Y0
G3 X0.937 Y-0.0625 I0.0625
G1 X1.5748
G3 X1.6373 Y0 J0.0625
G1 Y2.3622
G3 X1.5748 Y2.4247 I-0.0625
G1 X0.9719
Y2.6065
G3 X0.9554 Y3.0637 I-0.1845 J0.2223
X0.7874 Y3.1176 I-0.168 J-0.235
X0.6029 Y2.6065 J-0.2889
G1 Y2.4247
X0
G3 X-0.0625 Y2.3622 J-0.0625
G1 Y0
G3 X0 Y-0.0625 I0.0625
G1 X0.6378
G3 X0.7003 Y0 J0.0625
G1 Y0.2283
G3 X0.676 Y0.2861 I-0.062 J0.0079
G2 X0.902 Y0.5853 I0.113 J0.1496
X0.9765 Y0.4357 I-0.113 J-0.1496
X0.964 Y0.4232 I-0.0125 F35
G1 X0.9515
X0.9487 Z-0.1197
X0.9461 Z-0.1188
X0.9437 Z-0.1173
X0.9417 Z-0.1153
X0.9402 Z-0.1129
X0.9393 Z-0.1103
X0.939 Z-0.1075
Y0.4482
Z-0.1475
X0.9393 Z-0.1503
X0.9402 Z-0.1529
X0.9417 Z-0.1553
X0.9437 Z-0.1573
X0.9461 Z-0.1588
X0.9487 Z-0.1597
X0.9515 Z-0.16
X0.964
G2 X0.9765 Y0.4357 J-0.0125
X0.9 Y0.2846 I-0.1875 F35.38
G3 X0.8745 Y0.2342 I0.037 J-0.0504
G1 Y0
G3 X0.937 Y-0.0625 I0.0625
G1 X1.5748
G3 X1.6373 Y0 J0.0625
G1 Y2.3622
G3 X1.5748 Y2.4247 I-0.0625
G1 X0.9719
Y2.6065
G3 X0.9554 Y3.0637 I-0.1845 J0.2223
X0.7874 Y3.1176 I-0.168 J-0.235
X0.6029 Y2.6065 J-0.2889
G1 Y2.4247
X0
G3 X-0.0625 Y2.3622 J-0.0625
G1 Y0
G3 X0 Y-0.0625 I0.0625
G1 X0.6378
G3 X0.7003 Y0 J0.0625
G1 Y0.2283
G3 X0.676 Y0.2861 I-0.062 J0.0079
G2 X0.902 Y0.5853 I0.113 J0.1496
X0.9765 Y0.4357 I-0.113 J-0.1496
X0.964 Y0.4232 I-0.0125 F35
G1 X0.9515
X0.9487 Z-0.1597
X0.9461 Z-0.1588
X0.9437 Z-0.1573
X0.9417 Z-0.1553
X0.9402 Z-0.1529
X0.9393 Z-0.1503
X0.939 Z-0.1475
Y0.4482
Z-0.1875
X0.9393 Z-0.1903
X0.9402 Z-0.1929
X0.9417 Z-0.1953
X0.9437 Z-0.1973
X0.9461 Z-0.1988
X0.9487 Z-0.1997
X0.9515 Z-0.2
X0.964
G2 X0.9765 Y0.4357 J-0.0125
X0.9 Y0.2846 I-0.1875 F35.38
G3 X0.8745 Y0.2342 I0.037 J-0.0504
G1 Y0
G3 X0.937 Y-0.0625 I0.0625
G1 X1.5748
G3 X1.6373 Y0 J0.0625
G1 Y2.3622
G3 X1.5748 Y2.4247 I-0.0625
G1 X0.9719
Y2.6065
G3 X0.9554 Y3.0637 I-0.1845 J0.2223
X0.7874 Y3.1176 I-0.168 J-0.235
X0.6029 Y2.6065 J-0.2889
G1 Y2.4247
X0
G3 X-0.0625 Y2.3622 J-0.0625
G1 Y0
G3 X0 Y-0.0625 I0.0625
G1 X0.6378
G3 X0.7003 Y0 J0.0625
G1 Y0.2283
G3 X0.676 Y0.2861 I-0.062 J0.0079
G2 X0.902 Y0.5853 I0.113 J0.1496
X0.9765 Y0.4357 I-0.113 J-0.1496
X0.964 Y0.4232 I-0.0125 F35
G1 X0.9515
X0.9487 Z-0.1997
X0.9461 Z-0.1988
X0.9437 Z-0.1973
X0.9417 Z-0.1953
X0.9402 Z-0.1929
X0.9393 Z-0.1903
X0.939 Z-0.1875
Y0.4482
Z-0.2275
X0.9393 Z-0.2303
X0.9402 Z-0.2329
X0.9417 Z-0.2353
X0.9437 Z-0.2373
X0.9461 Z-0.2388
X0.9487 Z-0.2397
X0.9515 Z-0.24
X0.964
G2 X0.9765 Y0.4357 J-0.0125
X0.9 Y0.2846 I-0.1875 F35.38
G3 X0.8745 Y0.2342 I0.037 J-0.0504
G1 Y0
G3 X0.937 Y-0.0625 I0.0625
G1 X1.5748
G3 X1.6373 Y0 J0.0625
G1 Y2.3622
G3 X1.5748 Y2.4247 I-0.0625
G1 X0.9719
Y2.6065
G3 X0.9554 Y3.0637 I-0.1845 J0.2223
X0.7874 Y3.1176 I-0.168 J-0.235
X0.6029 Y2.6065 J-0.2889
G1 Y2.4247
X0
G3 X-0.0625 Y2.3622 J-0.0625
G1 Y0
G3 X0 Y-0.0625 I0.0625
G1 X0.6378
G3 X0.7003 Y0 J0.0625
G1 Y0.2283
G3 X0.676 Y0.2861 I-0.062 J0.0079
G2 X0.902 Y0.5853 I0.113 J0.1496
X0.9765 Y0.4357 I-0.113 J-0.1496
X0.964 Y0.4232 I-0.0125 F35
G1 X0.9515
X0.9487 Z-0.2397
X0.9461 Z-0.2388
X0.9437 Z-0.2373
X0.9417 Z-0.2353
X0.9402 Z-0.2329
X0.9393 Z-0.2303
X0.939 Z-0.2275
Y0.4482
Z-0.2675
X0.9393 Z-0.2703
X0.9402 Z-0.2729
X0.9417 Z-0.2753
X0.9437 Z-0.2773
X0.9461 Z-0.2788
X0.9487 Z-0.2797
X0.9515 Z-0.28
X0.964
G2 X0.9765 Y0.4357 J-0.0125
X0.9 Y0.2846 I-0.1875 F35.38
G3 X0.8745 Y0.2342 I0.037 J-0.0504
G1 Y0
G3 X0.937 Y-0.0625 I0.0625
G1 X1.5748
G3 X1.6373 Y0 J0.0625
G1 Y2.3622
G3 X1.5748 Y2.4247 I-0.0625
G1 X0.9719
Y2.6065
G3 X0.9554 Y3.0637 I-0.1845 J0.2223
X0.7874 Y3.1176 I-0.168 J-0.235
X0.6029 Y2.6065 J-0.2889
G1 Y2.4247
X0
G3 X-0.0625 Y2.3622 J-0.0625
G1 Y0
G3 X0 Y-0.0625 I0.0625
G1 X0.6378
G3 X0.7003 Y0 J0.0625
G1 Y0.2283
G3 X0.676 Y0.2861 I-0.062 J0.0079
G2 X0.902 Y0.5853 I0.113 J0.1496
X0.9765 Y0.4357 I-0.113 J-0.1496
X0.964 Y0.4232 I-0.0125 F35
G1 X0.9515
X0.9487 Z-0.2797
X0.9461 Z-0.2788
X0.9437 Z-0.2773
X0.9417 Z-0.2753
X0.9402 Z-0.2729
X0.9393 Z-0.2703
X0.939 Z-0.2675
Y0.4482
Z-0.3075
X0.9393 Z-0.3103
X0.9402 Z-0.3129
X0.9417 Z-0.3153
X0.9437 Z-0.3173
X0.9461 Z-0.3188
X0.9487 Z-0.3197
X0.9515 Z-0.32
X0.964
G2 X0.9765 Y0.4357 J-0.0125
X0.9 Y0.2846 I-0.1875 F35.38
G3 X0.8745 Y0.2342 I0.037 J-0.0504
G1 Y0
G3 X0.937 Y-0.0625 I0.0625
G1 X1.5748
G3 X1.6373 Y0 J0.0625
G1 Y2.3622
G3 X1.5748 Y2.4247 I-0.0625
G1 X0.9719
Y2.6065
G3 X0.9554 Y3.0637 I-0.1845 J0.2223
X0.7874 Y3.1176 I-0.168 J-0.235
X0.6029 Y2.6065 J-0.2889
G1 Y2.4247
X0
G3 X-0.0625 Y2.3622 J-0.0625
G1 Y0
G3 X0 Y-0.0625 I0.0625
G1 X0.6378
G3 X0.7003 Y0 J0.0625
G1 Y0.2283
G3 X0.676 Y0.2861 I-0.062 J0.0079
G2 X0.902 Y0.5853 I0.113 J0.1496
X0.9765 Y0.4357 I-0.113 J-0.1496
X0.964 Y0.4232 I-0.0125 F35
G1 X0.9515
X0.9487 Z-0.3197
X0.9461 Z-0.3188
X0.9437 Z-0.3173
X0.9417 Z-0.3153
X0.9402 Z-0.3129
X0.9393 Z-0.3103
X0.939 Z-0.3075
Y0.4482
Z-0.3475
X0.9393 Z-0.3503
X0.9402 Z-0.3529
X0.9417 Z-0.3553
X0.9437 Z-0.3573
X0.9461 Z-0.3588
X0.9487 Z-0.3597
X0.9515 Z-0.36
X0.964
G2 X0.9765 Y0.4357 J-0.0125
X0.9 Y0.2846 I-0.1875 F35.38
G3 X0.8745 Y0.2342 I0.037 J-0.0504
G1 Y0
G3 X0.937 Y-0.0625 I0.0625
G1 X1.5748
G3 X1.6373 Y0 J0.0625
G1 Y2.3622
G3 X1.5748 Y2.4247 I-0.0625
G1 X0.9719
Y2.6065
G3 X0.9554 Y3.0637 I-0.1845 J0.2223
X0.7874 Y3.1176 I-0.168 J-0.235
X0.6029 Y2.6065 J-0.2889
G1 Y2.4247
X0
G3 X-0.0625 Y2.3622 J-0.0625
G1 Y0
G3 X0 Y-0.0625 I0.0625
G1 X0.6378
G3 X0.7003 Y0 J0.0625
G1 Y0.2283
G3 X0.676 Y0.2861 I-0.062 J0.0079
G2 X0.902 Y0.5853 I0.113 J0.1496
X0.9765 Y0.4357 I-0.113 J-0.1496
X0.964 Y0.4232 I-0.0125 F35
G1 X0.9515
X0.9487 Z-0.3597
X0.9461 Z-0.3588
X0.9437 Z-0.3573
X0.9417 Z-0.3553
X0.9402 Z-0.3529
X0.9393 Z-0.3503
X0.939 Z-0.3475
Y0.4482
Z-0.3875
X0.9393 Z-0.3903
X0.9402 Z-0.3929
X0.9417 Z-0.3953
X0.9437 Z-0.3973
X0.9461 Z-0.3988
X0.9487 Z-0.3997
X0.9515 Z-0.4
X0.964
G2 X0.9765 Y0.4357 J-0.0125
X0.9 Y0.2846 I-0.1875 F35.38
G3 X0.8745 Y0.2342 I0.037 J-0.0504
G1 Y0
G3 X0.937 Y-0.0625 I0.0625
G1 X1.5748
G3 X1.6373 Y0 J0.0625
G1 Y0.4656
Z-0.3949
Y0.7156
Z-0.4 F35
Y1.6467 F35.38
Z-0.3949
Y1.8967
Z-0.4 F35
Y2.3622 F35.38
G3 X1.5748 Y2.4247 I-0.0625
G1 X0.9719
Y2.6065
G3 X0.9554 Y3.0637 I-0.1845 J0.2223
X0.9124 Y3.0892 I-0.168 J-0.235
G1 Z-0.3949
G3 X0.7874 Y3.1176 I-0.125 J-0.2604
X0.6624 Y3.0892 J-0.2889
G1 Z-0.4 F35
G3 X0.6029 Y2.6065 I0.125 J-0.2604 F35.38
G1 Y2.4247
X0
G3 X-0.0625 Y2.3622 J-0.0625
G1 Y1.8967
Z-0.3949
Y1.6467
Z-0.4 F35
Y0.7156 F35.38
Z-0.3949
Y0.4656
Z-0.4 F35
Y0 F35.38
G3 X0 Y-0.0625 I0.0625
G1 X0.6378
G3 X0.7003 Y0 J0.0625
G1 Y0.2283
G3 X0.676 Y0.2861 I-0.062 J0.0079
G2 X0.6649 Y0.5763 I0.113 J0.1496
G1 Z-0.3949
G2 X0.9149 Y0.5746 I0.1241 J-0.1406
G1 Z-0.4 F35
G2 X0.9765 Y0.4357 I-0.1259 J-0.1389 F35.38
X0.964 Y0.4232 I-0.0125 F35
G1 X0.9515
X0.9487 Z-0.3997
X0.9461 Z-0.3988
X0.9437 Z-0.3973
X0.9417 Z-0.3953
X0.9402 Z-0.3929
X0.9393 Z-0.3903
X0.939 Z-0.3875
Y0.4482
Z-0.4099
X0.9393 Z-0.4127
X0.9402 Z-0.4154
X0.9417 Z-0.4177
X0.9437 Z-0.4197
X0.9461 Z-0.4212
X0.9487 Z-0.4221
X0.9515 Z-0.4224
X0.964
G2 X0.9765 Y0.4357 J-0.0125
X0.9 Y0.2846 I-0.1875 F35.38
G3 X0.8745 Y0.2342 I0.037 J-0.0504
G1 Y0
G3 X0.937 Y-0.0625 I0.0625
G1 X1.5748
G3 X1.6373 Y0 J0.0625
G1 Y0.4656
Z-0.3949
Y0.7156
Z-0.4224 F35
Y1.6467 F35.38
Z-0.3949
Y1.8967
Z-0.4224 F35
Y2.3622 F35.38
G3 X1.5748 Y2.4247 I-0.0625
G1 X0.9719
Y2.6065
G3 X0.9554 Y3.0637 I-0.1845 J0.2223
X0.9124 Y3.0892 I-0.168 J-0.235
G1 Z-0.3949
G3 X0.7874 Y3.1176 I-0.125 J-0.2604
X0.6624 Y3.0892 J-0.2889
G1 Z-0.4224 F35
G3 X0.6029 Y2.6065 I0.125 J-0.2604 F35.38
G1 Y2.4247
X0
G3 X-0.0625 Y2.3622 J-0.0625
G1 Y1.8967
Z-0.3949
Y1.6467
Z-0.4224 F35
Y0.7156 F35.38
Z-0.3949
Y0.4656
Z-0.4224 F35
Y0 F35.38
G3 X0 Y-0.0625 I0.0625
G1 X0.6378
G3 X0.7003 Y0 J0.0625
G1 Y0.2283
G3 X0.676 Y0.2861 I-0.062 J0.0079
G2 X0.6649 Y0.5763 I0.113 J0.1496
G1 Z-0.3949
G2 X0.9149 Y0.5746 I0.1241 J-0.1406
G1 Z-0.4224 F35
G2 X0.9765 Y0.4357 I-0.1259 J-0.1389 F35.38
X0.964 Y0.4232 I-0.0125 F35
G1 X0.9515
X0.9487 Z-0.4221
X0.9461 Z-0.4212
X0.9437 Z-0.4197
X0.9417 Z-0.4177
X0.9402 Z-0.4154
X0.9393 Z-0.4127
X0.939 Z-0.4099
Y0.4482
Z-0.4324
X0.9393 Z-0.4352
X0.9402 Z-0.4378
X0.9417 Z-0.4402
X0.9437 Z-0.4422
X0.9461 Z-0.4436
X0.9487 Z-0.4446
X0.9515 Z-0.4449
X0.964
G2 X0.9765 Y0.4357 J-0.0125
X0.9 Y0.2846 I-0.1875 F35.38
G3 X0.8745 Y0.2342 I0.037 J-0.0504
G1 Y0
G3 X0.937 Y-0.0625 I0.0625
G1 X1.5748
G3 X1.6373 Y0 J0.0625
G1 Y0.4656
Z-0.3949
Y0.7156
Z-0.4449 F35
Y1.6467 F35.38
Z-0.3949
Y1.8967
Z-0.4449 F35
Y2.3622 F35.38
G3 X1.5748 Y2.4247 I-0.0625
G1 X0.9719
Y2.6065
G3 X0.9554 Y3.0637 I-0.1845 J0.2223
X0.9124 Y3.0892 I-0.168 J-0.235
G1 Z-0.3949
G3 X0.7874 Y3.1176 I-0.125 J-0.2604
X0.6624 Y3.0892 J-0.2889
G1 Z-0.4449 F35
G3 X0.6029 Y2.6065 I0.125 J-0.2604 F35.38
G1 Y2.4247
X0
G3 X-0.0625 Y2.3622 J-0.0625
G1 Y1.8967
Z-0.3949
Y1.6467
Z-0.4449 F35
Y0.7156 F35.38
Z-0.3949
Y0.4656
Z-0.4449 F35
Y0 F35.38
G3 X0 Y-0.0625 I0.0625
G1 X0.6378
G3 X0.7003 Y0 J0.0625
G1 Y0.2283
G3 X0.676 Y0.2861 I-0.062 J0.0079
G2 X0.6649 Y0.5763 I0.113 J0.1496
G1 Z-0.3949
G2 X0.9149 Y0.5746 I0.1241 J-0.1406
G1 Z-0.4449 F35
G2 X0.9765 Y0.4357 I-0.1259 J-0.1389 F35.38
X0.964 Y0.4232 I-0.0125 F35
G1 X0.9515
X0.9487 Z-0.4446
X0.9461 Z-0.4436
X0.9437 Z-0.4422
X0.9417 Z-0.4402
X0.9402 Z-0.4378
X0.9393 Z-0.4352
X0.939 Z-0.4324
G0 Z0.6
M9
M30
%
