%
(SmallStraightTrack_1_8_ball)
(T5  D=0.125 CR=0.0625 - ZMIN=-0.1581 - ball end mill)
G90 G94
G17
G20

(Ramp1)
M9
T5 M6
S11028 M3
G54
M8
G0 X-0.0235 Y0.0044
Z0.6
Z0.078
G1 Z0.0125 F40.38
X-0.0238 Y0.0043 Z0.0097
X-0.0247 Y0.004 Z0.0071
X-0.0261 Y0.0035 Z0.0047
X-0.028 Y0.0028 Z0.0027
X-0.0302 Y0.0021 Z0.0012
X-0.0327 Y0.0012 Z0.0003
X-0.0353 Y0.0003 Z0
G3 X-0.0431 Y-0.0156 I0.0041 J-0.0118
G1 X-0.0417 Y-0.0189
X-0.0406 Y-0.0213
X-0.0392 Y-0.0237
X-0.0383 Y-0.0252
X-0.0358 Y-0.0286 Z-0.0001
X-0.0334 Y-0.0313
X-0.0314 Y-0.0334
X-0.0286 Y-0.0358
X-0.0252 Y-0.0382
X-0.0238 Y-0.0392
X-0.0214 Y-0.0405
X-0.019 Y-0.0417
X-0.0156 Y-0.0431 Z-0.0002
X-0.0141 Y-0.0436
X-0.0093 Y-0.0449
X-0.0045 Y-0.0456
X0.0004 Y-0.0458
X0.1162 Z-0.0007
X0.1211 Y-0.0457
X0.1259 Y-0.0453
X0.1307 Y-0.0448
X0.1356 Y-0.044
X0.1392 Y-0.0431
X0.1404 Y-0.0427
X0.1452 Y-0.0412 Z-0.0008
X0.15 Y-0.0394
X0.1525 Y-0.0382
X0.1549 Y-0.037
X0.1597 Y-0.0337
X0.1601 Y-0.0334
X0.1645 Y-0.0299 Z-0.0009
X0.166 Y-0.0286
X0.1694 Y-0.0251
X0.1704 Y-0.0237
X0.1722 Y-0.0213
X0.1737 Y-0.0189
X0.1742 Y-0.018
X0.176 Y-0.0141
X0.1775 Y-0.0092
X0.1784 Y-0.0044 Z-0.001
X0.1786 Y0.0004
Y2.3588 Z-0.0099
Y2.3636
X0.1781 Y2.3685 Z-0.01
X0.177 Y2.3733
X0.1752 Y2.3781
X0.1742 Y2.3802
X0.1726 Y2.383
X0.1694 Y2.3873
X0.1689 Y2.3878
X0.1645 Y2.3921 Z-0.0101
X0.1639 Y2.3926
X0.1597 Y2.3959
X0.1576 Y2.3974
X0.1549 Y2.3992
X0.15 Y2.4016
X0.1483 Y2.4023
X0.1452 Y2.4034 Z-0.0102
X0.1404 Y2.4049
X0.1356 Y2.4062
X0.1307 Y2.407
X0.1301 Y2.4071
X0.1259 Y2.4075
X0.1211 Y2.4079
X0.1162 Y2.408 Z-0.0103
X0.0004 Z-0.0107
X-0.0045 Y2.4078
X-0.0091 Y2.4071
X-0.0093
X-0.0141 Y2.4058 Z-0.0108
X-0.019 Y2.4039
X-0.0222 Y2.4023
X-0.0238 Y2.4014
X-0.0262 Y2.3998
X-0.0286 Y2.398
X-0.0293 Y2.3974
X-0.0314 Y2.3956
X-0.0334 Y2.3935
X-0.0343 Y2.3926 Z-0.0109
X-0.0363 Y2.3902
X-0.038 Y2.3878
X-0.0383 Y2.3874
X-0.0409 Y2.383
X-0.043 Y2.3781
X-0.0431 Y2.3778
X-0.0445 Y2.3733
X-0.0454 Y2.3685 Z-0.011
X-0.0458 Y2.3636
Y2.3588
Y0.0004 Z-0.0199
X-0.0456 Y-0.0044 Z-0.02
X-0.0449 Y-0.0092
X-0.0436 Y-0.0141
X-0.0431 Y-0.0156
X-0.0416 Y-0.0193
X-0.0398 Y-0.0228
X-0.0387 Y-0.0246
X-0.0376 Y-0.0262
X-0.0352 Y-0.0294 Z-0.0201
X-0.0326 Y-0.0323
X-0.0299 Y-0.0348
X-0.0283 Y-0.0361
X-0.0267 Y-0.0374
X-0.025 Y-0.0385
X-0.0233 Y-0.0396
X-0.0198 Y-0.0415
X-0.0161 Y-0.043
X-0.0124 Y-0.0443 Z-0.0202
X-0.0086 Y-0.0452
X-0.0047 Y-0.0458
X-0.0007 Y-0.046
X0.0088
X0.0587 Y-0.0462 Z-0.0204
X0.1085 Y-0.0464 Z-0.0206
X0.1183 Z-0.0207
X0.1279 Y-0.0458
X0.1323 Y-0.0453
X0.1346 Y-0.0449
X0.1368 Y-0.0445
X0.145 Y-0.042 Z-0.0208
X0.1491 Y-0.0406
X0.1511 Y-0.0398
X0.1531 Y-0.0389
X0.1566 Y-0.0369
X0.1599 Y-0.0346
X0.1632 Y-0.0322
X0.1663 Y-0.0297
X0.1688 Y-0.0273 Z-0.0209
X0.1711 Y-0.0247
X0.1731 Y-0.022
X0.1748 Y-0.0191
X0.1764 Y-0.016
X0.1776 Y-0.0129
X0.1785 Y-0.0098
X0.1792 Y-0.0066
X0.1796 Y-0.0035 Z-0.021
X0.1798 Y-0.0004
X0.1799 Y0.0088
X0.1857 Y1.3055 Z-0.0258
X0.1859 Y1.3454 Z-0.026
X0.1861 Y1.3853 Z-0.0261
X0.1863 Y1.4252 Z-0.0263
X0.1864 Y1.4651 Z-0.0264
X0.1866 Y1.505 Z-0.0266
X0.1868 Y1.5449 Z-0.0267
X0.187 Y1.5848 Z-0.0269
X0.1871 Y1.6247 Z-0.027
X0.1873 Y1.6646 Z-0.0272
X0.1875 Y1.7045 Z-0.0273
X0.1876 Y1.7444 Z-0.0275
X0.1878 Y1.7843 Z-0.0276
X0.188 Y1.8242 Z-0.0278
X0.1881 Y1.8641 Z-0.0279
X0.1883 Y1.904 Z-0.0281
X0.1885 Y1.9439 Z-0.0282
X0.1886 Y1.9838 Z-0.0284
X0.1888 Y2.0237 Z-0.0285
X0.1889 Y2.0636 Z-0.0287
X0.1891 Y2.1035 Z-0.0288
X0.1892 Y2.1434 Z-0.029
X0.1894 Y2.1833 Z-0.0291
X0.1896 Y2.2232 Z-0.0293
X0.1897 Y2.2631 Z-0.0294
X0.1899 Y2.303 Z-0.0296
X0.19 Y2.3429 Z-0.0297
Y2.3529
X0.1901 Y2.3628 Z-0.0298
X0.1898 Y2.3669
X0.1896 Y2.3689
X0.1892 Y2.371
X0.1888 Y2.373
X0.1882 Y2.3751
X0.1875 Y2.3771
X0.1868 Y2.3791
X0.185 Y2.3829
X0.184 Y2.3847 Z-0.0299
X0.1829 Y2.3864
X0.1805 Y2.3898
X0.1779 Y2.393
X0.175 Y2.3961
X0.1718 Y2.399
X0.1682 Y2.4019
X0.1663 Y2.4031
X0.1644 Y2.4044 Z-0.03
X0.1604 Y2.4064
X0.1564 Y2.4083
X0.1519 Y2.4101
X0.1497 Y2.4109
X0.1474 Y2.4117
X0.1429 Y2.4128
X0.1383 Y2.4137 Z-0.0301
X0.1336 Y2.4146
X0.1288 Y2.4151
X0.119 Y2.4157
X0.1091 Z-0.0302
X0.0493 Y2.4158 Z-0.0304
X0.0094 Y2.4159 Z-0.0305
X-0.0004 Z-0.0306
X-0.005 Y2.4157
X-0.0096 Y2.4151
X-0.0141 Y2.4141
X-0.0186 Y2.4127
X-0.0228 Y2.4109 Z-0.0307
X-0.0269 Y2.4088
X-0.0308 Y2.4063
X-0.0345 Y2.4035
X-0.0378 Y2.4005
X-0.041 Y2.3971
X-0.0438 Y2.3935 Z-0.0308
X-0.0463 Y2.3897
X-0.0485 Y2.3856
X-0.0504 Y2.3814
X-0.0518 Y2.3769
X-0.0529 Y2.3724
X-0.0536 Y2.3679 Z-0.0309
X-0.0539 Y2.3633
Y2.3534
X-0.0541 Y2.2936 Z-0.0311
X-0.0542 Y2.2337 Z-0.0314
X-0.0543 Y2.1739 Z-0.0316
X-0.0544 Y2.114 Z-0.0318
X-0.0546 Y2.0542 Z-0.032
X-0.0547 Y1.9943 Z-0.0323
X-0.0548 Y1.9345 Z-0.0325
X-0.0549 Y1.8747 Z-0.0327
X-0.0551 Y1.8148 Z-0.0329
X-0.0552 Y1.755 Z-0.0331
X-0.0553 Y1.6951 Z-0.0334
X-0.0554 Y1.6353 Z-0.0336
X-0.0555 Y1.5754 Z-0.0338
X-0.0556 Y1.5156 Z-0.034
X-0.0558 Y1.4557 Z-0.0343
X-0.0559 Y1.3959 Z-0.0345
X-0.056 Y1.336 Z-0.0347
X-0.0561 Y1.2762 Z-0.0349
X-0.0562 Y1.2163 Z-0.0352
X-0.0563 Y1.1565 Z-0.0354
X-0.0564 Y1.0966 Z-0.0356
X-0.0565 Y1.0368 Z-0.0358
X-0.0566 Y0.9769 Z-0.036
X-0.0567 Y0.9171 Z-0.0363
X-0.0568 Y0.8572 Z-0.0365
X-0.0569 Y0.7974 Z-0.0367
X-0.057 Y0.7375 Z-0.0369
X-0.0571 Y0.6777 Z-0.0372
X-0.0572 Y0.6178 Z-0.0374
X-0.0573 Y0.558 Z-0.0376
X-0.0574 Y0.4981 Z-0.0378
X-0.0575 Y0.4283 Z-0.0381
X-0.0576 Y0.3585 Z-0.0384
X-0.0578 Y0.2887 Z-0.0386
X-0.0579 Y0.2188 Z-0.0389
X-0.058 Y0.149 Z-0.0391
X-0.0581 Y0.0792 Z-0.0394
X-0.0582 Y0.0094 Z-0.0397
Y-0.0006
X-0.0579 Y-0.0056
X-0.0572 Y-0.0105
X-0.0561 Y-0.0154
X-0.0546 Y-0.0201 Z-0.0398
X-0.0527 Y-0.0247
X-0.0504 Y-0.0291
X-0.0478 Y-0.0333
X-0.0447 Y-0.0373
X-0.0414 Y-0.041 Z-0.0399
X-0.0377 Y-0.0444
X-0.0338 Y-0.0475
X-0.0296 Y-0.0502
X-0.0252 Y-0.0525
X-0.0207 Y-0.0545
X-0.0159 Y-0.0561 Z-0.04
X-0.0111 Y-0.0572
X-0.0072 Y-0.0578
X-0.0045 Y-0.0581
X0.0004 Y-0.0583
X0.1162
X0.1211 Y-0.0582
X0.1259 Y-0.0581
X0.1307 Y-0.0578
X0.1329 Y-0.0576
X0.1356 Y-0.0572
X0.1404 Y-0.0566
X0.1452 Y-0.0558
X0.15 Y-0.0546
X0.1549 Y-0.0533
X0.1566 Y-0.0527
X0.1597 Y-0.0517
X0.1645 Y-0.0495
X0.1678 Y-0.0479
X0.1694 Y-0.047
X0.1742 Y-0.0442
X0.1758 Y-0.0431
X0.179 Y-0.0407
X0.1818 Y-0.0382
X0.1838 Y-0.0362
X0.1863 Y-0.0334
X0.1887 Y-0.0304
X0.1899 Y-0.0286
X0.1928 Y-0.0237
X0.1935 Y-0.0224
X0.1951 Y-0.0189
X0.1968 Y-0.0141
X0.198 Y-0.0092
X0.1983 Y-0.0072
X0.1987 Y-0.0044
X0.1989 Y0.0004
Y2.3588
Y2.3636
X0.1985 Y2.3685
X0.1983 Y2.3695
X0.1976 Y2.3733
X0.1962 Y2.3781
X0.1943 Y2.383
X0.1935 Y2.3846
X0.1918 Y2.3878
X0.1887 Y2.3926
X0.1868 Y2.395
X0.1848 Y2.3974
X0.1838 Y2.3984
X0.1818 Y2.4005
X0.1797 Y2.4023
X0.179 Y2.4029
X0.1766 Y2.4047
X0.1742 Y2.4064
X0.173 Y2.4071
X0.1694 Y2.4092
X0.1645 Y2.4118
X0.1641 Y2.4119
X0.1597 Y2.4139
X0.1549 Y2.4155
X0.1501 Y2.4168
X0.15
X0.1452 Y2.418
X0.1404 Y2.4188
X0.1356 Y2.4194
X0.1307 Y2.42
X0.1259 Y2.4203
X0.1211 Y2.4204
X0.1162 Y2.4205
X0.0004
X-0.0045 Y2.4203
X-0.0093 Y2.4198
X-0.0141 Y2.4188
X-0.019 Y2.4173
X-0.0205 Y2.4168
X-0.0238 Y2.4154
X-0.0286 Y2.413
X-0.0304 Y2.4119
X-0.0334 Y2.41
X-0.0372 Y2.4071
X-0.0383 Y2.4062
X-0.0403 Y2.4043
X-0.0424 Y2.4023
X-0.0431 Y2.4015
X-0.0465 Y2.3974
X-0.0479 Y2.3954
X-0.0498 Y2.3926
X-0.0511 Y2.3902
X-0.0524 Y2.3878
X-0.0528 Y2.387
X-0.0545 Y2.383
X-0.0561 Y2.3781
X-0.0572 Y2.3733
X-0.0576 Y2.3714
X-0.058 Y2.3685
X-0.0583 Y2.3636
Y2.3588
Y0.0004
X-0.0581 Y-0.0044
X-0.0576 Y-0.0092
X-0.0566 Y-0.0141
X-0.0552 Y-0.0189
X-0.0533 Y-0.0237
X-0.0528 Y-0.0248
X-0.0508 Y-0.0286
X-0.0495 Y-0.0309
X-0.0479 Y-0.0332
X-0.0478 Y-0.0334
X-0.046 Y-0.0358
X-0.044 Y-0.0382
X-0.0431 Y-0.0393
X-0.0393 Y-0.0431
X-0.0383 Y-0.044
X-0.0359 Y-0.046
X-0.0334 Y-0.0478
X-0.0332 Y-0.0479
X-0.0309 Y-0.0494
X-0.0286 Y-0.0508
X-0.0249 Y-0.0527
X-0.0238 Y-0.0532
X-0.019 Y-0.0551
X-0.0141 Y-0.0566
X-0.0093 Y-0.0576
X-0.0092
X-0.0072 Y-0.0578
G3 X-0.0212 Y-0.0687 I-0.0015 J-0.0124
G1 X-0.0215 Y-0.0714 Z-0.0397
X-0.0218 Y-0.074 Z-0.0388
X-0.0221 Y-0.0764 Z-0.0373
X-0.0224 Y-0.0784 Z-0.0353
X-0.0226 Y-0.0798 Z-0.0329
X-0.0227 Y-0.0808 Z-0.0303
Y-0.0811 Z-0.0275
G0 Z0.2
X0.1188 Y2.4464
Z0.0524
G1 Z-0.0309 F40.38
Y2.4461 Z-0.0333
X0.1187 Y2.4452 Z-0.0355
Y2.4438 Z-0.0373
Y2.4419 Z-0.0388
X0.1186 Y2.4397 Z-0.0397
X0.1185 Y2.4374 Z-0.04
G3 X0.1307 Y2.4245 I0.0125 J-0.0003
G1 X0.1356 Y2.4244
X0.1404 Y2.4242 Z-0.0401
X0.1452 Y2.4238
X0.15 Y2.4232
X0.1549 Y2.4225 Z-0.0402
X0.1594 Y2.4216
X0.1597 Y2.4215
X0.1645 Y2.4202 Z-0.0403
X0.1694 Y2.4186
X0.1738 Y2.4168
X0.1742 Y2.4166
X0.179 Y2.4143 Z-0.0404
X0.183 Y2.4119
X0.1838 Y2.4114
X0.1863 Y2.4097 Z-0.0405
X0.1887 Y2.4078
X0.1894 Y2.4071
X0.1935 Y2.4034
X0.1945 Y2.4023
X0.1965 Y2.4001 Z-0.0406
X0.1983 Y2.3979
X0.1987 Y2.3974
X0.2005 Y2.395
X0.2021 Y2.3926
X0.2032 Y2.3908
X0.2048 Y2.3878 Z-0.0407
X0.207 Y2.383
X0.208 Y2.3802
X0.2087 Y2.3781 Z-0.0408
X0.2098 Y2.3733
X0.2106 Y2.3685
X0.2109 Y2.3636 Z-0.0409
Y2.3588
Y0.0004 Z-0.0591
X0.2108 Y-0.0044 Z-0.0592
X0.2102 Y-0.0092
X0.2092 Y-0.0141
X0.208 Y-0.018 Z-0.0593
X0.2077 Y-0.0189
X0.2057 Y-0.0237
X0.2032 Y-0.0286 Z-0.0594
X0.2017 Y-0.031
X0.2 Y-0.0334
X0.1983 Y-0.0357
X0.1962 Y-0.0382
X0.1935 Y-0.0411 Z-0.0595
X0.1915 Y-0.0431
X0.1887 Y-0.0456
X0.1856 Y-0.0479 Z-0.0596
X0.1838 Y-0.0492
X0.1814 Y-0.0507
X0.179 Y-0.0521
X0.1778 Y-0.0527
X0.1742 Y-0.0544 Z-0.0597
X0.1694 Y-0.0564
X0.1659 Y-0.0576
X0.1645 Y-0.058
X0.1597 Y-0.0593 Z-0.0598
X0.1549 Y-0.0603
X0.15 Y-0.061 Z-0.0599
X0.1452 Y-0.0616
X0.1404 Y-0.062
X0.1356 Y-0.0622 Z-0.06
X0.1307 Y-0.0623
X0.1356 Y-0.0622
X0.1404 Y-0.062
X0.1452 Y-0.0616
X0.15 Y-0.061
X0.1549 Y-0.0603
X0.1597 Y-0.0593
X0.1645 Y-0.058
X0.1659 Y-0.0576
X0.1694 Y-0.0564
X0.1742 Y-0.0544
X0.1778 Y-0.0527
X0.179 Y-0.0521
X0.1814 Y-0.0507
X0.1838 Y-0.0492
X0.1856 Y-0.0479
X0.1887 Y-0.0456
X0.1915 Y-0.0431
X0.1935 Y-0.0411
X0.1962 Y-0.0382
X0.1983 Y-0.0357
X0.2 Y-0.0334
X0.2017 Y-0.031
X0.2032 Y-0.0286
X0.2057 Y-0.0237
X0.2077 Y-0.0189
X0.208 Y-0.018
X0.2092 Y-0.0141
X0.2102 Y-0.0092
X0.2108 Y-0.0044
X0.2109 Y0.0004
Y2.3588
Y2.3636
X0.2106 Y2.3685
X0.2098 Y2.3733
X0.2087 Y2.3781
X0.208 Y2.3802
X0.207 Y2.383
X0.2048 Y2.3878
X0.2032 Y2.3908
X0.2021 Y2.3926
X0.2005 Y2.395
X0.1987 Y2.3974
X0.1983 Y2.3979
X0.1965 Y2.4001
X0.1945 Y2.4023
X0.1935 Y2.4034
X0.1894 Y2.4071
X0.1887 Y2.4078
X0.1863 Y2.4097
X0.1838 Y2.4114
X0.183 Y2.4119
X0.179 Y2.4143
X0.1742 Y2.4166
X0.1738 Y2.4168
X0.1694 Y2.4186
X0.1645 Y2.4202
X0.1597 Y2.4215
X0.1594 Y2.4216
X0.1549 Y2.4225
X0.15 Y2.4232
X0.1452 Y2.4238
X0.1404 Y2.4242
X0.1356 Y2.4244
X0.1307 Y2.4245
G3 X0.1436 Y2.4366 I0.0004 J0.0125
G1 X0.1437 Y2.4394 Z-0.0597
X0.1438 Y2.4421 Z-0.0588
X0.1439 Y2.4444 Z-0.0573
Y2.4464 Z-0.0553
X0.144 Y2.4479 Z-0.0529
Y2.4488 Z-0.0503
Y2.4491 Z-0.0475
G0 Z0.2
X0.3937 Y0.0102
Z0.0757
G1 Z0.0125 F40.38
X0.3934 Y0.0101 Z0.0097
X0.3926 Y0.0099 Z0.0071
X0.3911 Y0.0094 Z0.0047
X0.3893 Y0.0088 Z0.0027
X0.387 Y0.0081 Z0.0012
X0.3845 Y0.0073 Z0.0003
X0.3818 Y0.0065 Z0
G3 X0.3737 Y-0.0092 I0.0038 J-0.0119
G1 X0.3752 Y-0.0141
X0.377 Y-0.0179
X0.3775 Y-0.0189
X0.379 Y-0.0213
X0.3807 Y-0.0237
X0.3818 Y-0.0251
X0.3852 Y-0.0286
X0.3866 Y-0.0299 Z-0.0001
X0.3911 Y-0.0334
X0.3915 Y-0.0337
X0.3963 Y-0.0369
X0.3987 Y-0.0382
X0.4011 Y-0.0394
X0.406 Y-0.0412
X0.4108 Y-0.0427
X0.412 Y-0.0431
X0.4156 Y-0.044
X0.4204 Y-0.0448
X0.4253 Y-0.0453
X0.4301 Y-0.0457 Z-0.0002
X0.4349 Y-0.0458
X0.6377 Z-0.0006
X0.6425 Y-0.0456
X0.6474 Y-0.0448
X0.6522 Y-0.0435
X0.6534 Y-0.0431
X0.657 Y-0.0416
X0.6594 Y-0.0404
X0.6619 Y-0.039 Z-0.0007
X0.663 Y-0.0382
X0.6667 Y-0.0356
X0.6692 Y-0.0334
X0.6715 Y-0.031
X0.6736 Y-0.0286
X0.6763 Y-0.0248
X0.677 Y-0.0237
X0.6784 Y-0.0213
X0.6795 Y-0.0189
X0.6812 Y-0.0148
X0.6814 Y-0.0141
X0.6827 Y-0.0092
X0.6834 Y-0.0044
X0.6836 Y0.0004 Z-0.0008
Y0.2276 Z-0.0012
X0.684 Y0.2324 Z-0.0013
X0.6841 Y0.2372
X0.6838 Y0.2421
X0.6829 Y0.2469
X0.6814 Y0.2517
X0.6812 Y0.2524
X0.6794 Y0.2566
X0.6781 Y0.259
X0.6766 Y0.2614
X0.6763 Y0.2618
X0.6748 Y0.264
X0.6729 Y0.2662
X0.6715 Y0.2678
X0.6681 Y0.2711
X0.6667 Y0.2722
X0.6563 Y0.2807 Z-0.0014
X0.6522 Y0.2842
X0.6425 Y0.2935
X0.6409 Y0.2952
X0.6324 Y0.3049 Z-0.0015
X0.6285 Y0.3097
X0.6212 Y0.3194
X0.6184 Y0.3238
X0.6136 Y0.3314
X0.6121 Y0.3339
X0.607 Y0.3435 Z-0.0016
X0.6045 Y0.3484
X0.5991 Y0.3609
X0.5983 Y0.3629
X0.5934 Y0.3774
X0.5921 Y0.3822
X0.5894 Y0.3928 Z-0.0017
X0.5887 Y0.3967
X0.5871 Y0.4064
X0.5864 Y0.4112
X0.5855 Y0.4209
X0.5851 Y0.4257
X0.5849 Y0.4402 Z-0.0018
X0.5852 Y0.445
X0.5858 Y0.4547
X0.5863 Y0.4595
X0.5877 Y0.4692
X0.5885 Y0.474
X0.5918 Y0.4885 Z-0.0019
X0.5933 Y0.4934
X0.5963 Y0.503
X0.5981 Y0.5079
X0.6021 Y0.5175
X0.6039 Y0.5217
X0.6091 Y0.532 Z-0.002
X0.6118 Y0.5369
X0.6184 Y0.5478
X0.6209 Y0.5513
X0.6281 Y0.5613
X0.6319 Y0.5658 Z-0.0021
X0.6377 Y0.5727
X0.6403 Y0.5755
X0.65 Y0.5852
X0.6522 Y0.5871
X0.6619 Y0.5954
X0.6667 Y0.599 Z-0.0022
X0.6743 Y0.6045
X0.6763 Y0.6059
X0.686 Y0.6118
X0.6899 Y0.6142
X0.7005 Y0.6195
X0.7053 Y0.6218 Z-0.0023
X0.715 Y0.6258
X0.7198 Y0.6277
X0.7295 Y0.6308
X0.7343 Y0.6324
X0.7488 Y0.6358 Z-0.0024
X0.7536 Y0.6366
X0.7647 Y0.6383
X0.7681 Y0.6387
X0.7777 Y0.6394
X0.7826 Y0.6397
X0.7971 Y0.6396 Z-0.0025
X0.8019 Y0.6393
X0.8133 Y0.6383
X0.8164 Y0.6379
X0.826 Y0.6363
X0.8309 Y0.6355
X0.8453 Y0.6319 Z-0.0026
X0.8502 Y0.6303
X0.8598 Y0.6271
X0.8647 Y0.6252
X0.8743 Y0.6211
X0.8786 Y0.619
X0.8888 Y0.6137 Z-0.0027
X0.8936 Y0.6109
X0.9037 Y0.6045
X0.9081 Y0.6013
X0.9168 Y0.5948
X0.9178 Y0.5941
X0.9279 Y0.5852 Z-0.0028
X0.9323 Y0.581
X0.9375 Y0.5755
X0.9419 Y0.5709
X0.95 Y0.561
X0.9516 Y0.5591
X0.9604 Y0.5465 Z-0.0029
X0.9612 Y0.5452
X0.9661 Y0.5369
X0.969 Y0.532
X0.9757 Y0.5181
X0.976 Y0.5175 Z-0.003
X0.9817 Y0.503
X0.9832 Y0.4982
X0.9861 Y0.4885
X0.9873 Y0.4837
X0.9894 Y0.474
X0.9902 Y0.4698 Z-0.0031
X0.9916 Y0.4595
X0.9922 Y0.4547
X0.993 Y0.4402
Y0.4354
X0.9928 Y0.4257 Z-0.0032
X0.9925 Y0.4209
X0.9915 Y0.4112
X0.991 Y0.4064
X0.9883 Y0.3919
X0.9871 Y0.387
X0.9845 Y0.3774 Z-0.0033
X0.983 Y0.3725
X0.9796 Y0.3629
X0.9777 Y0.358
X0.9734 Y0.3484
X0.9711 Y0.3435
X0.9658 Y0.3339 Z-0.0034
X0.963 Y0.329
X0.9564 Y0.319
X0.9531 Y0.3145
X0.9457 Y0.3049
X0.9419 Y0.3007
X0.9369 Y0.2952 Z-0.0035
X0.9323 Y0.2904
X0.9226 Y0.2814
X0.9218 Y0.2807
X0.9097 Y0.2711
X0.9081 Y0.2698
X0.9042 Y0.2662 Z-0.0036
X0.9033 Y0.2653
X0.9001 Y0.2614
X0.8985 Y0.259
X0.897 Y0.2566
X0.8946 Y0.2517
X0.8936 Y0.249
X0.893 Y0.2469
X0.8919 Y0.2421
X0.8913 Y0.2372
X0.8912 Y0.2324
Y0.0004 Z-0.0041
X0.8914 Y-0.0044
X0.8921 Y-0.0092 Z-0.0042
X0.8934 Y-0.0141
X0.8936 Y-0.0148
X0.8953 Y-0.0189
X0.8964 Y-0.0213
X0.8978 Y-0.0237
X0.8985 Y-0.0248
X0.9012 Y-0.0286
X0.9033 Y-0.031
X0.9056 Y-0.0334
X0.9081 Y-0.0356
X0.9118 Y-0.0382
X0.9129 Y-0.039
X0.9154 Y-0.0404
X0.9178 Y-0.0416
X0.9214 Y-0.0431 Z-0.0043
X0.9226 Y-0.0435
X0.9274 Y-0.0448
X0.9323 Y-0.0456
X0.9371 Y-0.0458
X1.1399 Z-0.0047
X1.1447 Y-0.0457
X1.1495 Y-0.0453
X1.1544 Y-0.0448 Z-0.0048
X1.1592 Y-0.044
X1.1628 Y-0.0431
X1.164 Y-0.0427
X1.1689 Y-0.0412
X1.1737 Y-0.0394
X1.1761 Y-0.0382
X1.1785 Y-0.0369
X1.1833 Y-0.0337
X1.1837 Y-0.0334
X1.1882 Y-0.0299
X1.1896 Y-0.0286
X1.193 Y-0.0251 Z-0.0049
X1.1941 Y-0.0237
X1.1958 Y-0.0213
X1.1973 Y-0.0189
X1.1978 Y-0.0179
X1.1996 Y-0.0141
X1.2011 Y-0.0092
X1.202 Y-0.0044
X1.2022 Y0.0004
Y2.3588 Z-0.01
Y2.3636
X1.2017 Y2.3685
X1.2006 Y2.3733
X1.1988 Y2.3781
X1.1978 Y2.3801
X1.1962 Y2.383
X1.193 Y2.3873
X1.1925 Y2.3878
X1.1882 Y2.3921
X1.1875 Y2.3926 Z-0.0101
X1.1833 Y2.3959
X1.1812 Y2.3974
X1.1785 Y2.3992
X1.1737 Y2.4016
X1.172 Y2.4023
X1.1689 Y2.4034
X1.164 Y2.4049
X1.1592 Y2.4062
X1.1544 Y2.407
X1.1537 Y2.4071
X1.1495 Y2.4075
X1.1447 Y2.4079 Z-0.0102
X1.1399 Y2.408
X0.9553 Z-0.0106
Y2.4081
Y2.6145 Z-0.011
Y2.6146
X0.9673 Y2.6246
X0.9709 Y2.6277
X0.9825 Y2.6391 Z-0.0111
X0.9854 Y2.6419
X0.9872 Y2.6439
X0.9955 Y2.6536
X0.9997 Y2.6584
X0.9999 Y2.6586
X1.0034 Y2.6632
X1.0104 Y2.6729 Z-0.0112
X1.0139 Y2.6777
X1.0143 Y2.6784
X1.0169 Y2.6826
X1.024 Y2.6943
X1.0256 Y2.6971
X1.0281 Y2.7019
X1.0337 Y2.713 Z-0.0113
X1.0353 Y2.7164
X1.0374 Y2.7212
X1.0433 Y2.7361
X1.0449 Y2.7406
X1.0493 Y2.7551 Z-0.0114
X1.0508 Y2.7599
X1.0518 Y2.7647
X1.055 Y2.7792
X1.0559 Y2.7841
X1.0578 Y2.7986 Z-0.0115
X1.0584 Y2.8034
X1.0587 Y2.8082
X1.0594 Y2.8227
X1.0596 Y2.8276
X1.0594 Y2.8324
X1.0589 Y2.8469 Z-0.0116
X1.0586 Y2.8517
X1.0569 Y2.8662
X1.0563 Y2.8711
X1.0554 Y2.8759
X1.0524 Y2.8904 Z-0.0117
X1.0513 Y2.8952
X1.0499 Y2.9001
X1.0471 Y2.9097
X1.0457 Y2.9145
X1.044 Y2.9194
X1.0384 Y2.9339 Z-0.0118
X1.0364 Y2.9387
X1.0288 Y2.9543
X1.0269 Y2.958
X1.0241 Y2.9629
X1.0184 Y2.9725 Z-0.0119
X1.0154 Y2.9774
X1.0143 Y2.9789
X1.0047 Y2.9926
X1.0016 Y2.9967
X0.9902 Y3.0102 Z-0.012
X0.9894 Y3.0112
X0.9854 Y3.0154
X0.9752 Y3.0257
X0.9709 Y3.0298
X0.9586 Y3.0402
X0.9564 Y3.0421 Z-0.0121
X0.9525 Y3.045
X0.9391 Y3.0547
X0.9371 Y3.0561
X0.9323 Y3.059
X0.9226 Y3.0648
X0.9178 Y3.0677 Z-0.0122
X0.9148 Y3.0692
X0.9033 Y3.0749
X0.8985 Y3.0772
X0.8946 Y3.0789
X0.8791 Y3.0849
X0.8743 Y3.0867 Z-0.0123
X0.8598 Y3.091
X0.855 Y3.0924
X0.8508 Y3.0934
X0.8357 Y3.0965
X0.8309 Y3.0974 Z-0.0124
X0.826 Y3.098
X0.8164 Y3.0992
X0.8115 Y3.0998
X0.8067 Y3.1002
X0.7922 Y3.1008
X0.7874 Y3.1009
X0.7826 Y3.1008 Z-0.0125
X0.7681 Y3.1002
X0.7633 Y3.0998
X0.7584 Y3.0992
X0.7488 Y3.098
X0.7439 Y3.0974
X0.7391 Y3.0965
X0.724 Y3.0934 Z-0.0126
X0.7198 Y3.0924
X0.715 Y3.091
X0.7005 Y3.0867
X0.6957 Y3.0849
X0.6802 Y3.0789 Z-0.0127
X0.6763 Y3.0772
X0.6715 Y3.0749
X0.66 Y3.0692
X0.657 Y3.0677
X0.6522 Y3.0648
X0.6425 Y3.059 Z-0.0128
X0.6377 Y3.0561
X0.6357 Y3.0547
X0.6223 Y3.045
X0.6184 Y3.0421
X0.6162 Y3.0402
X0.6039 Y3.0298 Z-0.0129
X0.5997 Y3.0257
X0.5894 Y3.0154
X0.5854 Y3.0112
X0.5846 Y3.0102
X0.5733 Y2.9967 Z-0.013
X0.5701 Y2.9926
X0.5605 Y2.9789
X0.5594 Y2.9774
X0.5564 Y2.9725
X0.5507 Y2.9629 Z-0.0131
X0.5479 Y2.958
X0.546 Y2.9543
X0.5384 Y2.9387
X0.5364 Y2.9339
X0.5308 Y2.9194 Z-0.0132
X0.5291 Y2.9145
X0.5277 Y2.9097
X0.5249 Y2.9001
X0.5235 Y2.8952
X0.5224 Y2.8904
X0.5194 Y2.8759 Z-0.0133
X0.5185 Y2.8711
X0.5179 Y2.8662
X0.5162 Y2.8517
X0.5159 Y2.8469
X0.5154 Y2.8324 Z-0.0134
X0.5152 Y2.8276
X0.5154 Y2.8227
X0.5161 Y2.8082
X0.5164 Y2.8034
X0.517 Y2.7986
X0.5189 Y2.7841 Z-0.0135
X0.5198 Y2.7792
X0.523 Y2.7647
X0.524 Y2.7599
X0.5255 Y2.7551
X0.5299 Y2.7406 Z-0.0136
X0.5315 Y2.7361
X0.5374 Y2.7212
X0.5395 Y2.7164
X0.5411 Y2.713
X0.5467 Y2.7019
X0.5492 Y2.6971 Z-0.0137
X0.5508 Y2.6943
X0.5579 Y2.6826
X0.5605 Y2.6784
X0.5609 Y2.6777
X0.5644 Y2.6729
X0.5714 Y2.6632
X0.5749 Y2.6586 Z-0.0138
X0.5751 Y2.6584
X0.5793 Y2.6536
X0.5876 Y2.6439
X0.5894 Y2.6419
X0.5923 Y2.6391
X0.6039 Y2.6277
X0.6075 Y2.6246 Z-0.0139
X0.6195 Y2.6146
Y2.6145
Y2.4081 Z-0.0143
Y2.408
X0.4349 Z-0.0147
X0.4301 Y2.4079
X0.4253 Y2.4075
X0.4211 Y2.4071 Z-0.0148
X0.4204 Y2.407
X0.4156 Y2.4062
X0.4108 Y2.4049
X0.406 Y2.4034
X0.4028 Y2.4023
X0.4011 Y2.4016
X0.3963 Y2.3992
X0.3936 Y2.3974
X0.3915 Y2.3959
X0.3873 Y2.3926
X0.3866 Y2.3921
X0.3823 Y2.3878 Z-0.0149
X0.3818 Y2.3873
X0.3786 Y2.383
X0.377 Y2.3801
X0.376 Y2.3781
X0.3742 Y2.3733
X0.3731 Y2.3685
X0.3726 Y2.3636
Y2.3588
Y0.0004 Z-0.02
X0.3728 Y-0.0044
X0.3737 Y-0.0092
X0.3745 Y-0.0122
X0.3756 Y-0.0151
X0.3764 Y-0.0168
X0.3772 Y-0.0184
X0.3781 Y-0.02
X0.3791 Y-0.0216
X0.3801 Y-0.023
X0.3811 Y-0.0243
X0.3834 Y-0.0268
X0.3859 Y-0.0293 Z-0.0201
X0.3885 Y-0.0315
X0.3917 Y-0.034
X0.395 Y-0.0363
X0.3985 Y-0.0382
X0.4003 Y-0.0391
X0.4021 Y-0.0399
X0.4103 Y-0.0427
X0.4125 Y-0.0434
X0.4148 Y-0.044
X0.4194 Y-0.0448
X0.4239 Y-0.0453
X0.4283 Y-0.0457
X0.4378 Y-0.046 Z-0.0202
X0.5177 Y-0.0461 Z-0.0203
X0.5977 Y-0.0463 Z-0.0205
X0.6375 Y-0.0464 Z-0.0206
X0.6414 Y-0.0462
X0.6453 Y-0.0458
X0.6492 Y-0.045
X0.6531 Y-0.0438
X0.6551 Y-0.0431
X0.657 Y-0.0422
X0.6608 Y-0.0403
X0.6639 Y-0.0384 Z-0.0207
X0.667 Y-0.0361
X0.67 Y-0.0335
X0.6728 Y-0.0305
X0.6753 Y-0.0274
X0.6765 Y-0.0257
X0.6776 Y-0.024
X0.6795 Y-0.0206
X0.6811 Y-0.017
X0.6824 Y-0.0132
X0.6833 Y-0.0094
X0.684 Y-0.0054
X0.6843 Y-0.0014
Y0.0082 Z-0.0208
X0.6845 Y0.0881 Z-0.0209
X0.6846 Y0.168 Z-0.0211
X0.6847 Y0.2288 Z-0.0212
X0.6851 Y0.233
X0.6852 Y0.2352
Y0.2373 Z-0.0213
X0.685 Y0.2413
X0.6844 Y0.2453
X0.6834 Y0.2492
X0.6822 Y0.253
X0.6814 Y0.2549
X0.6805 Y0.2568
X0.6786 Y0.2605
X0.6763 Y0.2638
X0.6738 Y0.267
X0.671 Y0.27
X0.668 Y0.2727
X0.6561 Y0.2825 Z-0.0214
X0.6521 Y0.2861
X0.6449 Y0.2931
X0.6411 Y0.297
X0.6339 Y0.3051
X0.6304 Y0.3093
X0.6244 Y0.3173 Z-0.0215
X0.6213 Y0.3218
X0.6155 Y0.3309
X0.6127 Y0.3356
X0.608 Y0.3445
X0.6056 Y0.3494
X0.6013 Y0.3593 Z-0.0216
X0.5993 Y0.3643
X0.5961 Y0.3738
X0.5944 Y0.379
X0.5919 Y0.3892
X0.5907 Y0.3941
X0.5889 Y0.4047 Z-0.0217
X0.588 Y0.41
X0.5871 Y0.4208
X0.5866 Y0.4262
X0.5865 Y0.4362
Y0.4417 Z-0.0218
X0.5876 Y0.4576
X0.5884 Y0.4627
X0.59 Y0.4732
X0.5912 Y0.4785
X0.5936 Y0.4888 Z-0.0219
X0.5951 Y0.4937
X0.5983 Y0.5037
X0.6003 Y0.5088
X0.6043 Y0.5184
X0.6065 Y0.5231
X0.6113 Y0.5326 Z-0.022
X0.6141 Y0.5373
X0.6193 Y0.5459
X0.6223 Y0.5503
X0.6287 Y0.5591
X0.6321 Y0.5633
X0.6386 Y0.5709 Z-0.0221
X0.6422 Y0.5748
X0.6499 Y0.5824
X0.6538 Y0.586
X0.6615 Y0.5926
X0.6658 Y0.596
X0.6745 Y0.6023 Z-0.0222
X0.679 Y0.6053
X0.6876 Y0.6105
X0.6923 Y0.6132
X0.7019 Y0.6181
X0.7069 Y0.6203
X0.7163 Y0.6242 Z-0.0223
X0.7213 Y0.6261
X0.7312 Y0.6293
X0.7361 Y0.6307
X0.7464 Y0.6331
X0.7517 Y0.6343
X0.7624 Y0.6359 Z-0.0224
X0.7677 Y0.6366
X0.7777 Y0.6373
X0.7831 Y0.6376
X0.7939 Y0.6375
X0.7992 Y0.6374
X0.8093 Y0.6365 Z-0.0225
X0.8147 Y0.636
X0.8252 Y0.6342
X0.8303 Y0.6334
X0.8456 Y0.6295
X0.8507 Y0.6278
X0.8605 Y0.6245 Z-0.0226
X0.8653 Y0.6225
X0.8751 Y0.6183
X0.8799 Y0.6158
X0.8893 Y0.6108
X0.8936 Y0.6081
X0.9024 Y0.6025 Z-0.0227
X0.9068 Y0.5994
X0.9148 Y0.5934
X0.9189 Y0.5899
X0.927 Y0.5828
X0.9309 Y0.579 Z-0.0228
X0.9379 Y0.5717
X0.9414 Y0.5676
X0.9482 Y0.5594
X0.9514 Y0.5551
X0.9574 Y0.5465
X0.9601 Y0.5421 Z-0.0229
X0.9654 Y0.5331
X0.9679 Y0.5284
X0.9724 Y0.5192
X0.9745 Y0.5143
X0.9784 Y0.5043
X0.9802 Y0.4992 Z-0.023
X0.9831 Y0.4896
X0.9845 Y0.4844
X0.9867 Y0.4739
X0.9877 Y0.4686
X0.989 Y0.4587
X0.9896 Y0.4533 Z-0.0231
X0.9902 Y0.4427
X0.9904 Y0.4374
X0.9901 Y0.4272
X0.9899 Y0.4218
X0.9888 Y0.4113
X0.9882 Y0.4062 Z-0.0232
X0.9863 Y0.396
X0.9852 Y0.3907
X0.9825 Y0.3805
X0.9811 Y0.3756
X0.9776 Y0.3657
X0.9758 Y0.3606 Z-0.0233
X0.9714 Y0.351
X0.9693 Y0.3462
X0.9617 Y0.3325
X0.9588 Y0.3279
X0.9533 Y0.3195 Z-0.0234
X0.95 Y0.3153
X0.9435 Y0.3068
X0.9399 Y0.3028
X0.933 Y0.2952
X0.9292 Y0.2916
X0.9214 Y0.2844 Z-0.0235
X0.9173 Y0.2809
X0.9095 Y0.2747
X0.906 Y0.272
X0.9028 Y0.2691
X0.9012 Y0.2675
X0.8998 Y0.2659
X0.8971 Y0.2624
X0.8948 Y0.2589
X0.8929 Y0.2553
X0.8913 Y0.2515 Z-0.0236
X0.89 Y0.2477
X0.889 Y0.2436
X0.8884 Y0.2395
X0.8882 Y0.2372
X0.8881 Y0.2349
Y0.2303
X0.8879 Y0.1404 Z-0.0238
X0.8878 Y0.0505 Z-0.024
X0.8877 Y0.0006 Z-0.0241
X0.8878 Y-0.0036
X0.8883 Y-0.0078
X0.8892 Y-0.0119
X0.8904 Y-0.016
X0.8911 Y-0.0181
X0.892 Y-0.0201
X0.8939 Y-0.0241
X0.8961 Y-0.0275
X0.8984 Y-0.0308 Z-0.0242
X0.9012 Y-0.034
X0.9043 Y-0.037
X0.9076 Y-0.0397
X0.9112 Y-0.0421
X0.9149 Y-0.0441
X0.9187 Y-0.0459
X0.9226 Y-0.0473
X0.9267 Y-0.0483
X0.9309 Y-0.049
X0.9352 Y-0.0494
X0.9448 Z-0.0243
X1.0347 Y-0.0496 Z-0.0245
X1.1246 Y-0.0497 Z-0.0246
X1.1346 Z-0.0247
X1.1445
X1.1538 Y-0.049
X1.1584 Y-0.0484
X1.1607 Y-0.0479
X1.1629 Y-0.0473
X1.1673 Y-0.0462
X1.1717 Y-0.045
X1.1757 Y-0.0435 Z-0.0248
X1.1776 Y-0.0426
X1.1796 Y-0.0416
X1.1835 Y-0.0394
X1.1873 Y-0.0371
X1.189 Y-0.036
X1.1907 Y-0.0347
X1.1923 Y-0.0334
X1.1939 Y-0.032
X1.1965 Y-0.0293
X1.1989 Y-0.0264
X1.201 Y-0.0233
X1.2029 Y-0.0201
X1.2045 Y-0.0168
X1.2059 Y-0.0134
X1.2064 Y-0.0116
X1.2069 Y-0.0098 Z-0.0249
X1.2074 Y-0.008
X1.2077 Y-0.0061
X1.2081 Y-0.0023
X1.2082 Y-0.0005
Y0.0014
X1.2094 Y0.461 Z-0.0259
X1.2096 Y0.5309 Z-0.026
X1.2097 Y0.6009 Z-0.0261
X1.2099 Y0.6708 Z-0.0263
X1.2101 Y0.7408 Z-0.0264
X1.2103 Y0.8107 Z-0.0266
X1.2104 Y0.8806 Z-0.0267
X1.2106 Y0.9506 Z-0.0269
X1.2108 Y1.0205 Z-0.027
X1.2109 Y1.0904 Z-0.0272
X1.2111 Y1.1604 Z-0.0273
X1.2113 Y1.2303 Z-0.0275
X1.2114 Y1.3002 Z-0.0276
X1.2116 Y1.3702 Z-0.0278
X1.2118 Y1.4401 Z-0.0279
X1.2119 Y1.51 Z-0.0281
X1.2121 Y1.58 Z-0.0282
X1.2123 Y1.6499 Z-0.0284
X1.2124 Y1.7199 Z-0.0285
X1.2126 Y1.7898 Z-0.0287
X1.2127 Y1.8597 Z-0.0288
X1.2129 Y1.9297 Z-0.029
X1.213 Y1.9996 Z-0.0291
X1.2132 Y2.0795 Z-0.0293
X1.2134 Y2.1595 Z-0.0295
X1.2136 Y2.2394 Z-0.0296
X1.2137 Y2.3193 Z-0.0298
X1.2138 Y2.3592 Z-0.0299
Y2.3636
X1.2137 Y2.3658
X1.2135 Y2.3679
X1.2132 Y2.3699
X1.2128 Y2.3719
X1.2117 Y2.3759
X1.211 Y2.3779
X1.2102 Y2.3799
X1.2083 Y2.3837
X1.2072 Y2.3856
X1.206 Y2.3874
X1.2034 Y2.3909 Z-0.03
X1.2007 Y2.394
X1.1977 Y2.397
X1.1943 Y2.4
X1.1925 Y2.4014
X1.1907 Y2.4027
X1.1887 Y2.404
X1.1867 Y2.4051
X1.1826 Y2.4071
X1.1784 Y2.409
X1.1742 Y2.4106
X1.1697 Y2.412
X1.1651 Y2.4131
X1.1603 Y2.414 Z-0.0301
X1.1555 Y2.4148
X1.1507 Y2.4152
X1.1459 Y2.4155
X1.1361 Y2.4157
X1.0362 Y2.4158 Z-0.0303
X0.9763 Y2.4159 Z-0.0304
X0.9683 Z-0.0305
X0.9637
X0.9632
X0.9631 Y2.416
Y2.4168
Y2.422
X0.9633 Y2.5219 Z-0.0307
X0.9634 Y2.6019 Z-0.0309
Y2.6105
Y2.6107
Y2.6108
X0.9647 Y2.6119
X0.9674 Y2.6141
X0.9749 Y2.6204
X0.982 Y2.6272
X0.9891 Y2.6341 Z-0.031
X0.9957 Y2.6413
X1.0022 Y2.6488
X1.0084 Y2.6562
X1.0143 Y2.6643 Z-0.0311
X1.0201 Y2.6723
X1.0252 Y2.6805
X1.0304 Y2.6891
X1.0351 Y2.6975
X1.0396 Y2.7064 Z-0.0312
X1.0438 Y2.7152
X1.0475 Y2.7244
X1.0512 Y2.7335
X1.0542 Y2.7428
X1.0572 Y2.7523 Z-0.0313
X1.0597 Y2.7616
X1.0618 Y2.7714
X1.0638 Y2.7809
X1.0652 Y2.7907
X1.0665 Y2.8006 Z-0.0314
X1.0672 Y2.8103
X1.0677 Y2.8202
X1.0679 Y2.8299
X1.0676 Y2.8399
X1.0672 Y2.8497 Z-0.0315
X1.0662 Y2.8594
X1.065 Y2.8694
X1.0634 Y2.8789
X1.0614 Y2.8887 Z-0.0316
X1.0593 Y2.8982
X1.0566 Y2.9077
X1.0538 Y2.9172
X1.0504 Y2.9264
X1.0468 Y2.9357 Z-0.0317
X1.043 Y2.9446
X1.0387 Y2.9536
X1.0344 Y2.9623
X1.0293 Y2.9708
X1.0243 Y2.9794 Z-0.0318
X1.0189 Y2.9874
X1.0131 Y2.9956
X1.0072 Y3.0034
X1.0008 Y3.011
X0.9945 Y3.0184 Z-0.0319
X0.9876 Y3.0255
X0.9806 Y3.0326
X0.9734 Y3.0391
X0.9658 Y3.0455
X0.9583 Y3.0516 Z-0.032
X0.9502 Y3.0575
X0.9421 Y3.0632
X0.9338 Y3.0683
X0.9252 Y3.0735 Z-0.0321
X0.9167 Y3.0781
X0.9077 Y3.0825
X0.8989 Y3.0866
X0.8897 Y3.0903
X0.8804 Y3.0939 Z-0.0322
X0.8711 Y3.0968
X0.8616 Y3.0997
X0.8522 Y3.1021
X0.8424 Y3.1042
X0.8328 Y3.1061 Z-0.0323
X0.823 Y3.1074
X0.8131 Y3.1086
X0.8034 Y3.1092
X0.7934 Y3.1097
X0.7837 Y3.1098 Z-0.0324
X0.7738 Y3.1094
X0.7638 Y3.1089
X0.7542 Y3.1077
X0.7443 Y3.1065
X0.7347 Y3.1048 Z-0.0325
X0.7249 Y3.1028
X0.7155 Y3.1005
X0.7059 Y3.0977
X0.6965 Y3.0949 Z-0.0326
X0.6873 Y3.0914
X0.678 Y3.0877
X0.6691 Y3.0838
X0.6601 Y3.0794
X0.6514 Y3.075 Z-0.0327
X0.6429 Y3.0699
X0.6345 Y3.0648
X0.6263 Y3.0592
X0.6182 Y3.0534
X0.6105 Y3.0474 Z-0.0328
X0.6029 Y3.041
X0.5955 Y3.0345
X0.5885 Y3.0275
X0.5815 Y3.0205
X0.5751 Y3.0132 Z-0.0329
X0.5686 Y3.0055
X0.5626 Y2.9979
X0.5568 Y2.9898
X0.5511 Y2.9816
X0.5461 Y2.9732 Z-0.033
X0.541 Y2.9647
X0.5365 Y2.956
X0.5321 Y2.947
X0.5281 Y2.9381 Z-0.0331
X0.5245 Y2.9289
X0.5209 Y2.9196
X0.5181 Y2.9102
X0.5153 Y2.9006
X0.513 Y2.8912 Z-0.0332
X0.511 Y2.8814
X0.5091 Y2.8717
X0.508 Y2.8619
X0.5068 Y2.852
X0.5063 Y2.8423 Z-0.0333
X0.5059 Y2.8323
Y2.8226
X0.5064 Y2.8126
X0.5069 Y2.8028
X0.5082 Y2.7929 Z-0.0334
X0.5095 Y2.7831
X0.5113 Y2.7735
X0.5135 Y2.7637
X0.5158 Y2.7542 Z-0.0335
X0.5187 Y2.7447
X0.5216 Y2.7353
X0.5252 Y2.7261
X0.5289 Y2.7168
X0.533 Y2.7079 Z-0.0336
X0.5374 Y2.699
X0.542 Y2.6903
X0.5471 Y2.6818
X0.5523 Y2.6734
X0.558 Y2.6653 Z-0.0337
X0.5639 Y2.6573
X0.5699 Y2.6496
X0.5765 Y2.6421
X0.5829 Y2.6347
X0.59 Y2.6278 Z-0.0338
X0.5971 Y2.6208
X0.6046 Y2.6144
X0.6098 Y2.6101
Y2.61
Y2.6089
Y2.6042
X0.6097 Y2.4943 Z-0.0341
X0.6096 Y2.4244 Z-0.0342
Y2.4209
Y2.4181
Y2.418
X0.6095 Y2.4179
X0.6088
X0.6077
X0.6009 Y2.418 Z-0.0343
X0.491 Y2.4181 Z-0.0345
X0.4411 Z-0.0346
X0.4311
X0.4262 Y2.4179
X0.4212 Y2.4176
X0.4115 Y2.4162 Z-0.0347
X0.4067 Y2.4154
X0.402 Y2.4142
X0.3929 Y2.411
X0.3885 Y2.4092
X0.3863 Y2.4081
X0.3843 Y2.4069
X0.3803 Y2.4043
X0.3765 Y2.4015
X0.3729 Y2.3985
X0.3696 Y2.3953 Z-0.0348
X0.3681 Y2.3935
X0.3666 Y2.3917
X0.3652 Y2.3898
X0.3639 Y2.3879
X0.3628 Y2.3859
X0.3617 Y2.3839
X0.3607 Y2.3818
X0.3598 Y2.3797
X0.359 Y2.3775
X0.3584 Y2.3753
X0.3578 Y2.3731
X0.3573 Y2.3708
X0.3567 Y2.3662
X0.3566 Y2.3639
X0.3565 Y2.3616
X0.3557 Y1.8521 Z-0.0359
X0.3524 Y0.0038 Z-0.0398
Y-0.0012
X0.3526 Y-0.0037 Z-0.0399
X0.3528 Y-0.0062
X0.3537 Y-0.0111
X0.3543 Y-0.0135
X0.3551 Y-0.0159
X0.3559 Y-0.0182
X0.3569 Y-0.0205
X0.3591 Y-0.0249
X0.3604 Y-0.0271
X0.3617 Y-0.0292
X0.3632 Y-0.0312
X0.3647 Y-0.0332
X0.3663 Y-0.0351
X0.3681 Y-0.0369
X0.3717 Y-0.0403
X0.3737 Y-0.0418
X0.3757 Y-0.0433 Z-0.04
X0.3799 Y-0.0459
X0.3843 Y-0.0484
X0.3888 Y-0.0505
X0.392 Y-0.0519
X0.3953 Y-0.0529
X0.3963 Y-0.0533
X0.4011 Y-0.0546
X0.406 Y-0.0558
X0.4108 Y-0.0566
X0.4156 Y-0.0572
X0.4183 Y-0.0576
X0.4204 Y-0.0578
X0.4253 Y-0.0581
X0.4301 Y-0.0582
X0.4349 Y-0.0583
X0.6377
X0.6425 Y-0.0581
X0.647 Y-0.0576
X0.6474 Y-0.0575
X0.6522 Y-0.0565
X0.657 Y-0.055
X0.6619 Y-0.0531
X0.6627 Y-0.0527
X0.6667 Y-0.0506
X0.671 Y-0.0479
X0.6715 Y-0.0476
X0.6739 Y-0.0458
X0.6763 Y-0.0437
X0.6771 Y-0.0431
X0.6792 Y-0.041
X0.6812 Y-0.039
X0.6818 Y-0.0382
X0.6838 Y-0.0358
X0.6856 Y-0.0334
X0.686 Y-0.0328
X0.6886 Y-0.0286
X0.6908 Y-0.0242
X0.6911 Y-0.0237
X0.693 Y-0.0189
X0.6944 Y-0.0141
X0.6954 Y-0.0092
X0.6957 Y-0.0072
X0.6959 Y-0.0044
X0.6961 Y0.0004
Y0.2276
X0.6965 Y0.2324
X0.6966 Y0.2372
X0.6963 Y0.2421
X0.6957 Y0.2467
X0.6956 Y0.2469
X0.6945 Y0.2517
X0.6929 Y0.2566
X0.6909 Y0.2614
X0.6908 Y0.2615
X0.6883 Y0.2662
X0.686 Y0.2697
X0.6851 Y0.2711
X0.6832 Y0.2734
X0.6812 Y0.2757
X0.681 Y0.2759
X0.6787 Y0.2783
X0.6763 Y0.2804
X0.676 Y0.2807
X0.6715 Y0.2844
X0.6619 Y0.2923
X0.6588 Y0.2952
X0.6522 Y0.3016
X0.6491 Y0.3049
X0.6425 Y0.3122
X0.6405 Y0.3145
X0.6329 Y0.3247
X0.6299 Y0.329
X0.6237 Y0.3387
X0.6232 Y0.3395
X0.6184 Y0.3486
X0.616 Y0.3532
X0.6118 Y0.3629
X0.6098 Y0.3677
X0.6066 Y0.3774
X0.605 Y0.3822
X0.6025 Y0.3919
X0.6014 Y0.3967
X0.5991 Y0.4101
X0.5989 Y0.4112
X0.5976 Y0.4257
X0.5975 Y0.4305
X0.5974 Y0.4402
X0.5977 Y0.445
X0.5983 Y0.4547
X0.5989 Y0.4595
X0.6004 Y0.4692
X0.6013 Y0.474
X0.6039 Y0.4854
X0.6048 Y0.4885
X0.6079 Y0.4982
X0.6087 Y0.5008
X0.6136 Y0.5127
X0.6158 Y0.5175
X0.6206 Y0.5272
X0.6232 Y0.5317
X0.6281 Y0.5396
X0.6293 Y0.5417
X0.6377 Y0.5533
X0.6401 Y0.5562
X0.6474 Y0.5648
X0.6483 Y0.5658
X0.658 Y0.5755
X0.6619 Y0.579
X0.6691 Y0.5852
X0.6715 Y0.5871
X0.6822 Y0.5948
X0.686 Y0.5972
X0.6908 Y0.6001
X0.6957 Y0.6031
X0.708 Y0.6093
X0.7101 Y0.6103
X0.7198 Y0.6143
X0.7246 Y0.6162
X0.7343 Y0.6193
X0.7391 Y0.6207
X0.7488 Y0.623
X0.7525 Y0.6238
X0.7633 Y0.6255
X0.7681 Y0.6262
X0.7826 Y0.6272
X0.7874
X0.7971 Y0.6271
X0.8019 Y0.6268
X0.8115 Y0.626
X0.8164 Y0.6253
X0.826 Y0.6237
X0.8309 Y0.6226
X0.8405 Y0.6202
X0.8447 Y0.619
X0.855 Y0.6155
X0.8587 Y0.6142
X0.87 Y0.6093
X0.8743 Y0.6072
X0.884 Y0.6021
X0.888 Y0.5997
X0.8956 Y0.5948
X0.8985 Y0.593
X0.9089 Y0.5852
X0.9129 Y0.5817
X0.92 Y0.5755
X0.9226 Y0.573
X0.9295 Y0.5658
X0.9323 Y0.5629
X0.9378 Y0.5562
X0.9418 Y0.5513
X0.9485 Y0.5417
X0.9516 Y0.537
X0.9573 Y0.5272
X0.9598 Y0.5224
X0.9645 Y0.5127
X0.9661 Y0.5087
X0.9683 Y0.503
X0.9701 Y0.4982
X0.9731 Y0.4885
X0.9745 Y0.4837
X0.9777 Y0.4692
X0.9783 Y0.4644
X0.9797 Y0.4547
X0.98 Y0.4499
X0.9805 Y0.4398
Y0.4361
X0.9803 Y0.4257
X0.98 Y0.4209
X0.979 Y0.4112
X0.9783 Y0.4064
X0.9765 Y0.3967
X0.9757 Y0.3927
X0.9729 Y0.3822
X0.9715 Y0.3774
X0.968 Y0.3677
X0.9662 Y0.3629
X0.9612 Y0.3518
X0.9595 Y0.3484
X0.9542 Y0.3387
X0.9516 Y0.3344
X0.9467 Y0.3271
X0.9448 Y0.3242
X0.9371 Y0.3142
X0.9332 Y0.3097
X0.9274 Y0.3033
X0.9243 Y0.3
X0.9178 Y0.294
X0.9139 Y0.2904
X0.9018 Y0.2807
X0.8985 Y0.278
X0.8962 Y0.2759
X0.8936 Y0.2732
X0.8918 Y0.2711
X0.8888 Y0.267
X0.8882 Y0.2662
X0.8867 Y0.2638
X0.8854 Y0.2614
X0.884 Y0.2585
X0.8831 Y0.2566
X0.8814 Y0.2517
X0.8801 Y0.2469
X0.8792 Y0.2421
X0.8791 Y0.2414
X0.8788 Y0.2372
X0.8787 Y0.2324
Y0.0004
X0.8789 Y-0.0044
X0.8791 Y-0.0072
X0.8794 Y-0.0092
X0.8804 Y-0.0141
X0.8819 Y-0.0189
X0.8838 Y-0.0237
X0.884 Y-0.0242
X0.8862 Y-0.0286
X0.8888 Y-0.0328
X0.8892 Y-0.0334
X0.891 Y-0.0358
X0.893 Y-0.0382
X0.8936 Y-0.039
X0.8956 Y-0.041
X0.8977 Y-0.0431
X0.8985 Y-0.0437
X0.9009 Y-0.0458
X0.9033 Y-0.0476
X0.9038 Y-0.0479
X0.9081 Y-0.0506
X0.9121 Y-0.0527
X0.9129 Y-0.0531
X0.9178 Y-0.055
X0.9226 Y-0.0565
X0.9274 Y-0.0575
X0.9278 Y-0.0576
X0.9323 Y-0.0581
X0.9371 Y-0.0583
X1.1399
X1.1447 Y-0.0582
X1.1495 Y-0.0581
X1.1544 Y-0.0578
X1.1565 Y-0.0576
X1.1592 Y-0.0572
X1.164 Y-0.0566
X1.1689 Y-0.0558
X1.1737 Y-0.0546
X1.1785 Y-0.0533
X1.1802 Y-0.0527
X1.1833 Y-0.0517
X1.1882 Y-0.0495
X1.1914 Y-0.0479
X1.193 Y-0.047
X1.1978 Y-0.0442
X1.1994 Y-0.0431
X1.2027 Y-0.0407
X1.2054 Y-0.0382
X1.2075 Y-0.0362
X1.21 Y-0.0334
X1.2123 Y-0.0304
X1.2135 Y-0.0286
X1.2164 Y-0.0237
X1.2171 Y-0.0224
X1.2187 Y-0.0189
X1.2204 Y-0.0141
X1.2216 Y-0.0092
X1.222 Y-0.0071
X1.2223 Y-0.0044
X1.2225 Y0.0004
Y2.3588
Y2.3636
X1.2221 Y2.3685
X1.222 Y2.3694
X1.2212 Y2.3733
X1.2198 Y2.3781
X1.2179 Y2.383
X1.2171 Y2.3846
X1.2154 Y2.3878
X1.2123 Y2.3926
X1.2104 Y2.395
X1.2084 Y2.3974
X1.2075 Y2.3984
X1.2054 Y2.4005
X1.2034 Y2.4023
X1.2027 Y2.4029
X1.2002 Y2.4047
X1.1978 Y2.4064
X1.1966 Y2.4071
X1.193 Y2.4092
X1.1882 Y2.4117
X1.1878 Y2.4119
X1.1833 Y2.4139
X1.1785 Y2.4155
X1.1737 Y2.4168
X1.1689 Y2.418
X1.164 Y2.4188
X1.1592 Y2.4194
X1.1544 Y2.42
X1.1495 Y2.4203
X1.1447 Y2.4204
X1.1399 Y2.4205
X0.9679
X0.9678 Y2.4206
Y2.6087
X0.9757 Y2.6153
X0.9805 Y2.6197
X0.9905 Y2.6294
X0.995 Y2.634
X0.9953 Y2.6343
X0.9995 Y2.6391
X1.0079 Y2.6488
X1.0095 Y2.6507
X1.0118 Y2.6536
X1.0223 Y2.6681
X1.024 Y2.6704
X1.0256 Y2.6729
X1.0344 Y2.6874
X1.0372 Y2.6922
X1.0385 Y2.6948
X1.0445 Y2.7067
X1.0469 Y2.7116
X1.0481 Y2.7146
X1.0547 Y2.7309
X1.0564 Y2.7357
X1.0578 Y2.7401
X1.0609 Y2.7502
X1.0624 Y2.7551
X1.0626 Y2.756
X1.0636 Y2.7599
X1.0667 Y2.7744
X1.0675 Y2.7777
X1.0678 Y2.7792
X1.0685 Y2.7841
X1.0704 Y2.7986
X1.071 Y2.8034
X1.0712 Y2.8082
X1.0719 Y2.8227
X1.0721 Y2.8276
X1.0719 Y2.8324
X1.0714 Y2.8469
X1.0711 Y2.8517
X1.0706 Y2.8566
X1.0689 Y2.8711
X1.0681 Y2.8759
X1.0675 Y2.8792
X1.0652 Y2.8904
X1.0642 Y2.8952
X1.0629 Y2.9001
X1.0587 Y2.9145
X1.0578 Y2.9177
X1.0573 Y2.9194
X1.0555 Y2.9242
X1.0499 Y2.9387
X1.0481 Y2.943
X1.0479 Y2.9435
X1.0456 Y2.9484
X1.0409 Y2.958
X1.0385 Y2.9629
X1.0357 Y2.9677
X1.0288 Y2.9794
X1.0272 Y2.9822
X1.024 Y2.9869
X1.0143 Y3.0006
X1.0136 Y3.0015
X1.0097 Y3.0064
X0.9999 Y3.0181
X0.9975 Y3.0209
X0.995 Y3.0234
X0.9831 Y3.0354
X0.9805 Y3.0379
X0.9779 Y3.0402
X0.9661 Y3.0503
X0.9612 Y3.0542
X0.9605 Y3.0547
X0.9467 Y3.0646
X0.9419 Y3.0678
X0.9396 Y3.0692
X0.9274 Y3.0765
X0.9234 Y3.0789
X0.9226 Y3.0793
X0.9178 Y3.0817
X0.9081 Y3.0864
X0.9038 Y3.0885
X0.9033 Y3.0888
X0.8985 Y3.0908
X0.884 Y3.0965
X0.8793 Y3.0982
X0.8791
X0.8743 Y3.0997
X0.8598 Y3.104
X0.855 Y3.1052
X0.8405 Y3.1083
X0.8357 Y3.1093
X0.8309 Y3.11
X0.8164 Y3.1118
X0.8115 Y3.1124
X0.8067 Y3.1127
X0.7922 Y3.1133
X0.7874 Y3.1134
X0.7826 Y3.1133
X0.7681 Y3.1127
X0.7633 Y3.1124
X0.7584 Y3.1118
X0.7439 Y3.11
X0.7391 Y3.1093
X0.7343 Y3.1083
X0.7198 Y3.1052
X0.715 Y3.104
X0.7005 Y3.0997
X0.6957 Y3.0982
X0.6955
X0.6908 Y3.0965
X0.6763 Y3.0908
X0.6715 Y3.0888
X0.671 Y3.0885
X0.6667 Y3.0864
X0.657 Y3.0817
X0.6522 Y3.0793
X0.6514 Y3.0789
X0.6474 Y3.0765
X0.6352 Y3.0692
X0.6329 Y3.0678
X0.6281 Y3.0646
X0.6143 Y3.0547
X0.6136 Y3.0542
X0.6087 Y3.0503
X0.5969 Y3.0402
X0.5943 Y3.0379
X0.5917 Y3.0354
X0.5798 Y3.0234
X0.5773 Y3.0209
X0.5749 Y3.0181
X0.5651 Y3.0064
X0.5612 Y3.0015
X0.5605 Y3.0006
X0.5508 Y2.9869
X0.5476 Y2.9822
X0.546 Y2.9794
X0.5391 Y2.9677
X0.5363 Y2.9629
X0.5339 Y2.958
X0.5292 Y2.9484
X0.5269 Y2.9435
X0.5267 Y2.943
X0.5249 Y2.9387
X0.5193 Y2.9242
X0.5175 Y2.9194
X0.517 Y2.9177
X0.5161 Y2.9145
X0.5119 Y2.9001
X0.5106 Y2.8952
X0.5096 Y2.8904
X0.5074 Y2.8792
X0.5067 Y2.8759
X0.5059 Y2.8711
X0.5042 Y2.8566
X0.5037 Y2.8517
X0.5034 Y2.8469
X0.5029 Y2.8324
X0.5027 Y2.8276
X0.5029 Y2.8227
X0.5036 Y2.8082
X0.5038 Y2.8034
X0.5044 Y2.7986
X0.5063 Y2.7841
X0.5071 Y2.7792
X0.5074 Y2.7777
X0.5081 Y2.7744
X0.5112 Y2.7599
X0.5122 Y2.756
X0.5124 Y2.7551
X0.5139 Y2.7502
X0.517 Y2.7401
X0.5184 Y2.7357
X0.5201 Y2.7309
X0.5267 Y2.7146
X0.5279 Y2.7116
X0.5303 Y2.7067
X0.5363 Y2.6948
X0.5376 Y2.6922
X0.5404 Y2.6874
X0.5492 Y2.6729
X0.5508 Y2.6704
X0.5525 Y2.6681
X0.563 Y2.6536
X0.5653 Y2.6507
X0.5669 Y2.6488
X0.5753 Y2.6391
X0.5795 Y2.6343
X0.5798 Y2.634
X0.5843 Y2.6294
X0.5943 Y2.6197
X0.5991 Y2.6153
X0.607 Y2.6087
Y2.4206
X0.6069 Y2.4205
X0.4349
X0.4301 Y2.4204
X0.4253 Y2.4203
X0.4204 Y2.42
X0.4156 Y2.4194
X0.4108 Y2.4188
X0.406 Y2.418
X0.4011 Y2.4168
X0.3963 Y2.4155
X0.3915 Y2.4139
X0.387 Y2.4119
X0.3866 Y2.4117
X0.3818 Y2.4092
X0.3782 Y2.4071
X0.377 Y2.4064
X0.3746 Y2.4047
X0.3722 Y2.4029
X0.3714 Y2.4023
X0.3694 Y2.4005
X0.3673 Y2.3984
X0.3664 Y2.3974
X0.3644 Y2.395
X0.3625 Y2.3926
X0.3594 Y2.3878
X0.3577 Y2.3846
X0.3569 Y2.383
X0.355 Y2.3781
X0.3536 Y2.3733
X0.3528 Y2.3694
X0.3527 Y2.3685
X0.3523 Y2.3636
Y2.3588
Y0.0004
X0.3525 Y-0.0044
X0.3528 Y-0.0072
X0.3532 Y-0.0092
X0.3544 Y-0.0141
X0.3561 Y-0.0189
X0.3577 Y-0.0224
X0.3584 Y-0.0237
X0.3613 Y-0.0286
X0.3625 Y-0.0304
X0.3648 Y-0.0334
X0.3673 Y-0.0362
X0.3694 Y-0.0382
X0.3722 Y-0.0407
X0.3754 Y-0.0431
X0.377 Y-0.0442
X0.3818 Y-0.047
X0.3834 Y-0.0479
X0.3866 Y-0.0495
X0.3915 Y-0.0517
X0.3946 Y-0.0527
X0.3953 Y-0.0529
G3 X0.3797 Y-0.0613 I-0.0036 J-0.012
G1 X0.3789 Y-0.064 Z-0.0397
X0.3782 Y-0.0665 Z-0.0388
X0.3775 Y-0.0688 Z-0.0373
X0.3769 Y-0.0707 Z-0.0353
X0.3765 Y-0.0721 Z-0.0329
X0.3762 Y-0.073 Z-0.0303
X0.3761 Y-0.0733 Z-0.0275
G0 Z0.2
X0.4135 Y-0.0551
Z0.0676
G1 Z-0.0288 F40.38
Z-0.0301
Y-0.0553 Z-0.0313
Y-0.0557 Z-0.0325
G3 X0.4136 Y-0.0562 Z-0.0337 I0.0071 J0.0004
X0.4137 Y-0.0568 Z-0.0348 I0.007 J0.0009
X0.4139 Y-0.0575 Z-0.0358 I0.0069 J0.0015
X0.4142 Y-0.0582 Z-0.0367 I0.0068 J0.0022
X0.4146 Y-0.059 Z-0.0376 I0.0064 J0.003
X0.4152 Y-0.0599 Z-0.0383 I0.006 J0.0038
X0.416 Y-0.0606 Z-0.0389 I0.0054 J0.0046
X0.4169 Y-0.0613 Z-0.0394 I0.0046 J0.0054
X0.418 Y-0.0618 Z-0.0397 I0.0037 J0.0061
X0.4192 Y-0.0622 Z-0.0399 I0.0026 J0.0066
X0.4204 Y-0.0623 Z-0.04 I0.0014 J0.007
G1 X0.4156 Y-0.0622
X0.4108 Y-0.062 Z-0.0401
X0.406 Y-0.0616
X0.4011 Y-0.061
X0.3963 Y-0.0603 Z-0.0402
X0.3915 Y-0.0593
X0.3866 Y-0.058 Z-0.0403
X0.3853 Y-0.0576
X0.3818 Y-0.0564
X0.377 Y-0.0544
X0.3734 Y-0.0527 Z-0.0404
X0.3722 Y-0.0521
X0.3697 Y-0.0507
X0.3673 Y-0.0492
X0.3655 Y-0.0479
X0.3625 Y-0.0455 Z-0.0405
X0.3597 Y-0.0431
X0.3577 Y-0.0411
X0.355 Y-0.0382 Z-0.0406
X0.3528 Y-0.0357
X0.3511 Y-0.0334
X0.3495 Y-0.031
X0.348 Y-0.0286
X0.3455 Y-0.0237 Z-0.0407
X0.3435 Y-0.0189
X0.3432 Y-0.018
X0.342 Y-0.0141 Z-0.0408
X0.341 Y-0.0092
X0.3404 Y-0.0044
X0.3402 Y0.0004 Z-0.0409
Y2.3588 Z-0.0591
X0.3403 Y2.3636
X0.3406 Y2.3685 Z-0.0592
X0.3413 Y2.3733
X0.3425 Y2.3781
X0.3432 Y2.3802 Z-0.0593
X0.3442 Y2.383
X0.3464 Y2.3878
X0.348 Y2.3908 Z-0.0594
X0.3491 Y2.3926
X0.3507 Y2.395
X0.3525 Y2.3974
X0.3528 Y2.3979
X0.3547 Y2.4001
X0.3566 Y2.4023 Z-0.0595
X0.3577 Y2.4033
X0.3617 Y2.4071
X0.3625 Y2.4078
X0.3649 Y2.4097
X0.3673 Y2.4114 Z-0.0596
X0.3682 Y2.4119
X0.3722 Y2.4143
X0.377 Y2.4166 Z-0.0597
X0.3773 Y2.4168
X0.3818 Y2.4186
X0.3866 Y2.4202
X0.3915 Y2.4215 Z-0.0598
X0.3918 Y2.4216
X0.3963 Y2.4225
X0.4011 Y2.4232 Z-0.0599
X0.406 Y2.4238
X0.4108 Y2.4242
X0.4156 Y2.4244 Z-0.06
X0.4204 Y2.4245
X0.4156 Y2.4244
X0.4108 Y2.4242
X0.406 Y2.4238
X0.4011 Y2.4232
X0.3963 Y2.4225
X0.3918 Y2.4216
X0.3915 Y2.4215
X0.3866 Y2.4202
X0.3818 Y2.4186
X0.3773 Y2.4168
X0.377 Y2.4166
X0.3722 Y2.4143
X0.3682 Y2.4119
X0.3673 Y2.4114
X0.3649 Y2.4097
X0.3625 Y2.4078
X0.3617 Y2.4071
X0.3577 Y2.4033
X0.3566 Y2.4023
X0.3547 Y2.4001
X0.3528 Y2.3979
X0.3525 Y2.3974
X0.3507 Y2.395
X0.3491 Y2.3926
X0.348 Y2.3908
X0.3464 Y2.3878
X0.3442 Y2.383
X0.3432 Y2.3802
X0.3425 Y2.3781
X0.3413 Y2.3733
X0.3406 Y2.3685
X0.3403 Y2.3636
X0.3402 Y2.3588
Y0.0004
X0.3404 Y-0.0044
X0.341 Y-0.0092
X0.342 Y-0.0141
X0.3432 Y-0.018
X0.3435 Y-0.0189
X0.3455 Y-0.0237
X0.348 Y-0.0286
X0.3495 Y-0.031
X0.3511 Y-0.0334
X0.3528 Y-0.0357
X0.355 Y-0.0382
X0.3577 Y-0.0411
X0.3597 Y-0.0431
X0.3625 Y-0.0455
X0.3655 Y-0.0479
X0.3673 Y-0.0492
X0.3697 Y-0.0507
X0.3722 Y-0.0521
X0.3734 Y-0.0527
X0.377 Y-0.0544
X0.3818 Y-0.0564
X0.3853 Y-0.0576
X0.3866 Y-0.058
X0.3915 Y-0.0593
X0.3963 Y-0.0603
X0.4011 Y-0.061
X0.406 Y-0.0616
X0.4108 Y-0.062
X0.4156 Y-0.0622
X0.4204 Y-0.0623
G3 X0.4075 Y-0.0744 I-0.0004 J-0.0125
G1 Y-0.0772 Z-0.0597
X0.4074 Y-0.0799 Z-0.0588
X0.4073 Y-0.0822 Z-0.0573
X0.4072 Y-0.0842 Z-0.0553
Y-0.0857 Z-0.0529
Y-0.0866 Z-0.0503
Y-0.0869 Z-0.0475
G0 Z0.2
X0.1457 Y2.4659
Z0.0324
G1 Z-0.0475 F40.38
Y2.4656 Z-0.0503
X0.1456 Y2.4647 Z-0.0529
X0.1455 Y2.4632 Z-0.0553
X0.1453 Y2.4612 Z-0.0573
X0.1451 Y2.4589 Z-0.0588
X0.1449 Y2.4562 Z-0.0597
X0.1447 Y2.4535 Z-0.06
X0.1434 Y2.4381
G3 X0.1549 Y2.4246 I0.0125 J-0.001
G1 X0.1597 Y2.4242
X0.1645 Y2.4235 Z-0.0601
X0.1694 Y2.4225
X0.1726 Y2.4216
X0.1742 Y2.4211 Z-0.0602
X0.179 Y2.4193
X0.1838 Y2.417
X0.1842 Y2.4168
X0.1887 Y2.4142 Z-0.0603
X0.1919 Y2.4119
X0.1935 Y2.4107
X0.1956 Y2.409
X0.1978 Y2.4071 Z-0.0604
X0.1983 Y2.4066
X0.2005 Y2.4044
X0.2025 Y2.4023
X0.2032 Y2.4015
X0.2063 Y2.3974 Z-0.0605
X0.208 Y2.3949
X0.2094 Y2.3926
X0.2119 Y2.3878 Z-0.0606
X0.2128 Y2.3857
X0.2139 Y2.383
X0.2154 Y2.3781
X0.2165 Y2.3733 Z-0.0607
X0.2172 Y2.3685
X0.2175 Y2.3636 Z-0.0608
Y2.3588
Y0.0004 Z-0.0792
X0.2174 Y-0.0044 Z-0.0793
X0.2168 Y-0.0092
X0.2159 Y-0.0141
X0.2145 Y-0.0189 Z-0.0794
X0.2128 Y-0.0235
X0.2127 Y-0.0237
X0.2104 Y-0.0286 Z-0.0795
X0.208 Y-0.0327
X0.2075 Y-0.0334
X0.2059 Y-0.0358
X0.204 Y-0.0382 Z-0.0796
X0.2032 Y-0.0393
X0.1997 Y-0.0431
X0.1983 Y-0.0444
X0.1943 Y-0.0479 Z-0.0797
X0.1935 Y-0.0485
X0.1911 Y-0.0503
X0.1887 Y-0.052
X0.1874 Y-0.0527
X0.1838 Y-0.0548 Z-0.0798
X0.179 Y-0.0571
X0.1778 Y-0.0576
X0.1742 Y-0.0589
X0.1694 Y-0.0603 Z-0.0799
X0.1645 Y-0.0613
X0.1597 Y-0.062 Z-0.08
X0.1549 Y-0.0624
X0.1597 Y-0.062
X0.1645 Y-0.0613
X0.1694 Y-0.0603
X0.1742 Y-0.0589
X0.1778 Y-0.0576
X0.179 Y-0.0571
X0.1838 Y-0.0548
X0.1874 Y-0.0527
X0.1887 Y-0.052
X0.1911 Y-0.0503
X0.1935 Y-0.0485
X0.1943 Y-0.0479
X0.1983 Y-0.0444
X0.1997 Y-0.0431
X0.2032 Y-0.0393
X0.204 Y-0.0382
X0.2059 Y-0.0358
X0.2075 Y-0.0334
X0.208 Y-0.0327
X0.2104 Y-0.0286
X0.2127 Y-0.0237
X0.2128 Y-0.0235
X0.2145 Y-0.0189
X0.2159 Y-0.0141
X0.2168 Y-0.0092
X0.2174 Y-0.0044
X0.2175 Y0.0004
Y2.3588
Y2.3636
X0.2172 Y2.3685
X0.2165 Y2.3733
X0.2154 Y2.3781
X0.2139 Y2.383
X0.2128 Y2.3857
X0.2119 Y2.3878
X0.2094 Y2.3926
X0.208 Y2.3949
X0.2063 Y2.3974
X0.2032 Y2.4015
X0.2025 Y2.4023
X0.2005 Y2.4044
X0.1983 Y2.4066
X0.1978 Y2.4071
X0.1956 Y2.409
X0.1935 Y2.4107
X0.1919 Y2.4119
X0.1887 Y2.4142
X0.1842 Y2.4168
X0.1838 Y2.417
X0.179 Y2.4193
X0.1742 Y2.4211
X0.1726 Y2.4216
X0.1694 Y2.4225
X0.1645 Y2.4235
X0.1597 Y2.4242
X0.1549 Y2.4246
G3 X0.1683 Y2.4361 I0.001 J0.0125
G1 X0.1685 Y2.4389 Z-0.0797
X0.1687 Y2.4415 Z-0.0788
X0.1689 Y2.4439 Z-0.0773
X0.169 Y2.4458 Z-0.0753
X0.1692 Y2.4473 Z-0.0729
Y2.4483 Z-0.0703
Y2.4486 Z-0.0675
G0 Z0.2
X0.4054 Y-0.1037
Z0.0324
G1 Z-0.0475 F40.38
X0.4055 Y-0.1034 Z-0.0503
Y-0.1025 Z-0.0529
X0.4057 Y-0.101 Z-0.0553
X0.4058 Y-0.099 Z-0.0573
X0.406 Y-0.0967 Z-0.0588
X0.4062 Y-0.094 Z-0.0597
X0.4065 Y-0.0913 Z-0.06
X0.4077 Y-0.0759
G3 X0.3963 Y-0.0624 I-0.0125 J0.001
G1 X0.3915 Y-0.062
X0.3866 Y-0.0613 Z-0.0601
X0.3818 Y-0.0603
X0.377 Y-0.0589 Z-0.0602
X0.3734 Y-0.0576
X0.3722 Y-0.0571
X0.3673 Y-0.0548
X0.3638 Y-0.0527 Z-0.0603
X0.3625 Y-0.0519
X0.3601 Y-0.0503
X0.3577 Y-0.0485
X0.3569 Y-0.0479
X0.3528 Y-0.0444 Z-0.0604
X0.3515 Y-0.0431
X0.348 Y-0.0393
X0.3472 Y-0.0382
X0.3453 Y-0.0358 Z-0.0605
X0.3436 Y-0.0334
X0.3432 Y-0.0327
X0.3408 Y-0.0286
X0.3385 Y-0.0237 Z-0.0606
X0.3384 Y-0.0235
X0.3367 Y-0.0189
X0.3353 Y-0.0141 Z-0.0607
X0.3343 Y-0.0092
X0.3338 Y-0.0044
X0.3336 Y0.0004 Z-0.0608
Y2.3588 Z-0.0792
X0.3337 Y2.3636
X0.334 Y2.3685 Z-0.0793
X0.3347 Y2.3733
X0.3358 Y2.3781 Z-0.0794
X0.3373 Y2.383
X0.3384 Y2.3857
X0.3393 Y2.3878
X0.3418 Y2.3926 Z-0.0795
X0.3432 Y2.3949
X0.3449 Y2.3974
X0.348 Y2.4015 Z-0.0796
X0.3487 Y2.4023
X0.3507 Y2.4044
X0.3528 Y2.4066
X0.3534 Y2.4071
X0.3555 Y2.409 Z-0.0797
X0.3577 Y2.4107
X0.3593 Y2.4119
X0.3625 Y2.4141
X0.367 Y2.4168 Z-0.0798
X0.3673 Y2.417
X0.3722 Y2.4193
X0.377 Y2.4211
X0.3786 Y2.4216 Z-0.0799
X0.3818 Y2.4225
X0.3866 Y2.4235
X0.3915 Y2.4242 Z-0.08
X0.3963 Y2.4246
X0.3915 Y2.4242
X0.3866 Y2.4235
X0.3818 Y2.4225
X0.3786 Y2.4216
X0.377 Y2.4211
X0.3722 Y2.4193
X0.3673 Y2.417
X0.367 Y2.4168
X0.3625 Y2.4141
X0.3593 Y2.4119
X0.3577 Y2.4107
X0.3555 Y2.409
X0.3534 Y2.4071
X0.3528 Y2.4066
X0.3507 Y2.4044
X0.3487 Y2.4023
X0.348 Y2.4015
X0.3449 Y2.3974
X0.3432 Y2.3949
X0.3418 Y2.3926
X0.3393 Y2.3878
X0.3384 Y2.3857
X0.3373 Y2.383
X0.3358 Y2.3781
X0.3347 Y2.3733
X0.334 Y2.3685
X0.3337 Y2.3636
X0.3336 Y2.3588
Y0.0004
X0.3338 Y-0.0044
X0.3343 Y-0.0092
X0.3353 Y-0.0141
X0.3367 Y-0.0189
X0.3384 Y-0.0235
X0.3385 Y-0.0237
X0.3408 Y-0.0286
X0.3432 Y-0.0327
X0.3436 Y-0.0334
X0.3453 Y-0.0358
X0.3472 Y-0.0382
X0.348 Y-0.0393
X0.3515 Y-0.0431
X0.3528 Y-0.0444
X0.3569 Y-0.0479
X0.3577 Y-0.0485
X0.3601 Y-0.0503
X0.3625 Y-0.0519
X0.3638 Y-0.0527
X0.3673 Y-0.0548
X0.3722 Y-0.0571
X0.3734 Y-0.0576
X0.377 Y-0.0589
X0.3818 Y-0.0603
X0.3866 Y-0.0613
X0.3915 Y-0.062
X0.3963 Y-0.0624
G3 X0.3829 Y-0.0739 I-0.001 J-0.0125
G1 X0.3827 Y-0.0767 Z-0.0797
X0.3825 Y-0.0793 Z-0.0788
X0.3823 Y-0.0817 Z-0.0773
X0.3821 Y-0.0836 Z-0.0753
X0.382 Y-0.0851 Z-0.0729
X0.3819 Y-0.086 Z-0.0703
Y-0.0864 Z-0.0675
G0 Z0.2
X0.22 Y1.8417
Z0.0488
G1 Z-0.0465 F40.38
G19 G3 Y1.8537 Z-0.059 J0.0125
G1 Y2.3588 Z-0.0766
X0.2199 Y2.3636 Z-0.0768
X0.2196 Y2.3685 Z-0.077
X0.219 Y2.3733 Z-0.0771
X0.2179 Y2.3781 Z-0.0773
X0.2176 Y2.379
X0.2164 Y2.383 Z-0.0775
X0.2145 Y2.3878 Z-0.0777
X0.2128 Y2.3912 Z-0.0778
X0.2121 Y2.3926
X0.2106 Y2.395 Z-0.0779
X0.2091 Y2.3974 Z-0.078
X0.208 Y2.399 Z-0.0781
X0.2054 Y2.4023 Z-0.0783
X0.2032 Y2.4048 Z-0.0784
X0.2009 Y2.4071 Z-0.0785
X0.1983 Y2.4095 Z-0.0786
X0.1953 Y2.4119 Z-0.0787
X0.1935 Y2.4132 Z-0.0788
X0.1911 Y2.4149 Z-0.0789
X0.1887 Y2.4163 Z-0.079
X0.1879 Y2.4168 Z-0.0791
X0.1838 Y2.4188 Z-0.0792
X0.179 Y2.4208 Z-0.0794
X0.1768 Y2.4216 Z-0.0795
X0.1742 Y2.4224 Z-0.0796
X0.1694 Y2.4235 Z-0.0797
X0.1645 Y2.4243 Z-0.0799
X0.163 Y2.4244 Z-0.08
X0.1625 Y2.4245
X0.162
X0.163 Y2.4244
X0.1645 Y2.4243
X0.1694 Y2.4235 Z-0.0801
X0.1742 Y2.4224
X0.1768 Y2.4216
X0.179 Y2.4208
X0.1838 Y2.4188 Z-0.0802
X0.1879 Y2.4168
X0.1887 Y2.4163
X0.1911 Y2.4149
X0.1935 Y2.4132 Z-0.0803
X0.1953 Y2.4119
X0.1983 Y2.4095
X0.2009 Y2.4071
X0.2032 Y2.4048 Z-0.0804
X0.2054 Y2.4023
X0.208 Y2.399
X0.2091 Y2.3974
X0.2106 Y2.395 Z-0.0805
X0.2121 Y2.3926
X0.2128 Y2.3912
X0.2145 Y2.3878
X0.2164 Y2.383 Z-0.0806
X0.2176 Y2.379
X0.2179 Y2.3781
X0.219 Y2.3733
X0.2196 Y2.3685 Z-0.0807
X0.2199 Y2.3636
X0.22 Y2.3588 Z-0.0808
Y0.0004 Z-0.0993
X0.2198 Y-0.0044
X0.2193 Y-0.0092
X0.2183 Y-0.0141 Z-0.0994
X0.2176 Y-0.0168
X0.217 Y-0.0189
X0.2153 Y-0.0237 Z-0.0995
X0.213 Y-0.0286
X0.2128 Y-0.029
X0.2103 Y-0.0334
X0.208 Y-0.0368 Z-0.0996
X0.2069 Y-0.0382
X0.2051 Y-0.0404
X0.2032 Y-0.0426
X0.2027 Y-0.0431
X0.2005 Y-0.0453 Z-0.0997
X0.1983 Y-0.0473
X0.1976 Y-0.0479
X0.1935 Y-0.051
X0.191 Y-0.0527 Z-0.0998
X0.1887 Y-0.0541
X0.1838 Y-0.0566
X0.1817 Y-0.0576
X0.179 Y-0.0586 Z-0.0999
X0.1742 Y-0.0602
X0.1694 Y-0.0613
X0.1645 Y-0.0621 Z-0.1
X0.163 Y-0.0622
X0.1624 Y-0.0623
X0.1619
X0.1624
X0.163 Y-0.0622
X0.1645 Y-0.0621
X0.1694 Y-0.0613
X0.1742 Y-0.0602
X0.179 Y-0.0586
X0.1817 Y-0.0576
X0.1838 Y-0.0566
X0.1887 Y-0.0541
X0.191 Y-0.0527
X0.1935 Y-0.051
X0.1976 Y-0.0479
X0.1983 Y-0.0473
X0.2005 Y-0.0453
X0.2027 Y-0.0431
X0.2032 Y-0.0426
X0.2051 Y-0.0404
X0.2069 Y-0.0382
X0.208 Y-0.0368
X0.2103 Y-0.0334
X0.2128 Y-0.029
X0.213 Y-0.0286
X0.2153 Y-0.0237
X0.217 Y-0.0189
X0.2176 Y-0.0168
X0.2183 Y-0.0141
X0.2193 Y-0.0092
X0.2198 Y-0.0044
X0.22 Y0.0004
Y2.3588
X0.2199 Y2.3636
X0.2196 Y2.3685
X0.219 Y2.3733
X0.2179 Y2.3781
X0.2176 Y2.379
X0.2164 Y2.383
X0.2145 Y2.3878
X0.2128 Y2.3912
X0.2121 Y2.3926
X0.2106 Y2.395
X0.2091 Y2.3974
X0.208 Y2.399
X0.2054 Y2.4023
X0.2032 Y2.4048
X0.2009 Y2.4071
X0.1983 Y2.4095
X0.1953 Y2.4119
X0.1935 Y2.4132
X0.1911 Y2.4149
X0.1887 Y2.4163
X0.1879 Y2.4168
X0.1838 Y2.4188
X0.179 Y2.4208
X0.1768 Y2.4216
X0.1742 Y2.4224
X0.1694 Y2.4235
X0.1645 Y2.4243
X0.163 Y2.4244
X0.162 Y2.4245
G17 G3 X0.1758 Y2.4356 I0.0013 J0.0124
G1 X0.1761 Y2.4384 Z-0.0997
X0.1764 Y2.441 Z-0.0988
X0.1766 Y2.4434 Z-0.0973
X0.1768 Y2.4454 Z-0.0953
X0.177 Y2.4468 Z-0.0929
X0.1771 Y2.4478 Z-0.0903
Y2.4481 Z-0.0875
G0 Z0.2
X0.3976 Y-0.1176
Z0.0124
G1 Z-0.0675 F40.38
Y-0.1173 Z-0.0703
X0.3977 Y-0.1164 Z-0.0729
X0.3978 Y-0.1149 Z-0.0753
X0.3979 Y-0.1129 Z-0.0773
X0.3981 Y-0.1106 Z-0.0788
X0.3983 Y-0.1079 Z-0.0797
X0.3985 Y-0.1051 Z-0.08
X0.4008 Y-0.0758
G3 X0.3893 Y-0.0623 I-0.0125 J0.001
G1 X0.3888
X0.3882 Y-0.0622
X0.3866 Y-0.0621
X0.3818 Y-0.0613 Z-0.0801
X0.377 Y-0.0602
X0.3722 Y-0.0586
X0.3695 Y-0.0576 Z-0.0802
X0.3673 Y-0.0566
X0.3625 Y-0.0541
X0.3602 Y-0.0527
X0.3577 Y-0.051 Z-0.0803
X0.3536 Y-0.0479
X0.3528 Y-0.0473
X0.3506 Y-0.0453
X0.3485 Y-0.0431 Z-0.0804
X0.348 Y-0.0426
X0.3461 Y-0.0404
X0.3443 Y-0.0382
X0.3432 Y-0.0368
X0.3409 Y-0.0334 Z-0.0805
X0.3384 Y-0.029
X0.3381 Y-0.0286
X0.3359 Y-0.0237
X0.3342 Y-0.0189 Z-0.0806
X0.3335 Y-0.0168
X0.3328 Y-0.0141
X0.3319 Y-0.0092 Z-0.0807
X0.3314 Y-0.0044
X0.3312 Y0.0004
Y2.3588 Z-0.0992
Y2.3636 Z-0.0993
X0.3315 Y2.3685
X0.3322 Y2.3733 Z-0.0994
X0.3333 Y2.3781
X0.3335 Y2.379
X0.3348 Y2.383
X0.3367 Y2.3878 Z-0.0995
X0.3384 Y2.3912
X0.3391 Y2.3926
X0.3405 Y2.395
X0.3421 Y2.3974 Z-0.0996
X0.3432 Y2.399
X0.3458 Y2.4023
X0.348 Y2.4048
X0.3503 Y2.4071 Z-0.0997
X0.3528 Y2.4095
X0.3559 Y2.4119
X0.3577 Y2.4132
X0.3601 Y2.4149 Z-0.0998
X0.3625 Y2.4163
X0.3633 Y2.4168
X0.3673 Y2.4188
X0.3722 Y2.4208 Z-0.0999
X0.3744 Y2.4216
X0.377 Y2.4224
X0.3818 Y2.4235
X0.3866 Y2.4243 Z-0.1
X0.3882 Y2.4244
X0.3891 Y2.4245
X0.3882 Y2.4244
X0.3866 Y2.4243
X0.3818 Y2.4235
X0.377 Y2.4224
X0.3744 Y2.4216
X0.3722 Y2.4208
X0.3673 Y2.4188
X0.3633 Y2.4168
X0.3625 Y2.4163
X0.3601 Y2.4149
X0.3577 Y2.4132
X0.3559 Y2.4119
X0.3528 Y2.4095
X0.3503 Y2.4071
X0.348 Y2.4048
X0.3458 Y2.4023
X0.3432 Y2.399
X0.3421 Y2.3974
X0.3405 Y2.395
X0.3391 Y2.3926
X0.3384 Y2.3912
X0.3367 Y2.3878
X0.3348 Y2.383
X0.3335 Y2.379
X0.3333 Y2.3781
X0.3322 Y2.3733
X0.3315 Y2.3685
X0.3312 Y2.3636
Y2.3588
Y0.0004
X0.3314 Y-0.0044
X0.3319 Y-0.0092
X0.3328 Y-0.0141
X0.3335 Y-0.0168
X0.3342 Y-0.0189
X0.3359 Y-0.0237
X0.3381 Y-0.0286
X0.3384 Y-0.029
X0.3409 Y-0.0334
X0.3432 Y-0.0368
X0.3443 Y-0.0382
X0.3461 Y-0.0404
X0.348 Y-0.0426
X0.3485 Y-0.0431
X0.3506 Y-0.0453
X0.3528 Y-0.0473
X0.3536 Y-0.0479
X0.3577 Y-0.051
X0.3602 Y-0.0527
X0.3625 Y-0.0541
X0.3673 Y-0.0566
X0.3695 Y-0.0576
X0.3722 Y-0.0586
X0.377 Y-0.0602
X0.3818 Y-0.0613
X0.3866 Y-0.0621
X0.3882 Y-0.0622
X0.3888 Y-0.0623
X0.3893
G3 X0.3756 Y-0.0735 I-0.0013 J-0.0124
G1 X0.3753 Y-0.0762 Z-0.0997
X0.375 Y-0.0789 Z-0.0988
X0.3748 Y-0.0812 Z-0.0973
X0.3746 Y-0.0832 Z-0.0953
X0.3744 Y-0.0847 Z-0.0929
X0.3743 Y-0.0856 Z-0.0903
Y-0.0859 Z-0.0875
G0 Z0.2
X0.1564 Y2.4895
Z-0.0059
G1 Z-0.0856 F40.38
Y2.4892 Z-0.0884
X0.1563 Y2.4883 Z-0.091
X0.1561 Y2.4868 Z-0.0934
X0.1559 Y2.4848 Z-0.0954
X0.1557 Y2.4825 Z-0.0969
X0.1554 Y2.4799 Z-0.0978
X0.1551 Y2.4771 Z-0.0981
X0.151 Y2.4383
G3 X0.1621 Y2.4245 I0.0124 J-0.0013
G1 X0.1631
X0.1645 Y2.4243
X0.1694 Y2.4236 Z-0.0982
X0.1742 Y2.4224
X0.1769 Y2.4216
X0.179 Y2.4209
X0.1838 Y2.4189 Z-0.0983
X0.1879 Y2.4168
X0.1887 Y2.4164
X0.1911 Y2.4149 Z-0.0984
X0.1935 Y2.4133
X0.1953 Y2.4119
X0.1983 Y2.4095
X0.2009 Y2.4071 Z-0.0985
X0.2032 Y2.4049
X0.2054 Y2.4023
X0.208 Y2.399
X0.2091 Y2.3974 Z-0.0986
X0.2107 Y2.395
X0.2121 Y2.3926
X0.2128 Y2.3913
X0.2145 Y2.3878
X0.2164 Y2.383 Z-0.0987
X0.2176 Y2.3791
X0.2179 Y2.3781
X0.219 Y2.3733 Z-0.0988
X0.2197 Y2.3685
X0.22 Y2.3636
Y2.3588 Z-0.0989
Y0.0004 Z-0.1174
X0.2198 Y-0.0044
X0.2193 Y-0.0092 Z-0.1175
X0.2184 Y-0.0141
X0.2176 Y-0.0169
X0.2171 Y-0.0189
X0.2153 Y-0.0237 Z-0.1176
X0.2131 Y-0.0286
X0.2128 Y-0.0291
X0.2103 Y-0.0334 Z-0.1177
X0.208 Y-0.0368
X0.2069 Y-0.0382
X0.2051 Y-0.0405
X0.2032 Y-0.0427
X0.2028 Y-0.0431 Z-0.1178
X0.2005 Y-0.0453
X0.1983 Y-0.0473
X0.1976 Y-0.0479
X0.1935 Y-0.0511
X0.191 Y-0.0527 Z-0.1179
X0.1887 Y-0.0542
X0.1838 Y-0.0567
X0.1818 Y-0.0576 Z-0.118
X0.179 Y-0.0587
X0.1742 Y-0.0602
X0.1694 Y-0.0614 Z-0.1181
X0.1645 Y-0.0621
X0.1631 Y-0.0623
X0.1624
X0.1631
X0.1645 Y-0.0621
X0.1694 Y-0.0614
X0.1742 Y-0.0602
X0.179 Y-0.0587
X0.1818 Y-0.0576
X0.1838 Y-0.0567
X0.1887 Y-0.0542
X0.191 Y-0.0527
X0.1935 Y-0.0511
X0.1976 Y-0.0479
X0.1983 Y-0.0473
X0.2005 Y-0.0453
X0.2028 Y-0.0431
X0.2032 Y-0.0427
X0.2051 Y-0.0405
X0.2069 Y-0.0382
X0.208 Y-0.0368
X0.2103 Y-0.0334
X0.2128 Y-0.0291
X0.2131 Y-0.0286
X0.2153 Y-0.0237
X0.2171 Y-0.0189
X0.2176 Y-0.0169
X0.2184 Y-0.0141
X0.2193 Y-0.0092
X0.2198 Y-0.0044
X0.22 Y0.0004
Y2.3588
Y2.3636
X0.2197 Y2.3685
X0.219 Y2.3733
X0.2179 Y2.3781
X0.2176 Y2.3791
X0.2164 Y2.383
X0.2145 Y2.3878
X0.2128 Y2.3913
X0.2121 Y2.3926
X0.2107 Y2.395
X0.2091 Y2.3974
X0.208 Y2.399
X0.2054 Y2.4023
X0.2032 Y2.4049
X0.2009 Y2.4071
X0.1983 Y2.4095
X0.1953 Y2.4119
X0.1935 Y2.4133
X0.1911 Y2.4149
X0.1887 Y2.4164
X0.1879 Y2.4168
X0.1838 Y2.4189
X0.179 Y2.4209
X0.1769 Y2.4216
X0.1742 Y2.4224
X0.1694 Y2.4236
X0.1645 Y2.4243
X0.1631 Y2.4245
X0.1621
G3 X0.1759 Y2.4357 I0.0013 J0.0124
G1 X0.1762 Y2.4384 Z-0.1178
X0.1765 Y2.441 Z-0.1169
X0.1767 Y2.4434 Z-0.1154
X0.1769 Y2.4454 Z-0.1134
X0.1771 Y2.4469 Z-0.111
X0.1772 Y2.4478 Z-0.1084
Y2.4481 Z-0.1056
G0 Z0.2
X0.3943 Y-0.1272
Z-0.0058
G1 Z-0.0856 F40.38
Y-0.1269 Z-0.0884
X0.3944 Y-0.126 Z-0.091
X0.3946 Y-0.1245 Z-0.0934
X0.3948 Y-0.1225 Z-0.0954
X0.3951 Y-0.1202 Z-0.0969
X0.3953 Y-0.1175 Z-0.0978
X0.3956 Y-0.1148 Z-0.0981
X0.3998 Y-0.0761
G3 X0.3887 Y-0.0623 I-0.0124 J0.0013
G1 X0.3881 Y-0.0622
X0.3866 Y-0.0621
X0.3818 Y-0.0614 Z-0.0982
X0.377 Y-0.0602
X0.3722 Y-0.0587
X0.3694 Y-0.0576 Z-0.0983
X0.3673 Y-0.0567
X0.3625 Y-0.0542
X0.3602 Y-0.0527
X0.3577 Y-0.0511 Z-0.0984
X0.3536 Y-0.0479
X0.3528 Y-0.0473
X0.3506 Y-0.0453
X0.3484 Y-0.0431 Z-0.0985
X0.348 Y-0.0426
X0.3461 Y-0.0404
X0.3443 Y-0.0382
X0.3432 Y-0.0368
X0.3409 Y-0.0334 Z-0.0986
X0.3384 Y-0.029
X0.3381 Y-0.0286
X0.3359 Y-0.0237 Z-0.0987
X0.3341 Y-0.0189
X0.3335 Y-0.0169
X0.3328 Y-0.0141
X0.3319 Y-0.0092 Z-0.0988
X0.3314 Y-0.0044
X0.3312 Y0.0004
Y2.3588 Z-0.1173
Y2.3636 Z-0.1174
X0.3315 Y2.3685
X0.3322 Y2.3733 Z-0.1175
X0.3333 Y2.3781
X0.3335 Y2.3791
X0.3347 Y2.383
X0.3367 Y2.3878 Z-0.1176
X0.3384 Y2.3912
X0.3391 Y2.3926
X0.3405 Y2.395
X0.3421 Y2.3974 Z-0.1177
X0.3432 Y2.399
X0.3457 Y2.4023
X0.348 Y2.4049
X0.3502 Y2.4071 Z-0.1178
X0.3528 Y2.4095
X0.3559 Y2.4119
X0.3577 Y2.4133
X0.3601 Y2.4149 Z-0.1179
X0.3625 Y2.4164
X0.3632 Y2.4168
X0.3673 Y2.4189
X0.3722 Y2.4209 Z-0.118
X0.3743 Y2.4216
X0.377 Y2.4224
X0.3818 Y2.4236 Z-0.1181
X0.3866 Y2.4243
X0.3881 Y2.4245
X0.389
X0.3881
X0.3866 Y2.4243
X0.3818 Y2.4236
X0.377 Y2.4224
X0.3743 Y2.4216
X0.3722 Y2.4209
X0.3673 Y2.4189
X0.3632 Y2.4168
X0.3625 Y2.4164
X0.3601 Y2.4149
X0.3577 Y2.4133
X0.3559 Y2.4119
X0.3528 Y2.4095
X0.3502 Y2.4071
X0.348 Y2.4049
X0.3457 Y2.4023
X0.3432 Y2.399
X0.3421 Y2.3974
X0.3405 Y2.395
X0.3391 Y2.3926
X0.3384 Y2.3912
X0.3367 Y2.3878
X0.3347 Y2.383
X0.3335 Y2.3791
X0.3333 Y2.3781
X0.3322 Y2.3733
X0.3315 Y2.3685
X0.3312 Y2.3636
Y2.3588
Y0.0004
X0.3314 Y-0.0044
X0.3319 Y-0.0092
X0.3328 Y-0.0141
X0.3335 Y-0.0169
X0.3341 Y-0.0189
X0.3359 Y-0.0237
X0.3381 Y-0.0286
X0.3384 Y-0.029
X0.3409 Y-0.0334
X0.3432 Y-0.0368
X0.3443 Y-0.0382
X0.3461 Y-0.0404
X0.348 Y-0.0426
X0.3484 Y-0.0431
X0.3506 Y-0.0453
X0.3528 Y-0.0473
X0.3536 Y-0.0479
X0.3577 Y-0.0511
X0.3602 Y-0.0527
X0.3625 Y-0.0542
X0.3673 Y-0.0567
X0.3694 Y-0.0576
X0.3722 Y-0.0587
X0.377 Y-0.0602
X0.3818 Y-0.0614
X0.3866 Y-0.0621
X0.3881 Y-0.0622
X0.3887 Y-0.0623
G3 X0.375 Y-0.0734 I-0.0013 J-0.0124
G1 X0.3747 Y-0.0762 Z-0.1178
X0.3744 Y-0.0788 Z-0.1169
X0.3741 Y-0.0811 Z-0.1154
X0.3739 Y-0.0831 Z-0.1134
X0.3738 Y-0.0846 Z-0.111
X0.3737 Y-0.0855 Z-0.1084
X0.3736 Y-0.0858 Z-0.1056
G0 Z0.2
X0.2739 Y-0.0708
Z-0.0546
G1 Z-0.1056 F40.38
G19 G3 Y-0.0583 Z-0.1181 J0.0125
G17 G3 X0.2614 Y-0.0458 I-0.0125
G1 X0.2 Z-0.1203
X0.1999 Y-0.0459
X0.1998 Y-0.046
X0.1995 Y-0.0462
X0.1983 Y-0.0473
X0.1976 Y-0.0479 Z-0.1204
X0.1935 Y-0.0511 Z-0.1205
X0.191 Y-0.0527 Z-0.1207
X0.1887 Y-0.0542
X0.1838 Y-0.0567 Z-0.1209
X0.1818 Y-0.0576 Z-0.121
X0.179 Y-0.0587 Z-0.1211
X0.1742 Y-0.0602 Z-0.1213
X0.1694 Y-0.0614 Z-0.1215
X0.1645 Y-0.0621 Z-0.1216
X0.1631 Y-0.0623 Z-0.1217
X0.1624
X0.1631
X0.1645 Y-0.0621 Z-0.1218
X0.1694 Y-0.0614 Z-0.122
X0.1742 Y-0.0602 Z-0.1221
X0.179 Y-0.0587 Z-0.1223
X0.1818 Y-0.0576 Z-0.1224
X0.1838 Y-0.0567 Z-0.1225
X0.1887 Y-0.0542 Z-0.1227
X0.191 Y-0.0527 Z-0.1228
X0.1935 Y-0.0511 Z-0.1229
X0.1976 Y-0.0479 Z-0.1231
X0.1983 Y-0.0473
X0.1995 Y-0.0462 Z-0.1232
X0.1998 Y-0.046
X0.1999 Y-0.0459
X0.2 Y-0.0458
X0.3512 Z-0.1285
X0.3513 Y-0.0459
X0.3516 Y-0.0462
X0.3528 Y-0.0473
X0.3536 Y-0.0479 Z-0.1286
X0.3577 Y-0.0511 Z-0.1287
X0.3602 Y-0.0527 Z-0.1288
X0.3625 Y-0.0542 Z-0.1289
X0.3673 Y-0.0567 Z-0.1291
X0.3694 Y-0.0576 Z-0.1292
X0.3722 Y-0.0587 Z-0.1293
X0.377 Y-0.0602 Z-0.1295
X0.3818 Y-0.0614 Z-0.1297
X0.3866 Y-0.0621 Z-0.1298
X0.3881 Y-0.0622 Z-0.1299
X0.3887 Y-0.0623
X0.3881 Y-0.0622
X0.3866 Y-0.0621 Z-0.13
X0.3818 Y-0.0614 Z-0.1302
X0.377 Y-0.0602 Z-0.1303
X0.3722 Y-0.0587 Z-0.1305
X0.3694 Y-0.0576 Z-0.1306
X0.3673 Y-0.0567 Z-0.1307
X0.3625 Y-0.0542 Z-0.1309
X0.3602 Y-0.0527 Z-0.131
X0.3577 Y-0.0511 Z-0.1311
X0.3536 Y-0.0479 Z-0.1313
X0.3528 Y-0.0473
X0.3516 Y-0.0462 Z-0.1314
X0.3513 Y-0.0459
X0.3512 Y-0.0458
X0.2 Z-0.1367
X0.1999 Y-0.0459
X0.1998 Y-0.046
X0.1995 Y-0.0462
X0.1983 Y-0.0473
X0.1976 Y-0.0479 Z-0.1368
X0.1935 Y-0.0511 Z-0.1369
X0.191 Y-0.0527 Z-0.137
X0.1887 Y-0.0542 Z-0.1371
X0.1838 Y-0.0567 Z-0.1373
X0.1818 Y-0.0576 Z-0.1374
X0.179 Y-0.0587 Z-0.1375
X0.1742 Y-0.0602 Z-0.1377
X0.1694 Y-0.0614 Z-0.1379
X0.1645 Y-0.0621 Z-0.138
X0.1631 Y-0.0623 Z-0.1381
X0.1624
X0.1631
X0.1645 Y-0.0621
X0.1694 Y-0.0614
X0.1742 Y-0.0602
X0.179 Y-0.0587
X0.1818 Y-0.0576
X0.1838 Y-0.0567
X0.1887 Y-0.0542
X0.191 Y-0.0527
X0.1935 Y-0.0511
X0.1976 Y-0.0479
X0.1983 Y-0.0473
X0.1995 Y-0.0462
X0.1998 Y-0.046
X0.1999 Y-0.0459
X0.2 Y-0.0458
X0.3512
X0.3513 Y-0.0459
X0.3516 Y-0.0462
X0.3528 Y-0.0473
X0.3536 Y-0.0479
X0.3577 Y-0.0511
X0.3602 Y-0.0527
X0.3625 Y-0.0542
X0.3673 Y-0.0567
X0.3694 Y-0.0576
X0.3722 Y-0.0587
X0.377 Y-0.0602
X0.3818 Y-0.0614
X0.3866 Y-0.0621
X0.3881 Y-0.0622
X0.3887 Y-0.0623
G3 X0.375 Y-0.0734 I-0.0013 J-0.0124
G1 X0.3747 Y-0.0762 Z-0.1378
X0.3744 Y-0.0788 Z-0.1369
X0.3741 Y-0.0811 Z-0.1354
X0.3739 Y-0.0831 Z-0.1334
X0.3738 Y-0.0846 Z-0.131
X0.3737 Y-0.0855 Z-0.1284
X0.3736 Y-0.0858 Z-0.1256
G0 Z0.2
X0.2925 Y-0.0881
Z-0.0458
G1 Z-0.1256 F40.38
G19 G3 Y-0.0756 Z-0.1381 J0.0125
G1 Y-0.0708
G17 G3 X0.28 Y-0.0583 I-0.0125
G1 X0.18 Z-0.1416
X0.1799
X0.1796 Y-0.0584
X0.179 Y-0.0587
X0.1742 Y-0.0602 Z-0.1418
X0.1694 Y-0.0614 Z-0.142
X0.1645 Y-0.0621 Z-0.1422
X0.1631 Y-0.0623
X0.1624
X0.1631 Z-0.1423
X0.1645 Y-0.0621
X0.1694 Y-0.0614 Z-0.1425
X0.1742 Y-0.0602 Z-0.1427
X0.179 Y-0.0587 Z-0.1428
X0.1796 Y-0.0584 Z-0.1429
X0.1799 Y-0.0583
X0.18
X0.3712 Z-0.1495
X0.3715 Y-0.0584 Z-0.1496
X0.3722 Y-0.0587
X0.377 Y-0.0602 Z-0.1498
X0.3818 Y-0.0614 Z-0.1499
X0.3866 Y-0.0621 Z-0.1501
X0.3881 Y-0.0622
X0.3887 Y-0.0623 Z-0.1502
X0.3881 Y-0.0622
X0.3866 Y-0.0621
X0.3818 Y-0.0614 Z-0.1504
X0.377 Y-0.0602 Z-0.1506
X0.3722 Y-0.0587 Z-0.1508
X0.3715 Y-0.0584
X0.3712 Y-0.0583
X0.18 Z-0.1575
X0.1799
X0.1796 Y-0.0584
X0.179 Y-0.0587
X0.1742 Y-0.0602 Z-0.1577
X0.1694 Y-0.0614 Z-0.1579
X0.1645 Y-0.0621 Z-0.158
X0.1631 Y-0.0623 Z-0.1581
X0.1624
X0.1631
X0.1645 Y-0.0621
X0.1694 Y-0.0614
X0.1742 Y-0.0602
X0.179 Y-0.0587
X0.1796 Y-0.0584
X0.1799 Y-0.0583
X0.18
X0.3712
X0.3715 Y-0.0584
X0.3722 Y-0.0587
X0.377 Y-0.0602
X0.3818 Y-0.0614
X0.3866 Y-0.0621
X0.3881 Y-0.0622
X0.3887 Y-0.0623
G3 X0.375 Y-0.0734 I-0.0013 J-0.0124
G1 X0.3747 Y-0.0762 Z-0.1578
X0.3744 Y-0.0788 Z-0.1569
X0.3741 Y-0.0811 Z-0.1554
X0.3739 Y-0.0831 Z-0.1534
X0.3738 Y-0.0846 Z-0.151
X0.3737 Y-0.0855 Z-0.1484
X0.3736 Y-0.0858 Z-0.1456
G0 Z0.2
X1.1424 Y2.4464
Z0.0524
G1 Z-0.0309 F40.38
Y2.4461 Z-0.0333
Y2.4452 Z-0.0355
X1.1423 Y2.4438 Z-0.0373
Y2.4419 Z-0.0388
X1.1422 Y2.4397 Z-0.0397
Y2.4374 Z-0.04
G3 X1.1544 Y2.4245 I0.0125 J-0.0003
G1 X1.1592 Y2.4244
X1.164 Y2.4242 Z-0.0401
X1.1689 Y2.4238
X1.1737 Y2.4232
X1.1785 Y2.4225 Z-0.0402
X1.183 Y2.4216
X1.1833 Y2.4215
X1.1882 Y2.4202 Z-0.0403
X1.193 Y2.4186
X1.1975 Y2.4168
X1.1978 Y2.4166
X1.2027 Y2.4143 Z-0.0404
X1.2066 Y2.4119
X1.2075 Y2.4114
X1.2099 Y2.4097 Z-0.0405
X1.2123 Y2.4078
X1.2131 Y2.4071
X1.2171 Y2.4033
X1.2182 Y2.4023
X1.2201 Y2.4001 Z-0.0406
X1.222 Y2.3979
X1.2223 Y2.3974
X1.2241 Y2.395
X1.2257 Y2.3926
X1.2268 Y2.3908
X1.2284 Y2.3878 Z-0.0407
X1.2306 Y2.383
X1.2316 Y2.3802
X1.2323 Y2.3781 Z-0.0408
X1.2335 Y2.3733
X1.2342 Y2.3685
X1.2345 Y2.3636 Z-0.0409
X1.2346 Y2.3588
Y0.0004 Z-0.0591
X1.2344 Y-0.0044 Z-0.0592
X1.2338 Y-0.0092
X1.2328 Y-0.0141
X1.2316 Y-0.018 Z-0.0593
X1.2313 Y-0.0189
X1.2293 Y-0.0237
X1.2268 Y-0.0286 Z-0.0594
X1.2253 Y-0.031
X1.2237 Y-0.0334
X1.222 Y-0.0357
X1.2198 Y-0.0382
X1.2171 Y-0.0411 Z-0.0595
X1.2151 Y-0.0431
X1.2123 Y-0.0455
X1.2093 Y-0.0479 Z-0.0596
X1.2075 Y-0.0492
X1.2051 Y-0.0507
X1.2027 Y-0.0521
X1.2014 Y-0.0527
X1.1978 Y-0.0544 Z-0.0597
X1.193 Y-0.0564
X1.1895 Y-0.0576
X1.1882 Y-0.058
X1.1833 Y-0.0593 Z-0.0598
X1.1785 Y-0.0603
X1.1737 Y-0.061 Z-0.0599
X1.1689 Y-0.0616
X1.164 Y-0.062
X1.1592 Y-0.0622 Z-0.06
X1.1544 Y-0.0623
X1.1592 Y-0.0622
X1.164 Y-0.062
X1.1689 Y-0.0616
X1.1737 Y-0.061
X1.1785 Y-0.0603
X1.1833 Y-0.0593
X1.1882 Y-0.058
X1.1895 Y-0.0576
X1.193 Y-0.0564
X1.1978 Y-0.0544
X1.2014 Y-0.0527
X1.2027 Y-0.0521
X1.2051 Y-0.0507
X1.2075 Y-0.0492
X1.2093 Y-0.0479
X1.2123 Y-0.0455
X1.2151 Y-0.0431
X1.2171 Y-0.0411
X1.2198 Y-0.0382
X1.222 Y-0.0357
X1.2237 Y-0.0334
X1.2253 Y-0.031
X1.2268 Y-0.0286
X1.2293 Y-0.0237
X1.2313 Y-0.0189
X1.2316 Y-0.018
X1.2328 Y-0.0141
X1.2338 Y-0.0092
X1.2344 Y-0.0044
X1.2346 Y0.0004
Y2.3588
X1.2345 Y2.3636
X1.2342 Y2.3685
X1.2335 Y2.3733
X1.2323 Y2.3781
X1.2316 Y2.3802
X1.2306 Y2.383
X1.2284 Y2.3878
X1.2268 Y2.3908
X1.2257 Y2.3926
X1.2241 Y2.395
X1.2223 Y2.3974
X1.222 Y2.3979
X1.2201 Y2.4001
X1.2182 Y2.4023
X1.2171 Y2.4033
X1.2131 Y2.4071
X1.2123 Y2.4078
X1.2099 Y2.4097
X1.2075 Y2.4114
X1.2066 Y2.4119
X1.2027 Y2.4143
X1.1978 Y2.4166
X1.1975 Y2.4168
X1.193 Y2.4186
X1.1882 Y2.4202
X1.1833 Y2.4215
X1.183 Y2.4216
X1.1785 Y2.4225
X1.1737 Y2.4232
X1.1689 Y2.4238
X1.164 Y2.4242
X1.1592 Y2.4244
X1.1544 Y2.4245
G3 X1.1673 Y2.4366 I0.0004 J0.0125
G1 Y2.4394 Z-0.0597
X1.1674 Y2.4421 Z-0.0588
X1.1675 Y2.4444 Z-0.0573
X1.1676 Y2.4464 Z-0.0553
Y2.4479 Z-0.0529
Y2.4488 Z-0.0503
Y2.4491 Z-0.0475
G0 Z0.2
X1.4223 Y0.0033
Z0.0767
G1 Z0.0125 F40.38
G18 G3 X1.4098 Z0 I-0.0125
G17 G3 X1.3973 Y-0.0092 J-0.0125
G1 X1.3989 Y-0.0141
X1.4006 Y-0.018
X1.4011 Y-0.0189
X1.4026 Y-0.0213 Z-0.0001
X1.4044 Y-0.0237
X1.4054 Y-0.0251
X1.4088 Y-0.0286
X1.4103 Y-0.0299
X1.4147 Y-0.0334
X1.4151 Y-0.0337
X1.4199 Y-0.037
X1.4223 Y-0.0382
X1.4248 Y-0.0394 Z-0.0002
X1.4296 Y-0.0412
X1.4344 Y-0.0427
X1.4356 Y-0.0431
X1.4392 Y-0.044
X1.4441 Y-0.0448
X1.4489 Y-0.0453 Z-0.0003
X1.4537 Y-0.0457
X1.4586 Y-0.0458
X1.5744 Z-0.0007
X1.5793 Y-0.0456
X1.5841 Y-0.0449 Z-0.0008
X1.5889 Y-0.0436
X1.5904 Y-0.0431
X1.5938 Y-0.0417
X1.5962 Y-0.0405
X1.5986 Y-0.0392
X1.6001 Y-0.0382
X1.6034 Y-0.0358
X1.6062 Y-0.0334 Z-0.0009
X1.6082 Y-0.0313
X1.6106 Y-0.0286
X1.6131 Y-0.0252
X1.614 Y-0.0237
X1.6154 Y-0.0213
X1.6165 Y-0.0189
X1.6179 Y-0.0156
X1.6184 Y-0.0141 Z-0.001
X1.6197 Y-0.0092
X1.6204 Y-0.0044
X1.6206 Y0.0004
Y2.3588 Z-0.01
Y2.3636
X1.6202 Y2.3685
X1.6193 Y2.3733
X1.6179 Y2.3778
X1.6178 Y2.3781
X1.6157 Y2.383
X1.6131 Y2.3874 Z-0.0101
X1.6128 Y2.3878
X1.6111 Y2.3902
X1.6091 Y2.3926
X1.6082 Y2.3935
X1.6062 Y2.3956
X1.6041 Y2.3974
X1.6034 Y2.398
X1.601 Y2.3998
X1.5986 Y2.4014
X1.597 Y2.4023
X1.5938 Y2.4039 Z-0.0102
X1.5889 Y2.4058
X1.5841 Y2.4071
X1.5839
X1.5793 Y2.4078
X1.5744 Y2.408
X1.4586 Z-0.0107
X1.4537 Y2.4079
X1.4489 Y2.4075
X1.4447 Y2.4071
X1.4441 Y2.407
X1.4392 Y2.4062 Z-0.0108
X1.4344 Y2.4049
X1.4296 Y2.4034
X1.4265 Y2.4023
X1.4248 Y2.4016
X1.4199 Y2.3992
X1.4173 Y2.3974
X1.4151 Y2.3959 Z-0.0109
X1.4109 Y2.3926
X1.4103 Y2.3921
X1.4059 Y2.3878
X1.4054 Y2.3873
X1.4022 Y2.383
X1.4006 Y2.3802
X1.3996 Y2.3781
X1.3978 Y2.3733 Z-0.011
X1.3967 Y2.3685
X1.3962 Y2.3636
Y2.3588
Y0.0004 Z-0.02
X1.3964 Y-0.0044
X1.3973 Y-0.0092
X1.3982 Y-0.0122
X1.3992 Y-0.0151
X1.4 Y-0.0168
X1.4008 Y-0.0184
X1.4017 Y-0.02
X1.4027 Y-0.0216 Z-0.0201
X1.4047 Y-0.0243
X1.4058 Y-0.0256
X1.407 Y-0.0269
X1.4094 Y-0.0293
X1.4121 Y-0.0315
X1.4153 Y-0.034
X1.4186 Y-0.0363
X1.4203 Y-0.0373
X1.422 Y-0.0383
X1.4256 Y-0.0399 Z-0.0202
X1.4276 Y-0.0407
X1.4297 Y-0.0414
X1.4338 Y-0.0427
X1.4383 Y-0.044
X1.4406 Y-0.0445
X1.4429 Y-0.0449
X1.4518 Y-0.0458 Z-0.0203
X1.4613 Y-0.0461
X1.5111 Y-0.0463 Z-0.0205
X1.561 Y-0.0464 Z-0.0207
X1.571 Y-0.0465
X1.5753
X1.5774 Y-0.0464
X1.5796 Y-0.0463
X1.5835 Y-0.0457 Z-0.0208
X1.5874 Y-0.0448
X1.5911 Y-0.0436
X1.5947 Y-0.0421
X1.5982 Y-0.0402
X1.6017 Y-0.0381
X1.6033 Y-0.0368
X1.6049 Y-0.0355
X1.6079 Y-0.0328 Z-0.0209
X1.6106 Y-0.0298
X1.6131 Y-0.0266
X1.6152 Y-0.0233
X1.6171 Y-0.0197
X1.6187 Y-0.016
X1.6199 Y-0.0121
X1.6208 Y-0.0082 Z-0.021
X1.6213 Y-0.0043
X1.6215 Y-0.0021
Y0.0001
X1.6217 Y0.0443 Z-0.0212
X1.6218 Y0.0941 Z-0.0213
X1.622 Y0.144 Z-0.0215
X1.6222 Y0.1939 Z-0.0217
X1.6223 Y0.2438 Z-0.0219
X1.6225 Y0.2936 Z-0.0221
X1.6226 Y0.3435 Z-0.0223
X1.6228 Y0.3934 Z-0.0225
X1.6229 Y0.4433 Z-0.0226
X1.6231 Y0.4931 Z-0.0228
X1.6233 Y0.543 Z-0.023
X1.6234 Y0.5929 Z-0.0232
X1.6236 Y0.6428 Z-0.0234
X1.6237 Y0.6926 Z-0.0236
X1.6238 Y0.7425 Z-0.0238
X1.624 Y0.7924 Z-0.0239
X1.6241 Y0.8422 Z-0.0241
X1.6243 Y0.8921 Z-0.0243
X1.6244 Y0.942 Z-0.0245
X1.6246 Y0.9919 Z-0.0247
X1.6247 Y1.0417 Z-0.0249
X1.6248 Y1.0916 Z-0.0251
X1.625 Y1.1415 Z-0.0252
X1.6251 Y1.1914 Z-0.0254
X1.6253 Y1.2412 Z-0.0256
X1.6254 Y1.2911 Z-0.0258
X1.6255 Y1.341 Z-0.026
X1.6257 Y1.3909 Z-0.0262
X1.6258 Y1.4407 Z-0.0264
X1.6259 Y1.4906 Z-0.0265
X1.6261 Y1.5405 Z-0.0267
X1.6262 Y1.6003 Z-0.027
X1.6264 Y1.6602 Z-0.0272
X1.6265 Y1.72 Z-0.0274
X1.6267 Y1.7799 Z-0.0276
X1.6268 Y1.8397 Z-0.0278
X1.627 Y1.8996 Z-0.0281
X1.6271 Y1.9594 Z-0.0283
X1.6273 Y2.0193 Z-0.0285
X1.6274 Y2.0791 Z-0.0287
X1.6275 Y2.139 Z-0.029
X1.6277 Y2.1988 Z-0.0292
X1.6278 Y2.2587 Z-0.0294
X1.628 Y2.3185 Z-0.0296
X1.6281 Y2.3584 Z-0.0298
Y2.3632
X1.6278 Y2.3679
X1.6271 Y2.3724
X1.6261 Y2.3768
X1.6246 Y2.3811 Z-0.0299
X1.6228 Y2.3853
X1.6207 Y2.3893
X1.6182 Y2.3931
X1.6154 Y2.3968
X1.6123 Y2.4002
X1.6089 Y2.4032 Z-0.03
X1.6053 Y2.406
X1.6014 Y2.4085
X1.5973 Y2.4106
X1.5931 Y2.4124
X1.5888 Y2.4138
X1.5843 Y2.4148 Z-0.0301
X1.5798 Y2.4154
X1.5751 Y2.4156
X1.5704 Y2.4157
X1.5106 Y2.4158 Z-0.0303
X1.4607 Y2.4159 Z-0.0305
X1.4509 Y2.4157 Z-0.0306
X1.4461 Y2.4154
X1.4413 Y2.4149
X1.4365 Y2.4141
X1.4318 Y2.4131
X1.4295 Y2.4126
X1.4272 Y2.412
X1.4227 Y2.4105 Z-0.0307
X1.4142 Y2.407
X1.4121 Y2.406
X1.4101 Y2.4049
X1.4081 Y2.4037
X1.4062 Y2.4024
X1.4028 Y2.3997 Z-0.0308
X1.3995 Y2.3968
X1.3965 Y2.3937
X1.3936 Y2.3904
X1.3911 Y2.3869
X1.3899 Y2.3851
X1.3889 Y2.3832
X1.387 Y2.3793
X1.3863 Y2.3773 Z-0.0309
X1.3856 Y2.3753
X1.3846 Y2.3713
X1.3842 Y2.3693
X1.3839 Y2.3672
X1.3836 Y2.3625
Y2.3578
X1.3834 Y2.308 Z-0.0311
X1.3832 Y2.2581 Z-0.0313
X1.3831 Y2.2082 Z-0.0315
X1.3829 Y2.1583 Z-0.0317
X1.3827 Y2.1085 Z-0.0319
X1.3826 Y2.0586 Z-0.032
X1.3824 Y2.0087 Z-0.0322
X1.3822 Y1.9588 Z-0.0324
X1.3821 Y1.909 Z-0.0326
X1.3819 Y1.8591 Z-0.0328
X1.3817 Y1.8092 Z-0.033
X1.3816 Y1.7594 Z-0.0332
X1.3814 Y1.7095 Z-0.0333
X1.3813 Y1.6596 Z-0.0335
X1.3811 Y1.6097 Z-0.0337
X1.3809 Y1.5599 Z-0.0339
X1.3808 Y1.51 Z-0.0341
X1.3806 Y1.4601 Z-0.0343
X1.3804 Y1.4003 Z-0.0345
X1.3762 Y0.0038 Z-0.0397
Y-0.0012
X1.3763 Y-0.0037
X1.3765 Y-0.0062
X1.3769 Y-0.0086
X1.3774 Y-0.011 Z-0.0398
X1.3788 Y-0.0158
X1.3796 Y-0.0182
X1.3806 Y-0.0205
X1.3828 Y-0.0249
X1.384 Y-0.027
X1.3854 Y-0.0291
X1.3868 Y-0.0312
X1.3884 Y-0.0331
X1.3917 Y-0.0368 Z-0.0399
X1.3935 Y-0.0386
X1.3953 Y-0.0402
X1.3993 Y-0.0432
X1.4035 Y-0.0459
X1.4079 Y-0.0483
X1.4124 Y-0.0505 Z-0.04
X1.417 Y-0.0523
X1.4218 Y-0.0538
X1.4234 Y-0.0542
X1.4248 Y-0.0546
X1.4296 Y-0.0558
X1.4344 Y-0.0566
X1.4392 Y-0.0572
X1.4419 Y-0.0576
X1.4441 Y-0.0578
X1.4489 Y-0.0581
X1.4537 Y-0.0582
X1.4586 Y-0.0583
X1.5744
X1.5793 Y-0.0581
X1.584 Y-0.0576
X1.5841
X1.5889 Y-0.0566
X1.5938 Y-0.0551
X1.5986 Y-0.0532
X1.5997 Y-0.0527
X1.6034 Y-0.0508
X1.6057 Y-0.0494
X1.608 Y-0.0479
X1.6082 Y-0.0478
X1.6107 Y-0.046
X1.6131 Y-0.044
X1.6141 Y-0.0431
X1.6179 Y-0.0393
X1.6188 Y-0.0382
X1.6208 Y-0.0358
X1.6226 Y-0.0334
X1.6227 Y-0.0332
X1.6243 Y-0.0309
X1.6256 Y-0.0286
X1.6276 Y-0.0248
X1.6281 Y-0.0237
X1.63 Y-0.0189
X1.6314 Y-0.0141
X1.6324 Y-0.0092
X1.6329 Y-0.0044
X1.6331 Y0.0004
Y2.3588
Y2.3636
X1.6328 Y2.3685
X1.6324 Y2.3714
X1.6321 Y2.3733
X1.6309 Y2.3781
X1.6293 Y2.383
X1.6276 Y2.387
X1.6272 Y2.3878
X1.626 Y2.3902
X1.6246 Y2.3926
X1.6227 Y2.3954
X1.6213 Y2.3974
X1.6179 Y2.4015
X1.6172 Y2.4023
X1.6151 Y2.4043
X1.6131 Y2.4062
X1.612 Y2.4071
X1.6082 Y2.41
X1.6052 Y2.4119
X1.6034 Y2.413
X1.5986 Y2.4154
X1.5953 Y2.4168
X1.5938 Y2.4173
X1.5889 Y2.4188
X1.5841 Y2.4198
X1.5793 Y2.4203
X1.5744 Y2.4205
X1.4586
X1.4537 Y2.4204
X1.4489 Y2.4203
X1.4441 Y2.42
X1.4392 Y2.4194
X1.4344 Y2.4188
X1.4296 Y2.418
X1.4248 Y2.4168
X1.4247
X1.4199 Y2.4155
X1.4151 Y2.4139
X1.4107 Y2.4119
X1.4103 Y2.4118
X1.4054 Y2.4092
X1.4018 Y2.4071
X1.4006 Y2.4064
X1.3982 Y2.4047
X1.3958 Y2.4029
X1.3951 Y2.4023
X1.393 Y2.4005
X1.391 Y2.3984
X1.39 Y2.3974
X1.388 Y2.395
X1.3861 Y2.3926
X1.383 Y2.3878
X1.3813 Y2.3846
X1.3805 Y2.383
X1.3786 Y2.3781
X1.3775 Y2.3742
X1.3772 Y2.3733
X1.3765 Y2.3695
X1.3763 Y2.3685
X1.376 Y2.3636
X1.3759 Y2.3588
Y0.0004
X1.3761 Y-0.0044
X1.3765 Y-0.0072
X1.3768 Y-0.0092
X1.378 Y-0.0141
X1.3797 Y-0.0189
X1.3813 Y-0.0224
X1.382 Y-0.0237
X1.3849 Y-0.0286
X1.3861 Y-0.0304
X1.3885 Y-0.0334
X1.391 Y-0.0362
X1.393 Y-0.0382
X1.3958 Y-0.0407
X1.399 Y-0.0431
X1.4006 Y-0.0442
X1.4054 Y-0.047
X1.4071 Y-0.0479
X1.4103 Y-0.0495
X1.4151 Y-0.0517
X1.4182 Y-0.0527
X1.4199 Y-0.0533
X1.4234 Y-0.0542
G3 X1.4081 Y-0.063 I-0.0033 J-0.0121
G1 X1.4073 Y-0.0656 Z-0.0397
X1.4066 Y-0.0682 Z-0.0388
X1.406 Y-0.0705 Z-0.0373
X1.4055 Y-0.0724 Z-0.0353
X1.4051 Y-0.0738 Z-0.0329
X1.4048 Y-0.0747 Z-0.0303
Y-0.075 Z-0.0275
G0 Z0.2
X1.4364 Y-0.0547
Z0.0677
G1 Z-0.028 F40.38
Y-0.0548 Z-0.0293
Y-0.055 Z-0.0307
X1.4365 Y-0.0554 Z-0.032
G3 Y-0.0559 Z-0.0332 I0.0076 J0.0007
X1.4366 Y-0.0565 Z-0.0344 I0.0076 J0.0012
X1.4369 Y-0.0573 Z-0.0355 I0.0074 J0.0018
X1.4372 Y-0.0581 Z-0.0365 I0.0072 J0.0026
X1.4377 Y-0.059 Z-0.0374 I0.0069 J0.0034
X1.4384 Y-0.0598 Z-0.0382 I0.0063 J0.0043
X1.4393 Y-0.0606 Z-0.0388 I0.0057 J0.0051
X1.4403 Y-0.0613 Z-0.0393 I0.0048 J0.0059
X1.4415 Y-0.0619 Z-0.0397 I0.0038 J0.0066
X1.4427 Y-0.0622 Z-0.0399 I0.0026 J0.0072
X1.4441 Y-0.0623 Z-0.04 I0.0013 J0.0075
G1 X1.4392 Y-0.0622
X1.4344 Y-0.062 Z-0.0401
X1.4296 Y-0.0616
X1.4248 Y-0.061
X1.4199 Y-0.0603 Z-0.0402
X1.4151 Y-0.0593
X1.4103 Y-0.058 Z-0.0403
X1.4089 Y-0.0576
X1.4054 Y-0.0564
X1.4006 Y-0.0544
X1.397 Y-0.0527 Z-0.0404
X1.3958 Y-0.0521
X1.3934 Y-0.0507
X1.391 Y-0.0492
X1.3892 Y-0.0479
X1.3861 Y-0.0456 Z-0.0405
X1.3833 Y-0.0431
X1.3813 Y-0.0411
X1.3786 Y-0.0382 Z-0.0406
X1.3765 Y-0.0357
X1.3748 Y-0.0334
X1.3731 Y-0.031
X1.3716 Y-0.0286
X1.3691 Y-0.0237 Z-0.0407
X1.3671 Y-0.0189
X1.3668 Y-0.018
X1.3656 Y-0.0141 Z-0.0408
X1.3646 Y-0.0092
X1.364 Y-0.0044
X1.3639 Y0.0004 Z-0.0409
Y2.3588 Z-0.0591
Y2.3636
X1.3642 Y2.3685 Z-0.0592
X1.365 Y2.3733
X1.3661 Y2.3781
X1.3668 Y2.3802 Z-0.0593
X1.3678 Y2.383
X1.37 Y2.3878
X1.3716 Y2.3908 Z-0.0594
X1.3727 Y2.3926
X1.3743 Y2.395
X1.3761 Y2.3974
X1.3765 Y2.3979
X1.3783 Y2.4001
X1.3803 Y2.4023 Z-0.0595
X1.3813 Y2.4034
X1.3854 Y2.4071
X1.3861 Y2.4078
X1.3885 Y2.4097
X1.391 Y2.4114 Z-0.0596
X1.3918 Y2.4119
X1.3958 Y2.4143
X1.4006 Y2.4166 Z-0.0597
X1.401 Y2.4168
X1.4054 Y2.4186
X1.4103 Y2.4202
X1.4151 Y2.4215 Z-0.0598
X1.4154 Y2.4216
X1.4199 Y2.4225
X1.4248 Y2.4232 Z-0.0599
X1.4296 Y2.4238
X1.4344 Y2.4242
X1.4392 Y2.4244 Z-0.06
X1.4441 Y2.4245
X1.4392 Y2.4244
X1.4344 Y2.4242
X1.4296 Y2.4238
X1.4248 Y2.4232
X1.4199 Y2.4225
X1.4154 Y2.4216
X1.4151 Y2.4215
X1.4103 Y2.4202
X1.4054 Y2.4186
X1.401 Y2.4168
X1.4006 Y2.4166
X1.3958 Y2.4143
X1.3918 Y2.4119
X1.391 Y2.4114
X1.3885 Y2.4097
X1.3861 Y2.4078
X1.3854 Y2.4071
X1.3813 Y2.4034
X1.3803 Y2.4023
X1.3783 Y2.4001
X1.3765 Y2.3979
X1.3761 Y2.3974
X1.3743 Y2.395
X1.3727 Y2.3926
X1.3716 Y2.3908
X1.37 Y2.3878
X1.3678 Y2.383
X1.3668 Y2.3802
X1.3661 Y2.3781
X1.365 Y2.3733
X1.3642 Y2.3685
X1.3639 Y2.3636
Y2.3588
Y0.0004
X1.364 Y-0.0044
X1.3646 Y-0.0092
X1.3656 Y-0.0141
X1.3668 Y-0.018
X1.3671 Y-0.0189
X1.3691 Y-0.0237
X1.3716 Y-0.0286
X1.3731 Y-0.031
X1.3748 Y-0.0334
X1.3765 Y-0.0357
X1.3786 Y-0.0382
X1.3813 Y-0.0411
X1.3833 Y-0.0431
X1.3861 Y-0.0456
X1.3892 Y-0.0479
X1.391 Y-0.0492
X1.3934 Y-0.0507
X1.3958 Y-0.0521
X1.397 Y-0.0527
X1.4006 Y-0.0544
X1.4054 Y-0.0564
X1.4089 Y-0.0576
X1.4103 Y-0.058
X1.4151 Y-0.0593
X1.4199 Y-0.0603
X1.4248 Y-0.061
X1.4296 Y-0.0616
X1.4344 Y-0.062
X1.4392 Y-0.0622
X1.4441 Y-0.0623
G3 X1.4312 Y-0.0744 I-0.0004 J-0.0125
G1 X1.4311 Y-0.0772 Z-0.0597
X1.431 Y-0.0799 Z-0.0588
X1.4309 Y-0.0822 Z-0.0573
Y-0.0842 Z-0.0553
X1.4308 Y-0.0857 Z-0.0529
Y-0.0866 Z-0.0503
Y-0.0869 Z-0.0475
G0 Z0.2
X1.2412 Y1.8459
Z0.0504
G1 Z-0.0265 F40.38
G19 G3 Y1.858 Z-0.039 J0.0125
G1 Y2.3588 Z-0.0565
Y2.3636 Z-0.0566
X1.2408 Y2.3685 Z-0.0568
X1.2401 Y2.3733 Z-0.057
X1.239 Y2.3781 Z-0.0572
X1.2375 Y2.383 Z-0.0573
X1.2364 Y2.3857 Z-0.0574
X1.2355 Y2.3878 Z-0.0575
X1.233 Y2.3926 Z-0.0577
X1.2316 Y2.3949 Z-0.0578
X1.2299 Y2.3974 Z-0.0579
X1.2268 Y2.4015 Z-0.0581
X1.2261 Y2.4023
X1.2241 Y2.4044 Z-0.0582
X1.222 Y2.4066 Z-0.0583
X1.2214 Y2.4071 Z-0.0584
X1.2193 Y2.409 Z-0.0585
X1.2171 Y2.4107 Z-0.0586
X1.2155 Y2.4119
X1.2123 Y2.4141 Z-0.0588
X1.2078 Y2.4168 Z-0.0589
X1.2075 Y2.417 Z-0.059
X1.2027 Y2.4193 Z-0.0591
X1.1978 Y2.4211 Z-0.0593
X1.1962 Y2.4216 Z-0.0594
X1.193 Y2.4225 Z-0.0595
X1.1882 Y2.4235 Z-0.0597
X1.1833 Y2.4242 Z-0.0598
X1.1789 Y2.4246 Z-0.06
X1.1785
X1.1833 Y2.4242
X1.1882 Y2.4235 Z-0.0601
X1.193 Y2.4225
X1.1962 Y2.4216
X1.1978 Y2.4211 Z-0.0602
X1.2027 Y2.4193
X1.2075 Y2.417
X1.2078 Y2.4168
X1.2123 Y2.4141 Z-0.0603
X1.2155 Y2.4119
X1.2171 Y2.4107
X1.2193 Y2.409
X1.2214 Y2.4071 Z-0.0604
X1.222 Y2.4066
X1.2241 Y2.4044
X1.2261 Y2.4023
X1.2268 Y2.4015
X1.2299 Y2.3974 Z-0.0605
X1.2316 Y2.3949
X1.233 Y2.3926
X1.2355 Y2.3878 Z-0.0606
X1.2364 Y2.3857
X1.2375 Y2.383
X1.239 Y2.3781
X1.2401 Y2.3733 Z-0.0607
X1.2408 Y2.3685
X1.2412 Y2.3636 Z-0.0608
Y2.3588
Y0.0004 Z-0.0792
X1.241 Y-0.0044 Z-0.0793
X1.2405 Y-0.0092
X1.2395 Y-0.0141
X1.2382 Y-0.0189 Z-0.0794
X1.2364 Y-0.0235
X1.2363 Y-0.0237
X1.234 Y-0.0286 Z-0.0795
X1.2316 Y-0.0327
X1.2312 Y-0.0334
X1.2295 Y-0.0358
X1.2276 Y-0.0382 Z-0.0796
X1.2268 Y-0.0393
X1.2233 Y-0.0431
X1.222 Y-0.0444
X1.2179 Y-0.0479 Z-0.0797
X1.2171 Y-0.0485
X1.2147 Y-0.0503
X1.2123 Y-0.0519
X1.211 Y-0.0527
X1.2075 Y-0.0548 Z-0.0798
X1.2027 Y-0.0571
X1.2014 Y-0.0576
X1.1978 Y-0.0589
X1.193 Y-0.0603 Z-0.0799
X1.1882 Y-0.0613
X1.1833 Y-0.062 Z-0.08
X1.1785 Y-0.0624
X1.1833 Y-0.062
X1.1882 Y-0.0613
X1.193 Y-0.0603
X1.1978 Y-0.0589
X1.2014 Y-0.0576
X1.2027 Y-0.0571
X1.2075 Y-0.0548
X1.211 Y-0.0527
X1.2123 Y-0.0519
X1.2147 Y-0.0503
X1.2171 Y-0.0485
X1.2179 Y-0.0479
X1.222 Y-0.0444
X1.2233 Y-0.0431
X1.2268 Y-0.0393
X1.2276 Y-0.0382
X1.2295 Y-0.0358
X1.2312 Y-0.0334
X1.2316 Y-0.0327
X1.234 Y-0.0286
X1.2363 Y-0.0237
X1.2364 Y-0.0235
X1.2382 Y-0.0189
X1.2395 Y-0.0141
X1.2405 Y-0.0092
X1.241 Y-0.0044
X1.2412 Y0.0004
Y2.3588
Y2.3636
X1.2408 Y2.3685
X1.2401 Y2.3733
X1.239 Y2.3781
X1.2375 Y2.383
X1.2364 Y2.3857
X1.2355 Y2.3878
X1.233 Y2.3926
X1.2316 Y2.3949
X1.2299 Y2.3974
X1.2268 Y2.4015
X1.2261 Y2.4023
X1.2241 Y2.4044
X1.222 Y2.4066
X1.2214 Y2.4071
X1.2193 Y2.409
X1.2171 Y2.4107
X1.2155 Y2.4119
X1.2123 Y2.4141
X1.2078 Y2.4168
X1.2075 Y2.417
X1.2027 Y2.4193
X1.1978 Y2.4211
X1.1962 Y2.4216
X1.193 Y2.4225
X1.1882 Y2.4235
X1.1833 Y2.4242
X1.1785 Y2.4246
G17 G3 X1.1919 Y2.4361 I0.001 J0.0125
G1 X1.1921 Y2.4389 Z-0.0797
X1.1923 Y2.4415 Z-0.0788
X1.1925 Y2.4439 Z-0.0773
X1.1927 Y2.4458 Z-0.0753
X1.1928 Y2.4473 Z-0.0729
X1.1929 Y2.4483 Z-0.0703
Y2.4486 Z-0.0675
G0 Z0.2
X1.3573 Y0.5163
Z0.0504
G1 Z-0.0265 F40.38
G19 G2 Y0.5042 Z-0.039 J-0.0125
G1 Y0.0004 Z-0.0566
X1.3574 Y-0.0044 Z-0.0567
X1.358 Y-0.0092 Z-0.0569
X1.3589 Y-0.0141 Z-0.0571
X1.3603 Y-0.0189 Z-0.0573
X1.362 Y-0.0235 Z-0.0574
X1.3621 Y-0.0237
X1.3644 Y-0.0286 Z-0.0576
X1.3668 Y-0.0327 Z-0.0578
X1.3673 Y-0.0334
X1.3689 Y-0.0358 Z-0.0579
X1.3708 Y-0.0382 Z-0.058
X1.3716 Y-0.0393 Z-0.0581
X1.3751 Y-0.0431 Z-0.0583
X1.3765 Y-0.0444
X1.3805 Y-0.0479 Z-0.0585
X1.3813 Y-0.0485 Z-0.0586
X1.3837 Y-0.0503 Z-0.0587
X1.3861 Y-0.052 Z-0.0588
X1.3874 Y-0.0527
X1.391 Y-0.0548 Z-0.059
X1.3958 Y-0.0571 Z-0.0591
X1.397 Y-0.0576 Z-0.0592
X1.4006 Y-0.0589 Z-0.0593
X1.4054 Y-0.0603 Z-0.0595
X1.4103 Y-0.0613 Z-0.0597
X1.4151 Y-0.062 Z-0.0598
X1.4195 Y-0.0624 Z-0.06
X1.4199
X1.4151 Y-0.062
X1.4103 Y-0.0613 Z-0.0601
X1.4054 Y-0.0603
X1.4006 Y-0.0589 Z-0.0602
X1.397 Y-0.0576
X1.3958 Y-0.0571
X1.391 Y-0.0548
X1.3874 Y-0.0527 Z-0.0603
X1.3861 Y-0.052
X1.3837 Y-0.0503
X1.3813 Y-0.0485
X1.3805 Y-0.0479
X1.3765 Y-0.0444 Z-0.0604
X1.3751 Y-0.0431
X1.3716 Y-0.0393
X1.3708 Y-0.0382
X1.3689 Y-0.0358 Z-0.0605
X1.3673 Y-0.0334
X1.3668 Y-0.0327
X1.3644 Y-0.0286
X1.3621 Y-0.0237 Z-0.0606
X1.362 Y-0.0235
X1.3603 Y-0.0189
X1.3589 Y-0.0141 Z-0.0607
X1.358 Y-0.0092
X1.3574 Y-0.0044
X1.3573 Y0.0004 Z-0.0608
Y2.3588 Z-0.0792
Y2.3636
X1.3576 Y2.3685 Z-0.0793
X1.3583 Y2.3733
X1.3594 Y2.3781 Z-0.0794
X1.3609 Y2.383
X1.362 Y2.3857
X1.3629 Y2.3878
X1.3654 Y2.3926 Z-0.0795
X1.3668 Y2.3949
X1.3685 Y2.3974
X1.3716 Y2.4015 Z-0.0796
X1.3723 Y2.4023
X1.3743 Y2.4044
X1.3765 Y2.4066
X1.377 Y2.4071
X1.3792 Y2.409 Z-0.0797
X1.3813 Y2.4107
X1.3829 Y2.4119
X1.3861 Y2.4142
X1.3906 Y2.4168 Z-0.0798
X1.391 Y2.417
X1.3958 Y2.4193
X1.4006 Y2.4211
X1.4022 Y2.4216 Z-0.0799
X1.4054 Y2.4225
X1.4103 Y2.4235
X1.4151 Y2.4242 Z-0.08
X1.4199 Y2.4246
X1.4151 Y2.4242
X1.4103 Y2.4235
X1.4054 Y2.4225
X1.4022 Y2.4216
X1.4006 Y2.4211
X1.3958 Y2.4193
X1.391 Y2.417
X1.3906 Y2.4168
X1.3861 Y2.4142
X1.3829 Y2.4119
X1.3813 Y2.4107
X1.3792 Y2.409
X1.377 Y2.4071
X1.3765 Y2.4066
X1.3743 Y2.4044
X1.3723 Y2.4023
X1.3716 Y2.4015
X1.3685 Y2.3974
X1.3668 Y2.3949
X1.3654 Y2.3926
X1.3629 Y2.3878
X1.362 Y2.3857
X1.3609 Y2.383
X1.3594 Y2.3781
X1.3583 Y2.3733
X1.3576 Y2.3685
X1.3573 Y2.3636
Y2.3588
Y0.0004
X1.3574 Y-0.0044
X1.358 Y-0.0092
X1.3589 Y-0.0141
X1.3603 Y-0.0189
X1.362 Y-0.0235
X1.3621 Y-0.0237
X1.3644 Y-0.0286
X1.3668 Y-0.0327
X1.3673 Y-0.0334
X1.3689 Y-0.0358
X1.3708 Y-0.0382
X1.3716 Y-0.0393
X1.3751 Y-0.0431
X1.3765 Y-0.0444
X1.3805 Y-0.0479
X1.3813 Y-0.0485
X1.3837 Y-0.0503
X1.3861 Y-0.052
X1.3874 Y-0.0527
X1.391 Y-0.0548
X1.3958 Y-0.0571
X1.397 Y-0.0576
X1.4006 Y-0.0589
X1.4054 Y-0.0603
X1.4103 Y-0.0613
X1.4151 Y-0.062
X1.4199 Y-0.0624
G17 G3 X1.4065 Y-0.0739 I-0.001 J-0.0125
G1 X1.4063 Y-0.0767 Z-0.0797
X1.4061 Y-0.0793 Z-0.0788
X1.4059 Y-0.0817 Z-0.0773
X1.4058 Y-0.0836 Z-0.0753
X1.4057 Y-0.0851 Z-0.0729
X1.4056 Y-0.0861 Z-0.0703
Y-0.0864 Z-0.0675
G0 Z0.2
X1.2436 Y1.8417
Z0.0488
G1 Z-0.0465 F40.38
G19 G3 Y1.8537 Z-0.059 J0.0125
G1 Y2.3588 Z-0.0766
Y2.3636 Z-0.0768
X1.2433 Y2.3685 Z-0.077
X1.2426 Y2.3733 Z-0.0771
X1.2415 Y2.3781 Z-0.0773
X1.2413 Y2.379
X1.24 Y2.383 Z-0.0775
X1.2381 Y2.3878 Z-0.0777
X1.2364 Y2.3912 Z-0.0778
X1.2357 Y2.3926
X1.2343 Y2.395 Z-0.0779
X1.2327 Y2.3974 Z-0.078
X1.2316 Y2.399 Z-0.0781
X1.229 Y2.4023 Z-0.0783
X1.2268 Y2.4048 Z-0.0784
X1.2245 Y2.4071 Z-0.0785
X1.222 Y2.4095 Z-0.0786
X1.2189 Y2.4119 Z-0.0787
X1.2171 Y2.4132 Z-0.0788
X1.2147 Y2.4149 Z-0.0789
X1.2123 Y2.4163 Z-0.079
X1.2115 Y2.4168 Z-0.0791
X1.2075 Y2.4188 Z-0.0792
X1.2027 Y2.4208 Z-0.0794
X1.2004 Y2.4216 Z-0.0795
X1.1978 Y2.4224 Z-0.0796
X1.193 Y2.4235 Z-0.0797
X1.1882 Y2.4243 Z-0.0799
X1.1866 Y2.4244 Z-0.08
X1.1861 Y2.4245
X1.1857
X1.1866 Y2.4244
X1.1882 Y2.4243
X1.193 Y2.4235 Z-0.0801
X1.1978 Y2.4224
X1.2004 Y2.4216
X1.2027 Y2.4208
X1.2075 Y2.4188 Z-0.0802
X1.2115 Y2.4168
X1.2123 Y2.4163
X1.2147 Y2.4149
X1.2171 Y2.4132 Z-0.0803
X1.2189 Y2.4119
X1.222 Y2.4095
X1.2245 Y2.4071
X1.2268 Y2.4048 Z-0.0804
X1.229 Y2.4023
X1.2316 Y2.399
X1.2327 Y2.3974
X1.2343 Y2.395 Z-0.0805
X1.2357 Y2.3926
X1.2364 Y2.3912
X1.2381 Y2.3878
X1.24 Y2.383 Z-0.0806
X1.2413 Y2.379
X1.2415 Y2.3781
X1.2426 Y2.3733
X1.2433 Y2.3685 Z-0.0807
X1.2436 Y2.3636
Y2.3588 Z-0.0808
Y0.0004 Z-0.0993
X1.2434 Y-0.0044
X1.2429 Y-0.0092
X1.242 Y-0.0141 Z-0.0994
X1.2413 Y-0.0168
X1.2406 Y-0.0189
X1.2389 Y-0.0237 Z-0.0995
X1.2367 Y-0.0286
X1.2364 Y-0.029
X1.2339 Y-0.0334
X1.2316 Y-0.0368 Z-0.0996
X1.2305 Y-0.0382
X1.2287 Y-0.0404
X1.2268 Y-0.0426
X1.2263 Y-0.0431
X1.2242 Y-0.0453 Z-0.0997
X1.222 Y-0.0473
X1.2212 Y-0.0479
X1.2171 Y-0.051
X1.2146 Y-0.0527 Z-0.0998
X1.2123 Y-0.0541
X1.2075 Y-0.0566
X1.2054 Y-0.0576
X1.2027 Y-0.0586 Z-0.0999
X1.1978 Y-0.0602
X1.193 Y-0.0613
X1.1882 Y-0.0621 Z-0.1
X1.1866 Y-0.0622
X1.186 Y-0.0623
X1.1855
X1.186
X1.1866 Y-0.0622
X1.1882 Y-0.0621
X1.193 Y-0.0613
X1.1978 Y-0.0602
X1.2027 Y-0.0586
X1.2054 Y-0.0576
X1.2075 Y-0.0566
X1.2123 Y-0.0541
X1.2146 Y-0.0527
X1.2171 Y-0.051
X1.2212 Y-0.0479
X1.222 Y-0.0473
X1.2242 Y-0.0453
X1.2263 Y-0.0431
X1.2268 Y-0.0426
X1.2287 Y-0.0404
X1.2305 Y-0.0382
X1.2316 Y-0.0368
X1.2339 Y-0.0334
X1.2364 Y-0.029
X1.2367 Y-0.0286
X1.2389 Y-0.0237
X1.2406 Y-0.0189
X1.2413 Y-0.0168
X1.242 Y-0.0141
X1.2429 Y-0.0092
X1.2434 Y-0.0044
X1.2436 Y0.0004
Y2.3588
Y2.3636
X1.2433 Y2.3685
X1.2426 Y2.3733
X1.2415 Y2.3781
X1.2413 Y2.379
X1.24 Y2.383
X1.2381 Y2.3878
X1.2364 Y2.3912
X1.2357 Y2.3926
X1.2343 Y2.395
X1.2327 Y2.3974
X1.2316 Y2.399
X1.229 Y2.4023
X1.2268 Y2.4048
X1.2245 Y2.4071
X1.222 Y2.4095
X1.2189 Y2.4119
X1.2171 Y2.4132
X1.2147 Y2.4149
X1.2123 Y2.4163
X1.2115 Y2.4168
X1.2075 Y2.4188
X1.2027 Y2.4208
X1.2004 Y2.4216
X1.1978 Y2.4224
X1.193 Y2.4235
X1.1882 Y2.4243
X1.1866 Y2.4244
X1.1857 Y2.4245
G17 G3 X1.1994 Y2.4356 I0.0013 J0.0124
G1 X1.1997 Y2.4384 Z-0.0997
X1.2 Y2.441 Z-0.0988
X1.2002 Y2.4434 Z-0.0973
X1.2004 Y2.4454 Z-0.0953
X1.2006 Y2.4468 Z-0.0929
X1.2007 Y2.4478 Z-0.0903
Y2.4481 Z-0.0875
G0 Z0.2
X1.4212 Y-0.1176
Z0.0124
G1 Z-0.0675 F40.38
Y-0.1173 Z-0.0703
X1.4213 Y-0.1164 Z-0.0729
X1.4214 Y-0.1149 Z-0.0753
X1.4216 Y-0.1129 Z-0.0773
X1.4218 Y-0.1106 Z-0.0788
X1.422 Y-0.1079 Z-0.0797
X1.4222 Y-0.1051 Z-0.08
X1.4244 Y-0.0758
G3 X1.4129 Y-0.0623 I-0.0125 J0.001
G1 X1.4124
X1.4118 Y-0.0622
X1.4103 Y-0.0621
X1.4054 Y-0.0613 Z-0.0801
X1.4006 Y-0.0602
X1.3958 Y-0.0586
X1.3931 Y-0.0576 Z-0.0802
X1.391 Y-0.0566
X1.3861 Y-0.0541
X1.3838 Y-0.0527
X1.3813 Y-0.051 Z-0.0803
X1.3772 Y-0.0479
X1.3765 Y-0.0473
X1.3743 Y-0.0453
X1.3721 Y-0.0431 Z-0.0804
X1.3716 Y-0.0426
X1.3697 Y-0.0404
X1.3679 Y-0.0382
X1.3668 Y-0.0368
X1.3645 Y-0.0334 Z-0.0805
X1.362 Y-0.029
X1.3618 Y-0.0286
X1.3595 Y-0.0237
X1.3578 Y-0.0189 Z-0.0806
X1.3572 Y-0.0168
X1.3565 Y-0.0141
X1.3555 Y-0.0092 Z-0.0807
X1.355 Y-0.0044
X1.3549 Y0.0004
Y2.3588 Z-0.0992
Y2.3636 Z-0.0993
X1.3552 Y2.3685
X1.3558 Y2.3733 Z-0.0994
X1.3569 Y2.3781
X1.3572 Y2.379
X1.3584 Y2.383
X1.3603 Y2.3878 Z-0.0995
X1.362 Y2.3912
X1.3628 Y2.3926
X1.3642 Y2.395
X1.3657 Y2.3974 Z-0.0996
X1.3668 Y2.399
X1.3694 Y2.4023
X1.3716 Y2.4048
X1.3739 Y2.4071 Z-0.0997
X1.3765 Y2.4095
X1.3795 Y2.4119
X1.3813 Y2.4132
X1.3837 Y2.4149 Z-0.0998
X1.3861 Y2.4163
X1.3869 Y2.4168
X1.391 Y2.4188
X1.3958 Y2.4208 Z-0.0999
X1.398 Y2.4216
X1.4006 Y2.4224
X1.4054 Y2.4235
X1.4103 Y2.4243 Z-0.1
X1.4118 Y2.4244
X1.4128 Y2.4245
X1.4118 Y2.4244
X1.4103 Y2.4243
X1.4054 Y2.4235
X1.4006 Y2.4224
X1.398 Y2.4216
X1.3958 Y2.4208
X1.391 Y2.4188
X1.3869 Y2.4168
X1.3861 Y2.4163
X1.3837 Y2.4149
X1.3813 Y2.4132
X1.3795 Y2.4119
X1.3765 Y2.4095
X1.3739 Y2.4071
X1.3716 Y2.4048
X1.3694 Y2.4023
X1.3668 Y2.399
X1.3657 Y2.3974
X1.3642 Y2.395
X1.3628 Y2.3926
X1.362 Y2.3912
X1.3603 Y2.3878
X1.3584 Y2.383
X1.3572 Y2.379
X1.3569 Y2.3781
X1.3558 Y2.3733
X1.3552 Y2.3685
X1.3549 Y2.3636
Y2.3588
Y0.0004
X1.355 Y-0.0044
X1.3555 Y-0.0092
X1.3565 Y-0.0141
X1.3572 Y-0.0168
X1.3578 Y-0.0189
X1.3595 Y-0.0237
X1.3618 Y-0.0286
X1.362 Y-0.029
X1.3645 Y-0.0334
X1.3668 Y-0.0368
X1.3679 Y-0.0382
X1.3697 Y-0.0404
X1.3716 Y-0.0426
X1.3721 Y-0.0431
X1.3743 Y-0.0453
X1.3765 Y-0.0473
X1.3772 Y-0.0479
X1.3813 Y-0.051
X1.3838 Y-0.0527
X1.3861 Y-0.0541
X1.391 Y-0.0566
X1.3931 Y-0.0576
X1.3958 Y-0.0586
X1.4006 Y-0.0602
X1.4054 Y-0.0613
X1.4103 Y-0.0621
X1.4118 Y-0.0622
X1.4124 Y-0.0623
X1.4129
G3 X1.3992 Y-0.0735 I-0.0013 J-0.0124
G1 X1.3989 Y-0.0762 Z-0.0997
X1.3986 Y-0.0789 Z-0.0988
X1.3984 Y-0.0812 Z-0.0973
X1.3982 Y-0.0832 Z-0.0953
X1.398 Y-0.0847 Z-0.0929
X1.3979 Y-0.0856 Z-0.0903
Y-0.0859 Z-0.0875
G0 Z0.2
X1.1801 Y2.4895
Z-0.0059
G1 Z-0.0856 F40.38
X1.18 Y2.4892 Z-0.0884
X1.1799 Y2.4883 Z-0.091
X1.1798 Y2.4868 Z-0.0934
X1.1796 Y2.4848 Z-0.0954
X1.1793 Y2.4825 Z-0.0969
X1.179 Y2.4799 Z-0.0978
X1.1787 Y2.4771 Z-0.0981
X1.1747 Y2.4383
G3 X1.1858 Y2.4245 I0.0124 J-0.0013
G1 X1.1867
X1.1882 Y2.4243
X1.193 Y2.4236 Z-0.0982
X1.1978 Y2.4224
X1.2005 Y2.4216
X1.2027 Y2.4209
X1.2075 Y2.4189 Z-0.0983
X1.2116 Y2.4168
X1.2123 Y2.4164
X1.2147 Y2.4149 Z-0.0984
X1.2171 Y2.4133
X1.2189 Y2.4119
X1.222 Y2.4095
X1.2246 Y2.4071 Z-0.0985
X1.2268 Y2.4049
X1.2291 Y2.4023
X1.2316 Y2.399
X1.2327 Y2.3974
X1.2343 Y2.395 Z-0.0986
X1.2357 Y2.3926
X1.2364 Y2.3912
X1.2381 Y2.3878
X1.2401 Y2.383 Z-0.0987
X1.2413 Y2.3791
X1.2415 Y2.3781
X1.2426 Y2.3733 Z-0.0988
X1.2433 Y2.3685
X1.2436 Y2.3636
Y2.3588 Z-0.0989
Y0.0004 Z-0.1174
X1.2434 Y-0.0044
X1.2429 Y-0.0092 Z-0.1175
X1.242 Y-0.0141
X1.2413 Y-0.0169
X1.2407 Y-0.0189
X1.2389 Y-0.0237 Z-0.1176
X1.2367 Y-0.0286
X1.2364 Y-0.029
X1.2339 Y-0.0334 Z-0.1177
X1.2316 Y-0.0368
X1.2305 Y-0.0382
X1.2288 Y-0.0404
X1.2268 Y-0.0426
X1.2264 Y-0.0431 Z-0.1178
X1.2242 Y-0.0453
X1.222 Y-0.0473
X1.2212 Y-0.0479
X1.2171 Y-0.0511
X1.2146 Y-0.0527 Z-0.1179
X1.2123 Y-0.0542
X1.2075 Y-0.0567
X1.2054 Y-0.0576 Z-0.118
X1.2027 Y-0.0587
X1.1978 Y-0.0602
X1.193 Y-0.0614 Z-0.1181
X1.1882 Y-0.0621
X1.1867 Y-0.0622
X1.1861 Y-0.0623
X1.1867 Y-0.0622
X1.1882 Y-0.0621
X1.193 Y-0.0614
X1.1978 Y-0.0602
X1.2027 Y-0.0587
X1.2054 Y-0.0576
X1.2075 Y-0.0567
X1.2123 Y-0.0542
X1.2146 Y-0.0527
X1.2171 Y-0.0511
X1.2212 Y-0.0479
X1.222 Y-0.0473
X1.2242 Y-0.0453
X1.2264 Y-0.0431
X1.2268 Y-0.0426
X1.2288 Y-0.0404
X1.2305 Y-0.0382
X1.2316 Y-0.0368
X1.2339 Y-0.0334
X1.2364 Y-0.029
X1.2367 Y-0.0286
X1.2389 Y-0.0237
X1.2407 Y-0.0189
X1.2413 Y-0.0169
X1.242 Y-0.0141
X1.2429 Y-0.0092
X1.2434 Y-0.0044
X1.2436 Y0.0004
Y2.3588
Y2.3636
X1.2433 Y2.3685
X1.2426 Y2.3733
X1.2415 Y2.3781
X1.2413 Y2.3791
X1.2401 Y2.383
X1.2381 Y2.3878
X1.2364 Y2.3912
X1.2357 Y2.3926
X1.2343 Y2.395
X1.2327 Y2.3974
X1.2316 Y2.399
X1.2291 Y2.4023
X1.2268 Y2.4049
X1.2246 Y2.4071
X1.222 Y2.4095
X1.2189 Y2.4119
X1.2171 Y2.4133
X1.2147 Y2.4149
X1.2123 Y2.4164
X1.2116 Y2.4168
X1.2075 Y2.4189
X1.2027 Y2.4209
X1.2005 Y2.4216
X1.1978 Y2.4224
X1.193 Y2.4236
X1.1882 Y2.4243
X1.1867 Y2.4245
X1.1858
G3 X1.1995 Y2.4357 I0.0013 J0.0124
G1 X1.1998 Y2.4384 Z-0.1178
X1.2001 Y2.441 Z-0.1169
X1.2003 Y2.4434 Z-0.1154
X1.2005 Y2.4454 Z-0.1134
X1.2007 Y2.4469 Z-0.111
X1.2008 Y2.4478 Z-0.1084
Y2.4481 Z-0.1056
G0 Z0.2
X1.4194 Y-0.1274
Z-0.0056
G1 Z-0.0856 F40.38
Y-0.1271 Z-0.0884
X1.4195 Y-0.1262 Z-0.091
X1.4196 Y-0.1247 Z-0.0934
X1.4198 Y-0.1227 Z-0.0954
X1.42 Y-0.1203 Z-0.0969
X1.4202 Y-0.1177 Z-0.0978
X1.4205 Y-0.1149 Z-0.0981
X1.4238 Y-0.0758
G3 X1.4124 Y-0.0623 I-0.0125 J0.0011
G1 X1.4117
X1.4103 Y-0.0621
X1.4054 Y-0.0614 Z-0.0982
X1.4006 Y-0.0602
X1.3958 Y-0.0587
X1.393 Y-0.0576 Z-0.0983
X1.391 Y-0.0567
X1.3861 Y-0.0542
X1.3838 Y-0.0527
X1.3813 Y-0.0511 Z-0.0984
X1.3772 Y-0.0479
X1.3765 Y-0.0473
X1.3743 Y-0.0453
X1.372 Y-0.0431 Z-0.0985
X1.3716 Y-0.0427
X1.3697 Y-0.0405
X1.3679 Y-0.0382
X1.3668 Y-0.0368
X1.3645 Y-0.0334 Z-0.0986
X1.362 Y-0.0291
X1.3617 Y-0.0286
X1.3595 Y-0.0237 Z-0.0987
X1.3578 Y-0.0189
X1.3572 Y-0.0169
X1.3564 Y-0.0141
X1.3555 Y-0.0092 Z-0.0988
X1.355 Y-0.0044
X1.3548 Y0.0004
Y2.3588 Z-0.1173
Y2.3636 Z-0.1174
X1.3551 Y2.3685
X1.3558 Y2.3733 Z-0.1175
X1.3569 Y2.3781
X1.3572 Y2.3791
X1.3584 Y2.383
X1.3603 Y2.3878 Z-0.1176
X1.362 Y2.3913
X1.3627 Y2.3926
X1.3641 Y2.395
X1.3657 Y2.3974 Z-0.1177
X1.3668 Y2.399
X1.3694 Y2.4023
X1.3716 Y2.4049
X1.3739 Y2.4071 Z-0.1178
X1.3765 Y2.4095
X1.3795 Y2.4119
X1.3813 Y2.4133
X1.3837 Y2.4149 Z-0.1179
X1.3861 Y2.4164
X1.3869 Y2.4168
X1.391 Y2.4189
X1.3958 Y2.4209 Z-0.118
X1.3979 Y2.4216
X1.4006 Y2.4224
X1.4054 Y2.4236 Z-0.1181
X1.4103 Y2.4243
X1.4117 Y2.4245
X1.4127
X1.4117
X1.4103 Y2.4243
X1.4054 Y2.4236
X1.4006 Y2.4224
X1.3979 Y2.4216
X1.3958 Y2.4209
X1.391 Y2.4189
X1.3869 Y2.4168
X1.3861 Y2.4164
X1.3837 Y2.4149
X1.3813 Y2.4133
X1.3795 Y2.4119
X1.3765 Y2.4095
X1.3739 Y2.4071
X1.3716 Y2.4049
X1.3694 Y2.4023
X1.3668 Y2.399
X1.3657 Y2.3974
X1.3641 Y2.395
X1.3627 Y2.3926
X1.362 Y2.3913
X1.3603 Y2.3878
X1.3584 Y2.383
X1.3572 Y2.3791
X1.3569 Y2.3781
X1.3558 Y2.3733
X1.3551 Y2.3685
X1.3548 Y2.3636
Y2.3588
Y0.0004
X1.355 Y-0.0044
X1.3555 Y-0.0092
X1.3564 Y-0.0141
X1.3572 Y-0.0169
X1.3578 Y-0.0189
X1.3595 Y-0.0237
X1.3617 Y-0.0286
X1.362 Y-0.0291
X1.3645 Y-0.0334
X1.3668 Y-0.0368
X1.3679 Y-0.0382
X1.3697 Y-0.0405
X1.3716 Y-0.0427
X1.372 Y-0.0431
X1.3743 Y-0.0453
X1.3765 Y-0.0473
X1.3772 Y-0.0479
X1.3813 Y-0.0511
X1.3838 Y-0.0527
X1.3861 Y-0.0542
X1.391 Y-0.0567
X1.393 Y-0.0576
X1.3958 Y-0.0587
X1.4006 Y-0.0602
X1.4054 Y-0.0614
X1.4103 Y-0.0621
X1.4117 Y-0.0623
X1.4124
G3 X1.3986 Y-0.0734 I-0.0013 J-0.0124
G1 X1.3983 Y-0.0762 Z-0.1178
X1.398 Y-0.0788 Z-0.1169
X1.3978 Y-0.0811 Z-0.1154
X1.3976 Y-0.0831 Z-0.1134
X1.3974 Y-0.0846 Z-0.111
X1.3973 Y-0.0855 Z-0.1084
Y-0.0858 Z-0.1056
G0 Z0.2
X1.2976 Y-0.0708
Z-0.0546
G1 Z-0.1056 F40.38
G19 G3 Y-0.0583 Z-0.1181 J0.0125
G17 G3 X1.2851 Y-0.0458 I-0.0125
G1 X1.2236 Z-0.1203
X1.2235 Y-0.0459
X1.2232 Y-0.0462
X1.222 Y-0.0473
X1.2212 Y-0.0479 Z-0.1204
X1.2171 Y-0.0511 Z-0.1205
X1.2146 Y-0.0527 Z-0.1207
X1.2123 Y-0.0542
X1.2075 Y-0.0567 Z-0.1209
X1.2054 Y-0.0576 Z-0.121
X1.2027 Y-0.0587 Z-0.1211
X1.1978 Y-0.0602 Z-0.1213
X1.193 Y-0.0614 Z-0.1215
X1.1882 Y-0.0621 Z-0.1216
X1.1867 Y-0.0622 Z-0.1217
X1.1861 Y-0.0623
X1.1867 Y-0.0622
X1.1882 Y-0.0621 Z-0.1218
X1.193 Y-0.0614 Z-0.122
X1.1978 Y-0.0602 Z-0.1221
X1.2027 Y-0.0587 Z-0.1223
X1.2054 Y-0.0576 Z-0.1224
X1.2075 Y-0.0567 Z-0.1225
X1.2123 Y-0.0542 Z-0.1227
X1.2146 Y-0.0527 Z-0.1228
X1.2171 Y-0.0511 Z-0.1229
X1.2212 Y-0.0479 Z-0.1231
X1.222 Y-0.0473
X1.2232 Y-0.0462 Z-0.1232
X1.2235 Y-0.0459
X1.2236 Y-0.0458
X1.3748 Z-0.1285
X1.3749 Y-0.0459
X1.375 Y-0.046
X1.3753 Y-0.0462
X1.3765 Y-0.0473
X1.3772 Y-0.0479 Z-0.1286
X1.3813 Y-0.0511 Z-0.1287
X1.3838 Y-0.0527 Z-0.1288
X1.3861 Y-0.0542 Z-0.1289
X1.391 Y-0.0567 Z-0.1291
X1.393 Y-0.0576 Z-0.1292
X1.3958 Y-0.0587 Z-0.1293
X1.4006 Y-0.0602 Z-0.1295
X1.4054 Y-0.0614 Z-0.1297
X1.4103 Y-0.0621 Z-0.1298
X1.4117 Y-0.0623 Z-0.1299
X1.4124
X1.4117
X1.4103 Y-0.0621 Z-0.13
X1.4054 Y-0.0614 Z-0.1302
X1.4006 Y-0.0602 Z-0.1303
X1.3958 Y-0.0587 Z-0.1305
X1.393 Y-0.0576 Z-0.1306
X1.391 Y-0.0567 Z-0.1307
X1.3861 Y-0.0542 Z-0.1309
X1.3838 Y-0.0527 Z-0.131
X1.3813 Y-0.0511 Z-0.1311
X1.3772 Y-0.0479 Z-0.1313
X1.3765 Y-0.0473
X1.3753 Y-0.0462 Z-0.1314
X1.375 Y-0.046
X1.3749 Y-0.0459
X1.3748 Y-0.0458
X1.2236 Z-0.1367
X1.2235 Y-0.0459
X1.2232 Y-0.0462
X1.222 Y-0.0473
X1.2212 Y-0.0479 Z-0.1368
X1.2171 Y-0.0511 Z-0.1369
X1.2146 Y-0.0527 Z-0.137
X1.2123 Y-0.0542 Z-0.1371
X1.2075 Y-0.0567 Z-0.1373
X1.2054 Y-0.0576 Z-0.1374
X1.2027 Y-0.0587 Z-0.1375
X1.1978 Y-0.0602 Z-0.1377
X1.193 Y-0.0614 Z-0.1379
X1.1882 Y-0.0621 Z-0.138
X1.1867 Y-0.0622 Z-0.1381
X1.1861 Y-0.0623
X1.1867 Y-0.0622
X1.1882 Y-0.0621
X1.193 Y-0.0614
X1.1978 Y-0.0602
X1.2027 Y-0.0587
X1.2054 Y-0.0576
X1.2075 Y-0.0567
X1.2123 Y-0.0542
X1.2146 Y-0.0527
X1.2171 Y-0.0511
X1.2212 Y-0.0479
X1.222 Y-0.0473
X1.2232 Y-0.0462
X1.2235 Y-0.0459
X1.2236 Y-0.0458
X1.3748
X1.3749 Y-0.0459
X1.375 Y-0.046
X1.3753 Y-0.0462
X1.3765 Y-0.0473
X1.3772 Y-0.0479
X1.3813 Y-0.0511
X1.3838 Y-0.0527
X1.3861 Y-0.0542
X1.391 Y-0.0567
X1.393 Y-0.0576
X1.3958 Y-0.0587
X1.4006 Y-0.0602
X1.4054 Y-0.0614
X1.4103 Y-0.0621
X1.4117 Y-0.0623
X1.4124
G3 X1.3986 Y-0.0734 I-0.0013 J-0.0124
G1 X1.3983 Y-0.0762 Z-0.1378
X1.398 Y-0.0788 Z-0.1369
X1.3978 Y-0.0811 Z-0.1354
X1.3976 Y-0.0831 Z-0.1334
X1.3974 Y-0.0846 Z-0.131
X1.3973 Y-0.0855 Z-0.1284
Y-0.0858 Z-0.1256
G0 Z0.2
X1.3161 Y-0.0881
Z-0.0458
G1 Z-0.1256 F40.38
G19 G3 Y-0.0756 Z-0.1381 J0.0125
G1 Y-0.0708
G17 G3 X1.3036 Y-0.0583 I-0.0125
G1 X1.2036 Z-0.1416
X1.2033 Y-0.0584
X1.2027 Y-0.0587
X1.1978 Y-0.0602 Z-0.1418
X1.193 Y-0.0614 Z-0.142
X1.1882 Y-0.0621 Z-0.1422
X1.1867 Y-0.0622
X1.1861 Y-0.0623
X1.1867 Y-0.0622 Z-0.1423
X1.1882 Y-0.0621
X1.193 Y-0.0614 Z-0.1425
X1.1978 Y-0.0602 Z-0.1427
X1.2027 Y-0.0587 Z-0.1428
X1.2033 Y-0.0584 Z-0.1429
X1.2036 Y-0.0583
X1.3948 Z-0.1495
X1.3949
X1.3952 Y-0.0584 Z-0.1496
X1.3958 Y-0.0587
X1.4006 Y-0.0602 Z-0.1498
X1.4054 Y-0.0614 Z-0.1499
X1.4103 Y-0.0621 Z-0.1501
X1.4117 Y-0.0623
X1.4124 Z-0.1502
X1.4117
X1.4103 Y-0.0621
X1.4054 Y-0.0614 Z-0.1504
X1.4006 Y-0.0602 Z-0.1506
X1.3958 Y-0.0587 Z-0.1508
X1.3952 Y-0.0584
X1.3949 Y-0.0583
X1.3948
X1.2036 Z-0.1575
X1.2033 Y-0.0584
X1.2027 Y-0.0587
X1.1978 Y-0.0602 Z-0.1577
X1.193 Y-0.0614 Z-0.1579
X1.1882 Y-0.0621 Z-0.158
X1.1867 Y-0.0622 Z-0.1581
X1.1861 Y-0.0623
X1.1867 Y-0.0622
X1.1882 Y-0.0621
X1.193 Y-0.0614
X1.1978 Y-0.0602
X1.2027 Y-0.0587
X1.2033 Y-0.0584
X1.2036 Y-0.0583
X1.3948
X1.3949
X1.3952 Y-0.0584
X1.3958 Y-0.0587
X1.4006 Y-0.0602
X1.4054 Y-0.0614
X1.4103 Y-0.0621
X1.4117 Y-0.0623
X1.4124
G3 X1.3986 Y-0.0734 I-0.0013 J-0.0124
G1 X1.3983 Y-0.0762 Z-0.1578
X1.398 Y-0.0788 Z-0.1569
X1.3978 Y-0.0811 Z-0.1554
X1.3976 Y-0.0831 Z-0.1534
X1.3974 Y-0.0846 Z-0.151
X1.3973 Y-0.0855 Z-0.1484
Y-0.0858 Z-0.1456
G0 Z0.2
X1.3023 Y2.433
Z-0.05
G1 Z-0.1056 F40.38
G19 G2 Y2.4205 Z-0.1181 J-0.0125
G17 G3 X1.3148 Y2.408 I0.0125
G1 X1.3748 Z-0.1202
X1.3749 Y2.4081
X1.375 Y2.4082
X1.3753 Y2.4084
X1.3765 Y2.4095 Z-0.1203
X1.3795 Y2.4119 Z-0.1204
X1.3813 Y2.4133 Z-0.1205
X1.3837 Y2.4149 Z-0.1206
X1.3861 Y2.4164 Z-0.1207
X1.3869 Y2.4168
X1.391 Y2.4189 Z-0.1209
X1.3958 Y2.4209 Z-0.1211
X1.3979 Y2.4216
X1.4006 Y2.4224 Z-0.1212
X1.4054 Y2.4236 Z-0.1214
X1.4103 Y2.4243 Z-0.1216
X1.4117 Y2.4245
X1.4127 Z-0.1217
X1.4117
X1.4103 Y2.4243 Z-0.1218
X1.4054 Y2.4236 Z-0.1219
X1.4006 Y2.4224 Z-0.1221
X1.3979 Y2.4216 Z-0.1222
X1.3958 Y2.4209 Z-0.1223
X1.391 Y2.4189 Z-0.1225
X1.3869 Y2.4168 Z-0.1226
X1.3861 Y2.4164 Z-0.1227
X1.3837 Y2.4149 Z-0.1228
X1.3813 Y2.4133 Z-0.1229
X1.3795 Y2.4119
X1.3765 Y2.4095 Z-0.1231
X1.3753 Y2.4084
X1.375 Y2.4082
X1.3749 Y2.4081
X1.3748 Y2.408
X1.2236 Z-0.1284
X1.2235 Y2.4081
X1.2232 Y2.4084
X1.222 Y2.4095 Z-0.1285
X1.2189 Y2.4119 Z-0.1286
X1.2171 Y2.4133 Z-0.1287
X1.2147 Y2.4149 Z-0.1288
X1.2123 Y2.4164 Z-0.1289
X1.2116 Y2.4168
X1.2075 Y2.4189 Z-0.1291
X1.2027 Y2.4209 Z-0.1293
X1.2005 Y2.4216 Z-0.1294
X1.1978 Y2.4224 Z-0.1295
X1.193 Y2.4236 Z-0.1296
X1.1882 Y2.4243 Z-0.1298
X1.1867 Y2.4245 Z-0.1299
X1.1858
X1.1867
X1.1882 Y2.4243 Z-0.13
X1.193 Y2.4236 Z-0.1301
X1.1978 Y2.4224 Z-0.1303
X1.2005 Y2.4216 Z-0.1304
X1.2027 Y2.4209 Z-0.1305
X1.2075 Y2.4189 Z-0.1307
X1.2116 Y2.4168 Z-0.1308
X1.2123 Y2.4164 Z-0.1309
X1.2147 Y2.4149 Z-0.131
X1.2171 Y2.4133 Z-0.1311
X1.2189 Y2.4119
X1.222 Y2.4095 Z-0.1313
X1.2232 Y2.4084
X1.2235 Y2.4081 Z-0.1314
X1.2236 Y2.408
X1.3748 Z-0.1366
X1.3749 Y2.4081
X1.375 Y2.4082
X1.3753 Y2.4084 Z-0.1367
X1.3765 Y2.4095
X1.3795 Y2.4119 Z-0.1369
X1.3813 Y2.4133
X1.3837 Y2.4149 Z-0.137
X1.3861 Y2.4164 Z-0.1371
X1.3869 Y2.4168 Z-0.1372
X1.391 Y2.4189 Z-0.1373
X1.3958 Y2.4209 Z-0.1375
X1.3979 Y2.4216 Z-0.1376
