%
(SmallStraightTrack_1_8_ball)
(T5  D=0.125 CR=0.0625 - ZMIN=-0.1581 - ball end mill)
G90 G94
G17
G20

(Ramp1)
M9
T5 M6
S11028 M3
G54
M8
G0 X-0.0246 Y0.0054
Z0.6
Z0.0779
G1 Z0.0125 F40.38
X-0.0249 Y0.0053 Z0.0097
X-0.0258 Y0.0049 Z0.0071
X-0.0272 Y0.0044 Z0.0047
X-0.029 Y0.0036 Z0.0027
X-0.0312 Y0.0027 Z0.0012
X-0.0336 Y0.0018 Z0.0003
X-0.0362 Y0.0007 Z0
G3 X-0.0431 Y-0.0156 I0.0047 J-0.0116
G1 X-0.0418 Y-0.0189
X-0.0406 Y-0.0213
X-0.0392 Y-0.0237
X-0.0383 Y-0.0252
X-0.0359 Y-0.0285 Z-0.0001
X-0.0334 Y-0.0313
X-0.0314 Y-0.0334
X-0.0286 Y-0.0358
X-0.0253 Y-0.0382
X-0.0238 Y-0.0392
X-0.0214 Y-0.0405
X-0.019 Y-0.0417
X-0.0157 Y-0.0431 Z-0.0002
X-0.0141 Y-0.0436
X-0.0093 Y-0.0449
X-0.0045 Y-0.0456
X0.0004 Y-0.0458
X0.1162 Z-0.0007
X0.1211 Y-0.0457
X0.1259 Y-0.0453
X0.1307 Y-0.0448
X0.1356 Y-0.044
X0.1393 Y-0.0431
X0.1404 Y-0.0427
X0.1452 Y-0.0412 Z-0.0008
X0.15 Y-0.0394
X0.1526 Y-0.0382
X0.1549 Y-0.037
X0.1597 Y-0.0337
X0.1602 Y-0.0334
X0.1645 Y-0.0299 Z-0.0009
X0.166 Y-0.0285
X0.1694 Y-0.0251
X0.1705 Y-0.0237
X0.1722 Y-0.0213
X0.1737 Y-0.0189
X0.1742 Y-0.018
X0.176 Y-0.014
X0.1775 Y-0.0092
X0.1784 Y-0.0044 Z-0.001
X0.1786 Y0.0005
Y2.3611 Z-0.0099
X0.1784 Y2.366 Z-0.01
X0.1776 Y2.3708
X0.1762 Y2.3756
X0.1742 Y2.3802
X0.174 Y2.3805
X0.1726 Y2.3829
X0.1709 Y2.3853
X0.1694 Y2.3873
X0.1667 Y2.3901 Z-0.0101
X0.1645 Y2.3921
X0.1609 Y2.395
X0.1597 Y2.3959
X0.1549 Y2.3992
X0.1537 Y2.3998
X0.15 Y2.4016
X0.1452 Y2.4034 Z-0.0102
X0.1412 Y2.4047
X0.1404 Y2.4049
X0.1356 Y2.4062
X0.1307 Y2.407
X0.1259 Y2.4075
X0.1211 Y2.4079
X0.1162 Y2.408 Z-0.0103
X0.0004 Z-0.0107
X-0.0045 Y2.4078
X-0.0093 Y2.4071
X-0.0141 Y2.4058 Z-0.0108
X-0.0172 Y2.4047
X-0.019 Y2.4039
X-0.0214 Y2.4027
X-0.0238 Y2.4014
X-0.0262 Y2.3998
X-0.0286 Y2.398
X-0.032 Y2.395
X-0.0334 Y2.3935
X-0.0363 Y2.3901 Z-0.0109
X-0.0383 Y2.3874
X-0.0396 Y2.3853
X-0.042 Y2.3805
X-0.0431 Y2.3778
X-0.0438 Y2.3756
X-0.045 Y2.3708
X-0.0457 Y2.366 Z-0.011
X-0.0458 Y2.3611
Y0.0005 Z-0.0199
X-0.0456 Y-0.0044 Z-0.02
X-0.0449 Y-0.0092
X-0.0436 Y-0.014
X-0.0431 Y-0.0156
X-0.0416 Y-0.0193
X-0.0398 Y-0.0228
X-0.0387 Y-0.0245
X-0.0376 Y-0.0262
X-0.0352 Y-0.0294 Z-0.0201
X-0.0327 Y-0.0323
X-0.0299 Y-0.0348
X-0.0267 Y-0.0373
X-0.0251 Y-0.0385
X-0.0233 Y-0.0396
X-0.0198 Y-0.0415
X-0.0162 Y-0.043
X-0.0124 Y-0.0443 Z-0.0202
X-0.0086 Y-0.0452
X-0.0047 Y-0.0458
X-0.0008 Y-0.046
X0.0088
X0.0587 Y-0.0462 Z-0.0204
X0.1085 Y-0.0464 Z-0.0206
X0.1183 Z-0.0207
X0.1278 Y-0.0458
X0.1301 Y-0.0456
X0.1323 Y-0.0453
X0.1368 Y-0.0445
X0.1409 Y-0.0433
X0.145 Y-0.042 Z-0.0208
X0.1471 Y-0.0414
X0.1491 Y-0.0406
X0.1511 Y-0.0398
X0.1531 Y-0.0389
X0.1566 Y-0.0369
X0.1599 Y-0.0346
X0.1632 Y-0.0322
X0.1663 Y-0.0297
X0.1688 Y-0.0273 Z-0.0209
X0.1711 Y-0.0247
X0.1731 Y-0.022
X0.1748 Y-0.0191
X0.1763 Y-0.0161
X0.1776 Y-0.0129
X0.1785 Y-0.0098
X0.1792 Y-0.0066
X0.1796 Y-0.0035 Z-0.021
X0.1798 Y-0.0005
X0.1799 Y0.0088
X0.1857 Y1.3055 Z-0.0258
X0.1859 Y1.3454 Z-0.026
X0.1861 Y1.3853 Z-0.0261
X0.1863 Y1.4252 Z-0.0263
X0.1864 Y1.4651 Z-0.0264
X0.1866 Y1.505 Z-0.0266
X0.1868 Y1.5449 Z-0.0267
X0.187 Y1.5848 Z-0.0269
X0.1871 Y1.6247 Z-0.027
X0.1873 Y1.6646 Z-0.0272
X0.1875 Y1.7045 Z-0.0273
X0.1876 Y1.7444 Z-0.0275
X0.1878 Y1.7843 Z-0.0276
X0.188 Y1.8242 Z-0.0278
X0.1881 Y1.8641 Z-0.0279
X0.1883 Y1.904 Z-0.0281
X0.1885 Y1.9439 Z-0.0282
X0.1886 Y1.9838 Z-0.0284
X0.1888 Y2.0237 Z-0.0285
X0.1889 Y2.0636 Z-0.0287
X0.1891 Y2.1035 Z-0.0288
X0.1892 Y2.1434 Z-0.029
X0.1894 Y2.1833 Z-0.0291
X0.1896 Y2.2232 Z-0.0293
X0.1897 Y2.2631 Z-0.0294
X0.1899 Y2.303 Z-0.0296
X0.19 Y2.3429 Z-0.0297
Y2.3528
X0.1901 Y2.3625 Z-0.0298
X0.19 Y2.3646
X0.1899 Y2.3667
X0.1893 Y2.3708
X0.1888 Y2.3728
X0.1883 Y2.3748
X0.1869 Y2.3787
X0.1861 Y2.3807
X0.1852 Y2.3826
X0.183 Y2.3863 Z-0.0299
X0.1818 Y2.3881
X0.1806 Y2.3898
X0.1778 Y2.3931
X0.1749 Y2.3961
X0.1718 Y2.399
X0.1682 Y2.4018
X0.1663 Y2.4031
X0.1644 Y2.4043 Z-0.03
X0.1604 Y2.4064
X0.1563 Y2.4083
X0.1519 Y2.4101
X0.1497 Y2.4109
X0.1474 Y2.4116
X0.1429 Y2.4128
X0.1383 Y2.4137 Z-0.0301
X0.1336 Y2.4146
X0.1288 Y2.4151
X0.1191 Y2.4157
X0.1091 Z-0.0302
X0.0493 Y2.4158 Z-0.0304
X0.0094 Y2.4159 Z-0.0305
X-0.0004 Z-0.0306
X-0.005 Y2.4157
X-0.0096 Y2.4151
X-0.0141 Y2.4141
X-0.0184 Y2.4127
X-0.0227 Y2.411 Z-0.0307
X-0.0268 Y2.4088
X-0.0308 Y2.4063
X-0.0345 Y2.4035
X-0.0379 Y2.4004
X-0.041 Y2.3971
X-0.0438 Y2.3935 Z-0.0308
X-0.0463 Y2.3897
X-0.0485 Y2.3856
X-0.0504 Y2.3813
X-0.0518 Y2.377
X-0.0529 Y2.3725
X-0.0536 Y2.3679 Z-0.0309
X-0.0539 Y2.3633
Y2.3535
X-0.0541 Y2.2936 Z-0.0311
X-0.0542 Y2.2338 Z-0.0314
X-0.0543 Y2.1739 Z-0.0316
X-0.0544 Y2.1141 Z-0.0318
X-0.0546 Y2.0542 Z-0.032
X-0.0547 Y1.9944 Z-0.0323
X-0.0548 Y1.9345 Z-0.0325
X-0.0549 Y1.8747 Z-0.0327
X-0.0551 Y1.8148 Z-0.0329
X-0.0552 Y1.755 Z-0.0331
X-0.0553 Y1.6951 Z-0.0334
X-0.0554 Y1.6353 Z-0.0336
X-0.0555 Y1.5754 Z-0.0338
X-0.0556 Y1.5156 Z-0.034
X-0.0558 Y1.4557 Z-0.0343
X-0.0559 Y1.3959 Z-0.0345
X-0.056 Y1.336 Z-0.0347
X-0.0561 Y1.2762 Z-0.0349
X-0.0562 Y1.2163 Z-0.0352
X-0.0563 Y1.1565 Z-0.0354
X-0.0564 Y1.0966 Z-0.0356
X-0.0565 Y1.0368 Z-0.0358
X-0.0566 Y0.9769 Z-0.036
X-0.0567 Y0.9171 Z-0.0363
X-0.0568 Y0.8572 Z-0.0365
X-0.0569 Y0.7974 Z-0.0367
X-0.057 Y0.7375 Z-0.0369
X-0.0571 Y0.6777 Z-0.0372
X-0.0572 Y0.6178 Z-0.0374
X-0.0573 Y0.558 Z-0.0376
X-0.0574 Y0.4981 Z-0.0378
X-0.0575 Y0.4283 Z-0.0381
X-0.0576 Y0.3585 Z-0.0384
X-0.0578 Y0.2887 Z-0.0386
X-0.0579 Y0.2188 Z-0.0389
X-0.058 Y0.149 Z-0.0391
X-0.0581 Y0.0792 Z-0.0394
X-0.0582 Y0.0094 Z-0.0397
Y-0.0006
X-0.0579 Y-0.0056
X-0.0572 Y-0.0105
X-0.0561 Y-0.0154
X-0.0546 Y-0.0201 Z-0.0398
X-0.0527 Y-0.0247
X-0.0504 Y-0.0291
X-0.0478 Y-0.0333
X-0.0447 Y-0.0373
X-0.0414 Y-0.041 Z-0.0399
X-0.0377 Y-0.0444
X-0.0338 Y-0.0474
X-0.0296 Y-0.0502
X-0.0253 Y-0.0525
X-0.0207 Y-0.0545
X-0.0159 Y-0.0561 Z-0.04
X-0.0111 Y-0.0572
X-0.0072 Y-0.0578
X-0.0045 Y-0.0581
X0.0004 Y-0.0583
X0.1162
X0.1211 Y-0.0582
X0.1259 Y-0.0581
X0.1307 Y-0.0578
X0.133 Y-0.0576
X0.1356 Y-0.0572
X0.1404 Y-0.0566
X0.1452 Y-0.0558
X0.15 Y-0.0546
X0.1549 Y-0.0533
X0.1566 Y-0.0527
X0.1597 Y-0.0517
X0.1645 Y-0.0495
X0.1678 Y-0.0479
X0.1694 Y-0.047
X0.1742 Y-0.0442
X0.1759 Y-0.0431
X0.179 Y-0.0407
X0.1818 Y-0.0382
X0.1838 Y-0.0362
X0.1864 Y-0.0334
X0.1887 Y-0.0304
X0.19 Y-0.0285
X0.1928 Y-0.0237
X0.1935 Y-0.0224
X0.1951 Y-0.0189
X0.1968 Y-0.014
X0.198 Y-0.0092
X0.1983 Y-0.0072
X0.1987 Y-0.0044
X0.1989 Y0.0005
Y2.3611
X0.1987 Y2.366
X0.1983 Y2.3695
X0.1981 Y2.3708
X0.197 Y2.3756
X0.1953 Y2.3805
X0.1935 Y2.3846
X0.1931 Y2.3853
X0.1903 Y2.3901
X0.1887 Y2.3926
X0.1869 Y2.395
X0.1838 Y2.3984
X0.1825 Y2.3998
X0.179 Y2.4029
X0.1767 Y2.4047
X0.1742 Y2.4064
X0.1694 Y2.4092
X0.1689 Y2.4095
X0.1645 Y2.4118
X0.1597 Y2.4139
X0.1584 Y2.4143
X0.1549 Y2.4155
X0.15 Y2.4168
X0.1452 Y2.418
X0.1404 Y2.4188
X0.1377 Y2.4192
X0.1356 Y2.4194
X0.1307 Y2.42
X0.1259 Y2.4203
X0.1211 Y2.4204
X0.1162 Y2.4205
X0.0004
X-0.0045 Y2.4203
X-0.0093 Y2.4198
X-0.0124 Y2.4192
X-0.0141 Y2.4188
X-0.019 Y2.4173
X-0.0238 Y2.4154
X-0.0261 Y2.4143
X-0.0286 Y2.413
X-0.031 Y2.4116
X-0.0334 Y2.41
X-0.0341 Y2.4095
X-0.0383 Y2.4062
X-0.04 Y2.4047
X-0.0431 Y2.4015
X-0.0446 Y2.3998
X-0.0463 Y2.3976
X-0.0479 Y2.3954
X-0.0482 Y2.395
X-0.0498 Y2.3926
X-0.0512 Y2.3901
X-0.0528 Y2.387
X-0.0535 Y2.3853
X-0.0554 Y2.3805
X-0.0567 Y2.3756
X-0.0576 Y2.3714
X-0.0577 Y2.3708
X-0.0582 Y2.366
X-0.0583 Y2.3611
Y0.0005
X-0.0581 Y-0.0044
X-0.0576 Y-0.0092
X-0.0566 Y-0.014
X-0.0552 Y-0.0189
X-0.0533 Y-0.0237
X-0.0528 Y-0.0248
X-0.0508 Y-0.0285
X-0.0495 Y-0.0309
X-0.0479 Y-0.0332
X-0.0478 Y-0.0334
X-0.046 Y-0.0358
X-0.044 Y-0.0382
X-0.0431 Y-0.0393
X-0.0393 Y-0.0431
X-0.0383 Y-0.044
X-0.0359 Y-0.046
X-0.0334 Y-0.0478
X-0.0333 Y-0.0479
X-0.0309 Y-0.0494
X-0.0286 Y-0.0508
X-0.0249 Y-0.0527
X-0.0238 Y-0.0532
X-0.019 Y-0.0551
X-0.0141 Y-0.0566
X-0.0093 Y-0.0576
X-0.0072 Y-0.0578
G3 X-0.0212 Y-0.0687 I-0.0015 J-0.0124
G1 X-0.0215 Y-0.0714 Z-0.0397
X-0.0218 Y-0.074 Z-0.0388
X-0.0221 Y-0.0764 Z-0.0373
X-0.0224 Y-0.0784 Z-0.0353
X-0.0226 Y-0.0798 Z-0.0329
X-0.0227 Y-0.0808 Z-0.0303
Y-0.0811 Z-0.0275
G0 Z0.2
X0.1188 Y2.4464
Z0.0524
G1 Z-0.0309 F40.38
Y2.4461 Z-0.0333
X0.1187 Y2.4452 Z-0.0355
Y2.4438 Z-0.0373
Y2.4419 Z-0.0388
X0.1186 Y2.4397 Z-0.0397
X0.1185 Y2.4374 Z-0.04
G3 X0.1307 Y2.4245 I0.0125 J-0.0003
G1 X0.1356 Y2.4244
X0.1404 Y2.4242 Z-0.0401
X0.1426 Y2.424
X0.1452 Y2.4238
X0.15 Y2.4232
X0.1549 Y2.4225 Z-0.0402
X0.1597 Y2.4215
X0.1645 Y2.4202 Z-0.0403
X0.1677 Y2.4192
X0.1694 Y2.4186
X0.1742 Y2.4166
X0.1789 Y2.4143 Z-0.0404
X0.179
X0.1814 Y2.4129
X0.1838 Y2.4114
X0.1865 Y2.4095 Z-0.0405
X0.1887 Y2.4078
X0.1922 Y2.4047
X0.1935 Y2.4034
X0.1968 Y2.3998 Z-0.0406
X0.1983 Y2.3979
X0.2005 Y2.395
X0.2032 Y2.3908
X0.2035 Y2.3901 Z-0.0407
X0.206 Y2.3853
X0.2079 Y2.3805
X0.208 Y2.3802
X0.2093 Y2.3756 Z-0.0408
X0.2103 Y2.3708
X0.2108 Y2.366 Z-0.0409
X0.2109 Y2.3611
Y0.0005 Z-0.0591
X0.2108 Y-0.0044 Z-0.0592
X0.2102 Y-0.0092
X0.2092 Y-0.014
X0.208 Y-0.018 Z-0.0593
X0.2077 Y-0.0189
X0.2057 Y-0.0237
X0.2032 Y-0.0285 Z-0.0594
Y-0.0286
X0.2017 Y-0.031
X0.2001 Y-0.0334
X0.1983 Y-0.0357
X0.1962 Y-0.0382
X0.1935 Y-0.0411 Z-0.0595
X0.1915 Y-0.0431
X0.1887 Y-0.0456
X0.1857 Y-0.0479 Z-0.0596
X0.1838 Y-0.0492
X0.1814 Y-0.0507
X0.179 Y-0.0521
X0.1778 Y-0.0527
X0.1742 Y-0.0544 Z-0.0597
X0.1694 Y-0.0564
X0.1659 Y-0.0576
X0.1645 Y-0.058
X0.1597 Y-0.0593 Z-0.0598
X0.1549 Y-0.0603
X0.15 Y-0.061 Z-0.0599
X0.1452 Y-0.0616
X0.1404 Y-0.062
X0.1356 Y-0.0622 Z-0.06
X0.1307 Y-0.0623
X0.1356 Y-0.0622
X0.1404 Y-0.062
X0.1452 Y-0.0616
X0.15 Y-0.061
X0.1549 Y-0.0603
X0.1597 Y-0.0593
X0.1645 Y-0.058
X0.1659 Y-0.0576
X0.1694 Y-0.0564
X0.1742 Y-0.0544
X0.1778 Y-0.0527
X0.179 Y-0.0521
X0.1814 Y-0.0507
X0.1838 Y-0.0492
X0.1857 Y-0.0479
X0.1887 Y-0.0456
X0.1915 Y-0.0431
X0.1935 Y-0.0411
X0.1962 Y-0.0382
X0.1983 Y-0.0357
X0.2001 Y-0.0334
X0.2017 Y-0.031
X0.2032 Y-0.0286
Y-0.0285
X0.2057 Y-0.0237
X0.2077 Y-0.0189
X0.208 Y-0.018
X0.2092 Y-0.014
X0.2102 Y-0.0092
X0.2108 Y-0.0044
X0.2109 Y0.0005
Y2.3611
X0.2108 Y2.366
X0.2103 Y2.3708
X0.2093 Y2.3756
X0.208 Y2.3802
X0.2079 Y2.3805
X0.206 Y2.3853
X0.2035 Y2.3901
X0.2032 Y2.3908
X0.2005 Y2.395
X0.1983 Y2.3979
X0.1968 Y2.3998
X0.1935 Y2.4034
X0.1922 Y2.4047
X0.1887 Y2.4078
X0.1865 Y2.4095
X0.1838 Y2.4114
X0.1814 Y2.4129
X0.179 Y2.4143
X0.1789
X0.1742 Y2.4166
X0.1694 Y2.4186
X0.1677 Y2.4192
X0.1645 Y2.4202
X0.1597 Y2.4215
X0.1549 Y2.4225
X0.15 Y2.4232
X0.1452 Y2.4238
X0.1426 Y2.424
X0.1404 Y2.4242
X0.1356 Y2.4244
X0.1307 Y2.4245
G3 X0.1436 Y2.4366 I0.0004 J0.0125
G1 X0.1437 Y2.4394 Z-0.0597
X0.1438 Y2.4421 Z-0.0588
X0.1439 Y2.4444 Z-0.0573
Y2.4464 Z-0.0553
X0.144 Y2.4479 Z-0.0529
Y2.4488 Z-0.0503
Y2.4491 Z-0.0475
G0 Z0.2
X0.3958 Y0.0079
Z0.0761
G1 Z0.0125 F40.38
X0.3955 Z0.0097
X0.3946 Y0.0077 Z0.0071
X0.3931 Y0.0074 Z0.0047
X0.3912 Y0.007 Z0.0027
X0.3888 Y0.0066 Z0.0012
X0.3862 Y0.006 Z0.0003
X0.3835 Y0.0055 Z0
G3 X0.3737 Y-0.0092 I0.0024 J-0.0123
G1 X0.3752 Y-0.014
X0.377 Y-0.0179
X0.3775 Y-0.0189
X0.379 Y-0.0213
X0.3807 Y-0.0237
X0.3818 Y-0.0251
X0.3852 Y-0.0285 Z-0.0001
X0.3866 Y-0.0299
X0.391 Y-0.0334
X0.3915 Y-0.0337
X0.3963 Y-0.0369
X0.3986 Y-0.0382
X0.4011 Y-0.0394
X0.406 Y-0.0412
X0.4108 Y-0.0427
X0.4119 Y-0.0431
X0.4156 Y-0.044
X0.4204 Y-0.0448
X0.4253 Y-0.0453 Z-0.0002
X0.4301 Y-0.0457
X0.4349 Y-0.0458
X0.6377 Z-0.0006
X0.6425 Y-0.0456
X0.6474 Y-0.0448
X0.6522 Y-0.0435 Z-0.0007
X0.6535 Y-0.0431
X0.657 Y-0.0416
X0.6594 Y-0.0404
X0.6619 Y-0.039
X0.6631 Y-0.0382
X0.6667 Y-0.0356
X0.6692 Y-0.0334
X0.6715 Y-0.031
X0.6736 Y-0.0285
X0.6763 Y-0.0248
X0.677 Y-0.0237
X0.6784 Y-0.0213
X0.6796 Y-0.0189
X0.6812 Y-0.0148 Z-0.0008
X0.6814 Y-0.014
X0.6827 Y-0.0092
X0.6834 Y-0.0044
X0.6836 Y0.0005
Y0.2278 Z-0.0013
X0.684 Y0.2327
X0.6841 Y0.2375
X0.6837 Y0.2424
X0.6828 Y0.2472
X0.6813 Y0.252 Z-0.0014
X0.6812 Y0.2524
X0.6792 Y0.2569
X0.6779 Y0.2593
X0.6764 Y0.2617
X0.6763 Y0.2618
X0.6746 Y0.2641
X0.6727 Y0.2665
X0.6715 Y0.2678
X0.6677 Y0.2714
X0.6667 Y0.2722
X0.6559 Y0.2811
X0.6522 Y0.2842
X0.6425 Y0.2935 Z-0.0015
X0.6406 Y0.2956
X0.6321 Y0.3052
X0.6282 Y0.3101
X0.6232 Y0.3167
X0.621 Y0.3198 Z-0.0016
X0.6136 Y0.3314
X0.6119 Y0.3343
X0.6068 Y0.3439
X0.6043 Y0.3488
X0.5991 Y0.3609 Z-0.0017
X0.5982 Y0.3633
X0.5943 Y0.3747
X0.5932 Y0.3778
X0.5894 Y0.3928
X0.5886 Y0.3971
X0.587 Y0.4068 Z-0.0018
X0.5863 Y0.4117
X0.5855 Y0.4213
X0.5851 Y0.4262
X0.5849 Y0.4407
X0.5852 Y0.4455 Z-0.0019
X0.5859 Y0.4552
X0.5864 Y0.46
X0.5878 Y0.4697
X0.5886 Y0.4745
X0.592 Y0.4891 Z-0.002
X0.5934 Y0.4939
X0.5965 Y0.5036
X0.5983 Y0.5084
X0.6023 Y0.5181
X0.6039 Y0.5217
X0.6094 Y0.5326 Z-0.0021
X0.6121 Y0.5374
X0.6184 Y0.5478
X0.6213 Y0.5519
X0.6281 Y0.5613
X0.6283 Y0.5616
X0.6377 Y0.5727 Z-0.0022
X0.641 Y0.5761
X0.6474 Y0.5826
X0.6507 Y0.5858
X0.662 Y0.5955
X0.6667 Y0.599 Z-0.0023
X0.6752 Y0.6052
X0.6763 Y0.6059
X0.686 Y0.6118
X0.6908 Y0.6146
X0.7007 Y0.6197
X0.7053 Y0.6218 Z-0.0024
X0.715 Y0.6258
X0.7198 Y0.6277
X0.7295 Y0.6308
X0.7343 Y0.6324
X0.7488 Y0.6358 Z-0.0025
X0.7536 Y0.6366
X0.7633 Y0.6381
X0.7681 Y0.6387
X0.7777 Y0.6394
X0.7826 Y0.6397
X0.7971 Y0.6396 Z-0.0026
X0.8019 Y0.6393
X0.8115 Y0.6385
X0.8164 Y0.6379
X0.826 Y0.6363
X0.8309 Y0.6355
X0.8453 Y0.6319 Z-0.0027
X0.8502 Y0.6303
X0.8598 Y0.6271
X0.8647 Y0.6252
X0.8743 Y0.6211
X0.8774 Y0.6197 Z-0.0028
X0.8888 Y0.6137
X0.8936 Y0.6109
X0.9033 Y0.6048
X0.9081 Y0.6013
X0.9159 Y0.5955 Z-0.0029
X0.9178 Y0.5941
X0.9274 Y0.5856
X0.9322 Y0.581
X0.9371 Y0.576
X0.9415 Y0.5713
X0.9495 Y0.5616 Z-0.003
X0.9516 Y0.5591
X0.96 Y0.5471
X0.9612 Y0.5452
X0.9686 Y0.5326
X0.9709 Y0.5281
X0.9757 Y0.5181 Z-0.0031
X0.9777 Y0.5132
X0.9815 Y0.5036
X0.983 Y0.4987
X0.9859 Y0.4891
X0.9872 Y0.4842 Z-0.0032
X0.9893 Y0.4745
X0.9902 Y0.4698
X0.9922 Y0.4552
X0.9925 Y0.4504
X0.993 Y0.4407 Z-0.0033
Y0.4358
X0.9928 Y0.4262
X0.9926 Y0.4213
X0.9911 Y0.4068
X0.9902 Y0.4021
X0.9884 Y0.3923 Z-0.0034
X0.9872 Y0.3875
X0.9846 Y0.3778
X0.9832 Y0.373
X0.9797 Y0.3633
X0.9779 Y0.3585
X0.9735 Y0.3488 Z-0.0035
X0.9713 Y0.3439
X0.966 Y0.3343
X0.9632 Y0.3294
X0.9564 Y0.319
X0.9534 Y0.3149 Z-0.0036
X0.9459 Y0.3052
X0.9419 Y0.3007
X0.9371 Y0.2954
X0.9326 Y0.2907
X0.9226 Y0.2814 Z-0.0037
X0.9222 Y0.2811
X0.9101 Y0.2714
X0.9081 Y0.2698
X0.9045 Y0.2665
X0.9033 Y0.2653
X0.9003 Y0.2617
X0.8985 Y0.259
X0.8972 Y0.2569
X0.8948 Y0.252
X0.8936 Y0.249 Z-0.0038
X0.8931 Y0.2472
X0.8919 Y0.2424
X0.8913 Y0.2375
X0.8912 Y0.2327
Y0.0005 Z-0.0043
X0.8914 Y-0.0044
X0.8921 Y-0.0092
X0.8934 Y-0.014
X0.8936 Y-0.0148
X0.8952 Y-0.0189 Z-0.0044
X0.8964 Y-0.0213
X0.8978 Y-0.0237
X0.8985 Y-0.0248
X0.9012 Y-0.0285
X0.9033 Y-0.031
X0.9056 Y-0.0334
X0.9081 Y-0.0356
X0.9117 Y-0.0382
X0.9129 Y-0.039
X0.9154 Y-0.0404
X0.9178 Y-0.0416
X0.9213 Y-0.0431
X0.9226 Y-0.0435
X0.9274 Y-0.0448
X0.9323 Y-0.0456 Z-0.0045
X0.9371 Y-0.0458
X1.1399 Z-0.0049
X1.1447 Y-0.0457
X1.1495 Y-0.0453
X1.1544 Y-0.0448 Z-0.005
X1.1592 Y-0.044
X1.1629 Y-0.0431
X1.164 Y-0.0427
X1.1689 Y-0.0412
X1.1737 Y-0.0394
X1.1762 Y-0.0382
X1.1785 Y-0.0369
X1.1833 Y-0.0337
X1.1838 Y-0.0334
X1.1882 Y-0.0299
X1.1896 Y-0.0285
X1.193 Y-0.0251 Z-0.0051
X1.1941 Y-0.0237
X1.1958 Y-0.0213
X1.1973 Y-0.0189
X1.1978 Y-0.0179
X1.1996 Y-0.014
X1.2011 Y-0.0092
X1.202 Y-0.0044
X1.2022 Y0.0005
Y2.3611 Z-0.0104
X1.202 Y2.366
X1.2013 Y2.3708
X1.1998 Y2.3756
X1.1978 Y2.3801
X1.1976 Y2.3805
X1.1962 Y2.3829
X1.1946 Y2.3853 Z-0.0105
X1.193 Y2.3873
X1.1903 Y2.3901
X1.1882 Y2.3921
X1.1846 Y2.395
X1.1833 Y2.3959
X1.1785 Y2.3992
X1.1773 Y2.3998
X1.1737 Y2.4016
X1.1689 Y2.4034
X1.1648 Y2.4047
X1.164 Y2.4049
X1.1592 Y2.4062
X1.1544 Y2.407 Z-0.0106
X1.1495 Y2.4075
X1.1447 Y2.4079
X1.1399 Y2.408
X0.9553 Z-0.011
Y2.4081
Y2.6253 Z-0.0115
X0.9612 Y2.6333
X0.9639 Y2.6369
X0.9661 Y2.6404
X0.9727 Y2.6514 Z-0.0116
X0.9754 Y2.6562
X0.9757 Y2.6568
X0.9824 Y2.6707
X0.9844 Y2.6756
X0.9898 Y2.6901 Z-0.0117
X0.9902 Y2.6913
X0.9913 Y2.6949
X0.9951 Y2.7094
X0.9961 Y2.7143
X0.9984 Y2.7288
X0.9991 Y2.7336 Z-0.0118
X0.9994 Y2.7384
X1 Y2.7481
X1.0002 Y2.753
X1.0001 Y2.7578
X0.9998 Y2.7675
X0.9996 Y2.7723
X0.9991 Y2.7771
X0.9978 Y2.7868 Z-0.0119
X0.9972 Y2.7917
X0.9963 Y2.7965
X0.993 Y2.811
X0.9916 Y2.8158
X0.9868 Y2.8303 Z-0.012
X0.9854 Y2.8341
X0.9849 Y2.8352
X0.9806 Y2.8449
X0.9785 Y2.8497
X0.9759 Y2.8545
X0.9705 Y2.8642 Z-0.0121
X0.9677 Y2.869
X0.9661 Y2.8715
X0.9576 Y2.8836
X0.9564 Y2.8853
X0.9539 Y2.8884
X0.9457 Y2.8981
X0.9419 Y2.9023 Z-0.0122
X0.9413 Y2.9029
X0.9371 Y2.907
X0.9313 Y2.9126
X0.9274 Y2.9162
X0.926 Y2.9174
X0.9138 Y2.9271
X0.9129 Y2.9278
X0.9081 Y2.9311 Z-0.0123
X0.8985 Y2.9374
X0.8936 Y2.9403
X0.8912 Y2.9416
X0.8791 Y2.9479
X0.8743 Y2.9502
X0.8598 Y2.956 Z-0.0124
X0.8596 Y2.9561
X0.855 Y2.9577
X0.8405 Y2.962
X0.8357 Y2.9632
X0.8212 Y2.966 Z-0.0125
X0.8164 Y2.9668
X0.8115 Y2.9672
X0.8019 Y2.9682
X0.7971 Y2.9685
X0.7922 Y2.9686
X0.7826 Z-0.0126
X0.7777 Y2.9685
X0.7729 Y2.9682
X0.7633 Y2.9672
X0.7584 Y2.9668
X0.7536 Y2.966
X0.7391 Y2.9632 Z-0.0127
X0.7343 Y2.962
X0.7198 Y2.9577
X0.7152 Y2.9561
X0.715 Y2.956
X0.7005 Y2.9502
X0.6957 Y2.9479 Z-0.0128
X0.6836 Y2.9416
X0.6812 Y2.9403
X0.6763 Y2.9374
X0.6667 Y2.9311
X0.6619 Y2.9278
X0.661 Y2.9271 Z-0.0129
X0.6488 Y2.9174
X0.6474 Y2.9162
X0.6435 Y2.9126
X0.6385 Y2.9077
X0.6335 Y2.9029
X0.6329 Y2.9023
X0.6291 Y2.8981
X0.6209 Y2.8884 Z-0.013
X0.6184 Y2.8853
X0.6172 Y2.8836
X0.6087 Y2.8715
X0.6071 Y2.869
X0.6043 Y2.8642
X0.5989 Y2.8545 Z-0.0131
X0.5964 Y2.8497
X0.5943 Y2.845
X0.5899 Y2.8352
X0.5894 Y2.8341
X0.588 Y2.8303
X0.5832 Y2.8158 Z-0.0132
X0.5818 Y2.811
X0.5785 Y2.7965
X0.5776 Y2.7917
X0.577 Y2.7868
X0.5757 Y2.7771
X0.5752 Y2.7723 Z-0.0133
X0.575 Y2.7675
X0.5747 Y2.7578
X0.5746 Y2.753
X0.5748 Y2.7481
X0.5754 Y2.7384
X0.5757 Y2.7336
X0.5764 Y2.7288 Z-0.0134
X0.5787 Y2.7143
X0.5797 Y2.7094
X0.5835 Y2.6949
X0.5846 Y2.6913
X0.585 Y2.6901
X0.5904 Y2.6756 Z-0.0135
X0.5924 Y2.6707
X0.5991 Y2.6568
X0.5994 Y2.6562
X0.6021 Y2.6514
X0.6087 Y2.6404 Z-0.0136
X0.6109 Y2.6369
X0.6136 Y2.6333
X0.6195 Y2.6253
Y2.4081 Z-0.0141
Y2.408
X0.4349 Z-0.0145
X0.4301 Y2.4079
X0.4253 Y2.4075
X0.4204 Y2.407
X0.4156 Y2.4062 Z-0.0146
X0.4108 Y2.4049
X0.41 Y2.4047
X0.406 Y2.4034
X0.4011 Y2.4016
X0.3975 Y2.3998
X0.3963 Y2.3992
X0.3915 Y2.3959
X0.3902 Y2.395
X0.3866 Y2.3921
X0.3845 Y2.3901
X0.3818 Y2.3873
X0.3802 Y2.3853
X0.3786 Y2.3829 Z-0.0147
X0.3772 Y2.3805
X0.377 Y2.3801
X0.375 Y2.3756
X0.3735 Y2.3708
X0.3728 Y2.366
X0.3726 Y2.3611
Y0.0005 Z-0.02
X0.3728 Y-0.0044
X0.3737 Y-0.0092
X0.3745 Y-0.0121
X0.3756 Y-0.015
X0.3764 Y-0.0167
X0.3772 Y-0.0184
X0.3781 Y-0.02
X0.3791 Y-0.0216
X0.3811 Y-0.0243
X0.3822 Y-0.0256
X0.3833 Y-0.0268
X0.3858 Y-0.0292 Z-0.0201
X0.3884 Y-0.0315
X0.3916 Y-0.0339
X0.395 Y-0.0362
X0.3966 Y-0.0372
X0.3984 Y-0.0382
X0.402 Y-0.0398
X0.404 Y-0.0406
X0.406 Y-0.0413
X0.4102 Y-0.0426
X0.4124 Y-0.0433
X0.4147 Y-0.0439
X0.4193 Y-0.0448
X0.4237 Y-0.0453
X0.4282 Y-0.0457 Z-0.0202
X0.4377 Y-0.046
X0.5175 Y-0.0462 Z-0.0204
X0.5974 Y-0.0463 Z-0.0205
X0.6373 Y-0.0464 Z-0.0206
X0.6413 Y-0.0463
X0.6453 Y-0.0458
X0.6492 Y-0.045
X0.6531 Y-0.0438 Z-0.0207
X0.655 Y-0.0431
X0.6569 Y-0.0423
X0.6606 Y-0.0405
X0.6637 Y-0.0385
X0.6667 Y-0.0363
X0.6698 Y-0.0337
X0.6713 Y-0.0322
X0.6727 Y-0.0307
X0.6752 Y-0.0276
X0.6774 Y-0.0243
X0.6793 Y-0.0209
X0.681 Y-0.0173
X0.6823 Y-0.0136
X0.6833 Y-0.0097 Z-0.0208
X0.684 Y-0.0058
X0.6843 Y-0.0018
Y0.0078
X0.6845 Y0.0877 Z-0.021
X0.6847 Y0.1676 Z-0.0211
X0.6848 Y0.2275 Z-0.0213
X0.6851 Y0.2324
X0.6853 Y0.2348
Y0.2373
X0.6851 Y0.2411
X0.6845 Y0.2449
X0.6841 Y0.2469
X0.6836 Y0.2489
X0.683 Y0.2509
X0.6823 Y0.2529
X0.6807 Y0.2567
X0.6797 Y0.2585 Z-0.0214
X0.6787 Y0.2603
X0.6766 Y0.2636
X0.6742 Y0.2666
X0.6729 Y0.2682
X0.6714 Y0.2697
X0.6684 Y0.2724
X0.6566 Y0.2822
X0.6525 Y0.2857
X0.6453 Y0.2927 Z-0.0215
X0.6415 Y0.2966
X0.6343 Y0.3047
X0.6308 Y0.3089
X0.6248 Y0.3169
X0.6217 Y0.3213
X0.6158 Y0.3305 Z-0.0216
X0.613 Y0.3351
X0.6083 Y0.3441
X0.6059 Y0.3489
X0.6017 Y0.3585
X0.5998 Y0.3632
X0.5963 Y0.3732 Z-0.0217
X0.5946 Y0.3784
X0.5908 Y0.3936
X0.5899 Y0.3988
X0.5881 Y0.4094 Z-0.0218
X0.5876 Y0.4148
X0.5868 Y0.4248
X0.5867 Y0.4302
X0.5866 Y0.441
X0.5869 Y0.4464
X0.5876 Y0.457 Z-0.0219
X0.5884 Y0.4621
X0.5899 Y0.4725
X0.5911 Y0.4778
X0.5934 Y0.4875
X0.5949 Y0.4927
X0.5982 Y0.503 Z-0.022
X0.6001 Y0.5081
X0.6041 Y0.5179
X0.6063 Y0.5225
X0.611 Y0.5318
X0.6137 Y0.5365
X0.6189 Y0.5451 Z-0.0221
X0.6219 Y0.5496
X0.6283 Y0.5584
X0.6316 Y0.5626
X0.6381 Y0.5703
X0.6418 Y0.5743 Z-0.0222
X0.6494 Y0.5819
X0.6534 Y0.5856
X0.661 Y0.5921
X0.6652 Y0.5955
X0.6739 Y0.6018
X0.6784 Y0.6048 Z-0.0223
X0.687 Y0.6101
X0.6916 Y0.6128
X0.7013 Y0.6176
X0.7061 Y0.62
X0.7154 Y0.6238
X0.7204 Y0.6257 Z-0.0224
X0.7305 Y0.629
X0.7354 Y0.6305
X0.7456 Y0.6329
X0.7509 Y0.6341
X0.7662 Y0.6364 Z-0.0225
X0.7715 Y0.6368
X0.7823 Y0.6375
X0.7877
X0.7983 Y0.6374
X0.8034 Y0.637
X0.8138 Y0.636 Z-0.0226
X0.8191 Y0.6352
X0.8294 Y0.6334
X0.8344 Y0.6322
X0.8447 Y0.6297
X0.8498 Y0.628 Z-0.0227
X0.8593 Y0.6248
X0.8643 Y0.6228
X0.8742 Y0.6185
X0.879 Y0.6161
X0.8878 Y0.6115
X0.8925 Y0.6087 Z-0.0228
X0.9016 Y0.603
X0.906 Y0.5999
X0.914 Y0.5939
X0.9182 Y0.5904
X0.9262 Y0.5833 Z-0.0229
X0.9301 Y0.5796
X0.9372 Y0.5723
X0.9407 Y0.5683
X0.9475 Y0.5601
X0.9508 Y0.5558
X0.9567 Y0.5474 Z-0.023
X0.9595 Y0.543
X0.9648 Y0.5339
X0.9674 Y0.5293
X0.9718 Y0.5201
X0.9741 Y0.5152
X0.978 Y0.5052 Z-0.0231
X0.9798 Y0.5002
X0.9827 Y0.4906
X0.9842 Y0.4854
X0.9864 Y0.4749
X0.9875 Y0.4697
X0.9888 Y0.4597 Z-0.0232
X0.9895 Y0.4544
X0.9901 Y0.4437
X0.9903 Y0.4385
X0.9899 Y0.4229
X0.9883 Y0.4074 Z-0.0233
X0.9873 Y0.4022
X0.9854 Y0.3918
X0.984 Y0.3866
X0.9814 Y0.3768 Z-0.0234
X0.9797 Y0.3718
X0.9761 Y0.3617
X0.9739 Y0.3568
X0.9696 Y0.3473
X0.9672 Y0.3427
X0.9622 Y0.3335 Z-0.0235
X0.9593 Y0.329
X0.9538 Y0.3206
X0.9507 Y0.3163
X0.9442 Y0.3079
X0.9408 Y0.304
X0.9337 Y0.2962 Z-0.0236
X0.93 Y0.2925
X0.9222 Y0.2852
X0.9181 Y0.2818
X0.9067 Y0.2727
X0.9049 Y0.2712
X0.9032 Y0.2696 Z-0.0237
X0.9003 Y0.2666
X0.8977 Y0.2634
X0.8953 Y0.26
X0.8933 Y0.2564
X0.8916 Y0.2527
X0.8902 Y0.2488
X0.8896 Y0.2467
X0.8891 Y0.2447
X0.8884 Y0.2404
X0.8881 Y0.2382
X0.888 Y0.236
Y0.2316
X0.8878 Y0.1417 Z-0.0239
X0.8877 Y0.0518 Z-0.0241
X0.8876 Y0.0019 Z-0.0242
Y-0.0024 Z-0.0243
X0.8878 Y-0.0046
X0.888 Y-0.0068
X0.8888 Y-0.0111
X0.8893 Y-0.0132
X0.89 Y-0.0153
X0.8914 Y-0.0192
X0.8932 Y-0.023
X0.8953 Y-0.0267
X0.8978 Y-0.0302
X0.9005 Y-0.0334
X0.9035 Y-0.0364
X0.9066 Y-0.0391 Z-0.0244
X0.9099 Y-0.0415
X0.9135 Y-0.0436
X0.9173 Y-0.0454
X0.9213 Y-0.047
X0.9253 Y-0.0481
X0.9295 Y-0.049
X0.9337 Y-0.0494
X0.9385 Y-0.0496
X1.0033 Y-0.0497 Z-0.0246
X1.0931 Y-0.0498 Z-0.0248
X1.1331 Y-0.0499 Z-0.0249
X1.1429
X1.1526 Y-0.0492
X1.1572 Y-0.0487
X1.1595 Y-0.0483
X1.1618 Y-0.0478
X1.1704 Y-0.0456
X1.1747 Y-0.0441
X1.1768 Y-0.0431 Z-0.025
X1.1789 Y-0.0421
X1.1862 Y-0.038
X1.1879 Y-0.0369
X1.1896 Y-0.0358
X1.1912 Y-0.0346
X1.1928 Y-0.0333
X1.1943 Y-0.0319
X1.1957 Y-0.0305
X1.1983 Y-0.0275
X1.2005 Y-0.0245
X1.2025 Y-0.0213
X1.2043 Y-0.0177
X1.2052 Y-0.0159
X1.2059 Y-0.014
X1.2065 Y-0.0122
X1.207 Y-0.0104 Z-0.0251
X1.2075 Y-0.0086
X1.2078 Y-0.0068
X1.2081 Y-0.005
X1.2083 Y-0.0032
X1.2084 Y0.0004
X1.2085 Y0.0397 Z-0.0252
X1.2094 Y0.3492 Z-0.0258
X1.2095 Y0.4091 Z-0.026
X1.2097 Y0.469 Z-0.0261
X1.2099 Y0.5289 Z-0.0262
X1.21 Y0.5889 Z-0.0264
X1.2102 Y0.6488 Z-0.0265
X1.2103 Y0.7186 Z-0.0267
X1.2105 Y0.7885 Z-0.0268
X1.2107 Y0.8584 Z-0.027
X1.2109 Y0.9283 Z-0.0271
X1.2111 Y0.9982 Z-0.0273
X1.2112 Y1.0681 Z-0.0274
X1.2114 Y1.138 Z-0.0276
X1.2116 Y1.2079 Z-0.0277
X1.2117 Y1.2778 Z-0.0279
X1.2119 Y1.3476 Z-0.0281
X1.2121 Y1.4175 Z-0.0282
X1.2122 Y1.4874 Z-0.0284
X1.2124 Y1.5573 Z-0.0285
X1.2126 Y1.6272 Z-0.0287
X1.2127 Y1.6971 Z-0.0288
X1.2129 Y1.767 Z-0.029
X1.2131 Y1.8369 Z-0.0291
X1.2132 Y1.9068 Z-0.0293
X1.2134 Y1.9766 Z-0.0294
X1.2135 Y2.0465 Z-0.0296
X1.2137 Y2.1164 Z-0.0298
X1.2138 Y2.1863 Z-0.0299
X1.214 Y2.2562 Z-0.0301
X1.2141 Y2.3261 Z-0.0302
X1.2142 Y2.3607 Z-0.0303
Y2.3631
X1.2141 Y2.3654
X1.2139 Y2.3675
X1.2136 Y2.3695
X1.2128 Y2.3735
X1.2122 Y2.3756
X1.2115 Y2.3776
X1.2099 Y2.3815
X1.2089 Y2.3834
X1.2078 Y2.3853 Z-0.0304
X1.2054 Y2.3889
X1.2028 Y2.3922
X1.1999 Y2.3953
X1.1968 Y2.3983
X1.1935 Y2.4011
X1.1916 Y2.4025
X1.1896 Y2.4038
X1.1855 Y2.4061
X1.1813 Y2.408
X1.1771 Y2.4098
X1.1726 Y2.4115
X1.1703 Y2.4122 Z-0.0305
X1.168 Y2.4127
X1.1587 Y2.4146
X1.154 Y2.4152
X1.1492 Y2.4155
X1.1394 Y2.4159
X1.0396 Y2.416 Z-0.0307
X0.9697 Y2.4161 Z-0.0309
X0.9649
X0.9635
X0.9634 Y2.4162
Y2.4166
Y2.4182
Y2.4208
Y2.4286
X0.9635 Y2.5284 Z-0.0312
X0.9636 Y2.6224 Z-0.0314
X0.9637 Y2.6225
X0.965 Y2.6243
X0.9687 Y2.6293
X0.974 Y2.6373
X0.9792 Y2.6458
X0.9838 Y2.6542 Z-0.0315
X0.9882 Y2.6632
X0.9921 Y2.672
X0.9956 Y2.6813
X0.9989 Y2.6906
X1.0014 Y2.7 Z-0.0316
X1.0039 Y2.7096
X1.0055 Y2.7192
X1.0071 Y2.729
X1.0079 Y2.7386 Z-0.0317
X1.0086 Y2.7485
X1.0087 Y2.7581
X1.0084 Y2.7681
X1.0077 Y2.7777
X1.0064 Y2.7876 Z-0.0318
X1.005 Y2.7971
X1.0028 Y2.8068
X1.0005 Y2.8163
X0.9974 Y2.8257
X0.9943 Y2.8349 Z-0.0319
X0.9905 Y2.844
X0.9865 Y2.853
X0.9819 Y2.8616
X0.977 Y2.8703 Z-0.032
X0.9719 Y2.8784
X0.9662 Y2.8866
X0.9603 Y2.8943
X0.9539 Y2.9019
X0.9475 Y2.9091 Z-0.0321
X0.9403 Y2.916
X0.9333 Y2.9228
X0.9256 Y2.929
X0.9179 Y2.9351
X0.9098 Y2.9405 Z-0.0322
X0.9014 Y2.946
X0.893 Y2.9507
X0.8842 Y2.9553
X0.8754 Y2.9593 Z-0.0323
X0.8661 Y2.963
X0.8571 Y2.9663
X0.8475 Y2.9692
X0.8382 Y2.9718
X0.8284 Y2.9737 Z-0.0324
X0.8188 Y2.9755
X0.809 Y2.9765
X0.7992 Y2.9774
X0.7894 Y2.9775 Z-0.0325
X0.7795 Y2.9776
X0.7698 Y2.9769
X0.7599 Y2.976
X0.7503 Y2.9745
X0.7406 Y2.9726 Z-0.0326
X0.7311 Y2.9705
X0.7216 Y2.9677
X0.7122 Y2.9647
X0.7031 Y2.961
X0.6941 Y2.9573 Z-0.0327
X0.6853 Y2.9528
X0.6766 Y2.9482
X0.6683 Y2.943
X0.6599 Y2.9376 Z-0.0328
X0.6522 Y2.9318
X0.6444 Y2.9256
X0.6371 Y2.9192
X0.6299 Y2.9122
X0.6232 Y2.9053 Z-0.0329
X0.6167 Y2.8977
X0.6106 Y2.8902
X0.6049 Y2.8821
X0.5993 Y2.8739
X0.5944 Y2.8654 Z-0.033
X0.5896 Y2.8569
X0.5854 Y2.848
X0.5814 Y2.8389
X0.578 Y2.8298 Z-0.0331
X0.5749 Y2.8203
X0.5723 Y2.811
X0.57 Y2.8012
X0.5682 Y2.7917
X0.5669 Y2.7818 Z-0.0332
X0.5658 Y2.7721
X0.5654 Y2.7622
X0.5652 Y2.7525
X0.5657 Y2.7426 Z-0.0333
X0.5664 Y2.7328
X0.5677 Y2.723
X0.5693 Y2.7132
X0.5715 Y2.7037
X0.574 Y2.6941 Z-0.0334
X0.5769 Y2.6848
X0.5803 Y2.6754
X0.5839 Y2.6665
X0.5882 Y2.6575
X0.5926 Y2.6487 Z-0.0335
X0.5977 Y2.6402
X0.6028 Y2.6318
X0.6086 Y2.6239
X0.6099 Y2.6222
X0.61 Y2.6221
Y2.6212
Y2.6124 Z-0.0336
X0.6098 Y2.5126 Z-0.0338
X0.6097 Y2.4179 Z-0.034
Y2.4178
X0.6088
X0.6056
X0.5992
X0.4994 Y2.418 Z-0.0342
X0.4395 Z-0.0344
X0.4296 Y2.4179
X0.4198 Y2.4174
X0.4149 Y2.4167
X0.4101 Y2.4159
X0.4053 Y2.4149
X0.4006 Y2.4136 Z-0.0345
X0.3961 Y2.4121
X0.3917 Y2.4104
X0.3873 Y2.4084
X0.3852 Y2.4073
X0.3832 Y2.406
X0.3792 Y2.4033
X0.3754 Y2.4004
X0.372 Y2.3974
X0.3688 Y2.3941
X0.3673 Y2.3923
X0.3659 Y2.3905 Z-0.0346
X0.3646 Y2.3886
X0.3634 Y2.3867
X0.3623 Y2.3846
X0.3613 Y2.3826
X0.3595 Y2.3783
X0.3588 Y2.3761
X0.3582 Y2.3739
X0.3573 Y2.3694
X0.357 Y2.3671
X0.3568 Y2.3648
X0.3567 Y2.3601
X0.3524 Y0.0039 Z-0.0398
X0.3525 Y-0.0011
X0.3526 Y-0.0036
X0.3528 Y-0.0061 Z-0.0399
X0.3532 Y-0.0085
X0.3537 Y-0.011
X0.355 Y-0.0158
X0.3559 Y-0.0181
X0.3568 Y-0.0204
X0.3591 Y-0.0249
X0.3603 Y-0.027
X0.3617 Y-0.0291
X0.3631 Y-0.0312
X0.3647 Y-0.0331
X0.3663 Y-0.035
X0.368 Y-0.0368
X0.3717 Y-0.0402
X0.3736 Y-0.0418
X0.3756 Y-0.0432 Z-0.04
X0.3799 Y-0.0459
X0.3842 Y-0.0483
X0.3887 Y-0.0505
X0.3919 Y-0.0518
X0.3952 Y-0.0529
X0.3963 Y-0.0533
X0.4011 Y-0.0546
X0.406 Y-0.0558
X0.4108 Y-0.0566
X0.4156 Y-0.0572
X0.4182 Y-0.0576
X0.4204 Y-0.0578
X0.4253 Y-0.0581
X0.4301 Y-0.0582
X0.4349 Y-0.0583
X0.6377
X0.6425 Y-0.0581
X0.6471 Y-0.0576
X0.6474 Y-0.0575
X0.6522 Y-0.0565
X0.657 Y-0.055
X0.6619 Y-0.0531
X0.6627 Y-0.0527
X0.6667 Y-0.0506
X0.6711 Y-0.0479
X0.6715 Y-0.0476
X0.6739 Y-0.0458
X0.6763 Y-0.0437
X0.6771 Y-0.0431
X0.6792 Y-0.041
X0.6812 Y-0.039
X0.6818 Y-0.0382
X0.6838 Y-0.0358
X0.6856 Y-0.0334
X0.686 Y-0.0328
X0.6886 Y-0.0285
X0.6908 Y-0.0242
X0.6911 Y-0.0237
X0.693 Y-0.0189
X0.6944 Y-0.014
X0.6954 Y-0.0092
X0.6957 Y-0.0072
X0.6959 Y-0.0044
X0.6961 Y0.0005
Y0.2278
X0.6965 Y0.2327
X0.6966 Y0.2375
X0.6963 Y0.2424
X0.6957 Y0.2467
X0.6956 Y0.2472
X0.6944 Y0.252
X0.6928 Y0.2569
X0.6908 Y0.2615
X0.6907 Y0.2617
X0.6895 Y0.2641
X0.6881 Y0.2665
X0.686 Y0.2697
X0.6848 Y0.2714
X0.6831 Y0.2736
X0.6812 Y0.2757
X0.6807 Y0.2762
X0.6785 Y0.2784
X0.6763 Y0.2804
X0.6756 Y0.2811
X0.6715 Y0.2844
X0.6619 Y0.2923
X0.6584 Y0.2956
X0.6522 Y0.3016
X0.6487 Y0.3052
X0.6425 Y0.3122
X0.6402 Y0.3149
X0.6329 Y0.3247
X0.6296 Y0.3294
X0.6235 Y0.3391
X0.6232 Y0.3395
X0.6183 Y0.3488
X0.6158 Y0.3536
X0.6117 Y0.3633
X0.6097 Y0.3681
X0.6064 Y0.3778
X0.6049 Y0.3826
X0.6024 Y0.3923
X0.6013 Y0.3971
X0.5991 Y0.4101
X0.5989 Y0.4117
X0.598 Y0.4213
X0.5976 Y0.4262
X0.5974 Y0.4407
X0.5977 Y0.4455
X0.5984 Y0.4552
X0.599 Y0.46
X0.6004 Y0.4697
X0.6014 Y0.4745
X0.6039 Y0.4854
X0.605 Y0.4891
X0.6081 Y0.4987
X0.6087 Y0.5008
X0.6138 Y0.5132
X0.6161 Y0.5181
X0.6209 Y0.5278
X0.6232 Y0.5317
X0.6281 Y0.5396
X0.6297 Y0.5423
X0.6377 Y0.5533
X0.6406 Y0.5568
X0.6474 Y0.5648
X0.6489 Y0.5665
X0.6586 Y0.5761
X0.6619 Y0.579
X0.6699 Y0.5858
X0.6715 Y0.5871
X0.6812 Y0.5941
X0.6832 Y0.5955
X0.6911 Y0.6003
X0.6957 Y0.6031
X0.7053 Y0.608
X0.7093 Y0.61
X0.7211 Y0.6148
X0.7246 Y0.6162
X0.7355 Y0.6197
X0.7391 Y0.6207
X0.7488 Y0.623
X0.7536 Y0.624
X0.7633 Y0.6255
X0.7681 Y0.6262
X0.7826 Y0.6272
X0.7874
X0.7971 Y0.6271
X0.8019 Y0.6268
X0.8115 Y0.626
X0.8164 Y0.6253
X0.826 Y0.6237
X0.8309 Y0.6226
X0.8427 Y0.6197
X0.8453 Y0.6188
X0.8571 Y0.6148
X0.8598 Y0.6137
X0.8695 Y0.6095
X0.8743 Y0.6072
X0.884 Y0.6021
X0.8869 Y0.6003
X0.8946 Y0.5955
X0.8985 Y0.593
X0.9081 Y0.5857
X0.9129 Y0.5817
X0.9193 Y0.5761
X0.9226 Y0.573
X0.9289 Y0.5665
X0.9323 Y0.5629
X0.9413 Y0.5519
X0.9419 Y0.5512
X0.9481 Y0.5423
X0.9513 Y0.5374
X0.957 Y0.5278
X0.9595 Y0.5229
X0.9642 Y0.5132
X0.9661 Y0.5087
X0.97 Y0.4987
X0.9709 Y0.4957
X0.9744 Y0.4842
X0.9755 Y0.4794
X0.9776 Y0.4697
X0.9783 Y0.4649
X0.9796 Y0.4552
X0.98 Y0.4504
X0.9805 Y0.4398
Y0.4361
X0.9803 Y0.4262
X0.98 Y0.4213
X0.979 Y0.4117
X0.9784 Y0.4068
X0.9766 Y0.3971
X0.9757 Y0.3927
X0.973 Y0.3826
X0.9716 Y0.3778
X0.9682 Y0.3681
X0.9664 Y0.3633
X0.9612 Y0.3518
X0.9597 Y0.3488
X0.9544 Y0.3391
X0.9516 Y0.3344
X0.9451 Y0.3246
X0.9419 Y0.3204
X0.9371 Y0.3142
X0.9336 Y0.3101
X0.9274 Y0.3033
X0.9246 Y0.3004
X0.9178 Y0.294
X0.9143 Y0.2907
X0.9022 Y0.2811
X0.8985 Y0.278
X0.8965 Y0.2762
X0.8936 Y0.2732
X0.8921 Y0.2714
X0.8888 Y0.267
X0.8885 Y0.2665
X0.8869 Y0.2641
X0.8856 Y0.2617
X0.884 Y0.2585
X0.8833 Y0.2569
X0.8815 Y0.252
X0.8802 Y0.2472
X0.8793 Y0.2424
X0.8791 Y0.2414
X0.8788 Y0.2375
X0.8787 Y0.2327
Y0.0005
X0.8789 Y-0.0044
X0.8791 Y-0.0072
X0.8794 Y-0.0092
X0.8804 Y-0.014
X0.8818 Y-0.0189
X0.8837 Y-0.0237
X0.884 Y-0.0242
X0.8862 Y-0.0285
X0.8888 Y-0.0328
X0.8892 Y-0.0334
X0.891 Y-0.0358
X0.893 Y-0.0382
X0.8936 Y-0.039
X0.8956 Y-0.041
X0.8977 Y-0.0431
X0.8985 Y-0.0437
X0.9009 Y-0.0458
X0.9033 Y-0.0476
X0.9037 Y-0.0479
X0.9081 Y-0.0506
X0.9121 Y-0.0527
X0.9129 Y-0.0531
X0.9178 Y-0.055
X0.9226 Y-0.0565
X0.9274 Y-0.0575
X0.9277 Y-0.0576
X0.9323 Y-0.0581
X0.9371 Y-0.0583
X1.1399
X1.1447 Y-0.0582
X1.1495 Y-0.0581
X1.1544 Y-0.0578
X1.1566 Y-0.0576
X1.1592 Y-0.0572
X1.164 Y-0.0566
X1.1689 Y-0.0558
X1.1737 Y-0.0546
X1.1785 Y-0.0533
X1.1803 Y-0.0527
X1.1833 Y-0.0517
X1.1882 Y-0.0495
X1.1914 Y-0.0479
X1.193 Y-0.047
X1.1978 Y-0.0442
X1.1995 Y-0.0431
X1.2027 Y-0.0407
X1.2055 Y-0.0382
X1.2075 Y-0.0362
X1.21 Y-0.0334
X1.2123 Y-0.0304
X1.2136 Y-0.0285
X1.2165 Y-0.0237
X1.2171 Y-0.0224
X1.2187 Y-0.0189
X1.2204 Y-0.014
X1.2216 Y-0.0092
X1.222 Y-0.0071
X1.2223 Y-0.0044
X1.2225 Y0.0005
Y2.3611
X1.2223 Y2.366
X1.222 Y2.3694
X1.2217 Y2.3708
X1.2206 Y2.3756
X1.219 Y2.3805
X1.2171 Y2.3846
X1.2168 Y2.3853
X1.214 Y2.3901
X1.2123 Y2.3926
X1.2105 Y2.395
X1.2075 Y2.3984
X1.2061 Y2.3998
X1.2027 Y2.4029
X1.2003 Y2.4047
X1.1978 Y2.4064
X1.193 Y2.4092
X1.1925 Y2.4095
X1.1882 Y2.4117
X1.1833 Y2.4139
X1.182 Y2.4143
X1.1785 Y2.4155
X1.1737 Y2.4168
X1.1689 Y2.418
X1.164 Y2.4188
X1.1613 Y2.4192
X1.1592 Y2.4194
X1.1544 Y2.42
X1.1495 Y2.4203
X1.1447 Y2.4204
X1.1399 Y2.4205
X0.9679
X0.9678 Y2.4206
Y2.6211
X0.9723 Y2.6272
X0.9756 Y2.632
X0.9757 Y2.6322
X0.9815 Y2.6417
X0.9844 Y2.6465
X0.9854 Y2.6483
X0.987 Y2.6514
X0.9916 Y2.661
X0.9939 Y2.6659
X0.995 Y2.6683
X0.996 Y2.6707
X1.0013 Y2.6852
X1.0029 Y2.6901
X1.0042 Y2.6949
X1.0067 Y2.7046
X1.0079 Y2.7094
X1.0087 Y2.7143
X1.0103 Y2.7239
X1.0111 Y2.7288
X1.0116 Y2.7336
X1.0125 Y2.7481
X1.0127 Y2.753
X1.0126 Y2.7578
X1.0123 Y2.7675
X1.0121 Y2.7723
X1.0117 Y2.7771
X1.0098 Y2.7917
X1.0095 Y2.7938
X1.0091 Y2.7965
X1.008 Y2.8013
X1.0058 Y2.811
X1.0047 Y2.8156
X1.0046 Y2.8158
X1.0031 Y2.8207
X0.9999 Y2.8303
X0.9983 Y2.8352
X0.9964 Y2.84
X0.9902 Y2.854
X0.99 Y2.8545
X0.9875 Y2.8594
X0.9805 Y2.8718
X0.9794 Y2.8739
X0.9762 Y2.8787
X0.9695 Y2.8884
X0.9661 Y2.8932
X0.9621 Y2.8981
X0.9538 Y2.9077
X0.9516 Y2.9103
X0.9493 Y2.9126
X0.9393 Y2.9223
X0.9371 Y2.9243
X0.9338 Y2.9271
X0.9217 Y2.9368
X0.9178 Y2.9397
X0.9148 Y2.9416
X0.9081 Y2.946
X0.9033 Y2.9491
X0.8996 Y2.9513
X0.8985 Y2.9519
X0.8888 Y2.957
X0.884 Y2.9595
X0.8808 Y2.961
X0.8791 Y2.9617
X0.8647 Y2.9675
X0.8598 Y2.9693
X0.8552 Y2.9706
X0.8453 Y2.9736
X0.8405 Y2.9749
X0.8378 Y2.9755
X0.826 Y2.9778
X0.8212 Y2.9787
X0.8164 Y2.9793
X0.8019 Y2.9807
X0.7971 Y2.981
X0.7922 Y2.9811
X0.7826
X0.7777 Y2.981
X0.7729 Y2.9807
X0.7584 Y2.9793
X0.7536 Y2.9787
X0.7488 Y2.9778
X0.737 Y2.9755
X0.7343 Y2.9749
X0.7295 Y2.9736
X0.7198 Y2.9707
X0.715 Y2.9693
X0.7101 Y2.9675
X0.6957 Y2.9617
X0.694 Y2.961
X0.6908 Y2.9595
X0.686 Y2.957
X0.6763 Y2.9519
X0.6752 Y2.9513
X0.6715 Y2.9491
X0.6674 Y2.9464
X0.66 Y2.9416
X0.657 Y2.9397
X0.6531 Y2.9368
X0.641 Y2.9271
X0.6377 Y2.9243
X0.6355 Y2.9223
X0.6255 Y2.9126
X0.6232 Y2.9103
X0.621 Y2.9077
X0.6127 Y2.8981
X0.6087 Y2.8932
X0.6053 Y2.8884
X0.5986 Y2.8787
X0.5954 Y2.8739
X0.5943 Y2.8718
X0.5873 Y2.8594
X0.5848 Y2.8545
X0.5846 Y2.854
X0.5784 Y2.84
X0.5765 Y2.8352
X0.5749 Y2.8305
X0.5717 Y2.8207
X0.5702 Y2.8158
X0.5701 Y2.8156
X0.569 Y2.811
X0.5668 Y2.8013
X0.5658 Y2.7965
X0.5653 Y2.7938
X0.565 Y2.7917
X0.5631 Y2.7771
X0.5627 Y2.7723
X0.5625 Y2.7675
X0.5622 Y2.7578
X0.5621 Y2.753
X0.5623 Y2.7481
X0.5632 Y2.7336
X0.5637 Y2.7288
X0.5645 Y2.7239
X0.5661 Y2.7143
X0.5669 Y2.7094
X0.5681 Y2.7046
X0.5706 Y2.6949
X0.5719 Y2.6901
X0.5735 Y2.6852
X0.5788 Y2.6707
X0.5798 Y2.6683
X0.5809 Y2.6659
X0.5832 Y2.661
X0.5878 Y2.6514
X0.5894 Y2.6483
X0.5904 Y2.6465
X0.5933 Y2.6417
X0.5991 Y2.6322
X0.5992 Y2.632
X0.6025 Y2.6272
X0.607 Y2.6211
Y2.4206
X0.6069 Y2.4205
X0.4349
X0.4301 Y2.4204
X0.4253 Y2.4203
X0.4204 Y2.42
X0.4156 Y2.4194
X0.4135 Y2.4192
X0.4108 Y2.4188
X0.406 Y2.418
X0.4011 Y2.4168
X0.3963 Y2.4155
X0.3928 Y2.4143
X0.3915 Y2.4139
X0.3866 Y2.4117
X0.3823 Y2.4095
X0.3818 Y2.4092
X0.377 Y2.4064
X0.3745 Y2.4047
X0.3722 Y2.4029
X0.3687 Y2.3998
X0.3673 Y2.3984
X0.3643 Y2.395
X0.3625 Y2.3926
X0.3608 Y2.3901
X0.358 Y2.3853
X0.3577 Y2.3846
X0.3558 Y2.3805
X0.3547 Y2.3772
X0.3542 Y2.3756
X0.3531 Y2.3708
X0.3528 Y2.3694
X0.3525 Y2.366
X0.3523 Y2.3611
Y0.0005
X0.3525 Y-0.0044
X0.3528 Y-0.0072
X0.3532 Y-0.0092
X0.3544 Y-0.014
X0.3561 Y-0.0189
X0.3577 Y-0.0224
X0.3583 Y-0.0237
X0.3612 Y-0.0285
X0.3625 Y-0.0304
X0.3648 Y-0.0334
X0.3673 Y-0.0362
X0.3693 Y-0.0382
X0.3722 Y-0.0407
X0.3753 Y-0.0431
X0.377 Y-0.0442
X0.3818 Y-0.047
X0.3834 Y-0.0479
X0.3866 Y-0.0495
X0.3915 Y-0.0517
X0.3945 Y-0.0527
X0.3952 Y-0.0529
G3 X0.3796 Y-0.0613 I-0.0036 J-0.012
G1 X0.3788 Y-0.0639 Z-0.0397
X0.378 Y-0.0664 Z-0.0388
X0.3773 Y-0.0687 Z-0.0373
X0.3768 Y-0.0706 Z-0.0353
X0.3763 Y-0.072 Z-0.0329
X0.3761 Y-0.0729 Z-0.0303
X0.376 Y-0.0732 Z-0.0275
G0 Z0.2
X0.4324 Y-0.0842
Z0.0524
G1 Z-0.0309 F40.38
Y-0.0839 Z-0.0333
Y-0.083 Z-0.0355
X0.4325 Y-0.0816 Z-0.0373
Y-0.0797 Z-0.0388
X0.4326 Y-0.0775 Z-0.0397
Y-0.0751 Z-0.04
G3 X0.4204 Y-0.0623 I-0.0125 J0.0003
G1 X0.4156 Y-0.0622
X0.4108 Y-0.062 Z-0.0401
X0.406 Y-0.0616
X0.4011 Y-0.061
X0.3963 Y-0.0603 Z-0.0402
X0.3915 Y-0.0593
X0.3866 Y-0.058 Z-0.0403
X0.3853 Y-0.0576
X0.3818 Y-0.0564
X0.377 Y-0.0544
X0.3734 Y-0.0527 Z-0.0404
X0.3722 Y-0.0521
X0.3697 Y-0.0507
X0.3673 Y-0.0492
X0.3655 Y-0.0479
X0.3625 Y-0.0455 Z-0.0405
X0.3597 Y-0.0431
X0.3577 Y-0.0411
X0.3549 Y-0.0382 Z-0.0406
X0.3528 Y-0.0357
X0.3511 Y-0.0334
X0.3495 Y-0.031
X0.348 Y-0.0286
Y-0.0285
X0.3455 Y-0.0237 Z-0.0407
X0.3435 Y-0.0189
X0.3432 Y-0.018
X0.342 Y-0.014 Z-0.0408
X0.341 Y-0.0092
X0.3404 Y-0.0044
X0.3402 Y0.0005 Z-0.0409
Y2.3611 Z-0.0591
X0.3404 Y2.366
X0.3409 Y2.3708 Z-0.0592
X0.3419 Y2.3756
X0.3432 Y2.3802 Z-0.0593
X0.3433 Y2.3805
X0.3452 Y2.3853
X0.3476 Y2.3901
X0.348 Y2.3908 Z-0.0594
X0.3507 Y2.395
X0.3528 Y2.3979
X0.3544 Y2.3998
X0.3577 Y2.4033 Z-0.0595
X0.359 Y2.4047
X0.3625 Y2.4078
X0.3647 Y2.4095
X0.3673 Y2.4114 Z-0.0596
X0.3697 Y2.4129
X0.3722 Y2.4143
X0.3723
X0.377 Y2.4166 Z-0.0597
X0.3818 Y2.4186
X0.3835 Y2.4192
X0.3866 Y2.4202
X0.3915 Y2.4215 Z-0.0598
X0.3963 Y2.4225
X0.4011 Y2.4232 Z-0.0599
X0.406 Y2.4238
X0.4086 Y2.424
X0.4108 Y2.4242
X0.4156 Y2.4244 Z-0.06
X0.4204 Y2.4245
X0.4156 Y2.4244
X0.4108 Y2.4242
X0.4086 Y2.424
X0.406 Y2.4238
X0.4011 Y2.4232
X0.3963 Y2.4225
X0.3915 Y2.4215
X0.3866 Y2.4202
X0.3835 Y2.4192
X0.3818 Y2.4186
X0.377 Y2.4166
X0.3723 Y2.4143
X0.3722
X0.3697 Y2.4129
X0.3673 Y2.4114
X0.3647 Y2.4095
X0.3625 Y2.4078
X0.359 Y2.4047
X0.3577 Y2.4033
X0.3544 Y2.3998
X0.3528 Y2.3979
X0.3507 Y2.395
X0.348 Y2.3908
X0.3476 Y2.3901
X0.3452 Y2.3853
X0.3433 Y2.3805
X0.3432 Y2.3802
X0.3419 Y2.3756
X0.3409 Y2.3708
X0.3404 Y2.366
X0.3402 Y2.3611
Y0.0005
X0.3404 Y-0.0044
X0.341 Y-0.0092
X0.342 Y-0.014
X0.3432 Y-0.018
X0.3435 Y-0.0189
X0.3455 Y-0.0237
X0.348 Y-0.0285
Y-0.0286
X0.3495 Y-0.031
X0.3511 Y-0.0334
X0.3528 Y-0.0357
X0.3549 Y-0.0382
X0.3577 Y-0.0411
X0.3597 Y-0.0431
X0.3625 Y-0.0455
X0.3655 Y-0.0479
X0.3673 Y-0.0492
X0.3697 Y-0.0507
X0.3722 Y-0.0521
X0.3734 Y-0.0527
X0.377 Y-0.0544
X0.3818 Y-0.0564
X0.3853 Y-0.0576
X0.3866 Y-0.058
X0.3915 Y-0.0593
X0.3963 Y-0.0603
X0.4011 Y-0.061
X0.406 Y-0.0616
X0.4108 Y-0.062
X0.4156 Y-0.0622
X0.4204 Y-0.0623
G3 X0.4075 Y-0.0744 I-0.0004 J-0.0125
G1 Y-0.0772 Z-0.0597
X0.4074 Y-0.0799 Z-0.0588
X0.4073 Y-0.0822 Z-0.0573
X0.4072 Y-0.0842 Z-0.0553
Y-0.0857 Z-0.0529
Y-0.0866 Z-0.0503
Y-0.0869 Z-0.0475
G0 Z0.2
X0.1568 Y2.4226
Z0.062
G1 Z-0.0569 F40.38
Y2.4227 Z-0.0576
Y2.4229 Z-0.0583
X0.1567 Y2.4233 Z-0.0588
G3 X0.1565 Y2.4237 Z-0.0593 I-0.0019 J-0.0007
X0.1561 Y2.4242 Z-0.0597 I-0.0016 J-0.0011
X0.1555 Y2.4245 Z-0.0599 I-0.0012 J-0.0015
X0.1549 Y2.4246 Z-0.06 I-0.0007 J-0.0018
G1 X0.1597 Y2.4242
X0.1613 Y2.424 Z-0.0601
X0.1645 Y2.4235
X0.1694 Y2.4225
X0.1742 Y2.4211 Z-0.0602
X0.179 Y2.4193
X0.1792 Y2.4192
X0.1838 Y2.417
X0.1884 Y2.4143 Z-0.0603
X0.1887 Y2.4142
X0.1911 Y2.4125
X0.1935 Y2.4107
X0.1951 Y2.4095
X0.1983 Y2.4066 Z-0.0604
X0.2003 Y2.4047
X0.2032 Y2.4015
X0.2045 Y2.3998
X0.2063 Y2.3974 Z-0.0605
X0.208 Y2.395
Y2.3949
X0.2094 Y2.3925
X0.2107 Y2.3901
X0.2128 Y2.3857 Z-0.0606
X0.213 Y2.3853
X0.2147 Y2.3805
X0.216 Y2.3756 Z-0.0607
X0.2169 Y2.3708
X0.2174 Y2.366
X0.2175 Y2.3611 Z-0.0608
Y0.0005 Z-0.0792
X0.2174 Y-0.0044 Z-0.0793
X0.2168 Y-0.0092
X0.2159 Y-0.014
X0.2145 Y-0.0189 Z-0.0794
X0.2128 Y-0.0235
X0.2127 Y-0.0237
X0.2104 Y-0.0285 Z-0.0795
X0.208 Y-0.0327
X0.2076 Y-0.0334
X0.2059 Y-0.0358
X0.204 Y-0.0382 Z-0.0796
X0.2032 Y-0.0393
X0.1997 Y-0.0431
X0.1983 Y-0.0444
X0.1943 Y-0.0479 Z-0.0797
X0.1935 Y-0.0485
X0.1911 Y-0.0503
X0.1887 Y-0.052
X0.1874 Y-0.0527
X0.1838 Y-0.0548 Z-0.0798
X0.179 Y-0.0571
X0.1778 Y-0.0576
X0.1742 Y-0.0589
X0.1694 Y-0.0603 Z-0.0799
X0.1645 Y-0.0613
X0.1597 Y-0.062 Z-0.08
X0.1549 Y-0.0624
X0.1597 Y-0.062
X0.1645 Y-0.0613
X0.1694 Y-0.0603
X0.1742 Y-0.0589
X0.1778 Y-0.0576
X0.179 Y-0.0571
X0.1838 Y-0.0548
X0.1874 Y-0.0527
X0.1887 Y-0.052
X0.1911 Y-0.0503
X0.1935 Y-0.0485
X0.1943 Y-0.0479
X0.1983 Y-0.0444
X0.1997 Y-0.0431
X0.2032 Y-0.0393
X0.204 Y-0.0382
X0.2059 Y-0.0358
X0.2076 Y-0.0334
X0.208 Y-0.0327
X0.2104 Y-0.0285
X0.2127 Y-0.0237
X0.2128 Y-0.0235
X0.2145 Y-0.0189
X0.2159 Y-0.014
X0.2168 Y-0.0092
X0.2174 Y-0.0044
X0.2175 Y0.0005
Y2.3611
X0.2174 Y2.366
X0.2169 Y2.3708
X0.216 Y2.3756
X0.2147 Y2.3805
X0.213 Y2.3853
X0.2128 Y2.3857
X0.2107 Y2.3901
X0.2094 Y2.3925
X0.208 Y2.3949
Y2.395
X0.2063 Y2.3974
X0.2045 Y2.3998
X0.2032 Y2.4015
X0.2003 Y2.4047
X0.1983 Y2.4066
X0.1951 Y2.4095
X0.1935 Y2.4107
X0.1911 Y2.4125
X0.1887 Y2.4142
X0.1884 Y2.4143
X0.1838 Y2.417
X0.1792 Y2.4192
X0.179 Y2.4193
X0.1742 Y2.4211
X0.1694 Y2.4225
X0.1645 Y2.4235
X0.1613 Y2.424
X0.1597 Y2.4242
X0.1549 Y2.4246
G3 X0.1683 Y2.4361 I0.001 J0.0125
G1 X0.1685 Y2.4389 Z-0.0797
X0.1687 Y2.4415 Z-0.0788
X0.1689 Y2.4439 Z-0.0773
X0.169 Y2.4458 Z-0.0753
X0.1692 Y2.4473 Z-0.0729
Y2.4483 Z-0.0703
Y2.4486 Z-0.0675
G0 Z0.2
X0.4054 Y-0.1037
Z0.0324
G1 Z-0.0475 F40.38
X0.4055 Y-0.1034 Z-0.0503
Y-0.1025 Z-0.0529
X0.4057 Y-0.101 Z-0.0553
X0.4058 Y-0.099 Z-0.0573
X0.406 Y-0.0967 Z-0.0588
X0.4062 Y-0.094 Z-0.0597
X0.4065 Y-0.0913 Z-0.06
X0.4077 Y-0.0759
G3 X0.3963 Y-0.0624 I-0.0125 J0.001
G1 X0.3915 Y-0.062
X0.3866 Y-0.0613 Z-0.0601
X0.3818 Y-0.0603
X0.377 Y-0.0589 Z-0.0602
X0.3734 Y-0.0576
X0.3722 Y-0.0571
X0.3673 Y-0.0548
X0.3638 Y-0.0527 Z-0.0603
X0.3625 Y-0.0519
X0.3601 Y-0.0503
X0.3577 Y-0.0485
X0.3569 Y-0.0479
X0.3528 Y-0.0444 Z-0.0604
X0.3515 Y-0.0431
X0.348 Y-0.0393
X0.3471 Y-0.0382
X0.3453 Y-0.0358 Z-0.0605
X0.3436 Y-0.0334
X0.3432 Y-0.0327
X0.3407 Y-0.0285
X0.3384 Y-0.0237 Z-0.0606
Y-0.0235
X0.3366 Y-0.0189
X0.3353 Y-0.014 Z-0.0607
X0.3343 Y-0.0092
X0.3338 Y-0.0044
X0.3336 Y0.0005 Z-0.0608
Y2.3611 Z-0.0792
X0.3338 Y2.366 Z-0.0793
X0.3342 Y2.3708
X0.3351 Y2.3756
X0.3364 Y2.3805 Z-0.0794
X0.3382 Y2.3853
X0.3384 Y2.3857
X0.3404 Y2.3901 Z-0.0795
X0.3417 Y2.3925
X0.3432 Y2.3949
Y2.395
X0.3449 Y2.3974
X0.3467 Y2.3998 Z-0.0796
X0.348 Y2.4015
X0.3509 Y2.4047
X0.3528 Y2.4066
X0.3561 Y2.4095 Z-0.0797
X0.3577 Y2.4107
X0.3601 Y2.4125
X0.3625 Y2.4141
X0.3628 Y2.4143
X0.3673 Y2.417 Z-0.0798
X0.372 Y2.4192
X0.3722 Y2.4193
X0.377 Y2.4211
X0.3818 Y2.4225 Z-0.0799
X0.3866 Y2.4235
X0.3899 Y2.424
X0.3915 Y2.4242 Z-0.08
X0.3963 Y2.4246
X0.3915 Y2.4242
X0.3899 Y2.424
X0.3866 Y2.4235
X0.3818 Y2.4225
X0.377 Y2.4211
X0.3722 Y2.4193
X0.372 Y2.4192
X0.3673 Y2.417
X0.3628 Y2.4143
X0.3625 Y2.4141
X0.3601 Y2.4125
X0.3577 Y2.4107
X0.3561 Y2.4095
X0.3528 Y2.4066
X0.3509 Y2.4047
X0.348 Y2.4015
X0.3467 Y2.3998
X0.3449 Y2.3974
X0.3432 Y2.395
Y2.3949
X0.3417 Y2.3925
X0.3404 Y2.3901
X0.3384 Y2.3857
X0.3382 Y2.3853
X0.3364 Y2.3805
X0.3351 Y2.3756
X0.3342 Y2.3708
X0.3338 Y2.366
X0.3336 Y2.3611
Y0.0005
X0.3338 Y-0.0044
X0.3343 Y-0.0092
X0.3353 Y-0.014
X0.3366 Y-0.0189
X0.3384 Y-0.0235
Y-0.0237
X0.3407 Y-0.0285
X0.3432 Y-0.0327
X0.3436 Y-0.0334
X0.3453 Y-0.0358
X0.3471 Y-0.0382
X0.348 Y-0.0393
X0.3515 Y-0.0431
X0.3528 Y-0.0444
X0.3569 Y-0.0479
X0.3577 Y-0.0485
X0.3601 Y-0.0503
X0.3625 Y-0.0519
X0.3638 Y-0.0527
X0.3673 Y-0.0548
X0.3722 Y-0.0571
X0.3734 Y-0.0576
X0.377 Y-0.0589
X0.3818 Y-0.0603
X0.3866 Y-0.0613
X0.3915 Y-0.062
X0.3963 Y-0.0624
G3 X0.3829 Y-0.0739 I-0.001 J-0.0125
G1 X0.3827 Y-0.0767 Z-0.0797
X0.3825 Y-0.0793 Z-0.0788
X0.3823 Y-0.0817 Z-0.0773
X0.3821 Y-0.0836 Z-0.0753
X0.382 Y-0.0851 Z-0.0729
X0.3819 Y-0.086 Z-0.0703
Y-0.0864 Z-0.0675
G0 Z0.2
X0.22 Y1.8417
Z0.0488
G1 Z-0.0465 F40.38
G19 G3 Y1.8537 Z-0.059 J0.0125
G1 Y2.3611 Z-0.0767
X0.2198 Y2.366 Z-0.0769
X0.2194 Y2.3708 Z-0.077
X0.2185 Y2.3756 Z-0.0772
X0.2176 Y2.379 Z-0.0773
X0.2172 Y2.3805 Z-0.0774
X0.2155 Y2.3853 Z-0.0776
X0.2134 Y2.3901 Z-0.0778
X0.2128 Y2.3912
X0.2107 Y2.395 Z-0.0779
X0.208 Y2.399 Z-0.0781
X0.2074 Y2.3998 Z-0.0782
X0.2054 Y2.4022 Z-0.0783
X0.2033 Y2.4047 Z-0.0784
X0.2032 Y2.4048
X0.2007 Y2.4073 Z-0.0785
X0.1983 Y2.4095 Z-0.0786
X0.1959 Y2.4115 Z-0.0787
X0.1935 Y2.4132 Z-0.0788
X0.1919 Y2.4143 Z-0.0789
X0.1887 Y2.4163 Z-0.079
X0.1838 Y2.4188 Z-0.0792
X0.1831 Y2.4192
X0.179 Y2.4208 Z-0.0794
X0.1742 Y2.4224 Z-0.0796
X0.1694 Y2.4235 Z-0.0797
X0.1666 Y2.424 Z-0.0798
X0.1645 Y2.4243 Z-0.0799
X0.163 Y2.4244 Z-0.08
X0.1625 Y2.4245
X0.162
X0.163 Y2.4244
X0.1645 Y2.4243
X0.1666 Y2.424
X0.1694 Y2.4235 Z-0.0801
X0.1742 Y2.4224
X0.179 Y2.4208
X0.1831 Y2.4192 Z-0.0802
X0.1838 Y2.4188
X0.1887 Y2.4163
X0.1919 Y2.4143 Z-0.0803
X0.1935 Y2.4132
X0.1959 Y2.4115
X0.1983 Y2.4095
X0.2007 Y2.4073
X0.2032 Y2.4048 Z-0.0804
X0.2033 Y2.4047
X0.2054 Y2.4022
X0.2074 Y2.3998
X0.208 Y2.399
X0.2107 Y2.395 Z-0.0805
X0.2128 Y2.3912
X0.2134 Y2.3901
X0.2155 Y2.3853
X0.2172 Y2.3805 Z-0.0806
X0.2176 Y2.379
X0.2185 Y2.3756
X0.2194 Y2.3708 Z-0.0807
X0.2198 Y2.366
X0.22 Y2.3611
Y0.0005 Z-0.0993
X0.2198 Y-0.0044
X0.2193 Y-0.0092
X0.2184 Y-0.014 Z-0.0994
X0.2176 Y-0.0168
X0.217 Y-0.0189
X0.2153 Y-0.0237 Z-0.0995
X0.2131 Y-0.0285
X0.2128 Y-0.029
X0.2103 Y-0.0334
X0.208 Y-0.0368 Z-0.0996
X0.2069 Y-0.0382
X0.2051 Y-0.0404
X0.2032 Y-0.0426
X0.2027 Y-0.0431
X0.2005 Y-0.0453 Z-0.0997
X0.1983 Y-0.0473
X0.1976 Y-0.0479
X0.1935 Y-0.051
X0.191 Y-0.0527 Z-0.0998
X0.1887 Y-0.0541
X0.1838 Y-0.0566
X0.1818 Y-0.0576
X0.179 Y-0.0586 Z-0.0999
X0.1742 Y-0.0602
X0.1694 Y-0.0613
X0.1645 Y-0.0621 Z-0.1
X0.163 Y-0.0622
X0.1624 Y-0.0623
X0.1619
X0.1624
X0.163 Y-0.0622
X0.1645 Y-0.0621
X0.1694 Y-0.0613
X0.1742 Y-0.0602
X0.179 Y-0.0586
X0.1818 Y-0.0576
X0.1838 Y-0.0566
X0.1887 Y-0.0541
X0.191 Y-0.0527
X0.1935 Y-0.051
X0.1976 Y-0.0479
X0.1983 Y-0.0473
X0.2005 Y-0.0453
X0.2027 Y-0.0431
X0.2032 Y-0.0426
X0.2051 Y-0.0404
X0.2069 Y-0.0382
X0.208 Y-0.0368
X0.2103 Y-0.0334
X0.2128 Y-0.029
X0.2131 Y-0.0285
X0.2153 Y-0.0237
X0.217 Y-0.0189
X0.2176 Y-0.0168
X0.2184 Y-0.014
X0.2193 Y-0.0092
X0.2198 Y-0.0044
X0.22 Y0.0005
Y2.3611
X0.2198 Y2.366
X0.2194 Y2.3708
X0.2185 Y2.3756
X0.2176 Y2.379
X0.2172 Y2.3805
X0.2155 Y2.3853
X0.2134 Y2.3901
X0.2128 Y2.3912
X0.2107 Y2.395
X0.208 Y2.399
X0.2074 Y2.3998
X0.2054 Y2.4022
X0.2033 Y2.4047
X0.2032 Y2.4048
X0.2007 Y2.4073
X0.1983 Y2.4095
X0.1959 Y2.4115
X0.1935 Y2.4132
X0.1919 Y2.4143
X0.1887 Y2.4163
X0.1838 Y2.4188
X0.1831 Y2.4192
X0.179 Y2.4208
X0.1742 Y2.4224
X0.1694 Y2.4235
X0.1666 Y2.424
X0.1645 Y2.4243
X0.163 Y2.4244
X0.162 Y2.4245
G17 G3 X0.1758 Y2.4356 I0.0013 J0.0124
G1 X0.1761 Y2.4384 Z-0.0997
X0.1764 Y2.441 Z-0.0988
X0.1766 Y2.4434 Z-0.0973
X0.1768 Y2.4454 Z-0.0953
X0.177 Y2.4468 Z-0.0929
X0.1771 Y2.4478 Z-0.0903
Y2.4481 Z-0.0875
G0 Z0.2
X0.3976 Y-0.1176
Z0.0124
G1 Z-0.0675 F40.38
Y-0.1173 Z-0.0703
X0.3977 Y-0.1164 Z-0.0729
X0.3978 Y-0.1149 Z-0.0753
X0.3979 Y-0.1129 Z-0.0773
X0.3981 Y-0.1106 Z-0.0788
X0.3983 Y-0.1079 Z-0.0797
X0.3985 Y-0.1051 Z-0.08
X0.4008 Y-0.0758
G3 X0.3893 Y-0.0623 I-0.0125 J0.001
G1 X0.3888
X0.3882 Y-0.0622
X0.3866 Y-0.0621
X0.3818 Y-0.0613 Z-0.0801
X0.377 Y-0.0602
X0.3722 Y-0.0586
X0.3694 Y-0.0576 Z-0.0802
X0.3673 Y-0.0566
X0.3625 Y-0.0541
X0.3602 Y-0.0527
X0.3577 Y-0.051 Z-0.0803
X0.3536 Y-0.0479
X0.3528 Y-0.0473
X0.3506 Y-0.0453
X0.3484 Y-0.0431 Z-0.0804
X0.348 Y-0.0426
X0.3461 Y-0.0404
X0.3443 Y-0.0382
X0.3432 Y-0.0368
X0.3409 Y-0.0334 Z-0.0805
X0.3384 Y-0.029
X0.3381 Y-0.0285
X0.3359 Y-0.0237
X0.3341 Y-0.0189 Z-0.0806
X0.3335 Y-0.0168
X0.3328 Y-0.014
X0.3319 Y-0.0092 Z-0.0807
X0.3314 Y-0.0044
X0.3312 Y0.0005
Y2.3611 Z-0.0993
X0.3313 Y2.366
X0.3318 Y2.3708
X0.3327 Y2.3756 Z-0.0994
X0.3335 Y2.379
X0.334 Y2.3805
X0.3357 Y2.3853 Z-0.0995
X0.3378 Y2.3901
X0.3384 Y2.3912
X0.3405 Y2.395
X0.3432 Y2.399 Z-0.0996
X0.3438 Y2.3998
X0.3457 Y2.4022
X0.3479 Y2.4047
X0.348 Y2.4048
X0.3504 Y2.4073 Z-0.0997
X0.3528 Y2.4095
X0.3529
X0.3553 Y2.4115
X0.3577 Y2.4132
X0.3593 Y2.4143
X0.3625 Y2.4163 Z-0.0998
X0.3673 Y2.4188
X0.3681 Y2.4192
X0.3722 Y2.4208 Z-0.0999
X0.377 Y2.4224
X0.3818 Y2.4235
X0.3845 Y2.424 Z-0.1
X0.3866 Y2.4243
X0.3882 Y2.4244
X0.3891 Y2.4245
X0.3882 Y2.4244
X0.3866 Y2.4243
X0.3845 Y2.424
X0.3818 Y2.4235
X0.377 Y2.4224
X0.3722 Y2.4208
X0.3681 Y2.4192
X0.3673 Y2.4188
X0.3625 Y2.4163
X0.3593 Y2.4143
X0.3577 Y2.4132
X0.3553 Y2.4115
X0.3529 Y2.4095
X0.3528
X0.3504 Y2.4073
X0.348 Y2.4048
X0.3479 Y2.4047
X0.3457 Y2.4022
X0.3438 Y2.3998
X0.3432 Y2.399
X0.3405 Y2.395
X0.3384 Y2.3912
X0.3378 Y2.3901
X0.3357 Y2.3853
X0.334 Y2.3805
X0.3335 Y2.379
X0.3327 Y2.3756
X0.3318 Y2.3708
X0.3313 Y2.366
X0.3312 Y2.3611
Y0.0005
X0.3314 Y-0.0044
X0.3319 Y-0.0092
X0.3328 Y-0.014
X0.3335 Y-0.0168
X0.3341 Y-0.0189
X0.3359 Y-0.0237
X0.3381 Y-0.0285
X0.3384 Y-0.029
X0.3409 Y-0.0334
X0.3432 Y-0.0368
X0.3443 Y-0.0382
X0.3461 Y-0.0404
X0.348 Y-0.0426
X0.3484 Y-0.0431
X0.3506 Y-0.0453
X0.3528 Y-0.0473
X0.3536 Y-0.0479
X0.3577 Y-0.051
X0.3602 Y-0.0527
X0.3625 Y-0.0541
X0.3673 Y-0.0566
X0.3694 Y-0.0576
X0.3722 Y-0.0586
X0.377 Y-0.0602
X0.3818 Y-0.0613
X0.3866 Y-0.0621
X0.3882 Y-0.0622
X0.3888 Y-0.0623
X0.3893
G3 X0.3756 Y-0.0735 I-0.0013 J-0.0124
G1 X0.3753 Y-0.0762 Z-0.0997
X0.375 Y-0.0789 Z-0.0988
X0.3748 Y-0.0812 Z-0.0973
X0.3746 Y-0.0832 Z-0.0953
X0.3744 Y-0.0847 Z-0.0929
X0.3743 Y-0.0856 Z-0.0903
Y-0.0859 Z-0.0875
G0 Z0.2
X0.155 Y2.4897
Z-0.0057
G1 Z-0.0856 F40.38
X0.1549 Y2.4894 Z-0.0884
Y2.4885 Z-0.091
X0.1547 Y2.487 Z-0.0934
X0.1546 Y2.485 Z-0.0954
X0.1544 Y2.4827 Z-0.0969
X0.1542 Y2.48 Z-0.0978
X0.1539 Y2.4773 Z-0.0981
X0.1507 Y2.438
G3 X0.1621 Y2.4245 I0.0125 J-0.001
G1 X0.1631
X0.1645 Y2.4243
X0.1668 Y2.424
X0.1694 Y2.4236 Z-0.0982
X0.1742 Y2.4224
X0.179 Y2.4209
X0.1832 Y2.4192 Z-0.0983
X0.1838 Y2.4189
X0.1887 Y2.4164
X0.192 Y2.4143 Z-0.0984
X0.1935 Y2.4133
X0.1959 Y2.4115
X0.1983 Y2.4095
X0.2007 Y2.4073
X0.2032 Y2.4049 Z-0.0985
X0.2033 Y2.4047
X0.2055 Y2.4022
X0.2074 Y2.3998
X0.208 Y2.399
X0.2107 Y2.395 Z-0.0986
X0.2128 Y2.3913
X0.2134 Y2.3901
X0.2156 Y2.3853 Z-0.0987
X0.2173 Y2.3805
X0.2176 Y2.3791
X0.2185 Y2.3756
X0.2194 Y2.3708 Z-0.0988
X0.2199 Y2.366
X0.22 Y2.3611 Z-0.0989
Y0.0005 Z-0.1174
X0.2198 Y-0.0044
X0.2193 Y-0.0092 Z-0.1175
X0.2184 Y-0.014
X0.2176 Y-0.0169
X0.2171 Y-0.0189
X0.2153 Y-0.0237 Z-0.1176
X0.2131 Y-0.0285
X0.2128 Y-0.0291
X0.2103 Y-0.0334 Z-0.1177
X0.208 Y-0.0368
X0.2069 Y-0.0382
X0.2051 Y-0.0404
X0.2032 Y-0.0427
X0.2028 Y-0.0431 Z-0.1178
X0.2006 Y-0.0453
X0.1983 Y-0.0473
X0.1976 Y-0.0479
X0.1935 Y-0.0511
X0.191 Y-0.0527 Z-0.1179
X0.1887 Y-0.0542
X0.1838 Y-0.0567
X0.1818 Y-0.0576 Z-0.118
X0.179 Y-0.0587
X0.1742 Y-0.0602
X0.1694 Y-0.0614 Z-0.1181
X0.1645 Y-0.0621
X0.1631 Y-0.0623
X0.1624
X0.1631
X0.1645 Y-0.0621
X0.1694 Y-0.0614
X0.1742 Y-0.0602
X0.179 Y-0.0587
X0.1818 Y-0.0576
X0.1838 Y-0.0567
X0.1887 Y-0.0542
X0.191 Y-0.0527
X0.1935 Y-0.0511
X0.1976 Y-0.0479
X0.1983 Y-0.0473
X0.2006 Y-0.0453
X0.2028 Y-0.0431
X0.2032 Y-0.0427
X0.2051 Y-0.0404
X0.2069 Y-0.0382
X0.208 Y-0.0368
X0.2103 Y-0.0334
X0.2128 Y-0.0291
X0.2131 Y-0.0285
X0.2153 Y-0.0237
X0.2171 Y-0.0189
X0.2176 Y-0.0169
X0.2184 Y-0.014
X0.2193 Y-0.0092
X0.2198 Y-0.0044
X0.22 Y0.0005
Y2.3611
X0.2199 Y2.366
X0.2194 Y2.3708
X0.2185 Y2.3756
X0.2176 Y2.3791
X0.2173 Y2.3805
X0.2156 Y2.3853
X0.2134 Y2.3901
X0.2128 Y2.3913
X0.2107 Y2.395
X0.208 Y2.399
X0.2074 Y2.3998
X0.2055 Y2.4022
X0.2033 Y2.4047
X0.2032 Y2.4049
X0.2007 Y2.4073
X0.1983 Y2.4095
X0.1959 Y2.4115
X0.1935 Y2.4133
X0.192 Y2.4143
X0.1887 Y2.4164
X0.1838 Y2.4189
X0.1832 Y2.4192
X0.179 Y2.4209
X0.1742 Y2.4224
X0.1694 Y2.4236
X0.1668 Y2.424
X0.1645 Y2.4243
X0.1631 Y2.4245
X0.1621
G3 X0.1759 Y2.4357 I0.0013 J0.0124
G1 X0.1762 Y2.4384 Z-0.1178
X0.1765 Y2.441 Z-0.1169
X0.1767 Y2.4434 Z-0.1154
X0.1769 Y2.4454 Z-0.1134
X0.1771 Y2.4469 Z-0.111
X0.1772 Y2.4478 Z-0.1084
Y2.4481 Z-0.1056
G0 Z0.2
X0.3943 Y-0.1272
Z-0.0058
G1 Z-0.0856 F40.38
Y-0.1269 Z-0.0884
X0.3944 Y-0.126 Z-0.091
X0.3946 Y-0.1245 Z-0.0934
X0.3948 Y-0.1225 Z-0.0954
X0.3951 Y-0.1202 Z-0.0969
X0.3953 Y-0.1175 Z-0.0978
X0.3956 Y-0.1148 Z-0.0981
X0.3998 Y-0.0761
G3 X0.3887 Y-0.0623 I-0.0124 J0.0013
G1 X0.3881 Y-0.0622
X0.3866 Y-0.0621
X0.3818 Y-0.0614 Z-0.0982
X0.377 Y-0.0602
X0.3722 Y-0.0587
X0.3694 Y-0.0576 Z-0.0983
X0.3673 Y-0.0567
X0.3625 Y-0.0542
X0.3601 Y-0.0527
X0.3577 Y-0.0511 Z-0.0984
X0.3535 Y-0.0479
X0.3528 Y-0.0473
X0.3506 Y-0.0453
X0.3484 Y-0.0431 Z-0.0985
X0.348 Y-0.0426
X0.346 Y-0.0404
X0.3442 Y-0.0382
X0.3432 Y-0.0368
X0.3409 Y-0.0334 Z-0.0986
X0.3384 Y-0.029
X0.3381 Y-0.0285
X0.3359 Y-0.0237 Z-0.0987
X0.3341 Y-0.0189
X0.3335 Y-0.0169
X0.3328 Y-0.014
X0.3319 Y-0.0092 Z-0.0988
X0.3314 Y-0.0044
X0.3312 Y0.0005
Y2.3611 Z-0.1174
X0.3313 Y2.366
X0.3318 Y2.3708
X0.3327 Y2.3756 Z-0.1175
X0.3335 Y2.3791
X0.3339 Y2.3805
X0.3356 Y2.3853 Z-0.1176
X0.3378 Y2.3901
X0.3384 Y2.3912
X0.3405 Y2.395
X0.3432 Y2.399 Z-0.1177
X0.3438 Y2.3998
X0.3457 Y2.4022
X0.3478 Y2.4047
X0.348 Y2.4049
X0.3504 Y2.4073 Z-0.1178
X0.3528 Y2.4095
X0.3553 Y2.4115
X0.3577 Y2.4133
X0.3592 Y2.4143 Z-0.1179
X0.3625 Y2.4164
X0.3673 Y2.4189
X0.368 Y2.4192
X0.3722 Y2.4209 Z-0.118
X0.377 Y2.4224
X0.3818 Y2.4236 Z-0.1181
X0.3844 Y2.424
X0.3866 Y2.4243
X0.3881 Y2.4245
X0.389
X0.3881
X0.3866 Y2.4243
X0.3844 Y2.424
X0.3818 Y2.4236
X0.377 Y2.4224
X0.3722 Y2.4209
X0.368 Y2.4192
X0.3673 Y2.4189
X0.3625 Y2.4164
X0.3592 Y2.4143
X0.3577 Y2.4133
X0.3553 Y2.4115
X0.3528 Y2.4095
X0.3504 Y2.4073
X0.348 Y2.4049
X0.3478 Y2.4047
X0.3457 Y2.4022
X0.3438 Y2.3998
X0.3432 Y2.399
X0.3405 Y2.395
X0.3384 Y2.3912
X0.3378 Y2.3901
X0.3356 Y2.3853
X0.3339 Y2.3805
X0.3335 Y2.3791
X0.3327 Y2.3756
X0.3318 Y2.3708
X0.3313 Y2.366
X0.3312 Y2.3611
Y0.0005
X0.3314 Y-0.0044
X0.3319 Y-0.0092
X0.3328 Y-0.014
X0.3335 Y-0.0169
X0.3341 Y-0.0189
X0.3359 Y-0.0237
X0.3381 Y-0.0285
X0.3384 Y-0.029
X0.3409 Y-0.0334
X0.3432 Y-0.0368
X0.3442 Y-0.0382
X0.346 Y-0.0404
X0.348 Y-0.0426
X0.3484 Y-0.0431
X0.3506 Y-0.0453
X0.3528 Y-0.0473
X0.3535 Y-0.0479
X0.3577 Y-0.0511
X0.3601 Y-0.0527
X0.3625 Y-0.0542
X0.3673 Y-0.0567
X0.3694 Y-0.0576
X0.3722 Y-0.0587
X0.377 Y-0.0602
X0.3818 Y-0.0614
X0.3866 Y-0.0621
X0.3881 Y-0.0622
X0.3887 Y-0.0623
G3 X0.375 Y-0.0734 I-0.0013 J-0.0124
G1 X0.3747 Y-0.0762 Z-0.1178
X0.3744 Y-0.0788 Z-0.1169
X0.3741 Y-0.0811 Z-0.1154
X0.3739 Y-0.0831 Z-0.1134
X0.3738 Y-0.0846 Z-0.111
X0.3737 Y-0.0855 Z-0.1084
X0.3736 Y-0.0858 Z-0.1056
G0 Z0.2
X0.2739 Y-0.0708
Z-0.0546
G1 Z-0.1056 F40.38
G19 G3 Y-0.0583 Z-0.1181 J0.0125
G17 G3 X0.2614 Y-0.0458 I-0.0125
G1 X0.2 Z-0.1203
X0.1999 Y-0.0459
X0.1998 Y-0.046
X0.1995 Y-0.0462
X0.1983 Y-0.0473
X0.1976 Y-0.0479 Z-0.1204
X0.1935 Y-0.0511 Z-0.1205
X0.191 Y-0.0527 Z-0.1207
X0.1887 Y-0.0542
X0.1838 Y-0.0567 Z-0.1209
X0.1818 Y-0.0576 Z-0.121
X0.179 Y-0.0587 Z-0.1211
X0.1742 Y-0.0602 Z-0.1213
X0.1694 Y-0.0614 Z-0.1215
X0.1645 Y-0.0621 Z-0.1216
X0.1631 Y-0.0623 Z-0.1217
X0.1624
X0.1631
X0.1645 Y-0.0621 Z-0.1218
X0.1694 Y-0.0614 Z-0.122
X0.1742 Y-0.0602 Z-0.1221
X0.179 Y-0.0587 Z-0.1223
X0.1818 Y-0.0576 Z-0.1224
X0.1838 Y-0.0567 Z-0.1225
X0.1887 Y-0.0542 Z-0.1227
X0.191 Y-0.0527 Z-0.1228
X0.1935 Y-0.0511 Z-0.1229
X0.1976 Y-0.0479 Z-0.1231
X0.1983 Y-0.0473
X0.1995 Y-0.0462 Z-0.1232
X0.1998 Y-0.046
X0.1999 Y-0.0459
X0.2 Y-0.0458
X0.3512 Z-0.1285
X0.3513 Y-0.0459
X0.3516 Y-0.0462
X0.3528 Y-0.0473
X0.3535 Y-0.0479 Z-0.1286
X0.3577 Y-0.0511 Z-0.1287
X0.3601 Y-0.0527 Z-0.1288
X0.3625 Y-0.0542 Z-0.1289
X0.3673 Y-0.0567 Z-0.1291
X0.3694 Y-0.0576 Z-0.1292
X0.3722 Y-0.0587 Z-0.1293
X0.377 Y-0.0602 Z-0.1295
X0.3818 Y-0.0614 Z-0.1297
X0.3866 Y-0.0621 Z-0.1298
X0.3881 Y-0.0622 Z-0.1299
X0.3887 Y-0.0623
X0.3881 Y-0.0622
X0.3866 Y-0.0621 Z-0.13
X0.3818 Y-0.0614 Z-0.1302
X0.377 Y-0.0602 Z-0.1303
X0.3722 Y-0.0587 Z-0.1305
X0.3694 Y-0.0576 Z-0.1306
X0.3673 Y-0.0567 Z-0.1307
X0.3625 Y-0.0542 Z-0.1309
X0.3601 Y-0.0527 Z-0.131
X0.3577 Y-0.0511 Z-0.1311
X0.3535 Y-0.0479 Z-0.1313
X0.3528 Y-0.0473
X0.3516 Y-0.0462 Z-0.1314
X0.3513 Y-0.0459
X0.3512 Y-0.0458
X0.2 Z-0.1367
X0.1999 Y-0.0459
X0.1998 Y-0.046
X0.1995 Y-0.0462
X0.1983 Y-0.0473
X0.1976 Y-0.0479 Z-0.1368
X0.1935 Y-0.0511 Z-0.1369
X0.191 Y-0.0527 Z-0.137
X0.1887 Y-0.0542 Z-0.1371
X0.1838 Y-0.0567 Z-0.1373
X0.1818 Y-0.0576 Z-0.1374
X0.179 Y-0.0587 Z-0.1375
X0.1742 Y-0.0602 Z-0.1377
X0.1694 Y-0.0614 Z-0.1379
X0.1645 Y-0.0621 Z-0.138
X0.1631 Y-0.0623 Z-0.1381
X0.1624
X0.1631
X0.1645 Y-0.0621
X0.1694 Y-0.0614
X0.1742 Y-0.0602
X0.179 Y-0.0587
X0.1818 Y-0.0576
X0.1838 Y-0.0567
X0.1887 Y-0.0542
X0.191 Y-0.0527
X0.1935 Y-0.0511
X0.1976 Y-0.0479
X0.1983 Y-0.0473
X0.1995 Y-0.0462
X0.1998 Y-0.046
X0.1999 Y-0.0459
X0.2 Y-0.0458
X0.3512
X0.3513 Y-0.0459
X0.3516 Y-0.0462
X0.3528 Y-0.0473
X0.3535 Y-0.0479
X0.3577 Y-0.0511
X0.3601 Y-0.0527
X0.3625 Y-0.0542
X0.3673 Y-0.0567
X0.3694 Y-0.0576
X0.3722 Y-0.0587
X0.377 Y-0.0602
X0.3818 Y-0.0614
X0.3866 Y-0.0621
X0.3881 Y-0.0622
X0.3887 Y-0.0623
G3 X0.375 Y-0.0734 I-0.0013 J-0.0124
G1 X0.3747 Y-0.0762 Z-0.1378
X0.3744 Y-0.0788 Z-0.1369
X0.3741 Y-0.0811 Z-0.1354
X0.3739 Y-0.0831 Z-0.1334
X0.3738 Y-0.0846 Z-0.131
X0.3737 Y-0.0855 Z-0.1284
X0.3736 Y-0.0858 Z-0.1256
G0 Z0.2
X0.2925 Y-0.0881
Z-0.0458
G1 Z-0.1256 F40.38
G19 G3 Y-0.0756 Z-0.1381 J0.0125
G1 Y-0.0708
G17 G3 X0.28 Y-0.0583 I-0.0125
G1 X0.18 Z-0.1416
X0.1799
X0.1796 Y-0.0584
X0.179 Y-0.0587
X0.1742 Y-0.0602 Z-0.1418
X0.1694 Y-0.0614 Z-0.142
X0.1645 Y-0.0621 Z-0.1422
X0.1631 Y-0.0623
X0.1624
X0.1631 Z-0.1423
X0.1645 Y-0.0621
X0.1694 Y-0.0614 Z-0.1425
X0.1742 Y-0.0602 Z-0.1427
X0.179 Y-0.0587 Z-0.1428
X0.1796 Y-0.0584 Z-0.1429
X0.1799 Y-0.0583
X0.18
X0.3712 Z-0.1495
X0.3715 Y-0.0584 Z-0.1496
X0.3722 Y-0.0587
X0.377 Y-0.0602 Z-0.1498
X0.3818 Y-0.0614 Z-0.1499
X0.3866 Y-0.0621 Z-0.1501
X0.3881 Y-0.0622
X0.3887 Y-0.0623 Z-0.1502
X0.3881 Y-0.0622
X0.3866 Y-0.0621
X0.3818 Y-0.0614 Z-0.1504
X0.377 Y-0.0602 Z-0.1506
X0.3722 Y-0.0587 Z-0.1508
X0.3715 Y-0.0584
X0.3712 Y-0.0583
X0.18 Z-0.1575
X0.1799
X0.1796 Y-0.0584
X0.179 Y-0.0587
X0.1742 Y-0.0602 Z-0.1577
X0.1694 Y-0.0614 Z-0.1579
X0.1645 Y-0.0621 Z-0.158
X0.1631 Y-0.0623 Z-0.1581
X0.1624
X0.1631
X0.1645 Y-0.0621
X0.1694 Y-0.0614
X0.1742 Y-0.0602
X0.179 Y-0.0587
X0.1796 Y-0.0584
X0.1799 Y-0.0583
X0.18
X0.3712
X0.3715 Y-0.0584
X0.3722 Y-0.0587
X0.377 Y-0.0602
X0.3818 Y-0.0614
X0.3866 Y-0.0621
X0.3881 Y-0.0622
X0.3887 Y-0.0623
G3 X0.375 Y-0.0734 I-0.0013 J-0.0124
G1 X0.3747 Y-0.0762 Z-0.1578
X0.3744 Y-0.0788 Z-0.1569
X0.3741 Y-0.0811 Z-0.1554
X0.3739 Y-0.0831 Z-0.1534
X0.3738 Y-0.0846 Z-0.151
X0.3737 Y-0.0855 Z-0.1484
X0.3736 Y-0.0858 Z-0.1456
G0 Z0.2
X1.162 Y2.4169
Z0.0677
G1 Z-0.028 F40.38
Y2.417 Z-0.0293
Y2.4172 Z-0.0307
Y2.4176 Z-0.032
G3 X1.1619 Y2.4181 Z-0.0332 I-0.0076 J-0.0007
X1.1618 Y2.4187 Z-0.0344 I-0.0076 J-0.0012
X1.1616 Y2.4195 Z-0.0355 I-0.0074 J-0.0018
X1.1612 Y2.4203 Z-0.0365 I-0.0072 J-0.0026
X1.1607 Y2.4212 Z-0.0374 I-0.0069 J-0.0034
X1.16 Y2.422 Z-0.0382 I-0.0064 J-0.0043
X1.1592 Y2.4228 Z-0.0388 I-0.0057 J-0.0051
X1.1582 Y2.4235 Z-0.0393 I-0.0048 J-0.0059
X1.157 Y2.4241 Z-0.0397 I-0.0038 J-0.0066
X1.1557 Y2.4244 Z-0.0399 I-0.0026 J-0.0072
X1.1544 Y2.4245 Z-0.04 I-0.0013 J-0.0075
G1 X1.1592 Y2.4244
X1.164 Y2.4242 Z-0.0401
X1.1662 Y2.424
X1.1689 Y2.4238
X1.1737 Y2.4232
X1.1785 Y2.4225 Z-0.0402
X1.1833 Y2.4215
X1.1882 Y2.4202 Z-0.0403
X1.1913 Y2.4192
X1.193 Y2.4186
X1.1978 Y2.4166
X1.2026 Y2.4143 Z-0.0404
X1.2027
X1.2051 Y2.4129
X1.2075 Y2.4114
X1.2101 Y2.4095 Z-0.0405
X1.2123 Y2.4078
X1.2158 Y2.4047
X1.2171 Y2.4033
X1.2204 Y2.3998 Z-0.0406
X1.222 Y2.3979
X1.2241 Y2.395
X1.2268 Y2.3908
X1.2272 Y2.3901 Z-0.0407
X1.2296 Y2.3853
X1.2315 Y2.3805
X1.2316 Y2.3802
X1.2329 Y2.3756 Z-0.0408
X1.2339 Y2.3708
X1.2344 Y2.366 Z-0.0409
X1.2346 Y2.3611
Y0.0005 Z-0.0591
X1.2344 Y-0.0044 Z-0.0592
X1.2338 Y-0.0092
X1.2328 Y-0.014
X1.2316 Y-0.018 Z-0.0593
X1.2313 Y-0.0189
X1.2294 Y-0.0237
X1.2268 Y-0.0285 Z-0.0594
Y-0.0286
X1.2253 Y-0.031
X1.2237 Y-0.0334
X1.222 Y-0.0357
X1.2199 Y-0.0382
X1.2171 Y-0.0411 Z-0.0595
X1.2152 Y-0.0431
X1.2123 Y-0.0455
X1.2093 Y-0.0479 Z-0.0596
X1.2075 Y-0.0492
X1.2051 Y-0.0507
X1.2027 Y-0.0521
X1.2014 Y-0.0527
X1.1978 Y-0.0544 Z-0.0597
X1.193 Y-0.0564
X1.1895 Y-0.0576
X1.1882 Y-0.058
X1.1833 Y-0.0593 Z-0.0598
X1.1785 Y-0.0603
X1.1737 Y-0.061 Z-0.0599
X1.1689 Y-0.0616
X1.164 Y-0.062
X1.1592 Y-0.0622 Z-0.06
X1.1544 Y-0.0623
X1.1592 Y-0.0622
X1.164 Y-0.062
X1.1689 Y-0.0616
X1.1737 Y-0.061
X1.1785 Y-0.0603
X1.1833 Y-0.0593
X1.1882 Y-0.058
X1.1895 Y-0.0576
X1.193 Y-0.0564
X1.1978 Y-0.0544
X1.2014 Y-0.0527
X1.2027 Y-0.0521
X1.2051 Y-0.0507
X1.2075 Y-0.0492
X1.2093 Y-0.0479
X1.2123 Y-0.0455
X1.2152 Y-0.0431
X1.2171 Y-0.0411
X1.2199 Y-0.0382
X1.222 Y-0.0357
X1.2237 Y-0.0334
X1.2253 Y-0.031
X1.2268 Y-0.0286
Y-0.0285
X1.2294 Y-0.0237
X1.2313 Y-0.0189
X1.2316 Y-0.018
X1.2328 Y-0.014
X1.2338 Y-0.0092
X1.2344 Y-0.0044
X1.2346 Y0.0005
Y2.3611
X1.2344 Y2.366
X1.2339 Y2.3708
X1.2329 Y2.3756
X1.2316 Y2.3802
X1.2315 Y2.3805
X1.2296 Y2.3853
X1.2272 Y2.3901
X1.2268 Y2.3908
X1.2241 Y2.395
X1.222 Y2.3979
X1.2204 Y2.3998
X1.2171 Y2.4033
X1.2158 Y2.4047
X1.2123 Y2.4078
X1.2101 Y2.4095
X1.2075 Y2.4114
X1.2051 Y2.4129
X1.2027 Y2.4143
X1.2026
X1.1978 Y2.4166
X1.193 Y2.4186
X1.1913 Y2.4192
X1.1882 Y2.4202
X1.1833 Y2.4215
X1.1785 Y2.4225
X1.1737 Y2.4232
X1.1689 Y2.4238
X1.1662 Y2.424
X1.164 Y2.4242
X1.1592 Y2.4244
X1.1544 Y2.4245
G3 X1.1673 Y2.4366 I0.0004 J0.0125
G1 Y2.4394 Z-0.0597
X1.1674 Y2.4421 Z-0.0588
X1.1675 Y2.4444 Z-0.0573
X1.1676 Y2.4464 Z-0.0553
Y2.4479 Z-0.0529
Y2.4488 Z-0.0503
Y2.4491 Z-0.0475
G0 Z0.2
X1.4223 Y0.0033
Z0.0767
G1 Z0.0125 F40.38
G18 G3 X1.4098 Z0 I-0.0125
G17 G3 X1.3973 Y-0.0092 J-0.0125
G1 X1.3988 Y-0.014
X1.4006 Y-0.018
X1.4011 Y-0.0189
X1.4026 Y-0.0213 Z-0.0001
X1.4043 Y-0.0237
X1.4054 Y-0.0251
X1.4088 Y-0.0285
X1.4103 Y-0.0299
X1.4146 Y-0.0334
X1.4151 Y-0.0337
X1.4199 Y-0.037
X1.4222 Y-0.0382
X1.4248 Y-0.0394 Z-0.0002
X1.4296 Y-0.0412
X1.4344 Y-0.0427
X1.4355 Y-0.0431
X1.4392 Y-0.044
X1.4441 Y-0.0448
X1.4489 Y-0.0453 Z-0.0003
X1.4537 Y-0.0457
X1.4586 Y-0.0458
X1.5744 Z-0.0007
X1.5793 Y-0.0456
X1.5841 Y-0.0449 Z-0.0008
X1.5889 Y-0.0436
X1.5905 Y-0.0431
X1.5938 Y-0.0417
X1.5962 Y-0.0405
X1.5986 Y-0.0392
X1.6001 Y-0.0382
X1.6034 Y-0.0358
X1.6062 Y-0.0334 Z-0.0009
X1.6082 Y-0.0313
X1.6107 Y-0.0285
X1.6131 Y-0.0252
X1.614 Y-0.0237
X1.6154 Y-0.0213
X1.6166 Y-0.0189
X1.6179 Y-0.0156
X1.6184 Y-0.014 Z-0.001
X1.6197 Y-0.0092
X1.6204 Y-0.0044
X1.6206 Y0.0005
Y2.3611 Z-0.01
X1.6205 Y2.366
X1.6198 Y2.3708
X1.6186 Y2.3756
X1.6179 Y2.3778
X1.6168 Y2.3805
X1.6144 Y2.3853 Z-0.0101
X1.6131 Y2.3874
X1.6111 Y2.3901
X1.6082 Y2.3935
X1.6068 Y2.395
X1.6034 Y2.398
X1.601 Y2.3998
X1.5986 Y2.4014
X1.5962 Y2.4027 Z-0.0102
X1.5938 Y2.4039
X1.5921 Y2.4047
X1.5889 Y2.4058
X1.5841 Y2.4071
X1.5793 Y2.4078
X1.5744 Y2.408
X1.4586 Z-0.0107
X1.4537 Y2.4079
X1.4489 Y2.4075
X1.4441 Y2.407
X1.4392 Y2.4062 Z-0.0108
X1.4344 Y2.4049
X1.4336 Y2.4047
X1.4296 Y2.4034
X1.4248 Y2.4016
X1.4211 Y2.3998
X1.4199 Y2.3992
X1.4151 Y2.3959 Z-0.0109
X1.4139 Y2.395
X1.4103 Y2.3921
X1.4082 Y2.3901
X1.4054 Y2.3873
X1.4039 Y2.3853
X1.4022 Y2.3829
X1.4008 Y2.3805
X1.4006 Y2.3802
X1.3986 Y2.3756 Z-0.011
X1.3972 Y2.3708
X1.3964 Y2.366
X1.3962 Y2.3611
Y0.0005 Z-0.02
X1.3964 Y-0.0044
X1.3973 Y-0.0092
X1.3981 Y-0.0121
X1.3992 Y-0.015
X1.4 Y-0.0167
X1.4008 Y-0.0184
X1.4017 Y-0.02
X1.4027 Y-0.0216 Z-0.0201
X1.4037 Y-0.023
X1.4047 Y-0.0243
X1.4069 Y-0.0269
X1.4094 Y-0.0292
X1.412 Y-0.0315
X1.4152 Y-0.0339
X1.4185 Y-0.0362
X1.4202 Y-0.0373
X1.4219 Y-0.0382
X1.4255 Y-0.0399 Z-0.0202
X1.4275 Y-0.0407
X1.4296 Y-0.0414
X1.4337 Y-0.0427
X1.4382 Y-0.044
X1.4405 Y-0.0445
X1.4428 Y-0.0449
X1.4517 Y-0.0458 Z-0.0203
X1.4612 Y-0.0461
X1.5111 Y-0.0463 Z-0.0205
X1.5609 Y-0.0464 Z-0.0207
X1.5709 Y-0.0465
X1.5752
X1.5773 Y-0.0464
X1.5795 Y-0.0463
X1.5834 Y-0.0457 Z-0.0208
X1.5873 Y-0.0448
X1.591 Y-0.0436
X1.5946 Y-0.0421
X1.5982 Y-0.0403
X1.6016 Y-0.0381
X1.6033 Y-0.0369
X1.6049 Y-0.0356
X1.6064 Y-0.0342
X1.6079 Y-0.0328 Z-0.0209
X1.6106 Y-0.0298
X1.6131 Y-0.0266
X1.6152 Y-0.0233
X1.6171 Y-0.0197
X1.6186 Y-0.016
X1.6199 Y-0.0122
X1.6208 Y-0.0083 Z-0.021
X1.6213 Y-0.0043
X1.6215 Y-0.0022
Y0
X1.6217 Y0.0442 Z-0.0212
X1.6218 Y0.0941 Z-0.0213
X1.622 Y0.1439 Z-0.0215
X1.6222 Y0.1938 Z-0.0217
X1.6223 Y0.2437 Z-0.0219
X1.6225 Y0.2936 Z-0.0221
X1.6226 Y0.3434 Z-0.0223
X1.6228 Y0.3933 Z-0.0225
X1.6229 Y0.4432 Z-0.0226
X1.6231 Y0.4931 Z-0.0228
X1.6233 Y0.5429 Z-0.023
X1.6234 Y0.5928 Z-0.0232
X1.6236 Y0.6427 Z-0.0234
X1.6237 Y0.6925 Z-0.0236
X1.6238 Y0.7424 Z-0.0238
X1.624 Y0.7923 Z-0.0239
X1.6241 Y0.8422 Z-0.0241
X1.6243 Y0.892 Z-0.0243
X1.6244 Y0.9419 Z-0.0245
X1.6246 Y0.9918 Z-0.0247
X1.6247 Y1.0417 Z-0.0249
X1.6248 Y1.0915 Z-0.0251
X1.625 Y1.1414 Z-0.0252
X1.6251 Y1.1913 Z-0.0254
X1.6253 Y1.2412 Z-0.0256
X1.6254 Y1.291 Z-0.0258
X1.6255 Y1.3409 Z-0.026
X1.6257 Y1.3908 Z-0.0262
X1.6258 Y1.4407 Z-0.0264
X1.6259 Y1.4905 Z-0.0265
X1.6261 Y1.5404 Z-0.0267
X1.6262 Y1.6003 Z-0.027
X1.6264 Y1.6601 Z-0.0272
X1.6265 Y1.72 Z-0.0274
X1.6267 Y1.7798 Z-0.0276
X1.6268 Y1.8397 Z-0.0278
X1.627 Y1.8995 Z-0.0281
X1.6271 Y1.9594 Z-0.0283
X1.6273 Y2.0192 Z-0.0285
X1.6274 Y2.0791 Z-0.0287
X1.6275 Y2.1389 Z-0.029
X1.6277 Y2.1988 Z-0.0292
X1.6278 Y2.2586 Z-0.0294
X1.628 Y2.3184 Z-0.0296
X1.6281 Y2.3583 Z-0.0298
Y2.3631
X1.6278 Y2.3678
X1.6271 Y2.3723
X1.6261 Y2.3767
X1.6247 Y2.381 Z-0.0299
X1.6229 Y2.3852
X1.6208 Y2.3892
X1.6183 Y2.3931
X1.6155 Y2.3967
X1.6123 Y2.4001
X1.609 Y2.4032 Z-0.03
X1.6054 Y2.4059
X1.6016 Y2.4084
X1.5975 Y2.4105
X1.5932 Y2.4123
X1.5889 Y2.4137
X1.5844 Y2.4148 Z-0.0301
X1.5799 Y2.4154
X1.5752 Y2.4156
X1.5705 Y2.4157
X1.5106 Y2.4158 Z-0.0303
X1.4608 Y2.4159 Z-0.0305
X1.451 Y2.4157 Z-0.0306
X1.4462 Y2.4154
X1.4414 Y2.4149
X1.4366 Y2.4141
X1.4318 Y2.4132
X1.4295 Y2.4127
X1.4272 Y2.4121
X1.4228 Y2.4105 Z-0.0307
X1.4143 Y2.407
X1.4102 Y2.4049
X1.4082 Y2.4037
X1.4063 Y2.4024
X1.4029 Y2.3998 Z-0.0308
X1.3996 Y2.3969
X1.3965 Y2.3937
X1.3936 Y2.3904
X1.3923 Y2.3887
X1.391 Y2.3868
X1.3899 Y2.385
X1.3888 Y2.383
X1.3878 Y2.3811
X1.387 Y2.3792
X1.3862 Y2.3772 Z-0.0309
X1.3856 Y2.3752
X1.385 Y2.3732
X1.3845 Y2.3711
X1.3839 Y2.367
X1.3837 Y2.3647
X1.3836 Y2.3625
Y2.3579
X1.3834 Y2.308 Z-0.0311
X1.3832 Y2.2582 Z-0.0313
X1.3831 Y2.2083 Z-0.0315
X1.3829 Y2.1584 Z-0.0317
X1.3827 Y2.1085 Z-0.0319
X1.3826 Y2.0587 Z-0.032
X1.3824 Y2.0088 Z-0.0322
X1.3822 Y1.9589 Z-0.0324
X1.3821 Y1.9091 Z-0.0326
X1.3819 Y1.8592 Z-0.0328
X1.3817 Y1.8093 Z-0.033
X1.3816 Y1.7594 Z-0.0332
X1.3814 Y1.7096 Z-0.0333
X1.3813 Y1.6597 Z-0.0335
X1.3811 Y1.6098 Z-0.0337
X1.3809 Y1.5599 Z-0.0339
X1.3808 Y1.5101 Z-0.0341
X1.3806 Y1.4602 Z-0.0343
X1.3804 Y1.4003 Z-0.0345
X1.3762 Y0.0039 Z-0.0397
Y-0.0011
X1.3763 Y-0.0036
X1.3765 Y-0.0061
X1.3769 Y-0.0085
X1.3774 Y-0.011 Z-0.0398
X1.3787 Y-0.0157
X1.3796 Y-0.0181
X1.3805 Y-0.0204
X1.3827 Y-0.0248
X1.384 Y-0.027
X1.3854 Y-0.0291
X1.3868 Y-0.0311
X1.3883 Y-0.0331
X1.3899 Y-0.035 Z-0.0399
X1.3916 Y-0.0368
X1.3953 Y-0.0402
X1.3972 Y-0.0417
X1.3993 Y-0.0432
X1.4035 Y-0.0458
X1.4078 Y-0.0483
X1.4123 Y-0.0505 Z-0.04
X1.4169 Y-0.0523
X1.4217 Y-0.0538
X1.4234 Y-0.0542
X1.4248 Y-0.0546
X1.4296 Y-0.0558
X1.4344 Y-0.0566
X1.4392 Y-0.0572
X1.4418 Y-0.0576
X1.4441 Y-0.0578
X1.4489 Y-0.0581
X1.4537 Y-0.0582
X1.4586 Y-0.0583
X1.5744
X1.5793 Y-0.0581
X1.5841 Y-0.0576
X1.5889 Y-0.0566
X1.5938 Y-0.0551
X1.5986 Y-0.0532
X1.5997 Y-0.0527
X1.6034 Y-0.0508
X1.6057 Y-0.0494
X1.6081 Y-0.0479
X1.6082 Y-0.0478
X1.6107 Y-0.046
X1.6131 Y-0.044
X1.6141 Y-0.0431
X1.6179 Y-0.0393
X1.6188 Y-0.0382
X1.6208 Y-0.0358
X1.6226 Y-0.0334
X1.6227 Y-0.0332
X1.6243 Y-0.0309
X1.6257 Y-0.0285
X1.6276 Y-0.0248
X1.6281 Y-0.0237
X1.63 Y-0.0189
X1.6314 Y-0.014
X1.6324 Y-0.0092
X1.6329 Y-0.0044
X1.6331 Y0.0005
Y2.3611
X1.633 Y2.366
X1.6325 Y2.3708
X1.6324 Y2.3714
X1.6315 Y2.3756
X1.6302 Y2.3805
X1.6283 Y2.3853
X1.6276 Y2.387
X1.626 Y2.3901
X1.6246 Y2.3926
X1.623 Y2.395
X1.6227 Y2.3954
X1.6211 Y2.3976
X1.6194 Y2.3998
X1.6179 Y2.4015
X1.6148 Y2.4047
X1.6131 Y2.4062
X1.6089 Y2.4095
X1.6082 Y2.41
X1.6058 Y2.4116
X1.6034 Y2.413
X1.6009 Y2.4143
X1.5986 Y2.4154
X1.5938 Y2.4173
X1.5889 Y2.4188
X1.5872 Y2.4192
X1.5841 Y2.4198
X1.5793 Y2.4203
X1.5744 Y2.4205
X1.4586
X1.4537 Y2.4204
X1.4489 Y2.4203
X1.4441 Y2.42
X1.4392 Y2.4194
X1.4371 Y2.4192
X1.4344 Y2.4188
X1.4296 Y2.418
X1.4248 Y2.4168
X1.4199 Y2.4155
X1.4164 Y2.4143
X1.4151 Y2.4139
X1.4103 Y2.4118
X1.4059 Y2.4095
X1.4054 Y2.4092
X1.4006 Y2.4064
X1.3981 Y2.4047
X1.3958 Y2.4029
X1.3923 Y2.3998
X1.391 Y2.3984
X1.3879 Y2.395
X1.3861 Y2.3926
X1.3845 Y2.3901
X1.3817 Y2.3853
X1.3813 Y2.3846
X1.3795 Y2.3805
X1.3783 Y2.3772
X1.3778 Y2.3756
X1.3767 Y2.3708
X1.3765 Y2.3695
X1.3761 Y2.366
X1.3759 Y2.3611
Y0.0005
X1.3761 Y-0.0044
X1.3765 Y-0.0072
X1.3768 Y-0.0092
X1.378 Y-0.014
X1.3797 Y-0.0189
X1.3813 Y-0.0224
X1.382 Y-0.0237
X1.3849 Y-0.0285
X1.3861 Y-0.0304
X1.3884 Y-0.0334
X1.391 Y-0.0362
X1.393 Y-0.0382
X1.3958 Y-0.0407
X1.3989 Y-0.0431
X1.4006 Y-0.0442
X1.4054 Y-0.047
X1.407 Y-0.0479
X1.4103 Y-0.0495
X1.4151 Y-0.0517
X1.4182 Y-0.0527
X1.4199 Y-0.0533
X1.4234 Y-0.0542
G3 X1.408 Y-0.0629 I-0.0033 J-0.0121
G1 X1.4073 Y-0.0656 Z-0.0397
X1.4066 Y-0.0682 Z-0.0388
X1.4059 Y-0.0705 Z-0.0373
X1.4054 Y-0.0724 Z-0.0353
X1.405 Y-0.0738 Z-0.0329
X1.4048 Y-0.0747 Z-0.0303
X1.4047 Y-0.075 Z-0.0275
G0 Z0.2
X1.4372 Y-0.0551
Z0.0676
G1 Z-0.0288 F40.38
Z-0.0301
Y-0.0553 Z-0.0313
Y-0.0557 Z-0.0325
G3 Y-0.0562 Z-0.0337 I0.0071 J0.0004
X1.4373 Y-0.0568 Z-0.0348 I0.007 J0.0009
X1.4375 Y-0.0575 Z-0.0358 I0.0069 J0.0015
X1.4378 Y-0.0582 Z-0.0367 I0.0067 J0.0022
X1.4383 Y-0.059 Z-0.0376 I0.0064 J0.003
X1.4389 Y-0.0599 Z-0.0383 I0.006 J0.0038
X1.4396 Y-0.0606 Z-0.0389 I0.0054 J0.0046
X1.4406 Y-0.0613 Z-0.0394 I0.0046 J0.0054
X1.4417 Y-0.0618 Z-0.0397 I0.0037 J0.0061
X1.4428 Y-0.0622 Z-0.0399 I0.0026 J0.0066
X1.4441 Y-0.0623 Z-0.04 I0.0014 J0.007
G1 X1.4392 Y-0.0622
X1.4344 Y-0.062 Z-0.0401
X1.4296 Y-0.0616
X1.4248 Y-0.061
X1.4199 Y-0.0603 Z-0.0402
X1.4151 Y-0.0593
X1.4103 Y-0.058 Z-0.0403
X1.4089 Y-0.0576
X1.4054 Y-0.0564
X1.4006 Y-0.0544
X1.397 Y-0.0527 Z-0.0404
X1.3958 Y-0.0521
X1.3934 Y-0.0507
X1.391 Y-0.0492
X1.3891 Y-0.0479
X1.3861 Y-0.0456 Z-0.0405
X1.3833 Y-0.0431
X1.3813 Y-0.0411
X1.3786 Y-0.0382 Z-0.0406
X1.3765 Y-0.0357
X1.3747 Y-0.0334
X1.3731 Y-0.031
X1.3716 Y-0.0286
Y-0.0285
X1.3691 Y-0.0237 Z-0.0407
X1.3671 Y-0.0189
X1.3668 Y-0.018
X1.3656 Y-0.014 Z-0.0408
X1.3646 Y-0.0092
X1.364 Y-0.0044
X1.3639 Y0.0005 Z-0.0409
Y2.3611 Z-0.0591
X1.364 Y2.366
X1.3645 Y2.3708 Z-0.0592
X1.3655 Y2.3756
X1.3668 Y2.3802 Z-0.0593
X1.3669 Y2.3805
X1.3688 Y2.3853
X1.3713 Y2.3901
X1.3716 Y2.3908 Z-0.0594
X1.3743 Y2.395
X1.3765 Y2.3979
X1.3781 Y2.3998
X1.3813 Y2.4034 Z-0.0595
X1.3826 Y2.4047
X1.3861 Y2.4078
X1.3883 Y2.4095
X1.391 Y2.4114 Z-0.0596
X1.3934 Y2.4129
X1.3958 Y2.4143
X1.3959
X1.4006 Y2.4166 Z-0.0597
X1.4054 Y2.4186
X1.4071 Y2.4192
X1.4103 Y2.4202
X1.4151 Y2.4215 Z-0.0598
X1.4199 Y2.4225
X1.4248 Y2.4232 Z-0.0599
X1.4296 Y2.4238
X1.4322 Y2.424
X1.4344 Y2.4242
X1.4392 Y2.4244 Z-0.06
X1.4441 Y2.4245
X1.4392 Y2.4244
X1.4344 Y2.4242
X1.4322 Y2.424
X1.4296 Y2.4238
X1.4248 Y2.4232
X1.4199 Y2.4225
X1.4151 Y2.4215
X1.4103 Y2.4202
X1.4071 Y2.4192
X1.4054 Y2.4186
X1.4006 Y2.4166
X1.3959 Y2.4143
X1.3958
X1.3934 Y2.4129
X1.391 Y2.4114
X1.3883 Y2.4095
X1.3861 Y2.4078
X1.3826 Y2.4047
X1.3813 Y2.4034
X1.3781 Y2.3998
X1.3765 Y2.3979
X1.3743 Y2.395
X1.3716 Y2.3908
X1.3713 Y2.3901
X1.3688 Y2.3853
X1.3669 Y2.3805
X1.3668 Y2.3802
X1.3655 Y2.3756
X1.3645 Y2.3708
X1.364 Y2.366
X1.3639 Y2.3611
Y0.0005
X1.364 Y-0.0044
X1.3646 Y-0.0092
X1.3656 Y-0.014
X1.3668 Y-0.018
X1.3671 Y-0.0189
X1.3691 Y-0.0237
X1.3716 Y-0.0285
Y-0.0286
X1.3731 Y-0.031
X1.3747 Y-0.0334
X1.3765 Y-0.0357
X1.3786 Y-0.0382
X1.3813 Y-0.0411
X1.3833 Y-0.0431
X1.3861 Y-0.0456
X1.3891 Y-0.0479
X1.391 Y-0.0492
X1.3934 Y-0.0507
X1.3958 Y-0.0521
X1.397 Y-0.0527
X1.4006 Y-0.0544
X1.4054 Y-0.0564
X1.4089 Y-0.0576
X1.4103 Y-0.058
X1.4151 Y-0.0593
X1.4199 Y-0.0603
X1.4248 Y-0.061
X1.4296 Y-0.0616
X1.4344 Y-0.062
X1.4392 Y-0.0622
X1.4441 Y-0.0623
G3 X1.4312 Y-0.0744 I-0.0004 J-0.0125
G1 X1.4311 Y-0.0772 Z-0.0597
X1.431 Y-0.0799 Z-0.0588
X1.4309 Y-0.0822 Z-0.0573
Y-0.0842 Z-0.0553
X1.4308 Y-0.0857 Z-0.0529
Y-0.0866 Z-0.0503
Y-0.0869 Z-0.0475
G0 Z0.2
X1.1694 Y2.4659
Z0.0324
G1 Z-0.0475 F40.38
X1.1693 Y2.4656 Z-0.0503
Y2.4647 Z-0.0529
X1.1691 Y2.4632 Z-0.0553
X1.169 Y2.4612 Z-0.0573
X1.1688 Y2.4589 Z-0.0588
X1.1686 Y2.4562 Z-0.0597
X1.1683 Y2.4535 Z-0.06
X1.1671 Y2.4381
G3 X1.1785 Y2.4246 I0.0125 J-0.001
G1 X1.1833 Y2.4242
X1.1849 Y2.424 Z-0.0601
X1.1882 Y2.4235
X1.193 Y2.4225
X1.1978 Y2.4211 Z-0.0602
X1.2027 Y2.4193
X1.2028 Y2.4192
X1.2075 Y2.417
X1.212 Y2.4143 Z-0.0603
X1.2123 Y2.4141
X1.2147 Y2.4125
X1.2171 Y2.4107
X1.2187 Y2.4095
X1.222 Y2.4066 Z-0.0604
X1.2239 Y2.4047
X1.2268 Y2.4015
X1.2281 Y2.3998
X1.2299 Y2.3974 Z-0.0605
X1.2316 Y2.395
Y2.3949
X1.2331 Y2.3925
X1.2344 Y2.3901
X1.2364 Y2.3857 Z-0.0606
X1.2366 Y2.3853
X1.2384 Y2.3805
X1.2397 Y2.3756 Z-0.0607
X1.2406 Y2.3708
X1.2411 Y2.366
X1.2412 Y2.3611 Z-0.0608
Y0.0005 Z-0.0792
X1.241 Y-0.0044 Z-0.0793
X1.2405 Y-0.0092
X1.2395 Y-0.014
X1.2382 Y-0.0189 Z-0.0794
X1.2364 Y-0.0235
Y-0.0237
X1.2341 Y-0.0285 Z-0.0795
X1.2316 Y-0.0327
X1.2312 Y-0.0334
X1.2295 Y-0.0358
X1.2277 Y-0.0382 Z-0.0796
X1.2268 Y-0.0393
X1.2233 Y-0.0431
X1.222 Y-0.0444
X1.2179 Y-0.0479 Z-0.0797
X1.2171 Y-0.0485
X1.2147 Y-0.0503
X1.2123 Y-0.0519
X1.211 Y-0.0527
X1.2075 Y-0.0548 Z-0.0798
X1.2027 Y-0.0571
X1.2014 Y-0.0576
X1.1978 Y-0.0589
X1.193 Y-0.0603 Z-0.0799
X1.1882 Y-0.0613
X1.1833 Y-0.062 Z-0.08
X1.1785 Y-0.0624
X1.1833 Y-0.062
X1.1882 Y-0.0613
X1.193 Y-0.0603
X1.1978 Y-0.0589
X1.2014 Y-0.0576
X1.2027 Y-0.0571
X1.2075 Y-0.0548
X1.211 Y-0.0527
X1.2123 Y-0.0519
X1.2147 Y-0.0503
X1.2171 Y-0.0485
X1.2179 Y-0.0479
X1.222 Y-0.0444
X1.2233 Y-0.0431
X1.2268 Y-0.0393
X1.2277 Y-0.0382
X1.2295 Y-0.0358
X1.2312 Y-0.0334
X1.2316 Y-0.0327
X1.2341 Y-0.0285
X1.2364 Y-0.0237
Y-0.0235
X1.2382 Y-0.0189
X1.2395 Y-0.014
X1.2405 Y-0.0092
X1.241 Y-0.0044
X1.2412 Y0.0005
Y2.3611
X1.2411 Y2.366
X1.2406 Y2.3708
X1.2397 Y2.3756
X1.2384 Y2.3805
X1.2366 Y2.3853
X1.2364 Y2.3857
X1.2344 Y2.3901
X1.2331 Y2.3925
X1.2316 Y2.3949
Y2.395
X1.2299 Y2.3974
X1.2281 Y2.3998
X1.2268 Y2.4015
X1.2239 Y2.4047
X1.222 Y2.4066
X1.2187 Y2.4095
X1.2171 Y2.4107
X1.2147 Y2.4125
X1.2123 Y2.4141
X1.212 Y2.4143
X1.2075 Y2.417
X1.2028 Y2.4192
X1.2027 Y2.4193
X1.1978 Y2.4211
X1.193 Y2.4225
X1.1882 Y2.4235
X1.1849 Y2.424
X1.1833 Y2.4242
X1.1785 Y2.4246
G3 X1.1919 Y2.4361 I0.001 J0.0125
G1 X1.1921 Y2.4389 Z-0.0797
X1.1923 Y2.4415 Z-0.0788
X1.1925 Y2.4439 Z-0.0773
X1.1927 Y2.4458 Z-0.0753
X1.1928 Y2.4473 Z-0.0729
X1.1929 Y2.4483 Z-0.0703
Y2.4486 Z-0.0675
G0 Z0.2
X1.3573 Y0.5163
Z0.0504
G1 Z-0.0265 F40.38
G19 G2 Y0.5042 Z-0.039 J-0.0125
G1 Y0.0005 Z-0.0566
X1.3574 Y-0.0044 Z-0.0567
X1.358 Y-0.0092 Z-0.0569
X1.3589 Y-0.014 Z-0.0571
X1.3603 Y-0.0189 Z-0.0573
X1.362 Y-0.0235 Z-0.0574
X1.3621 Y-0.0237
X1.3644 Y-0.0285 Z-0.0576
X1.3668 Y-0.0327 Z-0.0578
X1.3672 Y-0.0334
X1.3689 Y-0.0358 Z-0.0579
X1.3708 Y-0.0382 Z-0.058
X1.3716 Y-0.0393 Z-0.0581
X1.3751 Y-0.0431 Z-0.0583
X1.3765 Y-0.0444
X1.3805 Y-0.0479 Z-0.0585
X1.3813 Y-0.0485 Z-0.0586
X1.3837 Y-0.0503 Z-0.0587
X1.3861 Y-0.052 Z-0.0588
X1.3874 Y-0.0527
X1.391 Y-0.0548 Z-0.059
X1.3958 Y-0.0571 Z-0.0591
X1.397 Y-0.0576 Z-0.0592
X1.4006 Y-0.0589 Z-0.0593
X1.4054 Y-0.0603 Z-0.0595
X1.4103 Y-0.0613 Z-0.0597
X1.4151 Y-0.062 Z-0.0598
X1.4195 Y-0.0624 Z-0.06
X1.4199
X1.4151 Y-0.062
X1.4103 Y-0.0613 Z-0.0601
X1.4054 Y-0.0603
X1.4006 Y-0.0589 Z-0.0602
X1.397 Y-0.0576
X1.3958 Y-0.0571
X1.391 Y-0.0548
X1.3874 Y-0.0527 Z-0.0603
X1.3861 Y-0.052
X1.3837 Y-0.0503
X1.3813 Y-0.0485
X1.3805 Y-0.0479
X1.3765 Y-0.0444 Z-0.0604
X1.3751 Y-0.0431
X1.3716 Y-0.0393
X1.3708 Y-0.0382
X1.3689 Y-0.0358 Z-0.0605
X1.3672 Y-0.0334
X1.3668 Y-0.0327
X1.3644 Y-0.0285
X1.3621 Y-0.0237 Z-0.0606
X1.362 Y-0.0235
X1.3603 Y-0.0189
X1.3589 Y-0.014 Z-0.0607
X1.358 Y-0.0092
X1.3574 Y-0.0044
X1.3573 Y0.0005 Z-0.0608
Y2.3611 Z-0.0792
X1.3574 Y2.366 Z-0.0793
X1.3579 Y2.3708
X1.3588 Y2.3756
X1.3601 Y2.3805 Z-0.0794
X1.3618 Y2.3853
X1.362 Y2.3857
X1.3641 Y2.3901 Z-0.0795
X1.3654 Y2.3925
X1.3668 Y2.3949
Y2.395
X1.3685 Y2.3974
X1.3703 Y2.3998 Z-0.0796
X1.3716 Y2.4015
X1.3745 Y2.4047
X1.3765 Y2.4066
X1.3797 Y2.4095 Z-0.0797
X1.3813 Y2.4107
X1.3837 Y2.4125
X1.3861 Y2.4142
X1.3864 Y2.4143
X1.391 Y2.417 Z-0.0798
X1.3956 Y2.4192
X1.3958 Y2.4193
X1.4006 Y2.4211
X1.4054 Y2.4225 Z-0.0799
X1.4103 Y2.4235
X1.4135 Y2.424
X1.4151 Y2.4242 Z-0.08
X1.4199 Y2.4246
X1.4151 Y2.4242
X1.4135 Y2.424
X1.4103 Y2.4235
X1.4054 Y2.4225
X1.4006 Y2.4211
X1.3958 Y2.4193
X1.3956 Y2.4192
X1.391 Y2.417
X1.3864 Y2.4143
X1.3861 Y2.4142
X1.3837 Y2.4125
X1.3813 Y2.4107
X1.3797 Y2.4095
X1.3765 Y2.4066
X1.3745 Y2.4047
X1.3716 Y2.4015
X1.3703 Y2.3998
X1.3685 Y2.3974
X1.3668 Y2.395
Y2.3949
X1.3654 Y2.3925
X1.3641 Y2.3901
X1.362 Y2.3857
X1.3618 Y2.3853
X1.3601 Y2.3805
X1.3588 Y2.3756
X1.3579 Y2.3708
X1.3574 Y2.366
X1.3573 Y2.3611
Y0.0005
X1.3574 Y-0.0044
X1.358 Y-0.0092
X1.3589 Y-0.014
X1.3603 Y-0.0189
X1.362 Y-0.0235
X1.3621 Y-0.0237
X1.3644 Y-0.0285
X1.3668 Y-0.0327
X1.3672 Y-0.0334
X1.3689 Y-0.0358
X1.3708 Y-0.0382
X1.3716 Y-0.0393
X1.3751 Y-0.0431
X1.3765 Y-0.0444
X1.3805 Y-0.0479
X1.3813 Y-0.0485
X1.3837 Y-0.0503
X1.3861 Y-0.052
X1.3874 Y-0.0527
X1.391 Y-0.0548
X1.3958 Y-0.0571
X1.397 Y-0.0576
X1.4006 Y-0.0589
X1.4054 Y-0.0603
X1.4103 Y-0.0613
X1.4151 Y-0.062
X1.4199 Y-0.0624
G17 G3 X1.4065 Y-0.0739 I-0.001 J-0.0125
G1 X1.4063 Y-0.0767 Z-0.0797
X1.4061 Y-0.0793 Z-0.0788
X1.4059 Y-0.0817 Z-0.0773
X1.4058 Y-0.0836 Z-0.0753
X1.4057 Y-0.0851 Z-0.0729
X1.4056 Y-0.0861 Z-0.0703
Y-0.0864 Z-0.0675
G0 Z0.2
X1.1777 Y2.4797
Z0.0124
G1 Z-0.0675 F40.38
Y2.4794 Z-0.0703
X1.1776 Y2.4785 Z-0.0729
X1.1775 Y2.477 Z-0.0753
X1.1773 Y2.475 Z-0.0773
X1.1771 Y2.4727 Z-0.0788
X1.1769 Y2.4701 Z-0.0797
X1.1767 Y2.4673 Z-0.08
X1.1743 Y2.438
G3 X1.1857 Y2.4245 I0.0125 J-0.001
G1 X1.1866 Y2.4244
X1.1882 Y2.4243
X1.1903 Y2.424
X1.193 Y2.4235 Z-0.0801
X1.1978 Y2.4224
X1.2027 Y2.4208
X1.2067 Y2.4192 Z-0.0802
X1.2075 Y2.4188
X1.2123 Y2.4163
X1.2155 Y2.4143 Z-0.0803
X1.2171 Y2.4132
X1.2195 Y2.4115
X1.2219 Y2.4095
X1.222
X1.2244 Y2.4073
X1.2268 Y2.4048 Z-0.0804
X1.2269 Y2.4047
X1.2291 Y2.4022
X1.231 Y2.3998
X1.2316 Y2.399
X1.2343 Y2.395 Z-0.0805
X1.2364 Y2.3912
X1.237 Y2.3901
X1.2391 Y2.3853
X1.2408 Y2.3805 Z-0.0806
X1.2413 Y2.379
X1.2421 Y2.3756
X1.243 Y2.3708 Z-0.0807
X1.2435 Y2.366
X1.2436 Y2.3611
Y0.0005 Z-0.0993
X1.2434 Y-0.0044
X1.2429 Y-0.0092
X1.242 Y-0.014 Z-0.0994
X1.2413 Y-0.0168
X1.2407 Y-0.0189
X1.2389 Y-0.0237 Z-0.0995
X1.2367 Y-0.0285
X1.2364 Y-0.029
X1.2339 Y-0.0334
X1.2316 Y-0.0368 Z-0.0996
X1.2305 Y-0.0382
X1.2287 Y-0.0404
X1.2268 Y-0.0426
X1.2264 Y-0.0431
X1.2242 Y-0.0453 Z-0.0997
X1.222 Y-0.0473
X1.2212 Y-0.0479
X1.2171 Y-0.051
X1.2146 Y-0.0527 Z-0.0998
X1.2123 Y-0.0541
X1.2075 Y-0.0566
X1.2054 Y-0.0576
X1.2027 Y-0.0586 Z-0.0999
X1.1978 Y-0.0602
X1.193 Y-0.0613
X1.1882 Y-0.0621 Z-0.1
X1.1866 Y-0.0622
X1.186 Y-0.0623
X1.1855
X1.186
X1.1866 Y-0.0622
X1.1882 Y-0.0621
X1.193 Y-0.0613
X1.1978 Y-0.0602
X1.2027 Y-0.0586
X1.2054 Y-0.0576
X1.2075 Y-0.0566
X1.2123 Y-0.0541
X1.2146 Y-0.0527
X1.2171 Y-0.051
X1.2212 Y-0.0479
X1.222 Y-0.0473
X1.2242 Y-0.0453
X1.2264 Y-0.0431
X1.2268 Y-0.0426
X1.2287 Y-0.0404
X1.2305 Y-0.0382
X1.2316 Y-0.0368
X1.2339 Y-0.0334
X1.2364 Y-0.029
X1.2367 Y-0.0285
X1.2389 Y-0.0237
X1.2407 Y-0.0189
X1.2413 Y-0.0168
X1.242 Y-0.014
X1.2429 Y-0.0092
X1.2434 Y-0.0044
X1.2436 Y0.0005
Y2.3611
X1.2435 Y2.366
X1.243 Y2.3708
X1.2421 Y2.3756
X1.2413 Y2.379
X1.2408 Y2.3805
X1.2391 Y2.3853
X1.237 Y2.3901
X1.2364 Y2.3912
X1.2343 Y2.395
X1.2316 Y2.399
X1.231 Y2.3998
X1.2291 Y2.4022
X1.2269 Y2.4047
X1.2268 Y2.4048
X1.2244 Y2.4073
X1.222 Y2.4095
X1.2219
X1.2195 Y2.4115
X1.2171 Y2.4132
X1.2155 Y2.4143
X1.2123 Y2.4163
X1.2075 Y2.4188
X1.2067 Y2.4192
X1.2027 Y2.4208
X1.1978 Y2.4224
X1.193 Y2.4235
X1.1903 Y2.424
X1.1882 Y2.4243
X1.1866 Y2.4244
X1.1857 Y2.4245
G3 X1.1994 Y2.4356 I0.0013 J0.0124
G1 X1.1997 Y2.4384 Z-0.0997
X1.2 Y2.441 Z-0.0988
X1.2002 Y2.4434 Z-0.0973
X1.2004 Y2.4454 Z-0.0953
X1.2006 Y2.4468 Z-0.0929
X1.2007 Y2.4478 Z-0.0903
Y2.4481 Z-0.0875
G0 Z0.2
X1.3549 Y0.5204
Z0.0488
G1 Z-0.0465 F40.38
G19 G2 Y0.5083 Z-0.059 J-0.0125
G1 Y0.0005 Z-0.0767
X1.355 Y-0.0044 Z-0.0769
X1.3555 Y-0.0092 Z-0.0771
X1.3564 Y-0.014 Z-0.0772
X1.3572 Y-0.0168 Z-0.0773
X1.3578 Y-0.0189 Z-0.0774
X1.3595 Y-0.0237 Z-0.0776
X1.3618 Y-0.0285 Z-0.0778
X1.362 Y-0.029
X1.3645 Y-0.0334 Z-0.078
X1.3668 Y-0.0368 Z-0.0781
X1.3679 Y-0.0382 Z-0.0782
X1.3697 Y-0.0404 Z-0.0783
X1.3716 Y-0.0426 Z-0.0784
X1.3721 Y-0.0431
X1.3743 Y-0.0453 Z-0.0785
X1.3765 Y-0.0473 Z-0.0786
X1.3772 Y-0.0479
X1.3813 Y-0.051 Z-0.0788
X1.3838 Y-0.0527 Z-0.0789
X1.3861 Y-0.0541 Z-0.079
X1.391 Y-0.0566 Z-0.0792
X1.3931 Y-0.0576 Z-0.0793
X1.3958 Y-0.0586 Z-0.0794
X1.4006 Y-0.0602 Z-0.0796
X1.4054 Y-0.0613 Z-0.0797
X1.4103 Y-0.0621 Z-0.0799
X1.4118 Y-0.0622 Z-0.08
X1.4124 Y-0.0623
X1.4125
X1.4129
X1.4124
X1.4118 Y-0.0622
X1.4103 Y-0.0621
X1.4054 Y-0.0613 Z-0.0801
X1.4006 Y-0.0602
X1.3958 Y-0.0586
X1.3931 Y-0.0576 Z-0.0802
X1.391 Y-0.0566
X1.3861 Y-0.0541
X1.3838 Y-0.0527
X1.3813 Y-0.051 Z-0.0803
X1.3772 Y-0.0479
X1.3765 Y-0.0473
X1.3743 Y-0.0453
X1.3721 Y-0.0431 Z-0.0804
X1.3716 Y-0.0426
X1.3697 Y-0.0404
X1.3679 Y-0.0382
X1.3668 Y-0.0368
X1.3645 Y-0.0334 Z-0.0805
X1.362 Y-0.029
X1.3618 Y-0.0285
X1.3595 Y-0.0237
X1.3578 Y-0.0189 Z-0.0806
X1.3572 Y-0.0168
X1.3564 Y-0.014
X1.3555 Y-0.0092 Z-0.0807
X1.355 Y-0.0044
X1.3549 Y0.0005
Y2.3611 Z-0.0993
X1.355 Y2.366
X1.3554 Y2.3708
X1.3563 Y2.3756 Z-0.0994
X1.3572 Y2.379
X1.3576 Y2.3805
X1.3593 Y2.3853 Z-0.0995
X1.3614 Y2.3901
X1.362 Y2.3912
X1.3641 Y2.395
X1.3668 Y2.399 Z-0.0996
X1.3674 Y2.3998
X1.3694 Y2.4022
X1.3715 Y2.4047
X1.3716 Y2.4048
X1.3741 Y2.4073 Z-0.0997
X1.3765 Y2.4095
X1.3789 Y2.4115
X1.3813 Y2.4132
X1.3829 Y2.4143
X1.3861 Y2.4163 Z-0.0998
X1.391 Y2.4188
X1.3917 Y2.4192
X1.3958 Y2.4208 Z-0.0999
X1.4006 Y2.4224
X1.4054 Y2.4235
X1.4082 Y2.424 Z-0.1
X1.4103 Y2.4243
X1.4118 Y2.4244
X1.4128 Y2.4245
X1.4118 Y2.4244
X1.4103 Y2.4243
X1.4082 Y2.424
X1.4054 Y2.4235
X1.4006 Y2.4224
X1.3958 Y2.4208
X1.3917 Y2.4192
X1.391 Y2.4188
X1.3861 Y2.4163
X1.3829 Y2.4143
X1.3813 Y2.4132
X1.3789 Y2.4115
X1.3765 Y2.4095
X1.3741 Y2.4073
X1.3716 Y2.4048
X1.3715 Y2.4047
X1.3694 Y2.4022
X1.3674 Y2.3998
X1.3668 Y2.399
X1.3641 Y2.395
X1.362 Y2.3912
X1.3614 Y2.3901
X1.3593 Y2.3853
X1.3576 Y2.3805
X1.3572 Y2.379
X1.3563 Y2.3756
X1.3554 Y2.3708
X1.355 Y2.366
X1.3549 Y2.3611
Y0.0005
X1.355 Y-0.0044
X1.3555 Y-0.0092
X1.3564 Y-0.014
X1.3572 Y-0.0168
X1.3578 Y-0.0189
X1.3595 Y-0.0237
X1.3618 Y-0.0285
X1.362 Y-0.029
X1.3645 Y-0.0334
X1.3668 Y-0.0368
X1.3679 Y-0.0382
X1.3697 Y-0.0404
X1.3716 Y-0.0426
X1.3721 Y-0.0431
X1.3743 Y-0.0453
X1.3765 Y-0.0473
X1.3772 Y-0.0479
X1.3813 Y-0.051
X1.3838 Y-0.0527
X1.3861 Y-0.0541
X1.391 Y-0.0566
X1.3931 Y-0.0576
X1.3958 Y-0.0586
X1.4006 Y-0.0602
X1.4054 Y-0.0613
X1.4103 Y-0.0621
X1.4118 Y-0.0622
X1.4124 Y-0.0623
X1.4129
G17 G3 X1.3992 Y-0.0735 I-0.0013 J-0.0124
G1 X1.3989 Y-0.0762 Z-0.0997
X1.3986 Y-0.0789 Z-0.0988
X1.3984 Y-0.0812 Z-0.0973
X1.3982 Y-0.0832 Z-0.0953
X1.398 Y-0.0847 Z-0.0929
X1.3979 Y-0.0856 Z-0.0903
Y-0.0859 Z-0.0875
G0 Z0.2
X1.1786 Y2.4897
Z-0.0058
G1 Z-0.0856 F40.38
Y2.4894 Z-0.0884
X1.1785 Y2.4885 Z-0.091
X1.1784 Y2.487 Z-0.0934
X1.1782 Y2.485 Z-0.0954
X1.178 Y2.4827 Z-0.0969
X1.1778 Y2.48 Z-0.0978
X1.1776 Y2.4773 Z-0.0981
X1.1743 Y2.438
G3 X1.1858 Y2.4245 I0.0125 J-0.001
G1 X1.1867
X1.1882 Y2.4243
X1.1904 Y2.424
X1.193 Y2.4236 Z-0.0982
X1.1978 Y2.4224
X1.2027 Y2.4209
X1.2068 Y2.4192 Z-0.0983
X1.2075 Y2.4189
X1.2123 Y2.4164
X1.2156 Y2.4143 Z-0.0984
X1.2171 Y2.4133
X1.2195 Y2.4115
X1.222 Y2.4095
X1.2244 Y2.4073
X1.2268 Y2.4049 Z-0.0985
X1.227 Y2.4047
X1.2291 Y2.4022
X1.231 Y2.3998
X1.2316 Y2.399
X1.2343 Y2.395 Z-0.0986
X1.2364 Y2.3912
X1.237 Y2.3901
X1.2392 Y2.3853 Z-0.0987
X1.2409 Y2.3805
X1.2413 Y2.3791
X1.2421 Y2.3756
X1.243 Y2.3708 Z-0.0988
X1.2435 Y2.366
X1.2436 Y2.3611 Z-0.0989
Y0.0005 Z-0.1174
X1.2435 Y-0.0044
X1.2429 Y-0.0092 Z-0.1175
X1.242 Y-0.014
X1.2413 Y-0.0169
X1.2407 Y-0.0189
X1.2389 Y-0.0237 Z-0.1176
X1.2367 Y-0.0285
X1.2364 Y-0.029
X1.2339 Y-0.0334 Z-0.1177
X1.2316 Y-0.0368
X1.2306 Y-0.0382
X1.2288 Y-0.0404
X1.2268 Y-0.0426
X1.2264 Y-0.0431 Z-0.1178
X1.2242 Y-0.0453
X1.222 Y-0.0473
X1.2213 Y-0.0479
X1.2171 Y-0.0511
X1.2147 Y-0.0527 Z-0.1179
X1.2123 Y-0.0542
X1.2075 Y-0.0567
X1.2054 Y-0.0576 Z-0.118
X1.2027 Y-0.0587
X1.1978 Y-0.0602
X1.193 Y-0.0614 Z-0.1181
X1.1882 Y-0.0621
X1.1867 Y-0.0622
X1.1861 Y-0.0623
X1.1867 Y-0.0622
X1.1882 Y-0.0621
X1.193 Y-0.0614
X1.1978 Y-0.0602
X1.2027 Y-0.0587
X1.2054 Y-0.0576
X1.2075 Y-0.0567
X1.2123 Y-0.0542
X1.2147 Y-0.0527
X1.2171 Y-0.0511
X1.2213 Y-0.0479
X1.222 Y-0.0473
X1.2242 Y-0.0453
X1.2264 Y-0.0431
X1.2268 Y-0.0426
X1.2288 Y-0.0404
X1.2306 Y-0.0382
X1.2316 Y-0.0368
X1.2339 Y-0.0334
X1.2364 Y-0.029
X1.2367 Y-0.0285
X1.2389 Y-0.0237
X1.2407 Y-0.0189
X1.2413 Y-0.0169
X1.242 Y-0.014
X1.2429 Y-0.0092
X1.2435 Y-0.0044
X1.2436 Y0.0005
Y2.3611
X1.2435 Y2.366
X1.243 Y2.3708
X1.2421 Y2.3756
X1.2413 Y2.3791
X1.2409 Y2.3805
X1.2392 Y2.3853
X1.237 Y2.3901
X1.2364 Y2.3912
X1.2343 Y2.395
X1.2316 Y2.399
X1.231 Y2.3998
X1.2291 Y2.4022
X1.227 Y2.4047
X1.2268 Y2.4049
X1.2244 Y2.4073
X1.222 Y2.4095
X1.2195 Y2.4115
X1.2171 Y2.4133
X1.2156 Y2.4143
X1.2123 Y2.4164
X1.2075 Y2.4189
X1.2068 Y2.4192
X1.2027 Y2.4209
X1.1978 Y2.4224
X1.193 Y2.4236
X1.1904 Y2.424
X1.1882 Y2.4243
X1.1867 Y2.4245
X1.1858
G3 X1.1995 Y2.4357 I0.0013 J0.0124
G1 X1.1998 Y2.4384 Z-0.1178
X1.2001 Y2.441 Z-0.1169
X1.2003 Y2.4434 Z-0.1154
X1.2005 Y2.4454 Z-0.1134
X1.2007 Y2.4469 Z-0.111
X1.2008 Y2.4478 Z-0.1084
Y2.4481 Z-0.1056
G0 Z0.2
X1.4194 Y-0.1274
Z-0.0056
G1 Z-0.0856 F40.38
Y-0.1271 Z-0.0884
X1.4195 Y-0.1262 Z-0.091
X1.4196 Y-0.1247 Z-0.0934
X1.4198 Y-0.1227 Z-0.0954
X1.42 Y-0.1203 Z-0.0969
X1.4202 Y-0.1177 Z-0.0978
X1.4205 Y-0.1149 Z-0.0981
X1.4238 Y-0.0758
G3 X1.4124 Y-0.0623 I-0.0125 J0.0011
G1 X1.4117
X1.4103 Y-0.0621
X1.4054 Y-0.0614 Z-0.0982
X1.4006 Y-0.0602
X1.3958 Y-0.0587
X1.393 Y-0.0576 Z-0.0983
X1.391 Y-0.0567
X1.3861 Y-0.0542
X1.3838 Y-0.0527
X1.3813 Y-0.0511 Z-0.0984
X1.3772 Y-0.0479
X1.3765 Y-0.0473
X1.3742 Y-0.0453
X1.372 Y-0.0431 Z-0.0985
X1.3716 Y-0.0427
X1.3697 Y-0.0404
X1.3679 Y-0.0382
X1.3668 Y-0.0368
X1.3645 Y-0.0334 Z-0.0986
X1.362 Y-0.0291
X1.3617 Y-0.0285
X1.3595 Y-0.0237 Z-0.0987
X1.3577 Y-0.0189
X1.3572 Y-0.0169
X1.3564 Y-0.014
X1.3555 Y-0.0092 Z-0.0988
X1.355 Y-0.0044
X1.3548 Y0.0005
Y2.3611 Z-0.1174
X1.3549 Y2.366
X1.3554 Y2.3708
X1.3563 Y2.3756 Z-0.1175
X1.3572 Y2.3791
X1.3576 Y2.3805
X1.3593 Y2.3853 Z-0.1176
X1.3614 Y2.3901
X1.362 Y2.3913
X1.3641 Y2.395
X1.3668 Y2.399 Z-0.1177
X1.3674 Y2.3998
X1.3693 Y2.4022
X1.3715 Y2.4047
X1.3716 Y2.4049
X1.3741 Y2.4073 Z-0.1178
X1.3765 Y2.4095
X1.3789 Y2.4115
X1.3813 Y2.4133
X1.3828 Y2.4143 Z-0.1179
X1.3861 Y2.4164
X1.391 Y2.4189
X1.3916 Y2.4192
X1.3958 Y2.4209 Z-0.118
X1.4006 Y2.4224
X1.4054 Y2.4236 Z-0.1181
X1.408 Y2.424
X1.4103 Y2.4243
X1.4117 Y2.4245
X1.4127
X1.4117
X1.4103 Y2.4243
X1.408 Y2.424
X1.4054 Y2.4236
X1.4006 Y2.4224
X1.3958 Y2.4209
X1.3916 Y2.4192
X1.391 Y2.4189
X1.3861 Y2.4164
X1.3828 Y2.4143
X1.3813 Y2.4133
X1.3789 Y2.4115
X1.3765 Y2.4095
X1.3741 Y2.4073
X1.3716 Y2.4049
X1.3715 Y2.4047
X1.3693 Y2.4022
X1.3674 Y2.3998
X1.3668 Y2.399
X1.3641 Y2.395
X1.362 Y2.3913
X1.3614 Y2.3901
X1.3593 Y2.3853
X1.3576 Y2.3805
X1.3572 Y2.3791
X1.3563 Y2.3756
X1.3554 Y2.3708
X1.3549 Y2.366
X1.3548 Y2.3611
Y0.0005
X1.355 Y-0.0044
X1.3555 Y-0.0092
X1.3564 Y-0.014
X1.3572 Y-0.0169
X1.3577 Y-0.0189
X1.3595 Y-0.0237
X1.3617 Y-0.0285
X1.362 Y-0.0291
X1.3645 Y-0.0334
X1.3668 Y-0.0368
X1.3679 Y-0.0382
X1.3697 Y-0.0404
X1.3716 Y-0.0427
X1.372 Y-0.0431
X1.3742 Y-0.0453
X1.3765 Y-0.0473
X1.3772 Y-0.0479
X1.3813 Y-0.0511
X1.3838 Y-0.0527
X1.3861 Y-0.0542
X1.391 Y-0.0567
X1.393 Y-0.0576
X1.3958 Y-0.0587
X1.4006 Y-0.0602
X1.4054 Y-0.0614
X1.4103 Y-0.0621
X1.4117 Y-0.0623
X1.4124
G3 X1.3986 Y-0.0734 I-0.0013 J-0.0124
G1 X1.3983 Y-0.0762 Z-0.1178
X1.398 Y-0.0788 Z-0.1169
X1.3978 Y-0.0811 Z-0.1154
X1.3976 Y-0.0831 Z-0.1134
X1.3974 Y-0.0846 Z-0.111
X1.3973 Y-0.0855 Z-0.1084
Y-0.0858 Z-0.1056
G0 Z0.2
X1.2976 Y-0.0708
Z-0.0546
G1 Z-0.1056 F40.38
G19 G3 Y-0.0583 Z-0.1181 J0.0125
G17 G3 X1.2851 Y-0.0458 I-0.0125
G1 X1.2236 Z-0.1203
X1.2235 Y-0.0459
X1.2232 Y-0.0462
X1.222 Y-0.0473
X1.2213 Y-0.0479 Z-0.1204
X1.2171 Y-0.0511 Z-0.1205
X1.2147 Y-0.0527 Z-0.1207
X1.2123 Y-0.0542
X1.2075 Y-0.0567 Z-0.1209
X1.2054 Y-0.0576 Z-0.121
X1.2027 Y-0.0587 Z-0.1211
X1.1978 Y-0.0602 Z-0.1213
X1.193 Y-0.0614 Z-0.1215
X1.1882 Y-0.0621 Z-0.1216
X1.1867 Y-0.0622 Z-0.1217
X1.1861 Y-0.0623
X1.1867 Y-0.0622
X1.1882 Y-0.0621 Z-0.1218
X1.193 Y-0.0614 Z-0.122
X1.1978 Y-0.0602 Z-0.1221
X1.2027 Y-0.0587 Z-0.1223
X1.2054 Y-0.0576 Z-0.1224
X1.2075 Y-0.0567 Z-0.1225
X1.2123 Y-0.0542 Z-0.1227
X1.2147 Y-0.0527 Z-0.1228
X1.2171 Y-0.0511 Z-0.1229
X1.2213 Y-0.0479 Z-0.1231
X1.222 Y-0.0473
X1.2232 Y-0.0462 Z-0.1232
X1.2235 Y-0.0459
X1.2236 Y-0.0458
X1.3748 Z-0.1285
X1.3749 Y-0.0459
X1.375 Y-0.046
X1.3753 Y-0.0462
X1.3765 Y-0.0473
X1.3772 Y-0.0479 Z-0.1286
X1.3813 Y-0.0511 Z-0.1287
X1.3838 Y-0.0527 Z-0.1288
X1.3861 Y-0.0542 Z-0.1289
X1.391 Y-0.0567 Z-0.1291
X1.393 Y-0.0576 Z-0.1292
X1.3958 Y-0.0587 Z-0.1293
X1.4006 Y-0.0602 Z-0.1295
X1.4054 Y-0.0614 Z-0.1297
X1.4103 Y-0.0621 Z-0.1298
X1.4117 Y-0.0623 Z-0.1299
X1.4124
X1.4117
X1.4103 Y-0.0621 Z-0.13
X1.4054 Y-0.0614 Z-0.1302
X1.4006 Y-0.0602 Z-0.1303
X1.3958 Y-0.0587 Z-0.1305
X1.393 Y-0.0576 Z-0.1306
X1.391 Y-0.0567 Z-0.1307
X1.3861 Y-0.0542 Z-0.1309
X1.3838 Y-0.0527 Z-0.131
X1.3813 Y-0.0511 Z-0.1311
X1.3772 Y-0.0479 Z-0.1313
X1.3765 Y-0.0473
X1.3753 Y-0.0462 Z-0.1314
X1.375 Y-0.046
X1.3749 Y-0.0459
X1.3748 Y-0.0458
X1.2236 Z-0.1367
X1.2235 Y-0.0459
X1.2232 Y-0.0462
X1.222 Y-0.0473
X1.2213 Y-0.0479 Z-0.1368
X1.2171 Y-0.0511 Z-0.1369
X1.2147 Y-0.0527 Z-0.137
X1.2123 Y-0.0542 Z-0.1371
X1.2075 Y-0.0567 Z-0.1373
X1.2054 Y-0.0576 Z-0.1374
X1.2027 Y-0.0587 Z-0.1375
X1.1978 Y-0.0602 Z-0.1377
X1.193 Y-0.0614 Z-0.1379
X1.1882 Y-0.0621 Z-0.138
X1.1867 Y-0.0622 Z-0.1381
X1.1861 Y-0.0623
X1.1867 Y-0.0622
X1.1882 Y-0.0621
X1.193 Y-0.0614
X1.1978 Y-0.0602
X1.2027 Y-0.0587
X1.2054 Y-0.0576
X1.2075 Y-0.0567
X1.2123 Y-0.0542
X1.2147 Y-0.0527
X1.2171 Y-0.0511
X1.2213 Y-0.0479
X1.222 Y-0.0473
X1.2232 Y-0.0462
X1.2235 Y-0.0459
X1.2236 Y-0.0458
X1.3748
X1.3749 Y-0.0459
X1.375 Y-0.046
X1.3753 Y-0.0462
X1.3765 Y-0.0473
X1.3772 Y-0.0479
X1.3813 Y-0.0511
X1.3838 Y-0.0527
X1.3861 Y-0.0542
X1.391 Y-0.0567
X1.393 Y-0.0576
X1.3958 Y-0.0587
X1.4006 Y-0.0602
X1.4054 Y-0.0614
X1.4103 Y-0.0621
X1.4117 Y-0.0623
X1.4124
G3 X1.3986 Y-0.0734 I-0.0013 J-0.0124
G1 X1.3983 Y-0.0762 Z-0.1378
X1.398 Y-0.0788 Z-0.1369
X1.3978 Y-0.0811 Z-0.1354
X1.3976 Y-0.0831 Z-0.1334
X1.3974 Y-0.0846 Z-0.131
X1.3973 Y-0.0855 Z-0.1284
Y-0.0858 Z-0.1256
G0 Z0.2
X1.3161 Y-0.0881
Z-0.0458
G1 Z-0.1256 F40.38
G19 G3 Y-0.0756 Z-0.1381 J0.0125
G1 Y-0.0708
G17 G3 X1.3036 Y-0.0583 I-0.0125
G1 X1.2036 Z-0.1416
X1.2033 Y-0.0584
X1.2027 Y-0.0587
X1.1978 Y-0.0602 Z-0.1418
X1.193 Y-0.0614 Z-0.142
X1.1882 Y-0.0621 Z-0.1422
X1.1867 Y-0.0622
X1.1861 Y-0.0623
X1.1867 Y-0.0622 Z-0.1423
X1.1882 Y-0.0621
X1.193 Y-0.0614 Z-0.1425
X1.1978 Y-0.0602 Z-0.1427
X1.2027 Y-0.0587 Z-0.1428
X1.2033 Y-0.0584 Z-0.1429
X1.2036 Y-0.0583
X1.3948 Z-0.1495
X1.3949
X1.3952 Y-0.0584 Z-0.1496
X1.3958 Y-0.0587
X1.4006 Y-0.0602 Z-0.1498
X1.4054 Y-0.0614 Z-0.1499
X1.4103 Y-0.0621 Z-0.1501
X1.4117 Y-0.0623
X1.4124 Z-0.1502
X1.4117
X1.4103 Y-0.0621
X1.4054 Y-0.0614 Z-0.1504
X1.4006 Y-0.0602 Z-0.1506
X1.3958 Y-0.0587 Z-0.1508
X1.3952 Y-0.0584
X1.3949 Y-0.0583
X1.3948
X1.2036 Z-0.1575
X1.2033 Y-0.0584
X1.2027 Y-0.0587
X1.1978 Y-0.0602 Z-0.1577
X1.193 Y-0.0614 Z-0.1579
X1.1882 Y-0.0621 Z-0.158
X1.1867 Y-0.0622 Z-0.1581
X1.1861 Y-0.0623
X1.1867 Y-0.0622
X1.1882 Y-0.0621
X1.193 Y-0.0614
X1.1978 Y-0.0602
X1.2027 Y-0.0587
X1.2033 Y-0.0584
X1.2036 Y-0.0583
X1.3948
X1.3949
X1.3952 Y-0.0584
X1.3958 Y-0.0587
X1.4006 Y-0.0602
X1.4054 Y-0.0614
X1.4103 Y-0.0621
X1.4117 Y-0.0623
X1.4124
G3 X1.3986 Y-0.0734 I-0.0013 J-0.0124
G1 X1.3983 Y-0.0762 Z-0.1578
X1.398 Y-0.0788 Z-0.1569
X1.3978 Y-0.0811 Z-0.1554
X1.3976 Y-0.0831 Z-0.1534
X1.3974 Y-0.0846 Z-0.151
X1.3973 Y-0.0855 Z-0.1484
Y-0.0858 Z-0.1456
G0 Z0.2
X1.3023 Y2.433
Z-0.05
G1 Z-0.1056 F40.38
G19 G2 Y2.4205 Z-0.1181 J-0.0125
G17 G3 X1.3148 Y2.408 I0.0125
G1 X1.3748 Z-0.1202
X1.3749 Y2.4081
X1.375 Y2.4082
X1.3753 Y2.4084
X1.3765 Y2.4095 Z-0.1203
X1.3789 Y2.4115 Z-0.1204
X1.3813 Y2.4133 Z-0.1205
X1.3828 Y2.4143 Z-0.1206
X1.3861 Y2.4164 Z-0.1207
X1.391 Y2.4189 Z-0.1209
X1.3916 Y2.4192
X1.3958 Y2.4209 Z-0.1211
X1.4006 Y2.4224 Z-0.1212
X1.4054 Y2.4236 Z-0.1214
X1.408 Y2.424 Z-0.1215
X1.4103 Y2.4243 Z-0.1216
X1.4117 Y2.4245
X1.4127 Z-0.1217
X1.4117
X1.4103 Y2.4243 Z-0.1218
X1.408 Y2.424
X1.4054 Y2.4236 Z-0.1219
X1.4006 Y2.4224 Z-0.1221
X1.3958 Y2.4209 Z-0.1223
X1.3916 Y2.4192 Z-0.1224
X1.391 Y2.4189 Z-0.1225
X1.3861 Y2.4164 Z-0.1227
X1.3828 Y2.4143 Z-0.1228
X1.3813 Y2.4133 Z-0.1229
X1.3789 Y2.4115 Z-0.123
X1.3765 Y2.4095 Z-0.1231
X1.3753 Y2.4084
X1.375 Y2.4082
X1.3749 Y2.4081
X1.3748 Y2.408
X1.2236 Z-0.1284
X1.2235 Y2.4081
X1.2232 Y2.4084
X1.222 Y2.4095 Z-0.1285
X1.2195 Y2.4115 Z-0.1286
X1.2171 Y2.4133 Z-0.1287
X1.2156 Y2.4143 Z-0.1288
X1.2123 Y2.4164 Z-0.1289
X1.2075 Y2.4189 Z-0.1291
X1.2068 Y2.4192
X1.2027 Y2.4209 Z-0.1293
X1.1978 Y2.4224 Z-0.1295
X1.193 Y2.4236 Z-0.1296
X1.1904 Y2.424 Z-0.1297
X1.1882 Y2.4243 Z-0.1298
X1.1867 Y2.4245 Z-0.1299
X1.1858
X1.1867
X1.1882 Y2.4243 Z-0.13
X1.1904 Y2.424 Z-0.1301
X1.193 Y2.4236
X1.1978 Y2.4224 Z-0.1303
X1.2027 Y2.4209 Z-0.1305
X1.2068 Y2.4192 Z-0.1307
X1.2075 Y2.4189
X1.2123 Y2.4164 Z-0.1309
X1.2156 Y2.4143 Z-0.131
X1.2171 Y2.4133 Z-0.1311
X1.2195 Y2.4115 Z-0.1312
X1.222 Y2.4095 Z-0.1313
X1.2232 Y2.4084
X1.2235 Y2.4081 Z-0.1314
X1.2236 Y2.408
X1.3748 Z-0.1366
X1.3749 Y2.4081
X1.375 Y2.4082
X1.3753 Y2.4084 Z-0.1367
X1.3765 Y2.4095
X1.3789 Y2.4115 Z-0.1368
X1.3813 Y2.4133 Z-0.1369
X1.3828 Y2.4143 Z-0.137
X1.3861 Y2.4164 Z-0.1371
X1.391 Y2.4189 Z-0.1373
X1.3916 Y2.4192
X1.3958 Y2.4209 Z-0.1375
X1.4006 Y2.4224 Z-0.1377
X1.4054 Y2.4236 Z-0.1379
X1.408 Y2.424
X1.4103 Y2.4243 Z-0.138
X1.4117 Y2.4245 Z-0.1381
X1.4127
X1.4117
X1.4103 Y2.4243
X1.408 Y2.424
X1.4054 Y2.4236
X1.4006 Y2.4224
X1.3958 Y2.4209
X1.3916 Y2.4192
X1.391 Y2.4189
X1.3861 Y2.4164
X1.3828 Y2.4143
X1.3813 Y2.4133
X1.3789 Y2.4115
X1.3765 Y2.4095
X1.3753 Y2.4084
X1.375 Y2.4082
X1.3749 Y2.4081
X1.3748 Y2.408
X1.2236
X1.2235 Y2.4081
X1.2232 Y2.4084
X1.222 Y2.4095
X1.2195 Y2.4115
X1.2171 Y2.4133
X1.2156 Y2.4143
X1.2123 Y2.4164
X1.2075 Y2.4189
X1.2068 Y2.4192
X1.2027 Y2.4209
X1.1978 Y2.4224
X1.193 Y2.4236
X1.1904 Y2.424
X1.1882 Y2.4243
X1.1867 Y2.4245
X1.1858
G3 X1.1995 Y2.4357 I0.0013 J0.0124
G1 X1.1998 Y2.4384 Z-0.1378
X1.2001 Y2.441 Z-0.1369
X1.2003 Y2.4434 Z-0.1354
X1.2005 Y2.4454 Z-0.1334
X1.2007 Y2.4469 Z-0.131
X1.2008 Y2.4478 Z-0.1284
Y2.4481 Z-0.1256
G0 Z0.2
X1.2837 Y2.4486
Z-0.0457
G1 Z-0.1256 F40.38
G19 G2 Y2.4361 Z-0.1381 J-0.0125
G1 Y2.433
G17 G3 X1.2962 Y2.4205 I0.0125
G1 X1.3948 Z-0.1416
X1.3949
X1.3952 Y2.4207
X1.3958 Y2.4209
X1.4006 Y2.4224 Z-0.1418
X1.4054 Y2.4236 Z-0.1419
X1.408 Y2.424 Z-0.142
X1.4103 Y2.4243 Z-0.1421
X1.4117 Y2.4245 Z-0.1422
X1.4127
X1.4117
X1.4103 Y2.4243 Z-0.1423
X1.408 Y2.424 Z-0.1424
X1.4054 Y2.4236
X1.4006 Y2.4224 Z-0.1426
X1.3958 Y2.4209 Z-0.1428
X1.3952 Y2.4207
X1.3949 Y2.4205
X1.3948
X1.2036 Z-0.1495
X1.2033 Y2.4206
X1.2027 Y2.4209
X1.1978 Y2.4224 Z-0.1497
X1.193 Y2.4236 Z-0.1499
X1.1904 Y2.424 Z-0.15
X1.1882 Y2.4243 Z-0.1501
X1.1867 Y2.4245
X1.1858 Z-0.1502
X1.1867
X1.1882 Y2.4243
X1.1904 Y2.424 Z-0.1503
X1.193 Y2.4236 Z-0.1504
X1.1978 Y2.4224 Z-0.1506
X1.2027 Y2.4209 Z-0.1508
X1.2033 Y2.4206
X1.2036 Y2.4205
X1.3948 Z-0.1575
X1.3949
X1.3952 Y2.4207
X1.3958 Y2.4209
X1.4006 Y2.4224 Z-0.1577
X1.4054 Y2.4236 Z-0.1579
X1.408 Y2.424
X1.4103 Y2.4243 Z-0.158
X1.4117 Y2.4245 Z-0.1581
X1.4127
X1.4117
X1.4103 Y2.4243
X1.408 Y2.424
X1.4054 Y2.4236
X1.4006 Y2.4224
X1.3958 Y2.4209
X1.3952 Y2.4207
X1.3949 Y2.4205
X1.3948
X1.2036
X1.2033 Y2.4206
X1.2027 Y2.4209
X1.1978 Y2.4224
X1.193 Y2.4236
X1.1904 Y2.424
X1.1882 Y2.4243
X1.1867 Y2.4245
X1.1858
G3 X1.1995 Y2.4357 I0.0013 J0.0124
G1 X1.1998 Y2.4384 Z-0.1578
X1.2001 Y2.441 Z-0.1569
X1.2003 Y2.4434 Z-0.1554
X1.2005 Y2.4454 Z-0.1534
X1.2007 Y2.4469 Z-0.151
X1.2008 Y2.4478 Z-0.1484
Y2.4481 Z-0.1456
G0 Z0.2
X0.2787 Y2.433
Z-0.05
G1 Z-0.1056 F40.38
G19 G2 Y2.4205 Z-0.1181 J-0.0125
G17 G3 X0.2912 Y2.408 I0.0125
G1 X0.3512 Z-0.1202
X0.3513 Y2.4081
X0.3516 Y2.4084
X0.3528 Y2.4095 Z-0.1203
X0.3553 Y2.4115 Z-0.1204
X0.3577 Y2.4133 Z-0.1205
X0.3592 Y2.4143 Z-0.1206
X0.3625 Y2.4164 Z-0.1207
X0.3673 Y2.4189 Z-0.1209
X0.368 Y2.4192
X0.3722 Y2.4209 Z-0.1211
X0.377 Y2.4224 Z-0.1212
X0.3818 Y2.4236 Z-0.1214
X0.3844 Y2.424 Z-0.1215
X0.3866 Y2.4243 Z-0.1216
X0.3881 Y2.4245
X0.389 Z-0.1217
X0.3881
X0.3866 Y2.4243 Z-0.1218
X0.3844 Y2.424
X0.3818 Y2.4236 Z-0.1219
X0.377 Y2.4224 Z-0.1221
X0.3722 Y2.4209 Z-0.1223
X0.368 Y2.4192 Z-0.1224
X0.3673 Y2.4189 Z-0.1225
X0.3625 Y2.4164 Z-0.1227
X0.3592 Y2.4143 Z-0.1228
X0.3577 Y2.4133 Z-0.1229
X0.3553 Y2.4115 Z-0.123
X0.3528 Y2.4095 Z-0.1231
X0.3516 Y2.4084
X0.3513 Y2.4081
X0.3512 Y2.408
X0.2 Z-0.1284
X0.1999 Y2.4081
X0.1998 Y2.4082
X0.1995 Y2.4084
X0.1983 Y2.4095 Z-0.1285
X0.1959 Y2.4115 Z-0.1286
X0.1935 Y2.4133 Z-0.1287
X0.192 Y2.4143 Z-0.1288
X0.1887 Y2.4164 Z-0.1289
X0.1838 Y2.4189 Z-0.1291
X0.1832 Y2.4192
X0.179 Y2.4209 Z-0.1293
X0.1742 Y2.4224 Z-0.1295
X0.1694 Y2.4236 Z-0.1296
X0.1668 Y2.424 Z-0.1297
X0.1645 Y2.4243 Z-0.1298
X0.1631 Y2.4245 Z-0.1299
X0.1621
X0.1631
X0.1645 Y2.4243 Z-0.13
X0.1668 Y2.424 Z-0.1301
X0.1694 Y2.4236
X0.1742 Y2.4224 Z-0.1303
X0.179 Y2.4209 Z-0.1305
X0.1832 Y2.4192 Z-0.1307
X0.1838 Y2.4189
X0.1887 Y2.4164 Z-0.1309
X0.192 Y2.4143 Z-0.131
X0.1935 Y2.4133 Z-0.1311
X0.1959 Y2.4115 Z-0.1312
X0.1983 Y2.4095 Z-0.1313
X0.1995 Y2.4084
X0.1998 Y2.4082 Z-0.1314
X0.1999 Y2.4081
X0.2 Y2.408
X0.3512 Z-0.1366
X0.3513 Y2.4081
X0.3516 Y2.4084 Z-0.1367
X0.3528 Y2.4095
X0.3553 Y2.4115 Z-0.1368
X0.3577 Y2.4133 Z-0.1369
X0.3592 Y2.4143 Z-0.137
X0.3625 Y2.4164 Z-0.1371
X0.3673 Y2.4189 Z-0.1373
X0.368 Y2.4192
X0.3722 Y2.4209 Z-0.1375
X0.377 Y2.4224 Z-0.1377
X0.3818 Y2.4236 Z-0.1379
X0.3844 Y2.424
X0.3866 Y2.4243 Z-0.138
X0.3881 Y2.4245 Z-0.1381
X0.389
X0.3881
X0.3866 Y2.4243
X0.3844 Y2.424
X0.3818 Y2.4236
X0.377 Y2.4224
X0.3722 Y2.4209
X0.368 Y2.4192
X0.3673 Y2.4189
X0.3625 Y2.4164
X0.3592 Y2.4143
X0.3577 Y2.4133
X0.3553 Y2.4115
X0.3528 Y2.4095
X0.3516 Y2.4084
X0.3513 Y2.4081
X0.3512 Y2.408
X0.2
X0.1999 Y2.4081
X0.1998 Y2.4082
X0.1995 Y2.4084
X0.1983 Y2.4095
X0.1959 Y2.4115
X0.1935 Y2.4133
X0.192 Y2.4143
X0.1887 Y2.4164
X0.1838 Y2.4189
X0.1832 Y2.4192
X0.179 Y2.4209
X0.1742 Y2.4224
X0.1694 Y2.4236
X0.1668 Y2.424
X0.1645 Y2.4243
X0.1631 Y2.4245
X0.1621
G3 X0.1759 Y2.4357 I0.0013 J0.0124
G1 X0.1762 Y2.4384 Z-0.1378
X0.1765 Y2.441 Z-0.1369
X0.1767 Y2.4434 Z-0.1354
X0.1769 Y2.4454 Z-0.1334
X0.1771 Y2.4469 Z-0.131
X0.1772 Y2.4478 Z-0.1284
Y2.4481 Z-0.1256
G0 Z0.2
X0.2601 Y2.4486
Z-0.0457
G1 Z-0.1256 F40.38
G19 G2 Y2.4361 Z-0.1381 J-0.0125
G1 Y2.433
G17 G3 X0.2726 Y2.4205 I0.0125
G1 X0.3712 Z-0.1416
X0.3715 Y2.4206
X0.3722 Y2.4209
X0.377 Y2.4224 Z-0.1418
X0.3818 Y2.4236 Z-0.1419
X0.3844 Y2.424 Z-0.142
X0.3866 Y2.4243 Z-0.1421
X0.3881 Y2.4245 Z-0.1422
X0.389
X0.3881
X0.3866 Y2.4243 Z-0.1423
X0.3844 Y2.424 Z-0.1424
X0.3818 Y2.4236
X0.377 Y2.4224 Z-0.1426
X0.3722 Y2.4209 Z-0.1428
X0.3715 Y2.4206
X0.3712 Y2.4205
X0.18 Z-0.1495
X0.1799
X0.1796 Y2.4207
X0.179 Y2.4209
X0.1742 Y2.4224 Z-0.1497
X0.1694 Y2.4236 Z-0.1499
X0.1668 Y2.424 Z-0.15
X0.1645 Y2.4243 Z-0.1501
X0.1631 Y2.4245
X0.1621 Z-0.1502
X0.1631
X0.1645 Y2.4243
X0.1668 Y2.424 Z-0.1503
X0.1694 Y2.4236 Z-0.1504
X0.1742 Y2.4224 Z-0.1506
X0.179 Y2.4209 Z-0.1508
X0.1796 Y2.4207
X0.1799 Y2.4205
X0.18
X0.3712 Z-0.1575
X0.3715 Y2.4206
X0.3722 Y2.4209
X0.377 Y2.4224 Z-0.1577
X0.3818 Y2.4236 Z-0.1579
X0.3844 Y2.424
X0.3866 Y2.4243 Z-0.158
X0.3881 Y2.4245 Z-0.1581
X0.389
X0.3881
X0.3866 Y2.4243
X0.3844 Y2.424
X0.3818 Y2.4236
X0.377 Y2.4224
X0.3722 Y2.4209
X0.3715 Y2.4206
X0.3712 Y2.4205
X0.18
X0.1799
X0.1796 Y2.4207
X0.179 Y2.4209
X0.1742 Y2.4224
X0.1694 Y2.4236
X0.1668 Y2.424
X0.1645 Y2.4243
X0.1631 Y2.4245
X0.1621
G3 X0.1759 Y2.4357 I0.0013 J0.0124
G1 X0.1762 Y2.4384 Z-0.1578
X0.1765 Y2.441 Z-0.1569
X0.1767 Y2.4434 Z-0.1554
X0.1769 Y2.4454 Z-0.1534
X0.1771 Y2.4469 Z-0.151
X0.1772 Y2.4478 Z-0.1484
Y2.4481 Z-0.1456
G0 Z0.6
M9
M30
%
