%
(1001)
(T6  D=3.175 CR=0 - ZMIN=-0.54 - flat end mill)
G90 G94
G17
G21

(Face2)
M9
T6 M6
S1504 M3
G54
M8
G0 X42.064 Y1.428
Z15.24
Z5.08
G1 Z-0.222 F2.6
G18 G3 X41.746 Z-0.54 I-0.318
G1 X40
X0
G17 G2 Y4.413 J1.493
G1 X40
G3 Y7.399 J1.493
G1 X0
G2 Y10.384 J1.493
G1 X40
G3 Y13.369 J1.493
G1 X0
G2 Y16.355 J1.493
G1 X40
G3 Y19.34 J1.493
G1 X0
G2 Y22.325 J1.493
G1 X40
G3 Y25.311 J1.493
G1 X0
G2 Y28.296 J1.493
G1 X40
G3 Y31.281 J1.493
G1 X0
G2 Y34.267 J1.493
G1 X40
G3 Y37.252 J1.493
G1 X0
G2 Y40.238 J1.493
G1 X40
G3 Y43.223 J1.493
G1 X0
G2 Y46.208 J1.493
G1 X40
G3 Y49.194 J1.493
G1 X0
G2 Y52.179 J1.493
G1 X40
G3 Y55.164 J1.493
G1 X0
G2 Y58.15 J1.493
G1 X40
G3 Y61.135 J1.493
G1 X0
G2 Y64.12 J1.493
G1 X40
G3 Y67.106 J1.493
G1 X0
G2 Y70.091 J1.493
G1 X40
G3 Y73.076 J1.493
G1 X0
G2 Y76.062 J1.493
G1 X40
G18 G2 X40.318 Z-0.222 K0.318
G0 Z15.24
G17
M9
M30
%
