%
(SmallStraightTrack_1_8_flat)
(T2  D=0.125 CR=0 - ZMIN=-0.4673 - flat end mill)
G90 G94
G17
G20

(2D Contour2)
M9
T2 M6
S11028 M3
G54
M8
G0 X0.8879 Y0.3222
Z0.6
Z0.2
G1 Z0.0794 F35
Z-0.0275
X0.8881 Y0.322 Z-0.0303
X0.8886 Y0.3212 Z-0.0329
X0.8895 Y0.32 Z-0.0353
X0.8907 Y0.3184 Z-0.0373
X0.8921 Y0.3165 Z-0.0388
X0.8936 Y0.3144 Z-0.0397
X0.8953 Y0.3122 Z-0.04
X0.9027 Y0.3021
G2 X0.9 Y0.2846 I-0.0101 J-0.0074
G3 X0.8745 Y0.2342 I0.037 J-0.0504 F35.38
G1 Y0
G3 X0.937 Y-0.0625 I0.0625
G1 X1.5748
G3 X1.6373 Y0 J0.0625
G1 Y2.3622
G3 X1.5748 Y2.4247 I-0.0625
G1 X0.9719
Y2.6194
G3 X0.7874 Y2.9854 I-0.1845 J0.1365
X0.6029 Y2.6194 J-0.2295
G1 Y2.4247
X0
G3 X-0.0625 Y2.3622 J-0.0625
G1 Y0
G3 X0 Y-0.0625 I0.0625
G1 X0.6378
G3 X0.7003 Y0 J0.0625
G1 Y0.2283
G3 X0.676 Y0.2861 I-0.062 J0.0079
G2 X0.902 Y0.5853 I0.113 J0.1496
X0.9 Y0.2846 I-0.113 J-0.1496
X0.8825 Y0.2873 I-0.0074 J0.0101 F35
G1 X0.8751 Y0.2974
X0.8735 Y0.2996 Z-0.0397
X0.8719 Y0.3017 Z-0.0388
X0.8705 Y0.3036 Z-0.0373
X0.8693 Y0.3052 Z-0.0353
X0.8685 Y0.3064 Z-0.0329
X0.8679 Y0.3072 Z-0.0303
X0.8677 Y0.3074 Z-0.0275
X0.837 Y0.2365
Z-0.0675
G18 G2 X0.8495 Z-0.08 I0.0125
G1 X0.862
G17 G2 X0.8745 Y0.224 J-0.0125
G1 Y0 F35.38
G3 X0.937 Y-0.0625 I0.0625
G1 X1.5748
G3 X1.6373 Y0 J0.0625
G1 Y2.3622
G3 X1.5748 Y2.4247 I-0.0625
G1 X0.9719
Y2.6194
G3 X0.7874 Y2.9854 I-0.1845 J0.1365
X0.6029 Y2.6194 J-0.2295
G1 Y2.4247
X0
G3 X-0.0625 Y2.3622 J-0.0625
G1 Y0
G3 X0 Y-0.0625 I0.0625
G1 X0.6378
G3 X0.7003 Y0 J0.0625
G1 Y0.2283
G3 X0.676 Y0.2861 I-0.062 J0.0079
G2 X0.902 Y0.5853 I0.113 J0.1496
X0.9 Y0.2846 I-0.113 J-0.1496
G3 X0.8745 Y0.2342 I0.037 J-0.0504
G1 Y0.224
G2 X0.862 Y0.2115 I-0.0125 F35
G1 X0.8495
G18 G3 X0.837 Z-0.0675 K0.0125
G1 Y0.2365
Z-0.1075
G2 X0.8495 Z-0.12 I0.0125
G1 X0.862
G17 G2 X0.8745 Y0.224 J-0.0125
G1 Y0 F35.38
G3 X0.937 Y-0.0625 I0.0625
G1 X1.5748
G3 X1.6373 Y0 J0.0625
G1 Y2.3622
G3 X1.5748 Y2.4247 I-0.0625
G1 X0.9719
Y2.6194
G3 X0.7874 Y2.9854 I-0.1845 J0.1365
X0.6029 Y2.6194 J-0.2295
G1 Y2.4247
X0
G3 X-0.0625 Y2.3622 J-0.0625
G1 Y0
G3 X0 Y-0.0625 I0.0625
G1 X0.6378
G3 X0.7003 Y0 J0.0625
G1 Y0.2283
G3 X0.676 Y0.2861 I-0.062 J0.0079
G2 X0.902 Y0.5853 I0.113 J0.1496
X0.9 Y0.2846 I-0.113 J-0.1496
G3 X0.8745 Y0.2342 I0.037 J-0.0504
G1 Y0.224
G2 X0.862 Y0.2115 I-0.0125 F35
G1 X0.8495
G18 G3 X0.837 Z-0.1075 K0.0125
G1 Y0.2365
Z-0.1475
G2 X0.8495 Z-0.16 I0.0125
G1 X0.862
G17 G2 X0.8745 Y0.224 J-0.0125
G1 Y0 F35.38
G3 X0.937 Y-0.0625 I0.0625
G1 X1.5748
G3 X1.6373 Y0 J0.0625
G1 Y2.3622
G3 X1.5748 Y2.4247 I-0.0625
G1 X0.9719
Y2.6194
G3 X0.7874 Y2.9854 I-0.1845 J0.1365
X0.6029 Y2.6194 J-0.2295
G1 Y2.4247
X0
G3 X-0.0625 Y2.3622 J-0.0625
G1 Y0
G3 X0 Y-0.0625 I0.0625
G1 X0.6378
G3 X0.7003 Y0 J0.0625
G1 Y0.2283
G3 X0.676 Y0.2861 I-0.062 J0.0079
G2 X0.902 Y0.5853 I0.113 J0.1496
X0.9 Y0.2846 I-0.113 J-0.1496
G3 X0.8745 Y0.2342 I0.037 J-0.0504
G1 Y0.224
G2 X0.862 Y0.2115 I-0.0125 F35
G1 X0.8495
G18 G3 X0.837 Z-0.1475 K0.0125
G1 Y0.2365
Z-0.1875
G2 X0.8495 Z-0.2 I0.0125
G1 X0.862
G17 G2 X0.8745 Y0.224 J-0.0125
G1 Y0 F35.38
G3 X0.937 Y-0.0625 I0.0625
G1 X1.5748
G3 X1.6373 Y0 J0.0625
G1 Y2.3622
G3 X1.5748 Y2.4247 I-0.0625
G1 X0.9719
Y2.6194
G3 X0.7874 Y2.9854 I-0.1845 J0.1365
X0.6029 Y2.6194 J-0.2295
G1 Y2.4247
X0
G3 X-0.0625 Y2.3622 J-0.0625
G1 Y0
G3 X0 Y-0.0625 I0.0625
G1 X0.6378
G3 X0.7003 Y0 J0.0625
G1 Y0.2283
G3 X0.676 Y0.2861 I-0.062 J0.0079
G2 X0.902 Y0.5853 I0.113 J0.1496
X0.9 Y0.2846 I-0.113 J-0.1496
G3 X0.8745 Y0.2342 I0.037 J-0.0504
G1 Y0.224
G2 X0.862 Y0.2115 I-0.0125 F35
G1 X0.8495
G18 G3 X0.837 Z-0.1875 K0.0125
G1 Y0.2365
Z-0.2275
G2 X0.8495 Z-0.24 I0.0125
G1 X0.862
G17 G2 X0.8745 Y0.224 J-0.0125
G1 Y0 F35.38
G3 X0.937 Y-0.0625 I0.0625
G1 X1.5748
G3 X1.6373 Y0 J0.0625
G1 Y2.3622
G3 X1.5748 Y2.4247 I-0.0625
G1 X0.9719
Y2.6194
G3 X0.7874 Y2.9854 I-0.1845 J0.1365
X0.6029 Y2.6194 J-0.2295
G1 Y2.4247
X0
G3 X-0.0625 Y2.3622 J-0.0625
G1 Y0
G3 X0 Y-0.0625 I0.0625
G1 X0.6378
G3 X0.7003 Y0 J0.0625
G1 Y0.2283
G3 X0.676 Y0.2861 I-0.062 J0.0079
G2 X0.902 Y0.5853 I0.113 J0.1496
X0.9 Y0.2846 I-0.113 J-0.1496
G3 X0.8745 Y0.2342 I0.037 J-0.0504
G1 Y0.224
G2 X0.862 Y0.2115 I-0.0125 F35
G1 X0.8495
G18 G3 X0.837 Z-0.2275 K0.0125
G1 Y0.2365
Z-0.2675
G2 X0.8495 Z-0.28 I0.0125
G1 X0.862
G17 G2 X0.8745 Y0.224 J-0.0125
G1 Y0 F35.38
G3 X0.937 Y-0.0625 I0.0625
G1 X1.5748
G3 X1.6373 Y0 J0.0625
G1 Y2.3622
G3 X1.5748 Y2.4247 I-0.0625
G1 X0.9719
Y2.6194
G3 X0.7874 Y2.9854 I-0.1845 J0.1365
X0.6029 Y2.6194 J-0.2295
G1 Y2.4247
X0
G3 X-0.0625 Y2.3622 J-0.0625
G1 Y0
G3 X0 Y-0.0625 I0.0625
G1 X0.6378
G3 X0.7003 Y0 J0.0625
G1 Y0.2283
G3 X0.676 Y0.2861 I-0.062 J0.0079
G2 X0.902 Y0.5853 I0.113 J0.1496
X0.9 Y0.2846 I-0.113 J-0.1496
G3 X0.8745 Y0.2342 I0.037 J-0.0504
G1 Y0.224
G2 X0.862 Y0.2115 I-0.0125 F35
G1 X0.8495
G18 G3 X0.837 Z-0.2675 K0.0125
G1 Y0.2365
Z-0.3075
G2 X0.8495 Z-0.32 I0.0125
G1 X0.862
G17 G2 X0.8745 Y0.224 J-0.0125
G1 Y0 F35.38
G3 X0.937 Y-0.0625 I0.0625
G1 X1.5748
G3 X1.6373 Y0 J0.0625
G1 Y2.3622
G3 X1.5748 Y2.4247 I-0.0625
G1 X0.9719
Y2.6194
G3 X0.7874 Y2.9854 I-0.1845 J0.1365
X0.6029 Y2.6194 J-0.2295
G1 Y2.4247
X0
G3 X-0.0625 Y2.3622 J-0.0625
G1 Y0
G3 X0 Y-0.0625 I0.0625
G1 X0.6378
G3 X0.7003 Y0 J0.0625
G1 Y0.2283
G3 X0.676 Y0.2861 I-0.062 J0.0079
G2 X0.902 Y0.5853 I0.113 J0.1496
X0.9 Y0.2846 I-0.113 J-0.1496
G3 X0.8745 Y0.2342 I0.037 J-0.0504
G1 Y0.224
G2 X0.862 Y0.2115 I-0.0125 F35
G1 X0.8495
G18 G3 X0.837 Z-0.3075 K0.0125
G1 Y0.2365
Z-0.3475
G2 X0.8495 Z-0.36 I0.0125
G1 X0.862
G17 G2 X0.8745 Y0.224 J-0.0125
G1 Y0 F35.38
G3 X0.937 Y-0.0625 I0.0625
G1 X1.5748
G3 X1.6373 Y0 J0.0625
G1 Y2.3622
G3 X1.5748 Y2.4247 I-0.0625
G1 X0.9719
Y2.6194
G3 X0.7874 Y2.9854 I-0.1845 J0.1365
X0.6029 Y2.6194 J-0.2295
G1 Y2.4247
X0
G3 X-0.0625 Y2.3622 J-0.0625
G1 Y0
G3 X0 Y-0.0625 I0.0625
G1 X0.6378
G3 X0.7003 Y0 J0.0625
G1 Y0.2283
G3 X0.676 Y0.2861 I-0.062 J0.0079
G2 X0.902 Y0.5853 I0.113 J0.1496
X0.9 Y0.2846 I-0.113 J-0.1496
G3 X0.8745 Y0.2342 I0.037 J-0.0504
G1 Y0.224
G2 X0.862 Y0.2115 I-0.0125 F35
G1 X0.8495
G18 G3 X0.837 Z-0.3475 K0.0125
G1 Y0.2365
Z-0.3875
G2 X0.8495 Z-0.4 I0.0125
G1 X0.862
G17 G2 X0.8745 Y0.224 J-0.0125
G1 Y0 F35.38
G3 X0.937 Y-0.0625 I0.0625
G1 X1.5748
G3 X1.6373 Y0 J0.0625
G1 Y2.3622
G3 X1.5748 Y2.4247 I-0.0625
G1 X0.9719
Y2.6194
G3 X0.7874 Y2.9854 I-0.1845 J0.1365
X0.6029 Y2.6194 J-0.2295
G1 Y2.4247
X0
G3 X-0.0625 Y2.3622 J-0.0625
G1 Y0
G3 X0 Y-0.0625 I0.0625
G1 X0.6378
G3 X0.7003 Y0 J0.0625
G1 Y0.2283
G3 X0.676 Y0.2861 I-0.062 J0.0079
G2 X0.902 Y0.5853 I0.113 J0.1496
X0.9 Y0.2846 I-0.113 J-0.1496
G3 X0.8745 Y0.2342 I0.037 J-0.0504
G1 Y0.224
G2 X0.862 Y0.2115 I-0.0125 F35
G1 X0.8495
G18 G3 X0.837 Z-0.3875 K0.0125
G1 Y0.2365
Z-0.4275
G2 X0.8495 Z-0.44 I0.0125
G1 X0.862
G17 G2 X0.8745 Y0.224 J-0.0125
G1 Y0 F35.38
G3 X0.937 Y-0.0625 I0.0625
G1 X1.5748
G3 X1.6373 Y0 J0.0625
G1 Y0.4656
Z-0.4361
Y0.7156
Z-0.44 F35
Y1.6467 F35.38
Z-0.4361
Y1.8967
Z-0.44 F35
Y2.3622 F35.38
G3 X1.5748 Y2.4247 I-0.0625
G1 X0.9719
Y2.6194
G3 X0.7874 Y2.9854 I-0.1845 J0.1365
X0.6029 Y2.6194 J-0.2295
G1 Y2.4247
X0
G3 X-0.0625 Y2.3622 J-0.0625
G1 Y1.8967
Z-0.4361
Y1.6467
Z-0.44 F35
Y0.7156 F35.38
Z-0.4361
Y0.4656
Z-0.44 F35
Y0 F35.38
G3 X0 Y-0.0625 I0.0625
G1 X0.6378
G3 X0.7003 Y0 J0.0625
G1 Y0.2283
G3 X0.676 Y0.2861 I-0.062 J0.0079
G2 X0.6649 Y0.5763 I0.113 J0.1496
G1 Z-0.4361
G2 X0.9149 Y0.5746 I0.1241 J-0.1406
G1 Z-0.44 F35
G2 X0.9 Y0.2846 I-0.1259 J-0.1389 F35.38
G3 X0.8745 Y0.2342 I0.037 J-0.0504
G1 Y0.224
G2 X0.862 Y0.2115 I-0.0125 F35
G1 X0.8495
G18 G3 X0.837 Z-0.4275 K0.0125
G1 Y0.2365
Z-0.4548
G2 X0.8495 Z-0.4673 I0.0125
G1 X0.862
G17 G2 X0.8745 Y0.224 J-0.0125
G1 Y0 F35.38
G3 X0.937 Y-0.0625 I0.0625
G1 X1.5748
G3 X1.6373 Y0 J0.0625
G1 Y0.4656
Z-0.4361
Y0.7156
Z-0.4673 F35
Y1.6467 F35.38
Z-0.4361
Y1.8967
Z-0.4673 F35
Y2.3622 F35.38
G3 X1.5748 Y2.4247 I-0.0625
G1 X0.9719
Y2.6194
G3 X0.7874 Y2.9854 I-0.1845 J0.1365
X0.6029 Y2.6194 J-0.2295
G1 Y2.4247
X0
G3 X-0.0625 Y2.3622 J-0.0625
G1 Y1.8967
Z-0.4361
Y1.6467
Z-0.4673 F35
Y0.7156 F35.38
Z-0.4361
Y0.4656
Z-0.4673 F35
Y0 F35.38
G3 X0 Y-0.0625 I0.0625
G1 X0.6378
G3 X0.7003 Y0 J0.0625
G1 Y0.2283
G3 X0.676 Y0.2861 I-0.062 J0.0079
G2 X0.6649 Y0.5763 I0.113 J0.1496
G1 Z-0.4361
G2 X0.9149 Y0.5746 I0.1241 J-0.1406
G1 Z-0.4673 F35
G2 X0.9 Y0.2846 I-0.1259 J-0.1389 F35.38
G3 X0.8745 Y0.2342 I0.037 J-0.0504
G1 Y0.224
G2 X0.862 Y0.2115 I-0.0125 F35
G1 X0.8495
G18 G3 X0.837 Z-0.4548 K0.0125
G0 Z0.6
G17
M9
M30
%
