%
(1001)
(T6  D=0.125 CR=0 - ZMIN=-0.0213 - flat end mill)
G90 G94
G17
G20

(Face2)
M9
T6 M6
S1504 M3
G54
M8
G0 X1.6561 Y0.0562
Z0.6
Z0.2
G1 Z-0.0088 F35
G18 G3 X1.6436 Z-0.0213 I-0.0125
G1 X1.5748
X0
G17 G2 Y0.1738 J0.0588
G1 X1.5748
G3 Y0.2913 J0.0588
G1 X0
G2 Y0.4088 J0.0588
G1 X1.5748
G3 Y0.5264 J0.0588
G1 X0
G2 Y0.6439 J0.0588
G1 X1.5748
G3 Y0.7614 J0.0588
G1 X0
G2 Y0.879 J0.0588
G1 X1.5748
G3 Y0.9965 J0.0588
G1 X0
G2 Y1.114 J0.0588
G1 X1.5748
G3 Y1.2316 J0.0588
G1 X0
G2 Y1.3491 J0.0588
G1 X1.5748
G3 Y1.4666 J0.0588
G1 X0
G2 Y1.5842 J0.0588
G1 X1.5748
G3 Y1.7017 J0.0588
G1 X0
G2 Y1.8192 J0.0588
G1 X1.5748
G3 Y1.9368 J0.0588
G1 X0
G2 Y2.0543 J0.0588
G1 X1.5748
G3 Y2.1718 J0.0588
G1 X0
G2 Y2.2894 J0.0588
G1 X1.5748
G3 Y2.4069 J0.0588
G1 X0
G2 Y2.5244 J0.0588
G1 X1.5748
G3 Y2.642 J0.0588
G1 X0
G2 Y2.7595 J0.0588
G1 X1.5748
G3 Y2.877 J0.0588
G1 X0
G2 Y2.9946 J0.0588
G1 X1.5748
G18 G2 X1.5873 Z-0.0088 K0.0125
G0 Z0.6
G17
M9
M30
%
