%
(1001)
(T2  D=3.175 CR=0 - ZMIN=-12.54 - flat end mill)
G90 G94
G17
G21

(2D Contour2)
M9
T2 M6
S11028 M3
G54
M8
G0 X7.412 Y60
Z15.24
Z5.08
G1 Z2.016 F889
Z-1.016
Y0 F898.6
X6.588 F889
Y60 F898.6
X7.412 F889
Z-2.032
Y0 F898.6
X6.588 F889
Y60 F898.6
X7.412 F889
Z-3.048
Y0 F898.6
X6.588 F889
Y60 F898.6
X7.412 F889
Z-3.54
Y0 F898.6
X6.588 F889
Y60 F898.6
G0 Z5.08
X33.412
G1 Z2.016 F889
Z-1.016
Y0 F898.6
X32.588 F889
Y60 F898.6
X33.412 F889
Z-2.032
Y0 F898.6
X32.588 F889
Y60 F898.6
X33.412 F889
Z-3.048
Y0 F898.6
X32.588 F889
Y60 F898.6
X33.412 F889
Z-3.54
Y0 F898.6
X32.588 F889
Y60 F898.6
G0 Z15.24
X22.824 Y7.225
Z5.08
G1 Z2.016 F889
Z-1.016
G3 X22.212 Y5.973 I0.976 J-1.252 F898.6
G1 Y0
G3 X23.8 Y-1.587 I1.587
G1 X40
G3 X41.588 Y0 J1.587
G1 Y60
G3 X40 Y61.588 I-1.588
G1 X24.688
Y66.205
G3 X20 Y79.188 I-4.687 J5.645
X15.313 Y66.205 J-7.338
G1 Y61.588
X0
G3 X-1.587 Y60 J-1.588
G1 Y0
G3 X0 Y-1.587 I1.587
G1 X16.2
G3 X17.788 Y0 J1.587
G1 Y5.973
G3 X17.176 Y7.225 I-1.587
G2 X22.824 Y14.469 I2.824 J3.622
Y7.225 I-2.824 J-3.622
G1 X24.592 Y10.847 F889
Z-2.032
G2 X22.824 Y7.225 I-4.592 F898.6
G3 X22.212 Y5.973 I0.976 J-1.252
G1 Y0
G3 X23.8 Y-1.587 I1.587
G1 X40
G3 X41.588 Y0 J1.587
G1 Y60
G3 X40 Y61.588 I-1.588
G1 X24.688
Y66.205
G3 X20 Y79.188 I-4.687 J5.645
X15.313 Y66.205 J-7.338
G1 Y61.588
X0
G3 X-1.587 Y60 J-1.588
G1 Y0
G3 X0 Y-1.587 I1.587
G1 X16.2
G3 X17.788 Y0 J1.587
G1 Y5.973
G3 X17.176 Y7.225 I-1.587
G2 X22.824 Y14.469 I2.824 J3.622
X24.592 Y10.847 I-2.824 J-3.622
G1 Z-3.048 F889
G2 X22.824 Y7.225 I-4.592 F898.6
G3 X22.212 Y5.973 I0.976 J-1.252
G1 Y0
G3 X23.8 Y-1.587 I1.587
G1 X40
G3 X41.588 Y0 J1.587
G1 Y60
G3 X40 Y61.588 I-1.588
G1 X24.688
Y66.205
G3 X20 Y79.188 I-4.687 J5.645
X15.313 Y66.205 J-7.338
G1 Y61.588
X0
G3 X-1.587 Y60 J-1.588
G1 Y0
G3 X0 Y-1.587 I1.587
G1 X16.2
G3 X17.788 Y0 J1.587
G1 Y5.973
G3 X17.176 Y7.225 I-1.587
G2 X22.824 Y14.469 I2.824 J3.622
X24.592 Y10.847 I-2.824 J-3.622
G1 Z-4.064 F889
G2 X22.824 Y7.225 I-4.592 F898.6
G3 X22.212 Y5.973 I0.976 J-1.252
G1 Y0
G3 X23.8 Y-1.587 I1.587
G1 X40
G3 X41.588 Y0 J1.587
G1 Y60
G3 X40 Y61.588 I-1.588
G1 X24.688
Y66.205
G3 X20 Y79.188 I-4.687 J5.645
X15.313 Y66.205 J-7.338
G1 Y61.588
X0
G3 X-1.587 Y60 J-1.588
G1 Y0
G3 X0 Y-1.587 I1.587
G1 X16.2
G3 X17.788 Y0 J1.587
G1 Y5.973
G3 X17.176 Y7.225 I-1.587
G2 X22.824 Y14.469 I2.824 J3.622
X24.592 Y10.847 I-2.824 J-3.622
G1 Z-5.08 F889
G2 X22.824 Y7.225 I-4.592 F898.6
G3 X22.212 Y5.973 I0.976 J-1.252
G1 Y0
G3 X23.8 Y-1.587 I1.587
G1 X40
G3 X41.588 Y0 J1.587
G1 Y60
G3 X40 Y61.588 I-1.588
G1 X24.688
Y66.205
G3 X20 Y79.188 I-4.687 J5.645
X15.313 Y66.205 J-7.338
G1 Y61.588
X0
G3 X-1.587 Y60 J-1.588
G1 Y0
G3 X0 Y-1.587 I1.587
G1 X16.2
G3 X17.788 Y0 J1.587
G1 Y5.973
G3 X17.176 Y7.225 I-1.587
G2 X22.824 Y14.469 I2.824 J3.622
X24.592 Y10.847 I-2.824 J-3.622
G1 Z-6.096 F889
G2 X22.824 Y7.225 I-4.592 F898.6
G3 X22.212 Y5.973 I0.976 J-1.252
G1 Y0
G3 X23.8 Y-1.587 I1.587
G1 X40
G3 X41.588 Y0 J1.587
G1 Y60
G3 X40 Y61.588 I-1.588
G1 X24.688
Y66.205
G3 X20 Y79.188 I-4.687 J5.645
X15.313 Y66.205 J-7.338
G1 Y61.588
X0
G3 X-1.587 Y60 J-1.588
G1 Y0
G3 X0 Y-1.587 I1.587
G1 X16.2
G3 X17.788 Y0 J1.587
G1 Y5.973
G3 X17.176 Y7.225 I-1.587
G2 X22.824 Y14.469 I2.824 J3.622
X24.592 Y10.847 I-2.824 J-3.622
G1 Z-7.112 F889
G2 X22.824 Y7.225 I-4.592 F898.6
G3 X22.212 Y5.973 I0.976 J-1.252
G1 Y0
G3 X23.8 Y-1.587 I1.587
G1 X40
G3 X41.588 Y0 J1.587
G1 Y60
G3 X40 Y61.588 I-1.588
G1 X24.688
Y66.205
G3 X20 Y79.188 I-4.687 J5.645
X15.313 Y66.205 J-7.338
G1 Y61.588
X0
G3 X-1.587 Y60 J-1.588
G1 Y0
G3 X0 Y-1.587 I1.587
G1 X16.2
G3 X17.788 Y0 J1.587
G1 Y5.973
G3 X17.176 Y7.225 I-1.587
G2 X22.824 Y14.469 I2.824 J3.622
X24.592 Y10.847 I-2.824 J-3.622
G1 Z-8.128 F889
G2 X22.824 Y7.225 I-4.592 F898.6
G3 X22.212 Y5.973 I0.976 J-1.252
G1 Y0
G3 X23.8 Y-1.587 I1.587
G1 X40
G3 X41.588 Y0 J1.587
G1 Y60
G3 X40 Y61.588 I-1.588
G1 X24.688
Y66.205
G3 X20 Y79.188 I-4.687 J5.645
X15.313 Y66.205 J-7.338
G1 Y61.588
X0
G3 X-1.587 Y60 J-1.588
G1 Y0
G3 X0 Y-1.587 I1.587
G1 X16.2
G3 X17.788 Y0 J1.587
G1 Y5.973
G3 X17.176 Y7.225 I-1.587
G2 X22.824 Y14.469 I2.824 J3.622
X24.592 Y10.847 I-2.824 J-3.622
G1 Z-9.144 F889
G2 X22.824 Y7.225 I-4.592 F898.6
G3 X22.212 Y5.973 I0.976 J-1.252
G1 Y0
G3 X23.8 Y-1.587 I1.587
G1 X40
G3 X41.588 Y0 J1.587
G1 Y60
G3 X40 Y61.588 I-1.588
G1 X24.688
Y66.205
G3 X20 Y79.188 I-4.687 J5.645
X15.313 Y66.205 J-7.338
G1 Y61.588
X0
G3 X-1.587 Y60 J-1.588
G1 Y0
G3 X0 Y-1.587 I1.587
G1 X16.2
G3 X17.788 Y0 J1.587
G1 Y5.973
G3 X17.176 Y7.225 I-1.587
G2 X22.824 Y14.469 I2.824 J3.622
X24.592 Y10.847 I-2.824 J-3.622
G1 Z-10.16 F889
G2 X22.824 Y7.225 I-4.592 F898.6
G3 X22.212 Y5.973 I0.976 J-1.252
G1 Y0
G3 X23.8 Y-1.587 I1.587
G1 X40
G3 X41.588 Y0 J1.587
G1 Y5.319
Z-10
Y11.669
Z-10.16 F889
Y46.406 F898.6
Z-10
Y52.756
Z-10.16 F889
Y60 F898.6
G3 X40 Y61.588 I-1.588
G1 X24.688
Y66.205
G3 X20 Y79.188 I-4.687 J5.645
X15.313 Y66.205 J-7.338
G1 Y61.588
X0
G3 X-1.587 Y60 J-1.588
G1 Y56.822
Z-10
Y50.472
Z-10.16 F889
Y7.777 F898.6
Z-10
Y1.427
Z-10.16 F889
Y0 F898.6
G3 X0 Y-1.587 I1.587
G1 X16.2
G3 X17.788 Y0 J1.587
G1 Y5.973
G3 X17.176 Y7.225 I-1.587
G2 X22.824 Y14.469 I2.824 J3.622
X24.592 Y10.847 I-2.824 J-3.622
G1 Z-11.176 F889
G2 X22.824 Y7.225 I-4.592 F898.6
G3 X22.212 Y5.973 I0.976 J-1.252
G1 Y0
G3 X23.8 Y-1.587 I1.587
G1 X40
G3 X41.588 Y0 J1.587
G1 Y5.319
Z-10
Y11.669
Z-11.176 F889
Y46.406 F898.6
Z-10
Y52.756
Z-11.176 F889
Y60 F898.6
G3 X40 Y61.588 I-1.588
G1 X24.688
Y66.205
G3 X20 Y79.188 I-4.687 J5.645
X15.313 Y66.205 J-7.338
G1 Y61.588
X0
G3 X-1.587 Y60 J-1.588
G1 Y56.822
Z-10
Y50.472
Z-11.176 F889
Y7.777 F898.6
Z-10
Y1.427
Z-11.176 F889
Y0 F898.6
G3 X0 Y-1.587 I1.587
G1 X16.2
G3 X17.788 Y0 J1.587
G1 Y5.973
G3 X17.176 Y7.225 I-1.587
G2 X22.824 Y14.469 I2.824 J3.622
X24.592 Y10.847 I-2.824 J-3.622
G1 Z-12.192 F889
G2 X22.824 Y7.225 I-4.592 F898.6
G3 X22.212 Y5.973 I0.976 J-1.252
G1 Y0
G3 X23.8 Y-1.587 I1.587
G1 X40
G3 X41.588 Y0 J1.587
G1 Y5.319
Z-10
Y11.669
Z-12.192 F889
Y46.406 F898.6
Z-10
Y52.756
Z-12.192 F889
Y60 F898.6
G3 X40 Y61.588 I-1.588
G1 X24.688
Y66.205
G3 X20 Y79.188 I-4.687 J5.645
X15.313 Y66.205 J-7.338
G1 Y61.588
X0
G3 X-1.587 Y60 J-1.588
G1 Y56.822
Z-10
Y50.472
Z-12.192 F889
Y7.777 F898.6
Z-10
Y1.427
Z-12.192 F889
Y0 F898.6
G3 X0 Y-1.587 I1.587
G1 X16.2
G3 X17.788 Y0 J1.587
G1 Y5.973
G3 X17.176 Y7.225 I-1.587
G2 X22.824 Y14.469 I2.824 J3.622
X24.592 Y10.847 I-2.824 J-3.622
G1 Z-12.54 F889
G2 X22.824 Y7.225 I-4.592 F898.6
G3 X22.212 Y5.973 I0.976 J-1.252
G1 Y0
G3 X23.8 Y-1.587 I1.587
G1 X40
G3 X41.588 Y0 J1.587
G1 Y5.319
Z-10
Y11.669
Z-12.54 F889
Y46.406 F898.6
Z-10
Y52.756
Z-12.54 F889
Y60 F898.6
G3 X40 Y61.588 I-1.588
G1 X24.688
Y66.205
G3 X20 Y79.188 I-4.687 J5.645
X15.313 Y66.205 J-7.338
G1 Y61.588
X0
G3 X-1.587 Y60 J-1.588
G1 Y56.822
Z-10
Y50.472
Z-12.54 F889
Y7.777 F898.6
Z-10
Y1.427
Z-12.54 F889
Y0 F898.6
G3 X0 Y-1.587 I1.587
G1 X16.2
G3 X17.788 Y0 J1.587
G1 Y5.973
G3 X17.176 Y7.225 I-1.587
G2 X22.824 Y14.469 I2.824 J3.622
X24.592 Y10.847 I-2.824 J-3.622
G0 Z15.24
M9
M30
%
