%
(1001)
(T5  D=3.175 CR=1.587 - ZMIN=-4.016 - ball end mill)
G90 G94
G17
G21

(Ramp1 2)
M9
T5 M6
S11028 M3
G54
M8
G0 X0.61 Y61.799
Z15.24
Z1.553
G1 Z0.317 F1025.6
G19 G2 Y61.481 Z0 J-0.317
G17 G3 X0.928 Y61.164 I0.317
G1 X1.888 Z-0.007
X2.011 Z-0.008
X2.134 Y61.159 Z-0.009
X2.257 Y61.152 Z-0.01
X2.38 Y61.146 Z-0.011
X2.502 Y61.134 Z-0.012
X2.625 Y61.114 Z-0.013
X2.743 Y61.093 Z-0.014
X2.748 Y61.092
X2.871 Y61.07 Z-0.015
X2.994 Y61.039 Z-0.016
X3.116 Y60.999 Z-0.017
X3.198 Y60.97
X3.239 Y60.955 Z-0.018
X3.362 Y60.908 Z-0.019
X3.485 Y60.848 Z-0.02
X3.607 Y60.769 Z-0.021
X3.669 Y60.725
X3.73 Y60.677 Z-0.022
X3.817 Y60.602 Z-0.023
X3.853 Y60.567
X3.931 Y60.479 Z-0.024
X3.976 Y60.413 Z-0.025
X4.008 Y60.356
X4.057 Y60.233 Z-0.026
X4.085 Y60.11 Z-0.027
X4.093 Y59.987 Z-0.028
Y0.013 Z-0.48
X4.085 Y-0.11 Z-0.481
X4.057 Y-0.233 Z-0.482
X4.008 Y-0.356 Z-0.483
X3.976 Y-0.413
X3.931 Y-0.479 Z-0.484
X3.853 Y-0.567 Z-0.485
X3.817 Y-0.602
X3.73 Y-0.677 Z-0.486
X3.669 Y-0.725 Z-0.487
X3.607 Y-0.769
X3.485 Y-0.848 Z-0.488
X3.362 Y-0.908 Z-0.489
X3.239 Y-0.955 Z-0.49
X3.198 Y-0.97 Z-0.491
X3.116 Y-0.999
X2.994 Y-1.039 Z-0.492
X2.871 Y-1.07 Z-0.493
X2.748 Y-1.092 Z-0.494
X2.743 Y-1.093
X2.625 Y-1.114 Z-0.495
X2.502 Y-1.134 Z-0.496
X2.38 Y-1.145 Z-0.497
X2.257 Y-1.152 Z-0.498
X2.134 Y-1.159 Z-0.499
X2.011 Y-1.164 Z-0.5
X1.888 Z-0.501
X0.928 Z-0.508
X1.888
X2.011
X2.134 Y-1.159
X2.257 Y-1.152
X2.38 Y-1.145
X2.502 Y-1.134
X2.625 Y-1.114
X2.743 Y-1.093
X2.748 Y-1.092
X2.871 Y-1.07
X2.994 Y-1.039
X3.116 Y-0.999
X3.198 Y-0.97
X3.239 Y-0.955
X3.362 Y-0.908
X3.485 Y-0.848
X3.607 Y-0.769
X3.669 Y-0.725
X3.73 Y-0.677
X3.817 Y-0.602
X3.853 Y-0.567
X3.931 Y-0.479
X3.976 Y-0.413
X4.008 Y-0.356
X4.057 Y-0.233
X4.085 Y-0.11
X4.093 Y0.013
Y59.987
X4.085 Y60.11
X4.057 Y60.233
X4.008 Y60.356
X3.976 Y60.413
X3.931 Y60.479
X3.853 Y60.567
X3.817 Y60.602
X3.73 Y60.677
X3.669 Y60.725
X3.607 Y60.769
X3.485 Y60.848
X3.362 Y60.908
X3.239 Y60.955
X3.198 Y60.97
X3.116 Y60.999
X2.994 Y61.039
X2.871 Y61.07
X2.748 Y61.092
X2.743 Y61.093
X2.625 Y61.114
X2.502 Y61.134
X2.38 Y61.146
X2.257 Y61.152
X2.134 Y61.159
X2.011 Y61.164
X1.888
X0.928
G3 X1.245 Y61.481 J0.318
G19 G3 Y61.799 Z-0.191 K0.318
G0 Z5.08
X13.39 Y-1.799
Z1.553
G1 Z0.317 F1025.6
G3 Y-1.481 Z0 J0.317
G17 G3 X13.072 Y-1.164 I-0.318
G1 X12.08 Z-0.007
X11.957 Y-1.163 Z-0.008
X11.834 Y-1.157 Z-0.009
X11.712 Y-1.15 Z-0.01
X11.589 Y-1.144 Z-0.011
X11.466 Y-1.129 Z-0.012
X11.343 Y-1.108 Z-0.013
X11.257 Y-1.093 Z-0.014
X11.22 Y-1.087
X11.098 Y-1.064 Z-0.015
X10.975 Y-1.029 Z-0.016
X10.852 Y-0.988 Z-0.017
X10.802 Y-0.97
X10.729 Y-0.944 Z-0.018
X10.607 Y-0.895 Z-0.019
X10.515 Y-0.848 Z-0.02
X10.484 Y-0.829
X10.361 Y-0.747 Z-0.021
X10.331 Y-0.725
X10.238 Y-0.651 Z-0.022
X10.183 Y-0.602 Z-0.023
X10.115 Y-0.534
X10.069 Y-0.479 Z-0.024
X10.027 Y-0.418 Z-0.025
X9.993 Y-0.356
X9.992
X9.943 Y-0.233 Z-0.026
X9.915 Y-0.11 Z-0.027
X9.907 Y0.013 Z-0.028
Y59.987 Z-0.48
X9.915 Y60.11 Z-0.481
X9.943 Y60.233 Z-0.482
X9.992 Y60.356 Z-0.483
X9.993
X10.027 Y60.418
X10.069 Y60.479 Z-0.484
X10.115 Y60.534 Z-0.485
X10.183 Y60.602
X10.238 Y60.651 Z-0.486
X10.331 Y60.725 Z-0.487
X10.361 Y60.747
X10.484 Y60.829 Z-0.488
X10.515 Y60.848
X10.607 Y60.895 Z-0.489
X10.729 Y60.944 Z-0.49
X10.802 Y60.97 Z-0.491
X10.852 Y60.988
X10.975 Y61.029 Z-0.492
X11.098 Y61.064 Z-0.493
X11.22 Y61.087 Z-0.494
X11.257 Y61.093
X11.343 Y61.108 Z-0.495
X11.466 Y61.129 Z-0.496
X11.589 Y61.144 Z-0.497
X11.712 Y61.15 Z-0.498
X11.834 Y61.157 Z-0.499
X11.957 Y61.163 Z-0.5
X12.08 Y61.164 Z-0.501
X13.072 Z-0.508
X12.08
X11.957 Y61.163
X11.834 Y61.157
X11.712 Y61.15
X11.589 Y61.144
X11.466 Y61.129
X11.343 Y61.108
X11.257 Y61.093
X11.22 Y61.087
X11.098 Y61.064
X10.975 Y61.029
X10.852 Y60.988
X10.802 Y60.97
X10.729 Y60.944
X10.607 Y60.895
X10.515 Y60.848
X10.484 Y60.829
X10.361 Y60.747
X10.331 Y60.725
X10.238 Y60.651
X10.183 Y60.602
X10.115 Y60.534
X10.069 Y60.479
X10.027 Y60.418
X9.993 Y60.356
X9.992
X9.943 Y60.233
X9.915 Y60.11
X9.907 Y59.987
Y0.013
X9.915 Y-0.11
X9.943 Y-0.233
X9.992 Y-0.356
X9.993
X10.027 Y-0.418
X10.069 Y-0.479
X10.115 Y-0.534
X10.183 Y-0.602
X10.238 Y-0.651
X10.331 Y-0.725
X10.361 Y-0.747
X10.484 Y-0.829
X10.515 Y-0.848
X10.607 Y-0.895
X10.729 Y-0.944
X10.802 Y-0.97
X10.852 Y-0.988
X10.975 Y-1.029
X11.098 Y-1.064
X11.22 Y-1.087
X11.257 Y-1.093
X11.343 Y-1.108
X11.466 Y-1.129
X11.589 Y-1.144
X11.712 Y-1.15
X11.834 Y-1.157
X11.957 Y-1.163
X12.08 Y-1.164
X13.072
G3 X12.755 Y-1.481 J-0.317
G19 G2 Y-1.799 Z-0.191 K0.318
G0 Z5.08
X1.125 Y62.116
Z1.349
G1 Z-0.191 F1025.6
G2 Y61.799 Z-0.508 J-0.318
G17 G3 X1.443 Y61.481 I0.317
G1 X1.888 Z-0.511
X2.011 Z-0.512
X2.134 Y61.478 Z-0.513
X2.257 Y61.476 Z-0.514
X2.38 Y61.473 Z-0.515
X2.502 Y61.466 Z-0.516
X2.554 Y61.462
X2.625 Y61.457 Z-0.517
X2.748 Y61.448 Z-0.518
X2.871 Y61.436 Z-0.519
X2.994 Y61.419 Z-0.52
X3.116 Y61.401
X3.239 Y61.382 Z-0.521
X3.362 Y61.356 Z-0.522
X3.432 Y61.339 Z-0.523
X3.485 Y61.326
X3.607 Y61.294 Z-0.524
X3.73 Y61.258 Z-0.525
X3.839 Y61.216 Z-0.526
X3.853 Y61.211
X3.976 Y61.158 Z-0.527
X4.099 Y61.099 Z-0.528
X4.109 Y61.093
X4.221 Y61.032 Z-0.529
X4.314 Y60.97 Z-0.53
X4.344 Y60.947
X4.462 Y60.848 Z-0.531
X4.467 Y60.843 Z-0.532
X4.583 Y60.725 Z-0.533
X4.59 Y60.717
X4.681 Y60.602 Z-0.534
X4.713 Y60.555
X4.758 Y60.479 Z-0.535
X4.814 Y60.356 Z-0.536
X4.835 Y60.293 Z-0.537
X4.852 Y60.233
X4.873 Y60.11 Z-0.538
X4.879 Y59.987 Z-0.539
Y0.013 Z-0.985
X4.873 Y-0.11 Z-0.986
X4.852 Y-0.233 Z-0.987
X4.835 Y-0.293
X4.814 Y-0.356 Z-0.988
X4.758 Y-0.479 Z-0.989
X4.713 Y-0.555 Z-0.99
X4.681 Y-0.602
X4.59 Y-0.717 Z-0.991
X4.583 Y-0.725
X4.467 Y-0.843 Z-0.992
X4.462 Y-0.848 Z-0.993
X4.344 Y-0.947 Z-0.994
X4.314 Y-0.97
X4.221 Y-1.032 Z-0.995
X4.109 Y-1.093 Z-0.996
X4.099 Y-1.099
X3.976 Y-1.158 Z-0.997
X3.853 Y-1.211 Z-0.998
X3.839 Y-1.216
X3.73 Y-1.258 Z-0.999
X3.607 Y-1.294 Z-1
X3.485 Y-1.326 Z-1.001
X3.432 Y-1.339
X3.362 Y-1.356 Z-1.002
X3.239 Y-1.382 Z-1.003
X3.116 Y-1.401 Z-1.004
X2.994 Y-1.419
X2.871 Y-1.436 Z-1.005
X2.748 Y-1.448 Z-1.006
X2.625 Y-1.457 Z-1.007
X2.554 Y-1.462 Z-1.008
X2.502 Y-1.466
X2.38 Y-1.473 Z-1.009
X2.257 Y-1.476 Z-1.01
X2.134 Y-1.478 Z-1.011
X2.011 Y-1.481 Z-1.012
X1.888 Z-1.013
X1.443 Z-1.016
X1.888
X2.011
X2.134 Y-1.478
X2.257 Y-1.476
X2.38 Y-1.473
X2.502 Y-1.466
X2.554 Y-1.462
X2.625 Y-1.457
X2.748 Y-1.448
X2.871 Y-1.436
X2.994 Y-1.419
X3.116 Y-1.401
X3.239 Y-1.382
X3.362 Y-1.356
X3.432 Y-1.339
X3.485 Y-1.326
X3.607 Y-1.294
X3.73 Y-1.258
X3.839 Y-1.216
X3.853 Y-1.211
X3.976 Y-1.158
X4.099 Y-1.099
X4.109 Y-1.093
X4.221 Y-1.032
X4.314 Y-0.97
X4.344 Y-0.947
X4.462 Y-0.848
X4.467 Y-0.843
X4.583 Y-0.725
X4.59 Y-0.717
X4.681 Y-0.602
X4.713 Y-0.555
X4.758 Y-0.479
X4.814 Y-0.356
X4.835 Y-0.293
X4.852 Y-0.233
X4.873 Y-0.11
X4.879 Y0.013
Y59.987
X4.873 Y60.11
X4.852 Y60.233
X4.835 Y60.293
X4.814 Y60.356
X4.758 Y60.479
X4.713 Y60.555
X4.681 Y60.602
X4.59 Y60.717
X4.583 Y60.725
X4.467 Y60.843
X4.462 Y60.848
X4.344 Y60.947
X4.314 Y60.97
X4.221 Y61.032
X4.109 Y61.093
X4.099 Y61.099
X3.976 Y61.158
X3.853 Y61.211
X3.839 Y61.216
X3.73 Y61.258
X3.607 Y61.294
X3.485 Y61.326
X3.432 Y61.339
X3.362 Y61.356
X3.239 Y61.382
X3.116 Y61.401
X2.994 Y61.419
X2.871 Y61.436
X2.748 Y61.448
X2.625 Y61.457
X2.554 Y61.462
X2.502 Y61.466
X2.38 Y61.473
X2.257 Y61.476
X2.134 Y61.478
X2.011 Y61.481
X1.888
X1.443
G3 X1.76 Y61.799 J0.318
G19 G3 Y62.116 Z-0.698 K0.318
G0 Z5.08
X12.874 Y-2.116
Z1.349
G1 Z-0.191 F1025.6
G3 Y-1.799 Z-0.508 J0.317
G17 G3 X12.557 Y-1.481 I-0.318
G1 X12.08 Z-0.512
X11.957 Y-1.48
X11.834 Y-1.478 Z-0.513
X11.712 Y-1.475 Z-0.514
X11.589 Y-1.472 Z-0.515
X11.466 Y-1.463 Z-0.516
X11.446 Y-1.462
X11.343 Y-1.455 Z-0.517
X11.22 Y-1.445 Z-0.518
X11.098 Y-1.431 Z-0.519
X10.975 Y-1.415 Z-0.52
X10.852 Y-1.397 Z-0.521
X10.729 Y-1.376 Z-0.522
X10.607 Y-1.349 Z-0.523
X10.568 Y-1.339
X10.484 Y-1.318 Z-0.524
X10.361 Y-1.285
X10.238 Y-1.247 Z-0.525
X10.161 Y-1.216 Z-0.526
X10.115 Y-1.197
X9.993 Y-1.143 Z-0.527
X9.891 Y-1.093 Z-0.528
X9.87 Y-1.083
X9.747 Y-1.012 Z-0.529
X9.686 Y-0.97 Z-0.53
X9.624 Y-0.922 Z-0.531
X9.538 Y-0.848
X9.501 Y-0.813 Z-0.532
X9.417 Y-0.725 Z-0.533
X9.379 Y-0.68
X9.319 Y-0.602 Z-0.534
X9.256 Y-0.504 Z-0.535
X9.242 Y-0.479
X9.186 Y-0.356 Z-0.536
X9.148 Y-0.233 Z-0.537
X9.133 Y-0.155 Z-0.538
X9.127 Y-0.11
X9.121 Y0.013 Z-0.539
Y59.987 Z-0.985
X9.127 Y60.11 Z-0.986
X9.133 Y60.155
X9.148 Y60.233 Z-0.987
X9.186 Y60.356 Z-0.988
X9.242 Y60.479 Z-0.989
X9.256 Y60.504
X9.319 Y60.602 Z-0.99
X9.379 Y60.68 Z-0.991
X9.417 Y60.725
X9.501 Y60.813 Z-0.992
X9.538 Y60.848 Z-0.993
X9.624 Y60.922
X9.686 Y60.97 Z-0.994
X9.747 Y61.012 Z-0.995
X9.87 Y61.083 Z-0.996
X9.891 Y61.093
X9.993 Y61.143 Z-0.997
X10.115 Y61.197 Z-0.998
X10.161 Y61.216
X10.238 Y61.247 Z-0.999
X10.361 Y61.285 Z-1
X10.484 Y61.318
X10.568 Y61.339 Z-1.001
X10.607 Y61.349
X10.729 Y61.376 Z-1.002
X10.852 Y61.397 Z-1.003
X10.975 Y61.415 Z-1.004
X11.098 Y61.431 Z-1.005
X11.22 Y61.445 Z-1.006
X11.343 Y61.455 Z-1.007
X11.446 Y61.462 Z-1.008
X11.466 Y61.463
X11.589 Y61.472 Z-1.009
X11.712 Y61.475 Z-1.01
X11.834 Y61.478 Z-1.011
X11.957 Y61.48 Z-1.012
X12.08 Y61.481
X12.557 Z-1.016
X12.08
X11.957 Y61.48
X11.834 Y61.478
X11.712 Y61.475
X11.589 Y61.472
X11.466 Y61.463
X11.446 Y61.462
X11.343 Y61.455
X11.22 Y61.445
X11.098 Y61.431
X10.975 Y61.415
X10.852 Y61.397
X10.729 Y61.376
X10.607 Y61.349
X10.568 Y61.339
X10.484 Y61.318
X10.361 Y61.285
X10.238 Y61.247
X10.161 Y61.216
X10.115 Y61.197
X9.993 Y61.143
X9.891 Y61.093
X9.87 Y61.083
X9.747 Y61.012
X9.686 Y60.97
X9.624 Y60.922
X9.538 Y60.848
X9.501 Y60.813
X9.417 Y60.725
X9.379 Y60.68
X9.319 Y60.602
X9.256 Y60.504
X9.242 Y60.479
X9.186 Y60.356
X9.148 Y60.233
X9.133 Y60.155
X9.127 Y60.11
X9.121 Y59.987
Y0.013
X9.127 Y-0.11
X9.133 Y-0.155
X9.148 Y-0.233
X9.186 Y-0.356
X9.242 Y-0.479
X9.256 Y-0.504
X9.319 Y-0.602
X9.379 Y-0.68
X9.417 Y-0.725
X9.501 Y-0.813
X9.538 Y-0.848
X9.624 Y-0.922
X9.686 Y-0.97
X9.747 Y-1.012
X9.87 Y-1.083
X9.891 Y-1.093
X9.993 Y-1.143
X10.115 Y-1.197
X10.161 Y-1.216
X10.238 Y-1.247
X10.361 Y-1.285
X10.484 Y-1.318
X10.568 Y-1.339
X10.607 Y-1.349
X10.729 Y-1.376
X10.852 Y-1.397
X10.975 Y-1.415
X11.098 Y-1.431
X11.22 Y-1.445
X11.343 Y-1.455
X11.446 Y-1.462
X11.466 Y-1.463
X11.589 Y-1.472
X11.712 Y-1.475
X11.834 Y-1.478
X11.957 Y-1.48
X12.08 Y-1.481
X12.557
G3 X12.239 Y-1.799 J-0.317
G19 G2 Y-2.116 Z-0.698 K0.318
G0 Z5.08
X2.673 Y61.414
Z1.709
G1 Z-0.749 F1025.6
X2.672 Y61.416 Z-0.781
Y61.421 Z-0.813
Y61.431 Z-0.844
G17 G3 X2.67 Y61.444 Z-0.873 I-0.169 J-0.017
X2.666 Y61.46 Z-0.901 I-0.167 J-0.03
X2.659 Y61.479 Z-0.926 I-0.164 J-0.047
X2.649 Y61.5 Z-0.949 I-0.157 J-0.065
X2.635 Y61.52 Z-0.969 I-0.147 J-0.086
X2.616 Y61.54 Z-0.985 I-0.132 J-0.107
X2.592 Y61.558 Z-0.999 I-0.113 J-0.127
X2.565 Y61.572 Z-1.008 I-0.09 J-0.144
X2.534 Y61.581 Z-1.014 I-0.062 J-0.158
X2.502 Y61.584 Z-1.016 I-0.032 J-0.167
G1 X2.625 Y61.582 Z-1.017
X2.748 Y61.58 Z-1.018
X2.871 Y61.576 Z-1.019
X2.994 Y61.572 Z-1.02
X3.116 Y61.566 Z-1.021
X3.239 Y61.557 Z-1.022
X3.362 Y61.547
X3.485 Y61.535 Z-1.023
X3.607 Y61.518 Z-1.024
X3.73 Y61.499 Z-1.025
X3.853 Y61.477 Z-1.026
X3.926 Y61.462 Z-1.027
X3.976 Y61.45
X4.099 Y61.416 Z-1.028
X4.221 Y61.378 Z-1.029
X4.332 Y61.339 Z-1.03
X4.344 Y61.335
X4.467 Y61.284 Z-1.031
X4.59 Y61.221 Z-1.032
X4.598 Y61.216
X4.713 Y61.148 Z-1.033
X4.794 Y61.093 Z-1.034
X4.835 Y61.064
X4.952 Y60.97 Z-1.035
X4.958 Y60.965 Z-1.036
X5.018 Y60.91
X5.077 Y60.848 Z-1.037
X5.081 Y60.844
X5.13 Y60.784
X5.174 Y60.725 Z-1.038
X5.204 Y60.679
X5.249 Y60.602 Z-1.039
X5.309 Y60.479 Z-1.04
X5.327 Y60.436
X5.354 Y60.356 Z-1.041
X5.385 Y60.233 Z-1.042
X5.403 Y60.11 Z-1.043
X5.408 Y59.987 Z-1.044
Y0.013 Z-1.496
X5.403 Y-0.11 Z-1.497
X5.385 Y-0.233 Z-1.498
X5.354 Y-0.356 Z-1.499
X5.327 Y-0.436 Z-1.5
X5.309 Y-0.479
X5.249 Y-0.602 Z-1.501
X5.204 Y-0.679 Z-1.502
X5.174 Y-0.725
X5.13 Y-0.784 Z-1.503
X5.081 Y-0.844
X5.077 Y-0.848
X5.018 Y-0.91 Z-1.504
X4.958 Y-0.965
X4.952 Y-0.97 Z-1.505
X4.835 Y-1.064 Z-1.506
X4.794 Y-1.093
X4.713 Y-1.148 Z-1.507
X4.598 Y-1.216 Z-1.508
X4.59 Y-1.221
X4.467 Y-1.284 Z-1.509
X4.344 Y-1.335 Z-1.51
X4.332 Y-1.339
X4.221 Y-1.378 Z-1.511
X4.099 Y-1.416 Z-1.512
X3.976 Y-1.45 Z-1.513
X3.926 Y-1.462
X3.853 Y-1.477 Z-1.514
X3.73 Y-1.499 Z-1.515
X3.607 Y-1.518 Z-1.516
X3.485 Y-1.535 Z-1.517
X3.362 Y-1.547 Z-1.518
X3.239 Y-1.557
X3.116 Y-1.566 Z-1.519
X2.994 Y-1.572 Z-1.52
X2.871 Y-1.576 Z-1.521
X2.748 Y-1.58 Z-1.522
X2.625 Y-1.582 Z-1.523
X2.502 Y-1.584 Z-1.524
X2.625 Y-1.582
X2.748 Y-1.58
X2.871 Y-1.576
X2.994 Y-1.572
X3.116 Y-1.566
X3.239 Y-1.557
X3.362 Y-1.547
X3.485 Y-1.535
X3.607 Y-1.518
X3.73 Y-1.499
X3.853 Y-1.477
X3.926 Y-1.462
X3.976 Y-1.45
X4.099 Y-1.416
X4.221 Y-1.378
X4.332 Y-1.339
X4.344 Y-1.335
X4.467 Y-1.284
X4.59 Y-1.221
X4.598 Y-1.216
X4.713 Y-1.148
X4.794 Y-1.093
X4.835 Y-1.064
X4.952 Y-0.97
X4.958 Y-0.965
X5.018 Y-0.91
X5.077 Y-0.848
X5.081 Y-0.844
X5.13 Y-0.784
X5.174 Y-0.725
X5.204 Y-0.679
X5.249 Y-0.602
X5.309 Y-0.479
X5.327 Y-0.436
X5.354 Y-0.356
X5.385 Y-0.233
X5.403 Y-0.11
X5.408 Y0.013
Y59.987
X5.403 Y60.11
X5.385 Y60.233
X5.354 Y60.356
X5.327 Y60.436
X5.309 Y60.479
X5.249 Y60.602
X5.204 Y60.679
X5.174 Y60.725
X5.13 Y60.784
X5.081 Y60.844
X5.077 Y60.848
X5.018 Y60.91
X4.958 Y60.965
X4.952 Y60.97
X4.835 Y61.064
X4.794 Y61.093
X4.713 Y61.148
X4.598 Y61.216
X4.59 Y61.221
X4.467 Y61.284
X4.344 Y61.335
X4.332 Y61.339
X4.221 Y61.378
X4.099 Y61.416
X3.976 Y61.45
X3.926 Y61.462
X3.853 Y61.477
X3.73 Y61.499
X3.607 Y61.518
X3.485 Y61.535
X3.362 Y61.547
X3.239 Y61.557
X3.116 Y61.566
X2.994 Y61.572
X2.871 Y61.576
X2.748 Y61.58
X2.625 Y61.582
X2.502 Y61.584
G3 X2.825 Y61.896 I0.006 J0.317
G1 X2.827 Y61.966 Z-1.516
X2.828 Y62.033 Z-1.493
X2.829 Y62.093 Z-1.455
X2.83 Y62.144 Z-1.404
X2.831 Y62.182 Z-1.344
Y62.205 Z-1.277
Y62.213 Z-1.207
G0 Z5.08
X11.9 Y-2.136
Z1.333
G1 Z-0.785 F1025.6
Y-2.128 Z-0.845
X11.901 Y-2.105 Z-0.901
Y-2.069 Z-0.948
X11.902 Y-2.021 Z-0.985
Y-1.965 Z-1.008
X11.903 Y-1.906 Z-1.016
G3 X11.589 Y-1.585 I-0.317 J0.003
G1 X11.466 Y-1.583 Z-1.017
X11.343 Y-1.582 Z-1.018
X11.22 Y-1.579 Z-1.019
X11.098 Y-1.575 Z-1.02
X10.975 Y-1.57 Z-1.021
X10.852 Y-1.564 Z-1.022
X10.729 Y-1.555
X10.607 Y-1.544 Z-1.023
X10.484 Y-1.531 Z-1.024
X10.361 Y-1.514 Z-1.025
X10.238 Y-1.493 Z-1.026
X10.115 Y-1.471 Z-1.027
X10.074 Y-1.462
X9.993 Y-1.442 Z-1.028
X9.87 Y-1.407 Z-1.029
X9.747 Y-1.367 Z-1.03
X9.668 Y-1.339 Z-1.031
X9.624 Y-1.323
X9.501 Y-1.269 Z-1.032
X9.402 Y-1.216 Z-1.033
X9.379 Y-1.203
X9.256 Y-1.127 Z-1.034
X9.206 Y-1.093 Z-1.035
X9.133 Y-1.04
X9.048 Y-0.97 Z-1.036
X9.01 Y-0.937
X8.923 Y-0.848 Z-1.037
X8.887 Y-0.806 Z-1.038
X8.826 Y-0.725 Z-1.039
X8.765 Y-0.627
X8.751 Y-0.602 Z-1.04
X8.691 Y-0.479 Z-1.041
X8.646 Y-0.356 Z-1.042
X8.642 Y-0.343
X8.615 Y-0.233 Z-1.043
X8.597 Y-0.11 Z-1.044
X8.592 Y0.013
Y59.987 Z-1.496
X8.597 Y60.11
X8.615 Y60.233 Z-1.497
X8.642 Y60.343 Z-1.498
X8.646 Y60.356
X8.691 Y60.479 Z-1.499
X8.751 Y60.602 Z-1.5
X8.765 Y60.627 Z-1.501
X8.826 Y60.725
X8.887 Y60.806 Z-1.502
X8.923 Y60.848 Z-1.503
X9.01 Y60.937 Z-1.504
X9.048 Y60.97
X9.133 Y61.04 Z-1.505
X9.206 Y61.093
X9.256 Y61.127 Z-1.506
X9.379 Y61.203 Z-1.507
X9.402 Y61.216
X9.501 Y61.269 Z-1.508
X9.624 Y61.323 Z-1.509
X9.668 Y61.339
X9.747 Y61.367 Z-1.51
X9.87 Y61.407 Z-1.511
X9.993 Y61.442 Z-1.512
X10.074 Y61.462 Z-1.513
X10.115 Y61.471
X10.238 Y61.493 Z-1.514
X10.361 Y61.514 Z-1.515
X10.484 Y61.531 Z-1.516
X10.607 Y61.544 Z-1.517
X10.729 Y61.555 Z-1.518
X10.852 Y61.564
X10.975 Y61.57 Z-1.519
X11.098 Y61.575 Z-1.52
X11.22 Y61.579 Z-1.521
X11.343 Y61.582 Z-1.522
X11.466 Y61.583 Z-1.523
X11.589 Y61.585 Z-1.524
X11.466 Y61.583
X11.343 Y61.582
X11.22 Y61.579
X11.098 Y61.575
X10.975 Y61.57
X10.852 Y61.564
X10.729 Y61.555
X10.607 Y61.544
X10.484 Y61.531
X10.361 Y61.514
X10.238 Y61.493
X10.115 Y61.471
X10.074 Y61.462
X9.993 Y61.442
X9.87 Y61.407
X9.747 Y61.367
X9.668 Y61.339
X9.624 Y61.323
X9.501 Y61.269
X9.402 Y61.216
X9.379 Y61.203
X9.256 Y61.127
X9.206 Y61.093
X9.133 Y61.04
X9.048 Y60.97
X9.01 Y60.937
X8.923 Y60.848
X8.887 Y60.806
X8.826 Y60.725
X8.765 Y60.627
X8.751 Y60.602
X8.691 Y60.479
X8.646 Y60.356
X8.642 Y60.343
X8.615 Y60.233
X8.597 Y60.11
X8.592 Y59.987
Y0.013
X8.597 Y-0.11
X8.615 Y-0.233
X8.642 Y-0.343
X8.646 Y-0.356
X8.691 Y-0.479
X8.751 Y-0.602
X8.765 Y-0.627
X8.826 Y-0.725
X8.887 Y-0.806
X8.923 Y-0.848
X9.01 Y-0.937
X9.048 Y-0.97
X9.133 Y-1.04
X9.206 Y-1.093
X9.256 Y-1.127
X9.379 Y-1.203
X9.402 Y-1.216
X9.501 Y-1.269
X9.624 Y-1.323
X9.668 Y-1.339
X9.747 Y-1.367
X9.87 Y-1.407
X9.993 Y-1.442
X10.074 Y-1.462
X10.115 Y-1.471
X10.238 Y-1.493
X10.361 Y-1.514
X10.484 Y-1.531
X10.607 Y-1.544
X10.729 Y-1.555
X10.852 Y-1.564
X10.975 Y-1.57
X11.098 Y-1.575
X11.22 Y-1.579
X11.343 Y-1.582
X11.466 Y-1.583
X11.589 Y-1.585
G3 X11.266 Y-1.897 I-0.005 J-0.317
G1 X11.265 Y-1.968 Z-1.516
X11.264 Y-2.035 Z-1.493
X11.263 Y-2.095 Z-1.455
X11.262 Y-2.145 Z-1.404
X11.261 Y-2.183 Z-1.344
Y-2.206 Z-1.277
Y-2.214 Z-1.207
G0 Z5.08
X3.455 Y62.509
Z0.825
G1 Z-1.207 F1025.6
Y62.501 Z-1.277
X3.453 Y62.478 Z-1.344
X3.452 Y62.44 Z-1.404
X3.449 Y62.39 Z-1.455
X3.447 Y62.33 Z-1.493
X3.444 Y62.263 Z-1.516
X3.44 Y62.192 Z-1.524
X3.428 Y61.917
G3 X3.73 Y61.585 I0.317 J-0.015
G1 X3.853 Y61.579 Z-1.525
X3.976 Y61.57 Z-1.526
X4.099 Y61.557 Z-1.527
X4.221 Y61.539 Z-1.528
X4.344 Y61.516 Z-1.529
X4.467 Y61.488 Z-1.53
X4.562 Y61.462 Z-1.531
X4.59 Y61.453
X4.713 Y61.41 Z-1.532
X4.835 Y61.358 Z-1.533
X4.877 Y61.339
X4.958 Y61.298 Z-1.534
X5.081 Y61.229 Z-1.535
X5.102 Y61.216
X5.204 Y61.146 Z-1.536
X5.27 Y61.093 Z-1.537
X5.327 Y61.043
X5.4 Y60.97 Z-1.538
X5.449 Y60.916 Z-1.539
X5.505 Y60.848
X5.572 Y60.754 Z-1.54
X5.591 Y60.725
X5.661 Y60.602 Z-1.542
X5.695 Y60.528
X5.715 Y60.479 Z-1.543
X5.756 Y60.356 Z-1.544
X5.785 Y60.233 Z-1.545
X5.801 Y60.11 Z-1.546
X5.806 Y59.987 Z-1.547
Y0.013 Z-2.009
X5.801 Y-0.11 Z-2.01
X5.785 Y-0.233 Z-2.011
X5.756 Y-0.356 Z-2.012
X5.715 Y-0.479 Z-2.013
X5.695 Y-0.529 Z-2.014
X5.661 Y-0.602
X5.591 Y-0.725 Z-2.016
X5.572 Y-0.754
X5.505 Y-0.848 Z-2.017
X5.449 Y-0.916
X5.4 Y-0.97 Z-2.018
X5.327 Y-1.043 Z-2.019
X5.27 Y-1.093
X5.204 Y-1.146 Z-2.02
X5.102 Y-1.216 Z-2.021
X5.081 Y-1.229
X4.958 Y-1.298 Z-2.022
X4.877 Y-1.339 Z-2.023
X4.835 Y-1.358
X4.713 Y-1.41 Z-2.024
X4.59 Y-1.453 Z-2.025
X4.562 Y-1.462
X4.467 Y-1.488 Z-2.026
X4.344 Y-1.516 Z-2.027
X4.221 Y-1.539 Z-2.028
X4.099 Y-1.557 Z-2.029
X3.976 Y-1.57 Z-2.03
X3.853 Y-1.579 Z-2.031
X3.73 Y-1.585 Z-2.032
X3.853 Y-1.579
X3.976 Y-1.57
X4.099 Y-1.557
X4.221 Y-1.539
X4.344 Y-1.516
X4.467 Y-1.488
X4.562 Y-1.462
X4.59 Y-1.453
X4.713 Y-1.41
X4.835 Y-1.358
X4.877 Y-1.339
X4.958 Y-1.298
X5.081 Y-1.229
X5.102 Y-1.216
X5.204 Y-1.146
X5.27 Y-1.093
X5.327 Y-1.043
X5.4 Y-0.97
X5.449 Y-0.916
X5.505 Y-0.848
X5.572 Y-0.754
X5.591 Y-0.725
X5.661 Y-0.602
X5.695 Y-0.529
X5.715 Y-0.479
X5.756 Y-0.356
X5.785 Y-0.233
X5.801 Y-0.11
X5.806 Y0.013
Y59.987
X5.801 Y60.11
X5.785 Y60.233
X5.756 Y60.356
X5.715 Y60.479
X5.695 Y60.528
X5.661 Y60.602
X5.591 Y60.725
X5.572 Y60.754
X5.505 Y60.848
X5.449 Y60.916
X5.4 Y60.97
X5.327 Y61.043
X5.27 Y61.093
X5.204 Y61.146
X5.102 Y61.216
X5.081 Y61.229
X4.958 Y61.298
X4.877 Y61.339
X4.835 Y61.358
X4.713 Y61.41
X4.59 Y61.453
X4.562 Y61.462
X4.467 Y61.488
X4.344 Y61.516
X4.221 Y61.539
X4.099 Y61.557
X3.976 Y61.57
X3.853 Y61.579
X3.73 Y61.585
G3 X4.065 Y61.884 I0.018 J0.317
G1 X4.069 Y61.954 Z-2.024
X4.073 Y62.021 Z-2.001
X4.077 Y62.082 Z-1.963
X4.079 Y62.132 Z-1.912
X4.082 Y62.169 Z-1.852
X4.083 Y62.193 Z-1.785
Y62.201 Z-1.714
G0 Z5.08
X10.508 Y-2.501
Z0.823
G1 Z-1.207 F1025.6
Y-2.493 Z-1.277
X10.509 Y-2.469 Z-1.344
X10.511 Y-2.432 Z-1.404
X10.514 Y-2.381 Z-1.455
X10.517 Y-2.321 Z-1.493
X10.521 Y-2.254 Z-1.516
X10.524 Y-2.184 Z-1.524
X10.539 Y-1.918
G3 X10.238 Y-1.584 I-0.317 J0.017
G1 X10.115 Y-1.577 Z-1.525
X9.993 Y-1.568 Z-1.526
X9.87 Y-1.553 Z-1.527
X9.747 Y-1.533 Z-1.528
X9.624 Y-1.509 Z-1.529
X9.501 Y-1.48 Z-1.53
X9.438 Y-1.462
X9.379 Y-1.443 Z-1.531
X9.256 Y-1.397 Z-1.532
X9.133 Y-1.344 Z-1.533
X9.123 Y-1.339
X9.01 Y-1.282 Z-1.534
X8.898 Y-1.216 Z-1.535
X8.887 Y-1.209
X8.826 Y-1.168 Z-1.536
X8.765 Y-1.122
X8.73 Y-1.093
X8.642 Y-1.013 Z-1.537
X8.6 Y-0.97 Z-1.538
X8.519 Y-0.878 Z-1.539
X8.495 Y-0.848
X8.449 Y-0.786 Z-1.54
X8.409 Y-0.725
X8.396 Y-0.705
X8.339 Y-0.602 Z-1.541
X8.285 Y-0.479 Z-1.542
X8.274 Y-0.449 Z-1.543
X8.244 Y-0.356
X8.215 Y-0.233 Z-1.544
X8.199 Y-0.11 Z-1.545
X8.194 Y0.013 Z-1.546
Y59.987 Z-2.01
X8.199 Y60.11 Z-2.011
X8.215 Y60.233 Z-2.012
X8.244 Y60.356 Z-2.013
X8.274 Y60.449
X8.285 Y60.479 Z-2.014
X8.339 Y60.602 Z-2.015
X8.396 Y60.705 Z-2.016
X8.409 Y60.725
X8.449 Y60.786
X8.495 Y60.848 Z-2.017
X8.519 Y60.878
X8.6 Y60.97 Z-2.018
X8.642 Y61.013 Z-2.019
X8.73 Y61.093 Z-2.02
X8.765 Y61.122
X8.826 Y61.168
X8.887 Y61.209 Z-2.021
X8.898 Y61.216
X9.01 Y61.282 Z-2.022
X9.123 Y61.339 Z-2.023
X9.133 Y61.344
X9.256 Y61.397 Z-2.024
X9.379 Y61.443 Z-2.025
X9.438 Y61.462 Z-2.026
X9.501 Y61.48
X9.624 Y61.509 Z-2.027
X9.747 Y61.533 Z-2.028
X9.87 Y61.553 Z-2.029
X9.993 Y61.568 Z-2.03
X10.115 Y61.577 Z-2.031
X10.238 Y61.584 Z-2.032
X10.115 Y61.577
X9.993 Y61.568
X9.87 Y61.553
X9.747 Y61.533
X9.624 Y61.509
X9.501 Y61.48
X9.438 Y61.462
X9.379 Y61.443
X9.256 Y61.397
X9.133 Y61.344
X9.123 Y61.339
X9.01 Y61.282
X8.898 Y61.216
X8.887 Y61.209
X8.826 Y61.168
X8.765 Y61.122
X8.73 Y61.093
X8.642 Y61.013
X8.6 Y60.97
X8.519 Y60.878
X8.495 Y60.848
X8.449 Y60.786
X8.409 Y60.725
X8.396 Y60.705
X8.339 Y60.602
X8.285 Y60.479
X8.274 Y60.449
X8.244 Y60.356
X8.215 Y60.233
X8.199 Y60.11
X8.194 Y59.987
Y0.013
X8.199 Y-0.11
X8.215 Y-0.233
X8.244 Y-0.356
X8.274 Y-0.449
X8.285 Y-0.479
X8.339 Y-0.602
X8.396 Y-0.705
X8.409 Y-0.725
X8.449 Y-0.786
X8.495 Y-0.848
X8.519 Y-0.878
X8.6 Y-0.97
X8.642 Y-1.013
X8.73 Y-1.093
X8.765 Y-1.122
X8.826 Y-1.168
X8.887 Y-1.209
X8.898 Y-1.216
X9.01 Y-1.282
X9.123 Y-1.339
X9.133 Y-1.344
X9.256 Y-1.397
X9.379 Y-1.443
X9.438 Y-1.462
X9.501 Y-1.48
X9.624 Y-1.509
X9.747 Y-1.533
X9.87 Y-1.553
X9.993 Y-1.568
X10.115 Y-1.577
X10.238 Y-1.584
G3 X9.902 Y-1.881 I-0.019 J-0.317
G1 X9.898 Y-1.952 Z-2.024
X9.893 Y-2.019 Z-2.001
X9.89 Y-2.079 Z-1.963
X9.887 Y-2.129 Z-1.912
X9.884 Y-2.167 Z-1.852
X9.883 Y-2.19 Z-1.785
Y-2.198 Z-1.714
G0 Z5.08
X4.447 Y61.481
Z1.216
G1 Z-1.871 F1025.6
Y61.483 Z-1.896
X4.446 Y61.489 Z-1.921
X4.445 Y61.498 Z-1.944
G3 X4.442 Y61.511 Z-1.966 I-0.101 J-0.017
X4.436 Y61.526 Z-1.985 I-0.098 J-0.03
X4.426 Y61.543 Z-2.001 I-0.092 J-0.045
X4.411 Y61.558 Z-2.014 I-0.082 J-0.062
X4.392 Y61.571 Z-2.024 I-0.067 J-0.077
X4.369 Y61.58 Z-2.03 I-0.048 J-0.091
X4.344 Y61.583 Z-2.032 I-0.025 J-0.099
G1 X4.467 Y61.574 Z-2.033
X4.59 Y61.559 Z-2.034
X4.713 Y61.536 Z-2.035
X4.835 Y61.506 Z-2.036
X4.958 Y61.469 Z-2.037
X4.978 Y61.462
X5.081 Y61.424 Z-2.038
X5.204 Y61.37 Z-2.039
X5.263 Y61.339
X5.327 Y61.303 Z-2.04
X5.449 Y61.221 Z-2.041
X5.456 Y61.216
X5.572 Y61.124 Z-2.042
X5.606 Y61.093 Z-2.043
X5.695 Y61.005 Z-2.044
X5.726 Y60.97
X5.774 Y60.914 Z-2.045
X5.818 Y60.857
X5.824 Y60.848
X5.867 Y60.786 Z-2.046
X5.905 Y60.725
X5.94 Y60.66 Z-2.047
X5.969 Y60.602 Z-2.048
X6.02 Y60.479 Z-2.049
X6.058 Y60.356 Z-2.05
X6.063 Y60.336
X6.085 Y60.233 Z-2.051
X6.1 Y60.11 Z-2.052
X6.104 Y59.987
Y0.013 Z-2.52
X6.1 Y-0.11
X6.085 Y-0.233 Z-2.521
X6.063 Y-0.336 Z-2.522
X6.058 Y-0.356
X6.02 Y-0.479 Z-2.523
X5.969 Y-0.602 Z-2.524
X5.94 Y-0.66 Z-2.525
X5.905 Y-0.725 Z-2.526
X5.867 Y-0.786
X5.824 Y-0.848 Z-2.527
X5.818 Y-0.857
X5.774 Y-0.914
X5.726 Y-0.97 Z-2.528
X5.695 Y-1.005
X5.606 Y-1.093 Z-2.529
X5.572 Y-1.124 Z-2.53
X5.456 Y-1.216 Z-2.531
X5.449 Y-1.221
X5.327 Y-1.303 Z-2.532
X5.263 Y-1.339 Z-2.533
X5.204 Y-1.37
X5.081 Y-1.424 Z-2.534
X4.978 Y-1.462 Z-2.535
X4.958 Y-1.469
X4.835 Y-1.506 Z-2.536
X4.713 Y-1.536 Z-2.537
X4.59 Y-1.559 Z-2.538
X4.467 Y-1.574 Z-2.539
X4.344 Y-1.583 Z-2.54
X4.467 Y-1.574
X4.59 Y-1.559
X4.713 Y-1.536
X4.835 Y-1.506
X4.958 Y-1.469
X4.978 Y-1.462
X5.081 Y-1.424
X5.204 Y-1.37
X5.263 Y-1.339
X5.327 Y-1.303
X5.449 Y-1.221
X5.456 Y-1.216
X5.572 Y-1.124
X5.606 Y-1.093
X5.695 Y-1.005
X5.726 Y-0.97
X5.774 Y-0.914
X5.818 Y-0.857
X5.824 Y-0.848
X5.867 Y-0.786
X5.905 Y-0.725
X5.94 Y-0.66
X5.969 Y-0.602
X6.02 Y-0.479
X6.058 Y-0.356
X6.063 Y-0.336
X6.085 Y-0.233
X6.1 Y-0.11
X6.104 Y0.013
Y59.987
X6.1 Y60.11
X6.085 Y60.233
X6.063 Y60.336
X6.058 Y60.356
X6.02 Y60.479
X5.969 Y60.602
X5.94 Y60.66
X5.905 Y60.725
X5.867 Y60.786
X5.824 Y60.848
X5.818 Y60.857
X5.774 Y60.914
X5.726 Y60.97
X5.695 Y61.005
X5.606 Y61.093
X5.572 Y61.124
X5.456 Y61.216
X5.449 Y61.221
X5.327 Y61.303
X5.263 Y61.339
X5.204 Y61.37
X5.081 Y61.424
X4.978 Y61.462
X4.958 Y61.469
X4.835 Y61.506
X4.713 Y61.536
X4.59 Y61.559
X4.467 Y61.574
X4.344 Y61.583
G3 X4.686 Y61.874 I0.026 J0.316
G1 X4.692 Y61.944 Z-2.532
X4.698 Y62.011 Z-2.509
X4.703 Y62.071 Z-2.471
X4.707 Y62.121 Z-2.42
X4.71 Y62.159 Z-2.36
X4.712 Y62.182 Z-2.293
Y62.19 Z-2.223
G0 Z5.08
X9.614 Y-1.519
Z1.222
G1 Z-1.935 F1025.6
Y-1.521 Z-1.954
Y-1.527 Z-1.972
X9.615 Y-1.535 Z-1.989
G3 X9.619 Y-1.547 Z-2.004 I0.06 J0.013
X9.626 Y-1.56 Z-2.016 I0.057 J0.024
X9.638 Y-1.571 Z-2.025 I0.049 J0.037
X9.653 Y-1.58 Z-2.03 I0.037 J0.049
X9.672 Y-1.584 Z-2.032 I0.022 J0.058
G1 X9.655 Y-1.583
X9.624 Y-1.581
X9.501 Y-1.57 Z-2.033
X9.379 Y-1.553 Z-2.034
X9.256 Y-1.529 Z-2.035
X9.133 Y-1.497 Z-2.036
X9.022 Y-1.462 Z-2.037
X9.01 Y-1.458
X8.887 Y-1.411 Z-2.038
X8.765 Y-1.354 Z-2.039
X8.737 Y-1.339 Z-2.04
X8.642 Y-1.283
X8.544 Y-1.216 Z-2.041
X8.519 Y-1.198 Z-2.042
X8.458 Y-1.149
X8.396 Y-1.095 Z-2.043
X8.394 Y-1.093
X8.331 Y-1.032 Z-2.044
X8.274 Y-0.97
X8.222 Y-0.909 Z-2.045
X8.176 Y-0.848
X8.151 Y-0.812 Z-2.046
X8.095 Y-0.725 Z-2.047
X8.031 Y-0.602 Z-2.048
X8.028 Y-0.595
X7.98 Y-0.479 Z-2.049
X7.942 Y-0.356 Z-2.05
X7.915 Y-0.233 Z-2.051
X7.905 Y-0.162
X7.9 Y-0.11 Z-2.052
X7.896 Y0.013 Z-2.053
Y59.987 Z-2.519
X7.9 Y60.11 Z-2.52
X7.905 Y60.162 Z-2.521
X7.915 Y60.233
X7.942 Y60.356 Z-2.522
X7.98 Y60.479 Z-2.523
X8.028 Y60.595 Z-2.524
X8.031 Y60.602
X8.095 Y60.725 Z-2.525
X8.151 Y60.812 Z-2.526
X8.176 Y60.848 Z-2.527
X8.222 Y60.909
X8.274 Y60.97 Z-2.528
X8.331 Y61.032
X8.394 Y61.093 Z-2.529
X8.396 Y61.095
X8.458 Y61.149 Z-2.53
X8.519 Y61.198
X8.544 Y61.216 Z-2.531
X8.642 Y61.283 Z-2.532
X8.737 Y61.339
X8.765 Y61.354 Z-2.533
X8.887 Y61.411 Z-2.534
X9.01 Y61.458 Z-2.535
X9.022 Y61.462
X9.133 Y61.497 Z-2.536
X9.256 Y61.529 Z-2.537
X9.379 Y61.553 Z-2.538
X9.501 Y61.57 Z-2.539
X9.624 Y61.581 Z-2.54
X9.655 Y61.583
X9.672 Y61.584
X9.655 Y61.583
X9.624 Y61.581
X9.501 Y61.57
X9.379 Y61.553
X9.256 Y61.529
X9.133 Y61.497
X9.022 Y61.462
X9.01 Y61.458
X8.887 Y61.411
X8.765 Y61.354
X8.737 Y61.339
X8.642 Y61.283
X8.544 Y61.216
X8.519 Y61.198
X8.458 Y61.149
X8.396 Y61.095
X8.394 Y61.093
X8.331 Y61.032
X8.274 Y60.97
X8.222 Y60.909
X8.176 Y60.848
X8.151 Y60.812
X8.095 Y60.725
X8.031 Y60.602
X8.028 Y60.595
X7.98 Y60.479
X7.942 Y60.356
X7.915 Y60.233
X7.905 Y60.162
X7.9 Y60.11
X7.896 Y59.987
Y0.013
X7.9 Y-0.11
X7.905 Y-0.162
X7.915 Y-0.233
X7.942 Y-0.356
X7.98 Y-0.479
X8.028 Y-0.595
X8.031 Y-0.602
X8.095 Y-0.725
X8.151 Y-0.812
X8.176 Y-0.848
X8.222 Y-0.909
X8.274 Y-0.97
X8.331 Y-1.032
X8.394 Y-1.093
X8.396 Y-1.095
X8.458 Y-1.149
X8.519 Y-1.198
X8.544 Y-1.216
X8.642 Y-1.283
X8.737 Y-1.339
X8.765 Y-1.354
X8.887 Y-1.411
X9.01 Y-1.458
X9.022 Y-1.462
X9.133 Y-1.497
X9.256 Y-1.529
X9.379 Y-1.553
X9.501 Y-1.57
X9.624 Y-1.581
X9.655 Y-1.583
X9.672 Y-1.584
G3 X9.331 Y-1.876 I-0.025 J-0.317
G1 X9.325 Y-1.946 Z-2.532
X9.32 Y-2.013 Z-2.509
X9.315 Y-2.073 Z-2.471
X9.312 Y-2.123 Z-2.42
X9.309 Y-2.161 Z-2.36
X9.307 Y-2.185 Z-2.293
X9.306 Y-2.193 Z-2.223
G0 Z5.08
X4.436 Y62.967
Z-0.143
G1 Z-2.174 F1025.6
X4.435 Y62.959 Z-2.245
X4.434 Y62.936 Z-2.312
X4.431 Y62.898 Z-2.372
X4.428 Y62.848 Z-2.423
X4.424 Y62.788 Z-2.461
X4.42 Y62.721 Z-2.484
X4.415 Y62.65 Z-2.492
X4.369 Y61.921
G3 X4.666 Y61.584 I0.317 J-0.02
G1 X4.683 Y61.583
X4.713 Y61.581
X4.835 Y61.567 Z-2.493
X4.958 Y61.545 Z-2.494
X5.081 Y61.516 Z-2.495
X5.204 Y61.478 Z-2.496
X5.249 Y61.462 Z-2.497
X5.327 Y61.431
X5.449 Y61.371 Z-2.498
X5.505 Y61.339 Z-2.499
X5.572 Y61.298 Z-2.5
X5.687 Y61.216 Z-2.501
X5.695 Y61.21
X5.756 Y61.16
X5.818 Y61.104 Z-2.502
X5.829 Y61.093
X5.887 Y61.033 Z-2.503
X5.94 Y60.973
X5.943 Y60.97
X5.991 Y60.909 Z-2.504
X6.036 Y60.848 Z-2.505
X6.063 Y60.806
X6.112 Y60.725 Z-2.506
X6.173 Y60.602 Z-2.507
X6.186 Y60.571
X6.221 Y60.479 Z-2.508
X6.257 Y60.356 Z-2.509
X6.282 Y60.233 Z-2.51
X6.297 Y60.11 Z-2.511
X6.301 Y59.987 Z-2.512
Y0.013 Z-2.98
X6.297 Y-0.11 Z-2.981
X6.282 Y-0.233 Z-2.982
X6.257 Y-0.356 Z-2.983
X6.221 Y-0.479 Z-2.984
X6.186 Y-0.571 Z-2.985
X6.173 Y-0.602
X6.112 Y-0.725 Z-2.986
X6.063 Y-0.806 Z-2.987
X6.036 Y-0.848
X5.991 Y-0.909 Z-2.988
X5.943 Y-0.97 Z-2.989
X5.94 Y-0.973
X5.887 Y-1.033
X5.829 Y-1.093 Z-2.99
X5.818 Y-1.104
X5.756 Y-1.16 Z-2.991
X5.695 Y-1.21
X5.687 Y-1.216
X5.572 Y-1.298 Z-2.992
X5.505 Y-1.339 Z-2.993
X5.449 Y-1.371 Z-2.994
X5.327 Y-1.431 Z-2.995
X5.249 Y-1.462
X5.204 Y-1.478 Z-2.996
X5.081 Y-1.516 Z-2.997
X4.958 Y-1.545 Z-2.998
X4.835 Y-1.567 Z-2.999
X4.713 Y-1.581 Z-3
X4.683 Y-1.583
X4.666 Y-1.584
X4.683 Y-1.583
X4.713 Y-1.581
X4.835 Y-1.567
X4.958 Y-1.545
X5.081 Y-1.516
X5.204 Y-1.478
X5.249 Y-1.462
X5.327 Y-1.431
X5.449 Y-1.371
X5.505 Y-1.339
X5.572 Y-1.298
X5.687 Y-1.216
X5.695 Y-1.21
X5.756 Y-1.16
X5.818 Y-1.104
X5.829 Y-1.093
X5.887 Y-1.033
X5.94 Y-0.973
X5.943 Y-0.97
X5.991 Y-0.909
X6.036 Y-0.848
X6.063 Y-0.806
X6.112 Y-0.725
X6.173 Y-0.602
X6.186 Y-0.571
X6.221 Y-0.479
X6.257 Y-0.356
X6.282 Y-0.233
X6.297 Y-0.11
X6.301 Y0.013
Y59.987
X6.297 Y60.11
X6.282 Y60.233
X6.257 Y60.356
X6.221 Y60.479
X6.186 Y60.571
X6.173 Y60.602
X6.112 Y60.725
X6.063 Y60.806
X6.036 Y60.848
X5.991 Y60.909
X5.943 Y60.97
X5.94 Y60.973
X5.887 Y61.033
X5.829 Y61.093
X5.818 Y61.104
X5.756 Y61.16
X5.695 Y61.21
X5.687 Y61.216
X5.572 Y61.298
X5.505 Y61.339
X5.449 Y61.371
X5.327 Y61.431
X5.249 Y61.462
X5.204 Y61.478
X5.081 Y61.516
X4.958 Y61.545
X4.835 Y61.567
X4.713 Y61.581
X4.683 Y61.583
X4.666 Y61.584
G3 X5.009 Y61.873 I0.027 J0.316
G1 X5.015 Y61.943 Z-2.992
X5.021 Y62.01 Z-2.969
X5.026 Y62.07 Z-2.931
X5.03 Y62.12 Z-2.88
X5.033 Y62.158 Z-2.82
X5.035 Y62.181 Z-2.753
X5.036 Y62.189 Z-2.682
G0 Z5.08
X9.53 Y-2.956
Z-0.144
G1 Z-2.174 F1025.6
Y-2.948 Z-2.245
X9.532 Y-2.925 Z-2.312
X9.535 Y-2.887 Z-2.372
X9.538 Y-2.837 Z-2.423
X9.543 Y-2.777 Z-2.461
X9.548 Y-2.71 Z-2.484
X9.553 Y-2.639 Z-2.492
X9.606 Y-1.922
G3 X9.313 Y-1.582 I-0.317 J0.023
G1 X9.297 Y-1.581
X9.256 Y-1.578
X9.133 Y-1.562 Z-2.493
X9.01 Y-1.538 Z-2.494
X8.887 Y-1.507 Z-2.495
X8.765 Y-1.467 Z-2.496
X8.751 Y-1.462 Z-2.497
X8.642 Y-1.417
X8.519 Y-1.353 Z-2.499
X8.495 Y-1.339
X8.396 Y-1.277 Z-2.5
X8.313 Y-1.216
X8.274 Y-1.185 Z-2.501
X8.171 Y-1.093 Z-2.502
X8.151 Y-1.073
X8.057 Y-0.97 Z-2.503
X8.028 Y-0.934 Z-2.504
X7.964 Y-0.848
X7.905 Y-0.754 Z-2.505
X7.888 Y-0.725 Z-2.506
X7.827 Y-0.602 Z-2.507
X7.782 Y-0.489 Z-2.508
X7.779 Y-0.479
X7.743 Y-0.356 Z-2.509
X7.718 Y-0.233 Z-2.51
X7.703 Y-0.11 Z-2.511
X7.699 Y0.013 Z-2.512
Y59.987 Z-2.98
X7.703 Y60.11 Z-2.981
X7.718 Y60.233 Z-2.982
X7.743 Y60.356 Z-2.983
X7.779 Y60.479 Z-2.984
X7.782 Y60.489
X7.827 Y60.602 Z-2.985
X7.888 Y60.725 Z-2.986
X7.905 Y60.754 Z-2.987
X7.964 Y60.848 Z-2.988
X8.028 Y60.934
X8.057 Y60.97 Z-2.989
X8.151 Y61.073 Z-2.99
X8.171 Y61.093
X8.274 Y61.185 Z-2.991
X8.313 Y61.216 Z-2.992
X8.396 Y61.277
X8.495 Y61.339 Z-2.993
X8.519 Y61.353
X8.642 Y61.417 Z-2.995
X8.751 Y61.462
X8.765 Y61.467 Z-2.996
X8.887 Y61.507 Z-2.997
X9.01 Y61.538 Z-2.998
X9.133 Y61.562 Z-2.999
X9.256 Y61.578 Z-3
X9.297 Y61.581
X9.313 Y61.582
X9.297 Y61.581
X9.256 Y61.578
X9.133 Y61.562
X9.01 Y61.538
X8.887 Y61.507
X8.765 Y61.467
X8.751 Y61.462
X8.642 Y61.417
X8.519 Y61.353
X8.495 Y61.339
X8.396 Y61.277
X8.313 Y61.216
X8.274 Y61.185
X8.171 Y61.093
X8.151 Y61.073
X8.057 Y60.97
X8.028 Y60.934
X7.964 Y60.848
X7.905 Y60.754
X7.888 Y60.725
X7.827 Y60.602
X7.782 Y60.489
X7.779 Y60.479
X7.743 Y60.356
X7.718 Y60.233
X7.703 Y60.11
X7.699 Y59.987
Y0.013
X7.703 Y-0.11
X7.718 Y-0.233
X7.743 Y-0.356
X7.779 Y-0.479
X7.782 Y-0.489
X7.827 Y-0.602
X7.888 Y-0.725
X7.905 Y-0.754
X7.964 Y-0.848
X8.028 Y-0.934
X8.057 Y-0.97
X8.151 Y-1.073
X8.171 Y-1.093
X8.274 Y-1.185
X8.313 Y-1.216
X8.396 Y-1.277
X8.495 Y-1.339
X8.519 Y-1.353
X8.642 Y-1.417
X8.751 Y-1.462
X8.765 Y-1.467
X8.887 Y-1.507
X9.01 Y-1.538
X9.133 Y-1.562
X9.256 Y-1.578
X9.297 Y-1.581
X9.313 Y-1.582
G3 X8.967 Y-1.869 I-0.029 J-0.316
G1 X8.961 Y-1.939 Z-2.992
X8.954 Y-2.006 Z-2.969
X8.949 Y-2.066 Z-2.931
X8.944 Y-2.116 Z-2.88
X8.941 Y-2.154 Z-2.82
X8.938 Y-2.177 Z-2.753
Y-2.185 Z-2.682
G0 Z5.08
X7.565 Y-0.908
Z0.166
G1 Z-2.389 F1025.6
X7.567 Y-0.907 Z-2.406
X7.571 Y-0.903 Z-2.422
X7.577 Y-0.897 Z-2.437
G3 X7.584 Y-0.887 Z-2.449 I-0.059 J0.05
X7.59 Y-0.875 Z-2.458 I-0.066 J0.041
X7.595 Y-0.859 Z-2.464 I-0.072 J0.028
X7.596 Y-0.843 Z-2.467 I-0.076 J0.013
X7.441 Y-0.85 Z-2.475 I-0.077 J-0.004
X7.596 Y-0.843 Z-2.484 I0.077 J0.004
X7.441 Y-0.85 Z-2.492 I-0.077 J-0.004
X7.596 Y-0.843 Z-2.5 I0.077 J0.004
X7.441 Y-0.85 Z-2.509 I-0.077 J-0.004
X7.596 Y-0.843 Z-2.517 I0.077 J0.004
X7.441 Y-0.85 Z-2.526 I-0.077 J-0.004
X7.596 Y-0.843 Z-2.534 I0.077 J0.004
X7.441 Y-0.85 Z-2.543 I-0.077 J-0.004
X7.596 Y-0.843 Z-2.551 I0.077 J0.004
X7.441 Y-0.85 Z-2.56 I-0.077 J-0.004
X7.596 Y-0.843 Z-2.568 I0.077 J0.004
X7.441 Y-0.85 Z-2.577 I-0.077 J-0.004
X7.596 Y-0.843 Z-2.585 I0.077 J0.004
X7.441 Y-0.85 Z-2.594 I-0.077 J-0.004
X7.596 Y-0.843 Z-2.602 I0.077 J0.004
X7.441 Y-0.85 Z-2.611 I-0.077 J-0.004
X7.596 Y-0.843 Z-2.619 I0.077 J0.004
X7.441 Y-0.85 Z-2.628 I-0.077 J-0.004
X7.596 Y-0.843 Z-2.636 I0.077 J0.004
X7.441 Y-0.85 Z-2.644 I-0.077 J-0.004
X7.596 Y-0.843 Z-2.653 I0.077 J0.004
X7.441 Y-0.85 Z-2.661 I-0.077 J-0.004
X7.596 Y-0.843 Z-2.67 I0.077 J0.004
X7.441 Y-0.85 Z-2.678 I-0.077 J-0.004
X7.596 Y-0.843 Z-2.687 I0.077 J0.004
X7.441 Y-0.85 Z-2.695 I-0.077 J-0.004
X7.596 Y-0.843 Z-2.704 I0.077 J0.004
X7.441 Y-0.85 Z-2.712 I-0.077 J-0.004
X7.596 Y-0.843 Z-2.721 I0.077 J0.004
X7.441 Y-0.85 Z-2.729 I-0.077 J-0.004
X7.596 Y-0.843 Z-2.738 I0.077 J0.004
X7.441 Y-0.85 Z-2.746 I-0.077 J-0.004
X7.596 Y-0.843 Z-2.755 I0.077 J0.004
X7.441 Y-0.85 Z-2.763 I-0.077 J-0.004
X7.596 Y-0.843 Z-2.772 I0.077 J0.004
X7.441 Y-0.85 Z-2.78 I-0.077 J-0.004
X7.596 Y-0.843 Z-2.788 I0.077 J0.004
X7.441 Y-0.85 Z-2.797 I-0.077 J-0.004
X7.596 Y-0.843 Z-2.805 I0.077 J0.004
X7.441 Y-0.85 Z-2.814 I-0.077 J-0.004
X7.596 Y-0.843 Z-2.822 I0.077 J0.004
X7.441 Y-0.85 Z-2.831 I-0.077 J-0.004
X7.596 Y-0.843 Z-2.839 I0.077 J0.004
X7.441 Y-0.85 Z-2.848 I-0.077 J-0.004
X7.596 Y-0.843 Z-2.856 I0.077 J0.004
X7.441 Y-0.85 Z-2.865 I-0.077 J-0.004
X7.596 Y-0.843 Z-2.873 I0.077 J0.004
X7.441 Y-0.85 Z-2.882 I-0.077 J-0.004
X7.596 Y-0.843 Z-2.89 I0.077 J0.004
X7.441 Y-0.85 Z-2.899 I-0.077 J-0.004
X7.596 Y-0.843 Z-2.907 I0.077 J0.004
X7.441 Y-0.85 Z-2.915 I-0.077 J-0.004
X7.596 Y-0.843 Z-2.924 I0.077 J0.004
X7.441 Y-0.85 Z-2.932 I-0.077 J-0.004
X7.596 Y-0.843 Z-2.941 I0.077 J0.004
X7.441 Y-0.85 Z-2.949 I-0.077 J-0.004
X7.596 Y-0.843 Z-2.958 I0.077 J0.004
X7.441 Y-0.85 Z-2.966 I-0.077 J-0.004
X7.596 Y-0.843 Z-2.975 I0.077 J0.004
X7.441 Y-0.85 Z-2.983 I-0.077 J-0.004
X7.596 Y-0.843 Z-2.992 I0.077 J0.004
X7.441 Y-0.844 Z-3 I-0.077 J-0.004
G1 Y-0.846
G3 X7.759 Y-1.164 I0.318
G1 X8.07 Z-3.011
X8.072 Y-1.165
X8.074 Y-1.167
X8.08 Y-1.172
X8.132 Y-1.216 Z-3.014
X8.151 Y-1.231 Z-3.015
X8.212 Y-1.277 Z-3.017
X8.274 Y-1.318 Z-3.02
X8.307 Y-1.339 Z-3.021
X8.396 Y-1.39 Z-3.025
X8.519 Y-1.449 Z-3.03
X8.55 Y-1.462 Z-3.031
X8.642 Y-1.496 Z-3.034
X8.765 Y-1.533 Z-3.039
X8.887 Y-1.56 Z-3.043
X9.01 Y-1.577 Z-3.047
X9.051 Y-1.581 Z-3.049
X9.066 Y-1.582
X9.079 Y-1.583 Z-3.05
X9.066 Y-1.582
X9.051 Y-1.581 Z-3.051
X9.01 Y-1.577 Z-3.052
X8.887 Y-1.56 Z-3.056
X8.765 Y-1.533 Z-3.061
X8.642 Y-1.496 Z-3.065
X8.55 Y-1.462 Z-3.069
X8.519 Y-1.449 Z-3.07
X8.396 Y-1.39 Z-3.075
X8.307 Y-1.339 Z-3.078
X8.274 Y-1.318 Z-3.08
X8.212 Y-1.277 Z-3.082
X8.151 Y-1.231 Z-3.085
X8.132 Y-1.216 Z-3.086
X8.08 Y-1.172 Z-3.088
X8.074 Y-1.167
X8.072 Y-1.165
X8.07 Y-1.164 Z-3.089
X5.931 Z-3.163
X5.929
X5.927 Y-1.166
X5.922 Y-1.17 Z-3.164
X5.904 Y-1.186
X5.868 Y-1.216 Z-3.166
X5.818 Y-1.255 Z-3.168
X5.756 Y-1.299 Z-3.171
X5.695 Y-1.338 Z-3.174
X5.693 Y-1.339
X5.572 Y-1.407 Z-3.178
X5.45 Y-1.462 Z-3.183
X5.449
X5.327 Y-1.507 Z-3.188
X5.204 Y-1.541 Z-3.192
X5.081 Y-1.565 Z-3.197
X4.958 Y-1.58 Z-3.201
X4.929 Y-1.583 Z-3.202
X4.912 Y-1.584
X4.929 Y-1.583 Z-3.203
X4.958 Y-1.58 Z-3.204
X5.081 Y-1.565 Z-3.208
X5.204 Y-1.541 Z-3.213
X5.327 Y-1.507 Z-3.217
X5.449 Y-1.462 Z-3.222
X5.45
X5.572 Y-1.407 Z-3.227
X5.693 Y-1.339 Z-3.231
X5.695 Y-1.338
X5.756 Y-1.299 Z-3.234
X5.818 Y-1.255 Z-3.237
X5.868 Y-1.216 Z-3.239
X5.904 Y-1.186 Z-3.24
X5.922 Y-1.17 Z-3.241
X5.927 Y-1.166 Z-3.242
X5.929 Y-1.164
X5.931
X8.07 Z-3.316
X8.072 Y-1.165
X8.074 Y-1.167 Z-3.317
X8.08 Y-1.172
X8.132 Y-1.216 Z-3.319
X8.151 Y-1.231 Z-3.32
X8.212 Y-1.277 Z-3.323
X8.274 Y-1.318 Z-3.325
X8.307 Y-1.339 Z-3.327
X8.396 Y-1.39 Z-3.33
X8.519 Y-1.449 Z-3.335
X8.55 Y-1.462 Z-3.336
X8.642 Y-1.496 Z-3.34
X8.765 Y-1.533 Z-3.344
X8.887 Y-1.56 Z-3.349
X9.01 Y-1.577 Z-3.353
X9.051 Y-1.581 Z-3.354
X9.066 Y-1.582 Z-3.355
X9.079 Y-1.583
X9.066 Y-1.582 Z-3.356
X9.051 Y-1.581
X9.01 Y-1.577 Z-3.358
X8.887 Y-1.56 Z-3.362
X8.765 Y-1.533 Z-3.366
X8.642 Y-1.496 Z-3.371
X8.55 Y-1.462 Z-3.374
X8.519 Y-1.449 Z-3.375
X8.396 Y-1.39 Z-3.38
X8.307 Y-1.339 Z-3.384
X8.274 Y-1.318 Z-3.385
X8.212 Y-1.277 Z-3.388
X8.151 Y-1.231 Z-3.39
X8.132 Y-1.216 Z-3.391
X8.08 Y-1.172 Z-3.394
X8.074 Y-1.167
X8.072 Y-1.165
X8.07 Y-1.164
X5.931 Z-3.469
X5.929
X5.927 Y-1.166
X5.922 Y-1.17
X5.904 Y-1.186 Z-3.47
X5.868 Y-1.216 Z-3.472
X5.818 Y-1.255 Z-3.474
X5.756 Y-1.299 Z-3.477
X5.695 Y-1.338 Z-3.479
X5.693 Y-1.339
X5.572 Y-1.407 Z-3.484
X5.45 Y-1.462 Z-3.489
X5.449
X5.327 Y-1.507 Z-3.493
X5.204 Y-1.541 Z-3.498
X5.081 Y-1.565 Z-3.502
X4.958 Y-1.58 Z-3.506
X4.929 Y-1.583 Z-3.507
X4.912 Y-1.584 Z-3.508
X4.929 Y-1.583
X4.958 Y-1.58
X5.081 Y-1.565
X5.204 Y-1.541
X5.327 Y-1.507
X5.449 Y-1.462
X5.45
X5.572 Y-1.407
X5.693 Y-1.339
X5.695 Y-1.338
X5.756 Y-1.299
X5.818 Y-1.255
X5.868 Y-1.216
X5.904 Y-1.186
X5.922 Y-1.17
X5.927 Y-1.166
X5.929 Y-1.164
X5.931
X8.07
X8.072 Y-1.165
X8.074 Y-1.167
X8.08 Y-1.172
X8.132 Y-1.216
X8.151 Y-1.231
X8.212 Y-1.277
X8.274 Y-1.318
X8.307 Y-1.339
X8.396 Y-1.39
X8.519 Y-1.449
X8.55 Y-1.462
X8.642 Y-1.496
X8.765 Y-1.533
X8.887 Y-1.56
X9.01 Y-1.577
X9.051 Y-1.581
X9.066 Y-1.582
X9.079 Y-1.583
G3 X8.731 Y-1.867 I-0.032 J-0.316
G1 X8.724 Y-1.938 Z-3.5
X8.717 Y-2.004 Z-3.477
X8.711 Y-2.064 Z-3.439
X8.706 Y-2.114 Z-3.388
X8.703 Y-2.152 Z-3.328
X8.7 Y-2.175 Z-3.261
X8.699 Y-2.183 Z-3.191
G0 Z5.08
X6.083 Y-1.327
Z0.297
G1 Z-2.939 F1025.6
X6.081 Z-2.95
X6.077 Y-1.329 Z-2.96
X6.07 Y-1.332 Z-2.967
X6.063 Y-1.338 Z-2.973
G3 X6.057 Y-1.347 Z-2.975 I0.027 J-0.023
X6.122 Y-1.375 Z-2.978 I0.032 J-0.014
X6.057 Y-1.347 Z-2.982 I-0.032 J0.014
X6.122 Y-1.375 Z-2.986 I0.032 J-0.014
X6.057 Y-1.347 Z-2.99 I-0.032 J0.014
X6.122 Y-1.375 Z-2.994 I0.032 J-0.014
X6.057 Y-1.347 Z-2.998 I-0.032 J0.014
X6.122 Y-1.375 Z-3.002 I0.032 J-0.014
X6.057 Y-1.347 Z-3.005 I-0.032 J0.014
X6.122 Y-1.375 Z-3.009 I0.032 J-0.014
X6.057 Y-1.347 Z-3.013 I-0.032 J0.014
X6.122 Y-1.375 Z-3.017 I0.032 J-0.014
X6.057 Y-1.347 Z-3.021 I-0.032 J0.014
X6.122 Y-1.375 Z-3.025 I0.032 J-0.014
X6.057 Y-1.347 Z-3.029 I-0.032 J0.014
X6.122 Y-1.375 Z-3.033 I0.032 J-0.014
X6.057 Y-1.347 Z-3.036 I-0.032 J0.014
X6.122 Y-1.375 Z-3.04 I0.032 J-0.014
X6.057 Y-1.347 Z-3.044 I-0.032 J0.014
X6.122 Y-1.375 Z-3.048 I0.032 J-0.014
X6.057 Y-1.347 Z-3.052 I-0.032 J0.014
X6.122 Y-1.375 Z-3.056 I0.032 J-0.014
X6.057 Y-1.347 Z-3.06 I-0.032 J0.014
X6.122 Y-1.375 Z-3.063 I0.032 J-0.014
X6.057 Y-1.347 Z-3.067 I-0.032 J0.014
X6.122 Y-1.375 Z-3.071 I0.032 J-0.014
X6.057 Y-1.347 Z-3.075 I-0.032 J0.014
X6.122 Y-1.375 Z-3.079 I0.032 J-0.014
X6.057 Y-1.347 Z-3.083 I-0.032 J0.014
X6.122 Y-1.375 Z-3.087 I0.032 J-0.014
X6.057 Y-1.347 Z-3.09 I-0.032 J0.014
X6.122 Y-1.375 Z-3.094 I0.032 J-0.014
X6.057 Y-1.347 Z-3.098 I-0.032 J0.014
X6.122 Y-1.375 Z-3.102 I0.032 J-0.014
X6.057 Y-1.347 Z-3.106 I-0.032 J0.014
X6.122 Y-1.375 Z-3.11 I0.032 J-0.014
X6.057 Y-1.347 Z-3.114 I-0.032 J0.014
X6.122 Y-1.375 Z-3.117 I0.032 J-0.014
X6.057 Y-1.347 Z-3.121 I-0.032 J0.014
X6.122 Y-1.375 Z-3.125 I0.032 J-0.014
X6.057 Y-1.347 Z-3.129 I-0.032 J0.014
X6.122 Y-1.375 Z-3.133 I0.032 J-0.014
X6.057 Y-1.347 Z-3.137 I-0.032 J0.014
X6.122 Y-1.375 Z-3.141 I0.032 J-0.014
X6.057 Y-1.347 Z-3.145 I-0.032 J0.014
X6.122 Y-1.375 Z-3.148 I0.032 J-0.014
X6.057 Y-1.347 Z-3.152 I-0.032 J0.014
X6.122 Y-1.375 Z-3.156 I0.032 J-0.014
X6.057 Y-1.347 Z-3.16 I-0.032 J0.014
X6.122 Y-1.375 Z-3.164 I0.032 J-0.014
X6.057 Y-1.347 Z-3.168 I-0.032 J0.014
X6.122 Y-1.375 Z-3.172 I0.032 J-0.014
X6.057 Y-1.347 Z-3.175 I-0.032 J0.014
X6.122 Y-1.375 Z-3.179 I0.032 J-0.014
X6.057 Y-1.347 Z-3.183 I-0.032 J0.014
X6.122 Y-1.375 Z-3.187 I0.032 J-0.014
X6.057 Y-1.347 Z-3.191 I-0.032 J0.014
X6.122 Y-1.375 Z-3.195 I0.032 J-0.014
X6.057 Y-1.347 Z-3.199 I-0.032 J0.014
X6.122 Y-1.375 Z-3.202 I0.032 J-0.014
X6.057 Y-1.347 Z-3.206 I-0.032 J0.014
X6.122 Y-1.375 Z-3.21 I0.032 J-0.014
X6.057 Y-1.347 Z-3.214 I-0.032 J0.014
X6.122 Y-1.375 Z-3.218 I0.032 J-0.014
X6.057 Y-1.347 Z-3.222 I-0.032 J0.014
X6.122 Y-1.375 Z-3.226 I0.032 J-0.014
X6.057 Y-1.347 Z-3.229 I-0.032 J0.014
X6.122 Y-1.375 Z-3.233 I0.032 J-0.014
X6.057 Y-1.347 Z-3.237 I-0.032 J0.014
X6.122 Y-1.375 Z-3.241 I0.032 J-0.014
X6.057 Y-1.347 Z-3.245 I-0.032 J0.014
X6.122 Y-1.375 Z-3.249 I0.032 J-0.014
X6.057 Y-1.347 Z-3.253 I-0.032 J0.014
X6.122 Y-1.375 Z-3.257 I0.032 J-0.014
X6.057 Y-1.347 Z-3.26 I-0.032 J0.014
X6.122 Y-1.375 Z-3.264 I0.032 J-0.014
X6.057 Y-1.347 Z-3.268 I-0.032 J0.014
X6.122 Y-1.375 Z-3.272 I0.032 J-0.014
X6.057 Y-1.347 Z-3.276 I-0.032 J0.014
X6.122 Y-1.375 Z-3.28 I0.032 J-0.014
X6.057 Y-1.347 Z-3.284 I-0.032 J0.014
X6.122 Y-1.375 Z-3.287 I0.032 J-0.014
X6.057 Y-1.347 Z-3.291 I-0.032 J0.014
X6.122 Y-1.375 Z-3.295 I0.032 J-0.014
X6.057 Y-1.347 Z-3.299 I-0.032 J0.014
X6.122 Y-1.375 Z-3.303 I0.032 J-0.014
X6.057 Y-1.347 Z-3.307 I-0.032 J0.014
X6.122 Y-1.375 Z-3.311 I0.032 J-0.014
X6.057 Y-1.347 Z-3.314 I-0.032 J0.014
X6.122 Y-1.375 Z-3.318 I0.032 J-0.014
X6.057 Y-1.347 Z-3.322 I-0.032 J0.014
X6.122 Y-1.375 Z-3.326 I0.032 J-0.014
X6.057 Y-1.347 Z-3.33 I-0.032 J0.014
X6.122 Y-1.375 Z-3.334 I0.032 J-0.014
X6.057 Y-1.347 Z-3.338 I-0.032 J0.014
X6.122 Y-1.375 Z-3.341 I0.032 J-0.014
X6.057 Y-1.347 Z-3.345 I-0.032 J0.014
X6.122 Y-1.375 Z-3.349 I0.032 J-0.014
X6.057 Y-1.347 Z-3.353 I-0.032 J0.014
X6.122 Y-1.375 Z-3.357 I0.032 J-0.014
X6.057 Y-1.347 Z-3.361 I-0.032 J0.014
X6.122 Y-1.375 Z-3.365 I0.032 J-0.014
X6.057 Y-1.347 Z-3.368 I-0.032 J0.014
X6.122 Y-1.375 Z-3.372 I0.032 J-0.014
X6.057 Y-1.347 Z-3.376 I-0.032 J0.014
X6.122 Y-1.375 Z-3.38 I0.032 J-0.014
X6.057 Y-1.347 Z-3.384 I-0.032 J0.014
X6.122 Y-1.375 Z-3.388 I0.032 J-0.014
X6.057 Y-1.347 Z-3.392 I-0.032 J0.014
X6.122 Y-1.375 Z-3.396 I0.032 J-0.014
X6.057 Y-1.347 Z-3.399 I-0.032 J0.014
X6.122 Y-1.375 Z-3.403 I0.032 J-0.014
X6.057 Y-1.347 Z-3.407 I-0.032 J0.014
X6.122 Y-1.375 Z-3.411 I0.032 J-0.014
X6.057 Y-1.347 Z-3.415 I-0.032 J0.014
X6.122 Y-1.375 Z-3.419 I0.032 J-0.014
X6.057 Y-1.347 Z-3.423 I-0.032 J0.014
X6.122 Y-1.375 Z-3.426 I0.032 J-0.014
X6.057 Y-1.347 Z-3.43 I-0.032 J0.014
X6.122 Y-1.375 Z-3.434 I0.032 J-0.014
X6.057 Y-1.347 Z-3.438 I-0.032 J0.014
X6.122 Y-1.375 Z-3.442 I0.032 J-0.014
X6.057 Y-1.347 Z-3.446 I-0.032 J0.014
X6.122 Y-1.375 Z-3.45 I0.032 J-0.014
X6.057 Y-1.347 Z-3.453 I-0.032 J0.014
X6.122 Y-1.375 Z-3.457 I0.032 J-0.014
X6.057 Y-1.347 Z-3.461 I-0.032 J0.014
X6.122 Y-1.375 Z-3.465 I0.032 J-0.014
X6.057 Y-1.347 Z-3.469 I-0.032 J0.014
X6.122 Y-1.375 Z-3.473 I0.032 J-0.014
X6.057 Y-1.347 Z-3.477 I-0.032 J0.014
X6.122 Y-1.375 Z-3.48 I0.032 J-0.014
X6.057 Y-1.347 Z-3.484 I-0.032 J0.014
X6.122 Y-1.375 Z-3.488 I0.032 J-0.014
X6.057 Y-1.347 Z-3.492 I-0.032 J0.014
X6.122 Y-1.375 Z-3.496 I0.032 J-0.014
X6.057 Y-1.347 Z-3.5 I-0.032 J0.014
X6.122 Y-1.375 Z-3.504 I0.032 J-0.014
X6.057 Y-1.347 Z-3.508 I-0.032 J0.014
X6.055 Y-1.36 I0.032 J-0.014
G1 Y-1.361
G3 X6.174 Y-1.481 I0.12
G1 X8.479 Z-3.588
X8.481 Y-1.482 Z-3.589
X8.488 Y-1.485
X8.519 Y-1.496 Z-3.59
X8.642 Y-1.533 Z-3.594
X8.765 Y-1.561 Z-3.599
X8.887 Y-1.578 Z-3.603
X8.922 Y-1.582 Z-3.604
X8.938 Y-1.583 Z-3.605
X8.922 Y-1.582 Z-3.606
X8.887 Y-1.578 Z-3.607
X8.765 Y-1.561 Z-3.611
X8.642 Y-1.533 Z-3.615
X8.519 Y-1.496 Z-3.62
X8.488 Y-1.485 Z-3.621
X8.481 Y-1.482
X8.479 Y-1.481
X5.522 Z-3.725
X5.52
X5.518 Y-1.482
X5.511 Y-1.485
X5.449 Y-1.506 Z-3.727
X5.327 Y-1.541 Z-3.732
X5.204 Y-1.566 Z-3.736
X5.081 Y-1.582 Z-3.741
X5.059 Y-1.583
X5.04 Y-1.584 Z-3.742
X5.059 Y-1.583 Z-3.743
X5.081 Y-1.582
X5.204 Y-1.566 Z-3.748
X5.327 Y-1.541 Z-3.752
X5.449 Y-1.506 Z-3.757
X5.511 Y-1.485 Z-3.759
X5.518 Y-1.482
X5.52 Y-1.481
X5.522
X8.479 Z-3.863
X8.481 Y-1.482
X8.488 Y-1.485
X8.519 Y-1.496 Z-3.864
X8.642 Y-1.533 Z-3.868
X8.765 Y-1.561 Z-3.873
X8.887 Y-1.578 Z-3.877
X8.922 Y-1.582 Z-3.878
X8.938 Y-1.583 Z-3.879
X8.922 Y-1.582 Z-3.88
X8.887 Y-1.578 Z-3.881
X8.765 Y-1.561 Z-3.885
X8.642 Y-1.533 Z-3.889
X8.519 Y-1.496 Z-3.894
X8.488 Y-1.485 Z-3.895
X8.481 Y-1.482
X8.479 Y-1.481
X5.522 Z-3.999
X5.52
X5.518 Y-1.482
X5.511 Y-1.485
X5.449 Y-1.506 Z-4.001
X5.327 Y-1.541 Z-4.006
X5.204 Y-1.566 Z-4.01
X5.081 Y-1.582 Z-4.015
X5.059 Y-1.583
X5.04 Y-1.584 Z-4.016
X5.059 Y-1.583
X5.081 Y-1.582
X5.204 Y-1.566
X5.327 Y-1.541
X5.449 Y-1.506
X5.511 Y-1.485
X5.518 Y-1.482
X5.52 Y-1.481
X5.522
X8.479
X8.481 Y-1.482
X8.488 Y-1.485
X8.519 Y-1.496
X8.642 Y-1.533
X8.765 Y-1.561
X8.887 Y-1.578
X8.922 Y-1.582
X8.938 Y-1.583
G3 X8.589 Y-1.865 I-0.033 J-0.316
G1 X8.582 Y-1.936 Z-4.008
X8.575 Y-2.002 Z-3.985
X8.568 Y-2.062 Z-3.947
X8.563 Y-2.112 Z-3.896
X8.559 Y-2.15 Z-3.836
X8.557 Y-2.173 Z-3.769
X8.556 Y-2.181 Z-3.698
G0 Z5.08
X26.61 Y61.799
Z1.553
G1 Z0.317 F1025.6
G19 G2 Y61.481 Z0 J-0.317
G17 G3 X26.928 Y61.164 I0.318
G1 X27.92 Z-0.007
X28.043 Y61.163 Z-0.008
X28.166 Y61.157 Z-0.009
X28.288 Y61.15 Z-0.01
X28.411 Y61.144 Z-0.011
X28.534 Y61.129 Z-0.012
X28.657 Y61.108 Z-0.013
X28.743 Y61.093 Z-0.014
X28.78 Y61.087
X28.902 Y61.064 Z-0.015
X29.025 Y61.029 Z-0.016
X29.148 Y60.988 Z-0.017
X29.198 Y60.97
X29.271 Y60.944 Z-0.018
X29.393 Y60.895 Z-0.019
X29.485 Y60.848 Z-0.02
X29.516 Y60.829
X29.639 Y60.747 Z-0.021
X29.669 Y60.725
X29.762 Y60.651 Z-0.022
X29.817 Y60.602 Z-0.023
X29.885 Y60.534
X29.931 Y60.479 Z-0.024
X29.973 Y60.418 Z-0.025
X30.007 Y60.356
X30.008
X30.057 Y60.233 Z-0.026
X30.085 Y60.11 Z-0.027
X30.093 Y59.987 Z-0.028
Y0.013 Z-0.48
X30.085 Y-0.11 Z-0.481
X30.057 Y-0.233 Z-0.482
X30.008 Y-0.356 Z-0.483
X30.007
X29.973 Y-0.418
X29.931 Y-0.479 Z-0.484
X29.885 Y-0.534 Z-0.485
X29.817 Y-0.602
X29.762 Y-0.651 Z-0.486
X29.669 Y-0.725 Z-0.487
X29.639 Y-0.747
X29.516 Y-0.829 Z-0.488
X29.485 Y-0.848
X29.393 Y-0.895 Z-0.489
X29.271 Y-0.944 Z-0.49
X29.198 Y-0.97 Z-0.491
X29.148 Y-0.988
X29.025 Y-1.029 Z-0.492
X28.902 Y-1.064 Z-0.493
X28.78 Y-1.087 Z-0.494
X28.743 Y-1.093
X28.657 Y-1.108 Z-0.495
X28.534 Y-1.129 Z-0.496
X28.411 Y-1.144 Z-0.497
X28.288 Y-1.15 Z-0.498
X28.166 Y-1.157 Z-0.499
X28.043 Y-1.163 Z-0.5
X27.92 Y-1.164 Z-0.501
X26.928 Z-0.508
X27.92
X28.043 Y-1.163
X28.166 Y-1.157
X28.288 Y-1.15
X28.411 Y-1.144
X28.534 Y-1.129
X28.657 Y-1.108
X28.743 Y-1.093
X28.78 Y-1.087
X28.902 Y-1.064
X29.025 Y-1.029
X29.148 Y-0.988
X29.198 Y-0.97
X29.271 Y-0.944
X29.393 Y-0.895
X29.485 Y-0.848
X29.516 Y-0.829
X29.639 Y-0.747
X29.669 Y-0.725
X29.762 Y-0.651
X29.817 Y-0.602
X29.885 Y-0.534
X29.931 Y-0.479
X29.973 Y-0.418
X30.007 Y-0.356
X30.008
X30.057 Y-0.233
X30.085 Y-0.11
X30.093 Y0.013
Y59.987
X30.085 Y60.11
X30.057 Y60.233
X30.008 Y60.356
X30.007
X29.973 Y60.418
X29.931 Y60.479
X29.885 Y60.534
X29.817 Y60.602
X29.762 Y60.651
X29.669 Y60.725
X29.639 Y60.747
X29.516 Y60.829
X29.485 Y60.848
X29.393 Y60.895
X29.271 Y60.944
X29.198 Y60.97
X29.148 Y60.988
X29.025 Y61.029
X28.902 Y61.064
X28.78 Y61.087
X28.743 Y61.093
X28.657 Y61.108
X28.534 Y61.129
X28.411 Y61.144
X28.288 Y61.15
X28.166 Y61.157
X28.043 Y61.163
X27.92 Y61.164
X26.928
G3 X27.245 Y61.481 J0.318
G19 G3 Y61.799 Z-0.191 K0.318
G0 Z5.08
X38.755 Y-0.529
Z1.993
G1 Z0.317 F1025.6
G2 Y-0.846 Z0 J-0.317
G17 G3 X39.072 Y-1.164 I0.318
G1 X38.112 Z-0.007
X37.989 Z-0.008
X37.866 Y-1.159 Z-0.009
X37.743 Y-1.152 Z-0.01
X37.62 Y-1.145 Z-0.011
X37.498 Y-1.134 Z-0.012
X37.375 Y-1.114 Z-0.013
X37.257 Y-1.093 Z-0.014
X37.252 Y-1.092
X37.129 Y-1.07 Z-0.015
X37.006 Y-1.039 Z-0.016
X36.884 Y-0.999 Z-0.017
X36.802 Y-0.97
X36.761 Y-0.955 Z-0.018
X36.638 Y-0.908 Z-0.019
X36.515 Y-0.848 Z-0.02
X36.393 Y-0.769 Z-0.021
X36.331 Y-0.725
X36.27 Y-0.677 Z-0.022
X36.183 Y-0.602 Z-0.023
X36.147 Y-0.567
X36.069 Y-0.479 Z-0.024
X36.024 Y-0.413 Z-0.025
X35.992 Y-0.356
X35.943 Y-0.233 Z-0.026
X35.915 Y-0.11 Z-0.027
X35.907 Y0.013 Z-0.028
Y59.987 Z-0.48
X35.915 Y60.11 Z-0.481
X35.943 Y60.233 Z-0.482
X35.992 Y60.356 Z-0.483
X36.024 Y60.413
X36.069 Y60.479 Z-0.484
X36.147 Y60.567 Z-0.485
X36.183 Y60.602
X36.27 Y60.677 Z-0.486
X36.331 Y60.725 Z-0.487
X36.393 Y60.769
X36.515 Y60.848 Z-0.488
X36.638 Y60.908 Z-0.489
X36.761 Y60.955 Z-0.49
X36.802 Y60.97 Z-0.491
X36.884 Y60.999
X37.006 Y61.039 Z-0.492
X37.129 Y61.07 Z-0.493
X37.252 Y61.092 Z-0.494
X37.257 Y61.093
X37.375 Y61.114 Z-0.495
X37.498 Y61.134 Z-0.496
X37.62 Y61.146 Z-0.497
X37.743 Y61.152 Z-0.498
X37.866 Y61.159 Z-0.499
X37.989 Y61.164 Z-0.5
X38.112 Z-0.501
X39.072 Z-0.508
X38.112
X37.989
X37.866 Y61.159
X37.743 Y61.152
X37.62 Y61.146
X37.498 Y61.134
X37.375 Y61.114
X37.257 Y61.093
X37.252 Y61.092
X37.129 Y61.07
X37.006 Y61.039
X36.884 Y60.999
X36.802 Y60.97
X36.761 Y60.955
X36.638 Y60.908
X36.515 Y60.848
X36.393 Y60.769
X36.331 Y60.725
X36.27 Y60.677
X36.183 Y60.602
X36.147 Y60.567
X36.069 Y60.479
X36.024 Y60.413
X35.992 Y60.356
X35.943 Y60.233
X35.915 Y60.11
X35.907 Y59.987
Y0.013
X35.915 Y-0.11
X35.943 Y-0.233
X35.992 Y-0.356
X36.024 Y-0.413
X36.069 Y-0.479
X36.147 Y-0.567
X36.183 Y-0.602
X36.27 Y-0.677
X36.331 Y-0.725
X36.393 Y-0.769
X36.515 Y-0.848
X36.638 Y-0.908
X36.761 Y-0.955
X36.802 Y-0.97
X36.884 Y-0.999
X37.006 Y-1.039
X37.129 Y-1.07
X37.252 Y-1.092
X37.257 Y-1.093
X37.375 Y-1.114
X37.498 Y-1.134
X37.62 Y-1.145
X37.743 Y-1.152
X37.866 Y-1.159
X37.989 Y-1.164
X38.112
X39.072
G3 X38.755 Y-1.481 J-0.317
G19 G2 Y-1.799 Z-0.191 K0.318
G0 Z5.08
X27.597 Y61.328
Z1.78
G1 Z-0.508 F1025.6
G17 G3 X27.443 Y61.481 I-0.153
G1 X27.92 Z-0.512
X28.043 Y61.48
X28.166 Y61.478 Z-0.513
X28.288 Y61.475 Z-0.514
X28.411 Y61.472 Z-0.515
X28.534 Y61.463 Z-0.516
X28.554 Y61.462
X28.657 Y61.455 Z-0.517
X28.78 Y61.445 Z-0.518
X28.902 Y61.431 Z-0.519
X29.025 Y61.415 Z-0.52
X29.148 Y61.397 Z-0.521
X29.271 Y61.376 Z-0.522
X29.393 Y61.349 Z-0.523
X29.432 Y61.339
X29.516 Y61.318 Z-0.524
X29.639 Y61.285
X29.762 Y61.247 Z-0.525
X29.839 Y61.216 Z-0.526
X29.885 Y61.197
X30.007 Y61.143 Z-0.527
X30.109 Y61.093 Z-0.528
X30.13 Y61.083
X30.253 Y61.012 Z-0.529
X30.314 Y60.97 Z-0.53
X30.376 Y60.922 Z-0.531
X30.462 Y60.848
X30.499 Y60.813 Z-0.532
X30.583 Y60.725 Z-0.533
X30.621 Y60.68
X30.681 Y60.602 Z-0.534
X30.744 Y60.504 Z-0.535
X30.758 Y60.479
X30.814 Y60.356 Z-0.536
X30.852 Y60.233 Z-0.537
X30.867 Y60.155 Z-0.538
X30.873 Y60.11
X30.879 Y59.987 Z-0.539
Y0.013 Z-0.985
X30.873 Y-0.11 Z-0.986
X30.867 Y-0.155
X30.852 Y-0.233 Z-0.987
X30.814 Y-0.356 Z-0.988
X30.758 Y-0.479 Z-0.989
X30.744 Y-0.504
X30.681 Y-0.602 Z-0.99
X30.621 Y-0.68 Z-0.991
X30.583 Y-0.725
X30.499 Y-0.813 Z-0.992
X30.462 Y-0.848 Z-0.993
X30.376 Y-0.922
X30.314 Y-0.97 Z-0.994
X30.253 Y-1.012 Z-0.995
X30.13 Y-1.083 Z-0.996
X30.109 Y-1.093
X30.007 Y-1.143 Z-0.997
X29.885 Y-1.197 Z-0.998
X29.839 Y-1.216
X29.762 Y-1.247 Z-0.999
X29.639 Y-1.285 Z-1
X29.516 Y-1.318
X29.432 Y-1.339 Z-1.001
X29.393 Y-1.349
X29.271 Y-1.376 Z-1.002
X29.148 Y-1.397 Z-1.003
X29.025 Y-1.415 Z-1.004
X28.902 Y-1.431 Z-1.005
X28.78 Y-1.445 Z-1.006
X28.657 Y-1.455 Z-1.007
X28.554 Y-1.462 Z-1.008
X28.534 Y-1.463
X28.411 Y-1.472 Z-1.009
X28.288 Y-1.475 Z-1.01
X28.166 Y-1.478 Z-1.011
X28.043 Y-1.48 Z-1.012
X27.92 Y-1.481
X27.443 Z-1.016
X27.92
X28.043 Y-1.48
X28.166 Y-1.478
X28.288 Y-1.475
X28.411 Y-1.472
X28.534 Y-1.463
X28.554 Y-1.462
X28.657 Y-1.455
X28.78 Y-1.445
X28.902 Y-1.431
X29.025 Y-1.415
X29.148 Y-1.397
X29.271 Y-1.376
X29.393 Y-1.349
X29.432 Y-1.339
X29.516 Y-1.318
X29.639 Y-1.285
X29.762 Y-1.247
X29.839 Y-1.216
X29.885 Y-1.197
X30.007 Y-1.143
X30.109 Y-1.093
X30.13 Y-1.083
X30.253 Y-1.012
X30.314 Y-0.97
X30.376 Y-0.922
X30.462 Y-0.848
X30.499 Y-0.813
X30.583 Y-0.725
X30.621 Y-0.68
X30.681 Y-0.602
X30.744 Y-0.504
X30.758 Y-0.479
X30.814 Y-0.356
X30.852 Y-0.233
X30.867 Y-0.155
X30.873 Y-0.11
X30.879 Y0.013
Y59.987
X30.873 Y60.11
X30.867 Y60.155
X30.852 Y60.233
X30.814 Y60.356
X30.758 Y60.479
X30.744 Y60.504
X30.681 Y60.602
X30.621 Y60.68
X30.583 Y60.725
X30.499 Y60.813
X30.462 Y60.848
X30.376 Y60.922
X30.314 Y60.97
X30.253 Y61.012
X30.13 Y61.083
X30.109 Y61.093
X30.007 Y61.143
X29.885 Y61.197
X29.839 Y61.216
X29.762 Y61.247
X29.639 Y61.285
X29.516 Y61.318
X29.432 Y61.339
X29.393 Y61.349
X29.271 Y61.376
X29.148 Y61.397
X29.025 Y61.415
X28.902 Y61.431
X28.78 Y61.445
X28.657 Y61.455
X28.554 Y61.462
X28.534 Y61.463
X28.411 Y61.472
X28.288 Y61.475
X28.166 Y61.478
X28.043 Y61.48
X27.92 Y61.481
X27.443
G3 X27.761 Y61.799 J0.318
G19 G3 Y62.116 Z-0.698 K0.318
G0 Z5.08
X38.404 Y-1.328
Z1.78
G1 Z-0.508 F1025.6
G17 G3 X38.557 Y-1.481 I0.153
G1 X38.112 Z-0.511
X37.989 Z-0.512
X37.866 Y-1.478 Z-0.513
X37.743 Y-1.476 Z-0.514
X37.62 Y-1.473 Z-0.515
X37.498 Y-1.466 Z-0.516
X37.446 Y-1.462
X37.375 Y-1.457 Z-0.517
X37.252 Y-1.448 Z-0.518
X37.129 Y-1.436 Z-0.519
X37.006 Y-1.419 Z-0.52
X36.884 Y-1.401
X36.761 Y-1.382 Z-0.521
X36.638 Y-1.356 Z-0.522
X36.568 Y-1.339 Z-0.523
X36.515 Y-1.326
X36.393 Y-1.294 Z-0.524
X36.27 Y-1.258 Z-0.525
X36.161 Y-1.216 Z-0.526
X36.147 Y-1.211
X36.024 Y-1.158 Z-0.527
X35.901 Y-1.099 Z-0.528
X35.891 Y-1.093
X35.779 Y-1.032 Z-0.529
X35.686 Y-0.97 Z-0.53
X35.656 Y-0.947
X35.538 Y-0.848 Z-0.531
X35.533 Y-0.843 Z-0.532
X35.417 Y-0.725 Z-0.533
X35.41 Y-0.717
X35.319 Y-0.602 Z-0.534
X35.287 Y-0.555
X35.242 Y-0.479 Z-0.535
X35.186 Y-0.356 Z-0.536
X35.165 Y-0.293 Z-0.537
X35.148 Y-0.233
X35.127 Y-0.11 Z-0.538
X35.121 Y0.013 Z-0.539
Y59.987 Z-0.985
X35.127 Y60.11 Z-0.986
X35.148 Y60.233 Z-0.987
X35.165 Y60.293
X35.186 Y60.356 Z-0.988
X35.242 Y60.479 Z-0.989
X35.287 Y60.555 Z-0.99
X35.319 Y60.602
X35.41 Y60.717 Z-0.991
X35.417 Y60.725
X35.533 Y60.843 Z-0.992
X35.538 Y60.848 Z-0.993
X35.656 Y60.947 Z-0.994
X35.686 Y60.97
X35.779 Y61.032 Z-0.995
X35.891 Y61.093 Z-0.996
X35.901 Y61.099
X36.024 Y61.158 Z-0.997
X36.147 Y61.211 Z-0.998
X36.161 Y61.216
X36.27 Y61.258 Z-0.999
X36.393 Y61.294 Z-1
X36.515 Y61.326 Z-1.001
X36.568 Y61.339
X36.638 Y61.356 Z-1.002
X36.761 Y61.382 Z-1.003
X36.884 Y61.401 Z-1.004
X37.006 Y61.419
X37.129 Y61.436 Z-1.005
X37.252 Y61.448 Z-1.006
X37.375 Y61.457 Z-1.007
X37.446 Y61.462 Z-1.008
X37.498 Y61.466
X37.62 Y61.473 Z-1.009
X37.743 Y61.476 Z-1.01
X37.866 Y61.478 Z-1.011
X37.989 Y61.481 Z-1.012
X38.112 Z-1.013
X38.557 Z-1.016
X38.112
X37.989
X37.866 Y61.478
X37.743 Y61.476
X37.62 Y61.473
X37.498 Y61.466
X37.446 Y61.462
X37.375 Y61.457
X37.252 Y61.448
X37.129 Y61.436
X37.006 Y61.419
X36.884 Y61.401
X36.761 Y61.382
X36.638 Y61.356
X36.568 Y61.339
X36.515 Y61.326
X36.393 Y61.294
X36.27 Y61.258
X36.161 Y61.216
X36.147 Y61.211
X36.024 Y61.158
X35.901 Y61.099
X35.891 Y61.093
X35.779 Y61.032
X35.686 Y60.97
X35.656 Y60.947
X35.538 Y60.848
X35.533 Y60.843
X35.417 Y60.725
X35.41 Y60.717
X35.319 Y60.602
X35.287 Y60.555
X35.242 Y60.479
X35.186 Y60.356
X35.165 Y60.293
X35.148 Y60.233
X35.127 Y60.11
X35.121 Y59.987
Y0.013
X35.127 Y-0.11
X35.148 Y-0.233
X35.165 Y-0.293
X35.186 Y-0.356
X35.242 Y-0.479
X35.287 Y-0.555
X35.319 Y-0.602
X35.41 Y-0.717
X35.417 Y-0.725
X35.533 Y-0.843
X35.538 Y-0.848
X35.656 Y-0.947
X35.686 Y-0.97
X35.779 Y-1.032
X35.891 Y-1.093
X35.901 Y-1.099
X36.024 Y-1.158
X36.147 Y-1.211
X36.161 Y-1.216
X36.27 Y-1.258
X36.393 Y-1.294
X36.515 Y-1.326
X36.568 Y-1.339
X36.638 Y-1.356
X36.761 Y-1.382
X36.884 Y-1.401
X37.006 Y-1.419
X37.129 Y-1.436
X37.252 Y-1.448
X37.375 Y-1.457
X37.446 Y-1.462
X37.498 Y-1.466
X37.62 Y-1.473
X37.743 Y-1.476
X37.866 Y-1.478
X37.989 Y-1.481
X38.112
X38.557
G3 X38.24 Y-1.799 J-0.317
G19 G2 Y-2.116 Z-0.698 K0.318
G0 Z5.08
X28.569 Y61.427
Z1.712
G1 Z-0.768 F1025.6
Y61.429 Z-0.798
Y61.434 Z-0.828
X28.568 Y61.443 Z-0.856
G17 G3 X28.566 Y61.455 Z-0.883 I-0.157 J-0.016
X28.563 Y61.47 Z-0.909 I-0.155 J-0.028
X28.557 Y61.488 Z-0.933 I-0.152 J-0.043
X28.547 Y61.507 Z-0.954 I-0.146 J-0.061
X28.534 Y61.526 Z-0.972 I-0.136 J-0.08
X28.516 Y61.545 Z-0.988 I-0.123 J-0.099
X28.495 Y61.561 Z-1 I-0.105 J-0.118
X28.469 Y61.574 Z-1.009 I-0.083 J-0.134
X28.441 Y61.582 Z-1.014 I-0.058 J-0.147
X28.411 Y61.585 Z-1.016 I-0.03 J-0.155
G1 X28.534 Y61.583 Z-1.017
X28.657 Y61.582 Z-1.018
X28.78 Y61.579 Z-1.019
X28.902 Y61.575 Z-1.02
X29.025 Y61.57 Z-1.021
X29.148 Y61.564 Z-1.022
X29.271 Y61.555
X29.393 Y61.544 Z-1.023
X29.516 Y61.531 Z-1.024
X29.639 Y61.514 Z-1.025
X29.762 Y61.493 Z-1.026
X29.885 Y61.471 Z-1.027
X29.926 Y61.462
X30.007 Y61.442 Z-1.028
X30.13 Y61.407 Z-1.029
X30.253 Y61.367 Z-1.03
X30.332 Y61.339 Z-1.031
X30.376 Y61.323
X30.499 Y61.269 Z-1.032
X30.598 Y61.216 Z-1.033
X30.621 Y61.203
X30.744 Y61.127 Z-1.034
X30.794 Y61.093 Z-1.035
X30.867 Y61.04
X30.952 Y60.97 Z-1.036
X30.99 Y60.937
X31.077 Y60.848 Z-1.037
X31.113 Y60.806 Z-1.038
X31.174 Y60.725 Z-1.039
X31.235 Y60.627
X31.249 Y60.602 Z-1.04
X31.309 Y60.479 Z-1.041
X31.354 Y60.356 Z-1.042
X31.358 Y60.343
X31.385 Y60.233 Z-1.043
X31.403 Y60.11 Z-1.044
X31.408 Y59.987
Y0.013 Z-1.496
X31.403 Y-0.11
X31.385 Y-0.233 Z-1.497
X31.358 Y-0.343 Z-1.498
X31.354 Y-0.356
X31.309 Y-0.479 Z-1.499
X31.249 Y-0.602 Z-1.5
X31.235 Y-0.627 Z-1.501
X31.174 Y-0.725
X31.113 Y-0.806 Z-1.502
X31.077 Y-0.848 Z-1.503
X30.99 Y-0.937 Z-1.504
X30.952 Y-0.97
X30.867 Y-1.04 Z-1.505
X30.794 Y-1.093
X30.744 Y-1.127 Z-1.506
X30.621 Y-1.203 Z-1.507
X30.598 Y-1.216
X30.499 Y-1.269 Z-1.508
X30.376 Y-1.323 Z-1.509
X30.332 Y-1.339
X30.253 Y-1.367 Z-1.51
X30.13 Y-1.407 Z-1.511
X30.007 Y-1.442 Z-1.512
X29.926 Y-1.462 Z-1.513
X29.885 Y-1.471
X29.762 Y-1.493 Z-1.514
X29.639 Y-1.514 Z-1.515
X29.516 Y-1.531 Z-1.516
X29.393 Y-1.544 Z-1.517
X29.271 Y-1.555 Z-1.518
X29.148 Y-1.564
X29.025 Y-1.57 Z-1.519
X28.902 Y-1.575 Z-1.52
X28.78 Y-1.579 Z-1.521
X28.657 Y-1.582 Z-1.522
X28.534 Y-1.583 Z-1.523
X28.411 Y-1.585 Z-1.524
X28.534 Y-1.583
X28.657 Y-1.582
X28.78 Y-1.579
X28.902 Y-1.575
X29.025 Y-1.57
X29.148 Y-1.564
X29.271 Y-1.555
X29.393 Y-1.544
X29.516 Y-1.531
X29.639 Y-1.514
X29.762 Y-1.493
X29.885 Y-1.471
X29.926 Y-1.462
X30.007 Y-1.442
X30.13 Y-1.407
X30.253 Y-1.367
X30.332 Y-1.339
X30.376 Y-1.323
X30.499 Y-1.269
X30.598 Y-1.216
X30.621 Y-1.203
X30.744 Y-1.127
X30.794 Y-1.093
X30.867 Y-1.04
X30.952 Y-0.97
X30.99 Y-0.937
X31.077 Y-0.848
X31.113 Y-0.806
X31.174 Y-0.725
X31.235 Y-0.627
X31.249 Y-0.602
X31.309 Y-0.479
X31.354 Y-0.356
X31.358 Y-0.343
X31.385 Y-0.233
X31.403 Y-0.11
X31.408 Y0.013
Y59.987
X31.403 Y60.11
X31.385 Y60.233
X31.358 Y60.343
X31.354 Y60.356
X31.309 Y60.479
X31.249 Y60.602
X31.235 Y60.627
X31.174 Y60.725
X31.113 Y60.806
X31.077 Y60.848
X30.99 Y60.937
X30.952 Y60.97
X30.867 Y61.04
X30.794 Y61.093
X30.744 Y61.127
X30.621 Y61.203
X30.598 Y61.216
X30.499 Y61.269
X30.376 Y61.323
X30.332 Y61.339
X30.253 Y61.367
X30.13 Y61.407
X30.007 Y61.442
X29.926 Y61.462
X29.885 Y61.471
X29.762 Y61.493
X29.639 Y61.514
X29.516 Y61.531
X29.393 Y61.544
X29.271 Y61.555
X29.148 Y61.564
X29.025 Y61.57
X28.902 Y61.575
X28.78 Y61.579
X28.657 Y61.582
X28.534 Y61.583
X28.411 Y61.585
G3 X28.734 Y61.897 I0.005 J0.317
G1 X28.735 Y61.968 Z-1.516
X28.736 Y62.035 Z-1.493
X28.737 Y62.095 Z-1.455
X28.738 Y62.145 Z-1.404
X28.739 Y62.183 Z-1.344
Y62.206 Z-1.277
Y62.214 Z-1.207
G0 Z5.08
X37.334 Y-1.416
Z1.708
G1 Z-0.756 F1025.6
Y-1.418 Z-0.787
Y-1.424 Z-0.818
Y-1.433 Z-0.848
G3 X37.336 Y-1.446 Z-0.877 I0.165 J0.015
X37.34 Y-1.462 Z-0.904 I0.163 J0.028
X37.346 Y-1.48 Z-0.928 I0.16 J0.044
X37.355 Y-1.5 Z-0.951 I0.154 J0.062
X37.369 Y-1.521 Z-0.97 I0.144 J0.082
X37.388 Y-1.54 Z-0.986 I0.13 J0.103
X37.41 Y-1.558 Z-0.999 I0.112 J0.122
X37.437 Y-1.572 Z-1.008 I0.089 J0.14
X37.466 Y-1.58 Z-1.014 I0.062 J0.153
X37.498 Y-1.584 Z-1.016 I0.033 J0.162
G1 X37.375 Y-1.582 Z-1.017
X37.252 Y-1.58 Z-1.018
X37.129 Y-1.576 Z-1.019
X37.006 Y-1.572 Z-1.02
X36.884 Y-1.566 Z-1.021
X36.761 Y-1.557 Z-1.022
X36.638 Y-1.547
X36.515 Y-1.535 Z-1.023
X36.393 Y-1.518 Z-1.024
X36.27 Y-1.499 Z-1.025
X36.147 Y-1.477 Z-1.026
X36.074 Y-1.462 Z-1.027
X36.024 Y-1.45
X35.901 Y-1.416 Z-1.028
X35.779 Y-1.378 Z-1.029
X35.668 Y-1.339 Z-1.03
X35.656 Y-1.335
X35.533 Y-1.284 Z-1.031
X35.41 Y-1.221 Z-1.032
X35.402 Y-1.216
X35.287 Y-1.148 Z-1.033
X35.206 Y-1.093 Z-1.034
X35.165 Y-1.064
X35.048 Y-0.97 Z-1.035
X35.042 Y-0.965 Z-1.036
X34.982 Y-0.91
X34.923 Y-0.848 Z-1.037
X34.919 Y-0.844
X34.87 Y-0.784
X34.826 Y-0.725 Z-1.038
X34.796 Y-0.679
X34.751 Y-0.602 Z-1.039
X34.691 Y-0.479 Z-1.04
X34.673 Y-0.436
X34.646 Y-0.356 Z-1.041
X34.615 Y-0.233 Z-1.042
X34.597 Y-0.11 Z-1.043
X34.592 Y0.013 Z-1.044
Y59.987 Z-1.496
X34.597 Y60.11 Z-1.497
X34.615 Y60.233 Z-1.498
X34.646 Y60.356 Z-1.499
X34.673 Y60.436 Z-1.5
X34.691 Y60.479
X34.751 Y60.602 Z-1.501
X34.796 Y60.679 Z-1.502
X34.826 Y60.725
X34.87 Y60.784 Z-1.503
X34.919 Y60.844
X34.923 Y60.848
X34.982 Y60.91 Z-1.504
X35.042 Y60.965
X35.048 Y60.97 Z-1.505
X35.165 Y61.064 Z-1.506
X35.206 Y61.093
X35.287 Y61.148 Z-1.507
X35.402 Y61.216 Z-1.508
X35.41 Y61.221
X35.533 Y61.284 Z-1.509
X35.656 Y61.335 Z-1.51
X35.668 Y61.339
X35.779 Y61.378 Z-1.511
X35.901 Y61.416 Z-1.512
X36.024 Y61.45 Z-1.513
X36.074 Y61.462
X36.147 Y61.477 Z-1.514
X36.27 Y61.499 Z-1.515
X36.393 Y61.518 Z-1.516
X36.515 Y61.535 Z-1.517
X36.638 Y61.547 Z-1.518
X36.761 Y61.557
X36.884 Y61.566 Z-1.519
X37.006 Y61.572 Z-1.52
X37.129 Y61.576 Z-1.521
X37.252 Y61.58 Z-1.522
X37.375 Y61.582 Z-1.523
X37.498 Y61.584 Z-1.524
X37.375 Y61.582
X37.252 Y61.58
X37.129 Y61.576
X37.006 Y61.572
X36.884 Y61.566
X36.761 Y61.557
X36.638 Y61.547
X36.515 Y61.535
X36.393 Y61.518
X36.27 Y61.499
X36.147 Y61.477
X36.074 Y61.462
X36.024 Y61.45
X35.901 Y61.416
X35.779 Y61.378
X35.668 Y61.339
X35.656 Y61.335
X35.533 Y61.284
X35.41 Y61.221
X35.402 Y61.216
X35.287 Y61.148
X35.206 Y61.093
X35.165 Y61.064
X35.048 Y60.97
X35.042 Y60.965
X34.982 Y60.91
X34.923 Y60.848
X34.919 Y60.844
X34.87 Y60.784
X34.826 Y60.725
X34.796 Y60.679
X34.751 Y60.602
X34.691 Y60.479
X34.673 Y60.436
X34.646 Y60.356
X34.615 Y60.233
X34.597 Y60.11
X34.592 Y59.987
Y0.013
X34.597 Y-0.11
X34.615 Y-0.233
X34.646 Y-0.356
X34.673 Y-0.436
X34.691 Y-0.479
X34.751 Y-0.602
X34.796 Y-0.679
X34.826 Y-0.725
X34.87 Y-0.784
X34.919 Y-0.844
X34.923 Y-0.848
X34.982 Y-0.91
X35.042 Y-0.965
X35.048 Y-0.97
X35.165 Y-1.064
X35.206 Y-1.093
X35.287 Y-1.148
X35.402 Y-1.216
X35.41 Y-1.221
X35.533 Y-1.284
X35.656 Y-1.335
X35.668 Y-1.339
X35.779 Y-1.378
X35.901 Y-1.416
X36.024 Y-1.45
X36.074 Y-1.462
X36.147 Y-1.477
X36.27 Y-1.499
X36.393 Y-1.518
X36.515 Y-1.535
X36.638 Y-1.547
X36.761 Y-1.557
X36.884 Y-1.566
X37.006 Y-1.572
X37.129 Y-1.576
X37.252 Y-1.58
X37.375 Y-1.582
X37.498 Y-1.584
G3 X37.175 Y-1.896 I-0.006 J-0.317
G1 X37.173 Y-1.966 Z-1.516
X37.172 Y-2.033 Z-1.493
X37.171 Y-2.093 Z-1.455
X37.17 Y-2.144 Z-1.404
X37.169 Y-2.182 Z-1.344
Y-2.205 Z-1.277
Y-2.213 Z-1.207
G0 Z5.08
X29.931 Y61.415
Z1.44
G1 Z-1.258 F1025.6
Y61.417 Z-1.29
Y61.422 Z-1.322
X29.93 Y61.432 Z-1.352
G3 X29.928 Y61.445 Z-1.382 I-0.168 J-0.017
X29.925 Y61.461 Z-1.409 I-0.166 J-0.03
X29.918 Y61.48 Z-1.434 I-0.163 J-0.046
X29.908 Y61.5 Z-1.457 I-0.156 J-0.065
X29.894 Y61.521 Z-1.477 I-0.146 J-0.085
X29.875 Y61.541 Z-1.494 I-0.132 J-0.106
X29.851 Y61.558 Z-1.507 I-0.113 J-0.126
X29.824 Y61.572 Z-1.516 I-0.089 J-0.144
X29.794 Y61.581 Z-1.522 I-0.062 J-0.157
X29.762 Y61.584 Z-1.524 I-0.032 J-0.166
G1 X29.885 Y61.577 Z-1.525
X30.007 Y61.568 Z-1.526
X30.13 Y61.553 Z-1.527
X30.253 Y61.533 Z-1.528
X30.376 Y61.509 Z-1.529
X30.499 Y61.48 Z-1.53
X30.562 Y61.462
X30.621 Y61.443 Z-1.531
X30.744 Y61.397 Z-1.532
X30.867 Y61.344 Z-1.533
X30.877 Y61.339
X30.99 Y61.282 Z-1.534
X31.102 Y61.216 Z-1.535
X31.113 Y61.209
X31.174 Y61.168 Z-1.536
X31.235 Y61.122
X31.27 Y61.093
X31.358 Y61.013 Z-1.537
X31.4 Y60.97 Z-1.538
X31.481 Y60.878 Z-1.539
X31.505 Y60.848
X31.551 Y60.786 Z-1.54
X31.591 Y60.725
X31.604 Y60.705
X31.661 Y60.602 Z-1.541
X31.715 Y60.479 Z-1.542
X31.726 Y60.449 Z-1.543
X31.756 Y60.356
X31.785 Y60.233 Z-1.544
X31.801 Y60.11 Z-1.545
X31.806 Y59.987 Z-1.546
Y0.013 Z-2.01
X31.801 Y-0.11 Z-2.011
X31.785 Y-0.233 Z-2.012
X31.756 Y-0.356 Z-2.013
X31.726 Y-0.449
X31.715 Y-0.479 Z-2.014
X31.661 Y-0.602 Z-2.015
X31.604 Y-0.705 Z-2.016
X31.591 Y-0.725
X31.551 Y-0.786
X31.505 Y-0.848 Z-2.017
X31.481 Y-0.878
X31.4 Y-0.97 Z-2.018
X31.358 Y-1.013 Z-2.019
X31.27 Y-1.093 Z-2.02
X31.235 Y-1.122
X31.174 Y-1.168
X31.113 Y-1.209 Z-2.021
X31.102 Y-1.216
X30.99 Y-1.282 Z-2.022
X30.877 Y-1.339 Z-2.023
X30.867 Y-1.344
X30.744 Y-1.397 Z-2.024
X30.621 Y-1.443 Z-2.025
X30.562 Y-1.462 Z-2.026
X30.499 Y-1.48
X30.376 Y-1.509 Z-2.027
X30.253 Y-1.533 Z-2.028
X30.13 Y-1.553 Z-2.029
X30.007 Y-1.568 Z-2.03
X29.885 Y-1.577 Z-2.031
X29.762 Y-1.584 Z-2.032
X29.885 Y-1.577
X30.007 Y-1.568
X30.13 Y-1.553
X30.253 Y-1.533
X30.376 Y-1.509
X30.499 Y-1.48
X30.562 Y-1.462
X30.621 Y-1.443
X30.744 Y-1.397
X30.867 Y-1.344
X30.877 Y-1.339
X30.99 Y-1.282
X31.102 Y-1.216
X31.113 Y-1.209
X31.174 Y-1.168
X31.235 Y-1.122
X31.27 Y-1.093
X31.358 Y-1.013
X31.4 Y-0.97
X31.481 Y-0.878
X31.505 Y-0.848
X31.551 Y-0.786
X31.591 Y-0.725
X31.604 Y-0.705
X31.661 Y-0.602
X31.715 Y-0.479
X31.726 Y-0.449
X31.756 Y-0.356
X31.785 Y-0.233
X31.801 Y-0.11
X31.806 Y0.013
Y59.987
X31.801 Y60.11
X31.785 Y60.233
X31.756 Y60.356
X31.726 Y60.449
X31.715 Y60.479
X31.661 Y60.602
X31.604 Y60.705
X31.591 Y60.725
X31.551 Y60.786
X31.505 Y60.848
X31.481 Y60.878
X31.4 Y60.97
X31.358 Y61.013
X31.27 Y61.093
X31.235 Y61.122
X31.174 Y61.168
X31.113 Y61.209
X31.102 Y61.216
X30.99 Y61.282
X30.877 Y61.339
X30.867 Y61.344
X30.744 Y61.397
X30.621 Y61.443
X30.562 Y61.462
X30.499 Y61.48
X30.376 Y61.509
X30.253 Y61.533
X30.13 Y61.553
X30.007 Y61.568
X29.885 Y61.577
X29.762 Y61.584
G3 X30.098 Y61.881 I0.019 J0.317
G1 X30.102 Y61.952 Z-2.024
X30.107 Y62.019 Z-2.001
X30.11 Y62.079 Z-1.963
X30.113 Y62.129 Z-1.912
X30.116 Y62.167 Z-1.852
X30.117 Y62.19 Z-1.785
Y62.198 Z-1.714
G0 Z5.08
X36.545 Y-2.509
Z0.825
G1 Z-1.207 F1025.6
Y-2.501 Z-1.277
X36.547 Y-2.478 Z-1.344
X36.548 Y-2.44 Z-1.404
X36.551 Y-2.39 Z-1.455
X36.553 Y-2.33 Z-1.493
X36.556 Y-2.263 Z-1.516
X36.56 Y-2.192 Z-1.524
X36.572 Y-1.917
G3 X36.27 Y-1.585 I-0.317 J0.015
G1 X36.147 Y-1.579 Z-1.525
X36.024 Y-1.57 Z-1.526
X35.901 Y-1.557 Z-1.527
X35.779 Y-1.539 Z-1.528
X35.656 Y-1.516 Z-1.529
X35.533 Y-1.488 Z-1.53
X35.438 Y-1.462 Z-1.531
X35.41 Y-1.453
X35.287 Y-1.41 Z-1.532
X35.165 Y-1.358 Z-1.533
X35.123 Y-1.339
X35.042 Y-1.298 Z-1.534
X34.919 Y-1.229 Z-1.535
X34.898 Y-1.216
X34.796 Y-1.146 Z-1.536
X34.73 Y-1.093 Z-1.537
X34.673 Y-1.043
X34.6 Y-0.97 Z-1.538
X34.551 Y-0.916 Z-1.539
X34.495 Y-0.848
X34.428 Y-0.754 Z-1.54
X34.409 Y-0.725
X34.339 Y-0.602 Z-1.542
X34.305 Y-0.528
X34.285 Y-0.479 Z-1.543
X34.244 Y-0.356 Z-1.544
X34.215 Y-0.233 Z-1.545
X34.199 Y-0.11 Z-1.546
X34.194 Y0.013 Z-1.547
Y59.987 Z-2.009
X34.199 Y60.11 Z-2.01
X34.215 Y60.233 Z-2.011
X34.244 Y60.356 Z-2.012
X34.285 Y60.479 Z-2.013
X34.305 Y60.528 Z-2.014
X34.339 Y60.602
X34.409 Y60.725 Z-2.016
X34.428 Y60.754
X34.495 Y60.848 Z-2.017
X34.551 Y60.916
X34.6 Y60.97 Z-2.018
X34.673 Y61.043 Z-2.019
X34.73 Y61.093
X34.796 Y61.146 Z-2.02
X34.898 Y61.216 Z-2.021
X34.919 Y61.229
X35.042 Y61.298 Z-2.022
X35.123 Y61.339 Z-2.023
X35.165 Y61.358
X35.287 Y61.41 Z-2.024
X35.41 Y61.453 Z-2.025
X35.438 Y61.462
X35.533 Y61.488 Z-2.026
X35.656 Y61.516 Z-2.027
X35.779 Y61.539 Z-2.028
X35.901 Y61.557 Z-2.029
X36.024 Y61.57 Z-2.03
X36.147 Y61.579 Z-2.031
X36.27 Y61.585 Z-2.032
X36.147 Y61.579
X36.024 Y61.57
X35.901 Y61.557
X35.779 Y61.539
X35.656 Y61.516
X35.533 Y61.488
X35.438 Y61.462
X35.41 Y61.453
X35.287 Y61.41
X35.165 Y61.358
X35.123 Y61.339
X35.042 Y61.298
X34.919 Y61.229
X34.898 Y61.216
X34.796 Y61.146
X34.73 Y61.093
X34.673 Y61.043
X34.6 Y60.97
X34.551 Y60.916
X34.495 Y60.848
X34.428 Y60.754
X34.409 Y60.725
X34.339 Y60.602
X34.305 Y60.528
X34.285 Y60.479
X34.244 Y60.356
X34.215 Y60.233
X34.199 Y60.11
X34.194 Y59.987
Y0.013
X34.199 Y-0.11
X34.215 Y-0.233
X34.244 Y-0.356
X34.285 Y-0.479
X34.305 Y-0.528
X34.339 Y-0.602
X34.409 Y-0.725
X34.428 Y-0.754
X34.495 Y-0.848
X34.551 Y-0.916
X34.6 Y-0.97
X34.673 Y-1.043
X34.73 Y-1.093
X34.796 Y-1.146
X34.898 Y-1.216
X34.919 Y-1.229
X35.042 Y-1.298
X35.123 Y-1.339
X35.165 Y-1.358
X35.287 Y-1.41
X35.41 Y-1.453
X35.438 Y-1.462
X35.533 Y-1.488
X35.656 Y-1.516
X35.779 Y-1.539
X35.901 Y-1.557
X36.024 Y-1.57
X36.147 Y-1.579
X36.27 Y-1.585
G3 X35.935 Y-1.884 I-0.018 J-0.317
G1 X35.931 Y-1.954 Z-2.024
X35.927 Y-2.021 Z-2.001
X35.923 Y-2.082 Z-1.963
X35.921 Y-2.132 Z-1.912
X35.918 Y-2.169 Z-1.852
X35.917 Y-2.193 Z-1.785
Y-2.201 Z-1.714
G0 Z5.08
X30.419 Y61.493
Z1.221
G1 Z-1.889 F1025.6
Y61.495 Z-1.911
Y61.5 Z-1.933
X30.418 Y61.508 Z-1.954
G3 X30.415 Y61.52 Z-1.973 I-0.09 J-0.016
X30.41 Y61.533 Z-1.99 I-0.087 J-0.027
X30.401 Y61.548 Z-2.005 I-0.082 J-0.04
X30.388 Y61.562 Z-2.016 I-0.073 J-0.055
X30.371 Y61.573 Z-2.025 I-0.06 J-0.069
X30.35 Y61.581 Z-2.03 I-0.043 J-0.081
X30.328 Y61.584 Z-2.032 I-0.022 J-0.088
G1 X30.345 Y61.583
X30.376 Y61.581
X30.499 Y61.57 Z-2.033
X30.621 Y61.553 Z-2.034
X30.744 Y61.529 Z-2.035
X30.867 Y61.497 Z-2.036
X30.978 Y61.462 Z-2.037
X30.99 Y61.458
X31.113 Y61.411 Z-2.038
X31.235 Y61.354 Z-2.039
X31.263 Y61.339 Z-2.04
X31.358 Y61.283
X31.456 Y61.216 Z-2.041
X31.481 Y61.198 Z-2.042
X31.542 Y61.149
X31.604 Y61.095 Z-2.043
X31.606 Y61.093
X31.669 Y61.032 Z-2.044
X31.726 Y60.97
X31.778 Y60.909 Z-2.045
X31.824 Y60.848
X31.849 Y60.812 Z-2.046
X31.905 Y60.725 Z-2.047
X31.969 Y60.602 Z-2.048
X31.972 Y60.595
X32.02 Y60.479 Z-2.049
X32.058 Y60.356 Z-2.05
X32.085 Y60.233 Z-2.051
X32.095 Y60.162
X32.1 Y60.11 Z-2.052
X32.104 Y59.987 Z-2.053
Y0.013 Z-2.519
X32.1 Y-0.11 Z-2.52
X32.095 Y-0.162 Z-2.521
X32.085 Y-0.233
X32.058 Y-0.356 Z-2.522
X32.02 Y-0.479 Z-2.523
X31.972 Y-0.595 Z-2.524
X31.969 Y-0.602
X31.905 Y-0.725 Z-2.525
X31.849 Y-0.812 Z-2.526
X31.824 Y-0.848 Z-2.527
X31.778 Y-0.909
X31.726 Y-0.97 Z-2.528
X31.669 Y-1.032
X31.606 Y-1.093 Z-2.529
X31.604 Y-1.095
X31.542 Y-1.149 Z-2.53
X31.481 Y-1.198
X31.456 Y-1.216 Z-2.531
X31.358 Y-1.283 Z-2.532
X31.263 Y-1.339
X31.235 Y-1.354 Z-2.533
X31.113 Y-1.411 Z-2.534
X30.99 Y-1.458 Z-2.535
X30.978 Y-1.462
X30.867 Y-1.497 Z-2.536
X30.744 Y-1.529 Z-2.537
X30.621 Y-1.553 Z-2.538
X30.499 Y-1.57 Z-2.539
X30.376 Y-1.581 Z-2.54
X30.345 Y-1.583
X30.328 Y-1.584
X30.345 Y-1.583
X30.376 Y-1.581
X30.499 Y-1.57
X30.621 Y-1.553
X30.744 Y-1.529
X30.867 Y-1.497
X30.978 Y-1.462
X30.99 Y-1.458
X31.113 Y-1.411
X31.235 Y-1.354
X31.263 Y-1.339
X31.358 Y-1.283
X31.456 Y-1.216
X31.481 Y-1.198
X31.542 Y-1.149
X31.604 Y-1.095
X31.606 Y-1.093
X31.669 Y-1.032
X31.726 Y-0.97
X31.778 Y-0.909
X31.824 Y-0.848
X31.849 Y-0.812
X31.905 Y-0.725
X31.969 Y-0.602
X31.972 Y-0.595
X32.02 Y-0.479
X32.058 Y-0.356
X32.085 Y-0.233
X32.095 Y-0.162
X32.1 Y-0.11
X32.104 Y0.013
Y59.987
X32.1 Y60.11
X32.095 Y60.162
X32.085 Y60.233
X32.058 Y60.356
X32.02 Y60.479
X31.972 Y60.595
X31.969 Y60.602
X31.905 Y60.725
X31.849 Y60.812
X31.824 Y60.848
X31.778 Y60.909
X31.726 Y60.97
X31.669 Y61.032
X31.606 Y61.093
X31.604 Y61.095
X31.542 Y61.149
X31.481 Y61.198
X31.456 Y61.216
X31.358 Y61.283
X31.263 Y61.339
X31.235 Y61.354
X31.113 Y61.411
X30.99 Y61.458
X30.978 Y61.462
X30.867 Y61.497
X30.744 Y61.529
X30.621 Y61.553
X30.499 Y61.57
X30.376 Y61.581
X30.345 Y61.583
X30.328 Y61.584
G3 X30.669 Y61.876 I0.025 J0.317
G1 X30.675 Y61.946 Z-2.532
X30.68 Y62.013 Z-2.509
X30.685 Y62.073 Z-2.471
X30.688 Y62.123 Z-2.42
X30.691 Y62.161 Z-2.36
X30.693 Y62.185 Z-2.293
X30.694 Y62.193 Z-2.223
G0 Z5.08
X35.884 Y-2.757
Z0.316
G1 Z-1.714 F1025.6
X35.885 Y-2.749 Z-1.785
X35.886 Y-2.726 Z-1.852
X35.889 Y-2.688 Z-1.912
X35.893 Y-2.638 Z-1.963
X35.898 Y-2.578 Z-2.001
X35.903 Y-2.511 Z-2.024
X35.908 Y-2.441 Z-2.032
X35.948 Y-1.924
G3 X35.656 Y-1.583 I-0.317 J0.024
G1 X35.533 Y-1.574 Z-2.033
X35.41 Y-1.559 Z-2.034
X35.287 Y-1.536 Z-2.035
X35.165 Y-1.506 Z-2.036
X35.042 Y-1.469 Z-2.037
X35.022 Y-1.462
X34.919 Y-1.424 Z-2.038
X34.796 Y-1.37 Z-2.039
X34.737 Y-1.339
X34.673 Y-1.303 Z-2.04
X34.551 Y-1.221 Z-2.041
X34.544 Y-1.216
X34.428 Y-1.124 Z-2.042
X34.394 Y-1.093 Z-2.043
X34.305 Y-1.005 Z-2.044
X34.274 Y-0.97
X34.226 Y-0.914 Z-2.045
X34.182 Y-0.857
X34.176 Y-0.848
X34.133 Y-0.786 Z-2.046
X34.095 Y-0.725
X34.06 Y-0.66 Z-2.047
X34.031 Y-0.602 Z-2.048
X33.98 Y-0.479 Z-2.049
X33.942 Y-0.356 Z-2.05
X33.937 Y-0.336
X33.915 Y-0.233 Z-2.051
X33.9 Y-0.11 Z-2.052
X33.896 Y0.013
Y59.987 Z-2.52
X33.9 Y60.11
X33.915 Y60.233 Z-2.521
X33.937 Y60.336 Z-2.522
X33.942 Y60.356
X33.98 Y60.479 Z-2.523
X34.031 Y60.602 Z-2.524
X34.06 Y60.66 Z-2.525
X34.095 Y60.725 Z-2.526
X34.133 Y60.786
X34.176 Y60.848 Z-2.527
X34.182 Y60.857
X34.226 Y60.914
X34.274 Y60.97 Z-2.528
X34.305 Y61.005
X34.394 Y61.093 Z-2.529
X34.428 Y61.124 Z-2.53
X34.544 Y61.216 Z-2.531
X34.551 Y61.221
X34.673 Y61.303 Z-2.532
X34.737 Y61.339 Z-2.533
X34.796 Y61.37
X34.919 Y61.424 Z-2.534
X35.022 Y61.462 Z-2.535
X35.042 Y61.469
X35.165 Y61.506 Z-2.536
X35.287 Y61.536 Z-2.537
X35.41 Y61.559 Z-2.538
X35.533 Y61.574 Z-2.539
X35.656 Y61.583 Z-2.54
X35.533 Y61.574
X35.41 Y61.559
X35.287 Y61.536
X35.165 Y61.506
X35.042 Y61.469
X35.022 Y61.462
X34.919 Y61.424
X34.796 Y61.37
X34.737 Y61.339
X34.673 Y61.303
X34.551 Y61.221
X34.544 Y61.216
X34.428 Y61.124
X34.394 Y61.093
X34.305 Y61.005
X34.274 Y60.97
X34.226 Y60.914
X34.182 Y60.857
X34.176 Y60.848
X34.133 Y60.786
X34.095 Y60.725
X34.06 Y60.66
X34.031 Y60.602
X33.98 Y60.479
X33.942 Y60.356
X33.937 Y60.336
X33.915 Y60.233
X33.9 Y60.11
X33.896 Y59.987
Y0.013
X33.9 Y-0.11
X33.915 Y-0.233
X33.937 Y-0.336
X33.942 Y-0.356
X33.98 Y-0.479
X34.031 Y-0.602
X34.06 Y-0.66
X34.095 Y-0.725
X34.133 Y-0.786
X34.176 Y-0.848
X34.182 Y-0.857
X34.226 Y-0.914
X34.274 Y-0.97
X34.305 Y-1.005
X34.394 Y-1.093
X34.428 Y-1.124
X34.544 Y-1.216
X34.551 Y-1.221
X34.673 Y-1.303
X34.737 Y-1.339
X34.796 Y-1.37
X34.919 Y-1.424
X35.022 Y-1.462
X35.042 Y-1.469
X35.165 Y-1.506
X35.287 Y-1.536
X35.41 Y-1.559
X35.533 Y-1.574
X35.656 Y-1.583
G3 X35.314 Y-1.874 I-0.026 J-0.316
G1 X35.308 Y-1.944 Z-2.532
X35.302 Y-2.011 Z-2.509
X35.297 Y-2.071 Z-2.471
X35.293 Y-2.121 Z-2.42
X35.29 Y-2.159 Z-2.36
X35.288 Y-2.182 Z-2.293
Y-2.19 Z-2.223
G0 Z5.08
X30.47 Y62.956
Z-0.144
G1 Z-2.174 F1025.6
Y62.948 Z-2.245
X30.468 Y62.925 Z-2.312
X30.465 Y62.887 Z-2.372
X30.462 Y62.837 Z-2.423
X30.457 Y62.777 Z-2.461
X30.452 Y62.71 Z-2.484
X30.447 Y62.639 Z-2.492
X30.394 Y61.922
G3 X30.687 Y61.582 I0.317 J-0.023
G1 X30.703 Y61.581
X30.744 Y61.578
X30.867 Y61.562 Z-2.493
X30.99 Y61.538 Z-2.494
X31.113 Y61.507 Z-2.495
X31.235 Y61.467 Z-2.496
X31.249 Y61.462 Z-2.497
X31.358 Y61.417
X31.481 Y61.353 Z-2.499
X31.505 Y61.339
X31.604 Y61.277 Z-2.5
X31.687 Y61.216
X31.726 Y61.185 Z-2.501
X31.829 Y61.093 Z-2.502
X31.849 Y61.073
X31.943 Y60.97 Z-2.503
X31.972 Y60.934 Z-2.504
X32.036 Y60.848
X32.095 Y60.754 Z-2.505
X32.112 Y60.725 Z-2.506
X32.173 Y60.602 Z-2.507
X32.218 Y60.489 Z-2.508
X32.221 Y60.479
X32.257 Y60.356 Z-2.509
X32.282 Y60.233 Z-2.51
X32.297 Y60.11 Z-2.511
X32.301 Y59.987 Z-2.512
Y0.013 Z-2.98
X32.297 Y-0.11 Z-2.981
X32.282 Y-0.233 Z-2.982
X32.257 Y-0.356 Z-2.983
X32.221 Y-0.479 Z-2.984
X32.218 Y-0.489
X32.173 Y-0.602 Z-2.985
X32.112 Y-0.725 Z-2.986
X32.095 Y-0.754 Z-2.987
X32.036 Y-0.848 Z-2.988
X31.972 Y-0.934
X31.943 Y-0.97 Z-2.989
X31.849 Y-1.073 Z-2.99
X31.829 Y-1.093
X31.726 Y-1.185 Z-2.991
X31.687 Y-1.216 Z-2.992
X31.604 Y-1.277
X31.505 Y-1.339 Z-2.993
X31.481 Y-1.353
X31.358 Y-1.417 Z-2.995
X31.249 Y-1.462
X31.235 Y-1.467 Z-2.996
X31.113 Y-1.507 Z-2.997
X30.99 Y-1.538 Z-2.998
X30.867 Y-1.562 Z-2.999
X30.744 Y-1.578 Z-3
X30.703 Y-1.581
X30.687 Y-1.582
X30.703 Y-1.581
X30.744 Y-1.578
X30.867 Y-1.562
X30.99 Y-1.538
X31.113 Y-1.507
X31.235 Y-1.467
X31.249 Y-1.462
X31.358 Y-1.417
X31.481 Y-1.353
X31.505 Y-1.339
X31.604 Y-1.277
X31.687 Y-1.216
X31.726 Y-1.185
X31.829 Y-1.093
X31.849 Y-1.073
X31.943 Y-0.97
X31.972 Y-0.934
X32.036 Y-0.848
X32.095 Y-0.754
X32.112 Y-0.725
X32.173 Y-0.602
X32.218 Y-0.489
X32.221 Y-0.479
X32.257 Y-0.356
X32.282 Y-0.233
X32.297 Y-0.11
X32.301 Y0.013
Y59.987
X32.297 Y60.11
X32.282 Y60.233
X32.257 Y60.356
X32.221 Y60.479
X32.218 Y60.489
X32.173 Y60.602
X32.112 Y60.725
X32.095 Y60.754
X32.036 Y60.848
X31.972 Y60.934
X31.943 Y60.97
X31.849 Y61.073
X31.829 Y61.093
X31.726 Y61.185
X31.687 Y61.216
X31.604 Y61.277
X31.505 Y61.339
X31.481 Y61.353
X31.358 Y61.417
X31.249 Y61.462
X31.235 Y61.467
X31.113 Y61.507
X30.99 Y61.538
X30.867 Y61.562
X30.744 Y61.578
X30.703 Y61.581
X30.687 Y61.582
G3 X31.033 Y61.869 I0.029 J0.316
G1 X31.039 Y61.939 Z-2.992
X31.046 Y62.006 Z-2.969
X31.051 Y62.066 Z-2.931
X31.056 Y62.116 Z-2.88
X31.059 Y62.154 Z-2.82
X31.062 Y62.177 Z-2.753
Y62.185 Z-2.682
G0 Z5.08
X35.564 Y-2.967
Z-0.143
G1 Z-2.174 F1025.6
X35.565 Y-2.959 Z-2.245
X35.566 Y-2.936 Z-2.312
X35.569 Y-2.898 Z-2.372
X35.572 Y-2.848 Z-2.423
X35.576 Y-2.788 Z-2.461
X35.58 Y-2.721 Z-2.484
X35.585 Y-2.65 Z-2.492
X35.631 Y-1.921
G3 X35.334 Y-1.584 I-0.317 J0.02
G1 X35.317 Y-1.583
X35.287 Y-1.581
X35.165 Y-1.567 Z-2.493
X35.042 Y-1.545 Z-2.494
X34.919 Y-1.516 Z-2.495
X34.796 Y-1.478 Z-2.496
X34.751 Y-1.462 Z-2.497
X34.673 Y-1.431
X34.551 Y-1.371 Z-2.498
X34.495 Y-1.339 Z-2.499
X34.428 Y-1.298 Z-2.5
X34.313 Y-1.216 Z-2.501
X34.305 Y-1.21
X34.244 Y-1.16
X34.182 Y-1.104 Z-2.502
X34.171 Y-1.093
X34.113 Y-1.033 Z-2.503
X34.06 Y-0.973
X34.057 Y-0.97
X34.009 Y-0.909 Z-2.504
X33.964 Y-0.848 Z-2.505
X33.937 Y-0.806
X33.888 Y-0.725 Z-2.506
X33.827 Y-0.602 Z-2.507
X33.814 Y-0.571
X33.779 Y-0.479 Z-2.508
X33.743 Y-0.356 Z-2.509
X33.718 Y-0.233 Z-2.51
X33.703 Y-0.11 Z-2.511
X33.699 Y0.013 Z-2.512
Y59.987 Z-2.98
X33.703 Y60.11 Z-2.981
X33.718 Y60.233 Z-2.982
X33.743 Y60.356 Z-2.983
X33.779 Y60.479 Z-2.984
X33.814 Y60.571 Z-2.985
X33.827 Y60.602
X33.888 Y60.725 Z-2.986
X33.937 Y60.806 Z-2.987
X33.964 Y60.848
X34.009 Y60.909 Z-2.988
X34.057 Y60.97 Z-2.989
X34.06 Y60.973
X34.113 Y61.033
X34.171 Y61.093 Z-2.99
X34.182 Y61.104
X34.244 Y61.16 Z-2.991
X34.305 Y61.21
X34.313 Y61.216
X34.428 Y61.298 Z-2.992
X34.495 Y61.339 Z-2.993
X34.551 Y61.371 Z-2.994
X34.673 Y61.431 Z-2.995
X34.751 Y61.462
X34.796 Y61.478 Z-2.996
X34.919 Y61.516 Z-2.997
X35.042 Y61.545 Z-2.998
X35.165 Y61.567 Z-2.999
X35.287 Y61.581 Z-3
X35.317 Y61.583
X35.334 Y61.584
X35.317 Y61.583
X35.287 Y61.581
X35.165 Y61.567
X35.042 Y61.545
X34.919 Y61.516
X34.796 Y61.478
X34.751 Y61.462
X34.673 Y61.431
X34.551 Y61.371
X34.495 Y61.339
X34.428 Y61.298
X34.313 Y61.216
X34.305 Y61.21
X34.244 Y61.16
X34.182 Y61.104
X34.171 Y61.093
X34.113 Y61.033
X34.06 Y60.973
X34.057 Y60.97
X34.009 Y60.909
X33.964 Y60.848
X33.937 Y60.806
X33.888 Y60.725
X33.827 Y60.602
X33.814 Y60.571
X33.779 Y60.479
X33.743 Y60.356
X33.718 Y60.233
X33.703 Y60.11
X33.699 Y59.987
Y0.013
X33.703 Y-0.11
X33.718 Y-0.233
X33.743 Y-0.356
X33.779 Y-0.479
X33.814 Y-0.571
X33.827 Y-0.602
X33.888 Y-0.725
X33.937 Y-0.806
X33.964 Y-0.848
X34.009 Y-0.909
X34.057 Y-0.97
X34.06 Y-0.973
X34.113 Y-1.033
X34.171 Y-1.093
X34.182 Y-1.104
X34.244 Y-1.16
X34.305 Y-1.21
X34.313 Y-1.216
X34.428 Y-1.298
X34.495 Y-1.339
X34.551 Y-1.371
X34.673 Y-1.431
X34.751 Y-1.462
X34.796 Y-1.478
X34.919 Y-1.516
X35.042 Y-1.545
X35.165 Y-1.567
X35.287 Y-1.581
X35.317 Y-1.583
X35.334 Y-1.584
G3 X34.991 Y-1.873 I-0.027 J-0.316
G1 X34.985 Y-1.943 Z-2.992
X34.979 Y-2.01 Z-2.969
X34.974 Y-2.07 Z-2.931
X34.97 Y-2.12 Z-2.88
X34.967 Y-2.158 Z-2.82
X34.965 Y-2.181 Z-2.753
X34.964 Y-2.189 Z-2.682
G0 Z5.08
X33.573 Y-0.899
Z0.176
G1 Z-2.394 F1025.6
X33.574 Y-0.898 Z-2.41
X33.578 Y-0.894 Z-2.425
X33.583 Y-0.888 Z-2.438
G3 X33.589 Y-0.878 Z-2.45 I-0.06 J0.041
X33.593 Y-0.866 Z-2.459 I-0.065 J0.032
X33.596 Y-0.851 Z-2.464 I-0.07 J0.019
X33.595 Y-0.835 Z-2.467 I-0.072 J0.005
X33.451 Y-0.857 Z-2.475 I-0.072 J-0.011
X33.595 Y-0.835 Z-2.483 I0.072 J0.011
X33.451 Y-0.857 Z-2.491 I-0.072 J-0.011
X33.595 Y-0.835 Z-2.498 I0.072 J0.011
X33.451 Y-0.857 Z-2.506 I-0.072 J-0.011
X33.595 Y-0.835 Z-2.514 I0.072 J0.011
X33.451 Y-0.857 Z-2.522 I-0.072 J-0.011
X33.595 Y-0.835 Z-2.53 I0.072 J0.011
X33.451 Y-0.857 Z-2.538 I-0.072 J-0.011
X33.595 Y-0.835 Z-2.546 I0.072 J0.011
X33.451 Y-0.857 Z-2.554 I-0.072 J-0.011
X33.595 Y-0.835 Z-2.562 I0.072 J0.011
X33.451 Y-0.857 Z-2.57 I-0.072 J-0.011
X33.595 Y-0.835 Z-2.578 I0.072 J0.011
X33.451 Y-0.857 Z-2.586 I-0.072 J-0.011
X33.595 Y-0.835 Z-2.594 I0.072 J0.011
X33.451 Y-0.857 Z-2.602 I-0.072 J-0.011
X33.595 Y-0.835 Z-2.61 I0.072 J0.011
X33.451 Y-0.857 Z-2.618 I-0.072 J-0.011
X33.595 Y-0.835 Z-2.626 I0.072 J0.011
X33.451 Y-0.857 Z-2.634 I-0.072 J-0.011
X33.595 Y-0.835 Z-2.642 I0.072 J0.011
X33.451 Y-0.857 Z-2.65 I-0.072 J-0.011
X33.595 Y-0.835 Z-2.658 I0.072 J0.011
X33.451 Y-0.857 Z-2.666 I-0.072 J-0.011
X33.595 Y-0.835 Z-2.674 I0.072 J0.011
X33.451 Y-0.857 Z-2.682 I-0.072 J-0.011
X33.595 Y-0.835 Z-2.69 I0.072 J0.011
X33.451 Y-0.857 Z-2.698 I-0.072 J-0.011
X33.595 Y-0.835 Z-2.706 I0.072 J0.011
X33.451 Y-0.857 Z-2.714 I-0.072 J-0.011
X33.595 Y-0.835 Z-2.722 I0.072 J0.011
X33.451 Y-0.857 Z-2.73 I-0.072 J-0.011
X33.595 Y-0.835 Z-2.737 I0.072 J0.011
X33.451 Y-0.857 Z-2.745 I-0.072 J-0.011
X33.595 Y-0.835 Z-2.753 I0.072 J0.011
X33.451 Y-0.857 Z-2.761 I-0.072 J-0.011
X33.595 Y-0.835 Z-2.769 I0.072 J0.011
X33.451 Y-0.857 Z-2.777 I-0.072 J-0.011
X33.595 Y-0.835 Z-2.785 I0.072 J0.011
X33.451 Y-0.857 Z-2.793 I-0.072 J-0.011
X33.595 Y-0.835 Z-2.801 I0.072 J0.011
X33.451 Y-0.857 Z-2.809 I-0.072 J-0.011
X33.595 Y-0.835 Z-2.817 I0.072 J0.011
X33.451 Y-0.857 Z-2.825 I-0.072 J-0.011
X33.595 Y-0.835 Z-2.833 I0.072 J0.011
X33.451 Y-0.857 Z-2.841 I-0.072 J-0.011
X33.595 Y-0.835 Z-2.849 I0.072 J0.011
X33.451 Y-0.857 Z-2.857 I-0.072 J-0.011
X33.595 Y-0.835 Z-2.865 I0.072 J0.011
X33.451 Y-0.857 Z-2.873 I-0.072 J-0.011
X33.595 Y-0.835 Z-2.881 I0.072 J0.011
X33.451 Y-0.857 Z-2.889 I-0.072 J-0.011
X33.595 Y-0.835 Z-2.897 I0.072 J0.011
X33.451 Y-0.857 Z-2.905 I-0.072 J-0.011
X33.595 Y-0.835 Z-2.913 I0.072 J0.011
X33.451 Y-0.857 Z-2.921 I-0.072 J-0.011
X33.595 Y-0.835 Z-2.929 I0.072 J0.011
X33.451 Y-0.857 Z-2.937 I-0.072 J-0.011
X33.595 Y-0.835 Z-2.945 I0.072 J0.011
X33.451 Y-0.857 Z-2.953 I-0.072 J-0.011
X33.595 Y-0.835 Z-2.961 I0.072 J0.011
X33.451 Y-0.857 Z-2.969 I-0.072 J-0.011
X33.595 Y-0.835 Z-2.977 I0.072 J0.011
X33.451 Y-0.857 Z-2.984 I-0.072 J-0.011
X33.595 Y-0.835 Z-2.992 I0.072 J0.011
X33.451 Y-0.844 Z-3 I-0.072 J-0.011
G1 Y-0.846
G3 X33.768 Y-1.164 I0.318
G1 X34.069 Z-3.01
X34.071 Z-3.011
X34.073 Y-1.166
X34.078 Y-1.17
X34.096 Y-1.186 Z-3.012
X34.132 Y-1.216 Z-3.013
X34.182 Y-1.255 Z-3.016
X34.244 Y-1.299 Z-3.018
X34.305 Y-1.338 Z-3.021
X34.307 Y-1.339
X34.428 Y-1.407 Z-3.026
X34.55 Y-1.462 Z-3.03
X34.551
X34.673 Y-1.507 Z-3.035
X34.796 Y-1.541 Z-3.039
X34.919 Y-1.565 Z-3.044
X35.042 Y-1.58 Z-3.048
X35.071 Y-1.583 Z-3.049
X35.088 Y-1.584 Z-3.05
X35.071 Y-1.583
X35.042 Y-1.58 Z-3.051
X34.919 Y-1.565 Z-3.056
X34.796 Y-1.541 Z-3.06
X34.673 Y-1.507 Z-3.064
X34.551 Y-1.462 Z-3.069
X34.55
X34.428 Y-1.407 Z-3.074
X34.307 Y-1.339 Z-3.079
X34.305 Y-1.338
X34.244 Y-1.299 Z-3.081
X34.182 Y-1.255 Z-3.084
X34.132 Y-1.216 Z-3.086
X34.096 Y-1.186 Z-3.088
X34.078 Y-1.17 Z-3.089
X34.073 Y-1.166
X34.071 Y-1.164
X34.069
X31.93 Z-3.164
X31.928 Y-1.165
X31.926 Y-1.167
X31.92 Y-1.172
X31.868 Y-1.216 Z-3.166
X31.849 Y-1.231 Z-3.167
X31.788 Y-1.277 Z-3.17
X31.726 Y-1.318 Z-3.173
X31.693 Y-1.339 Z-3.174
X31.604 Y-1.39 Z-3.178
X31.481 Y-1.449 Z-3.182
X31.45 Y-1.462 Z-3.183
X31.358 Y-1.496 Z-3.187
X31.235 Y-1.533 Z-3.191
X31.113 Y-1.56 Z-3.196
X30.99 Y-1.577 Z-3.2
X30.949 Y-1.581 Z-3.202
X30.934 Y-1.582
X30.921 Y-1.583
X30.934 Y-1.582 Z-3.203
X30.949 Y-1.581
X30.99 Y-1.577 Z-3.205
X31.113 Y-1.56 Z-3.209
X31.235 Y-1.533 Z-3.214
X31.358 Y-1.496 Z-3.218
X31.45 Y-1.462 Z-3.221
X31.481 Y-1.449 Z-3.223
X31.604 Y-1.39 Z-3.227
X31.693 Y-1.339 Z-3.231
X31.726 Y-1.318 Z-3.232
X31.788 Y-1.277 Z-3.235
X31.849 Y-1.231 Z-3.238
X31.868 Y-1.216
X31.92 Y-1.172 Z-3.241
X31.926 Y-1.167
X31.928 Y-1.165
X31.93 Y-1.164
X34.069 Z-3.316
X34.071
X34.073 Y-1.166
X34.078 Y-1.17
X34.096 Y-1.186 Z-3.317
X34.132 Y-1.216 Z-3.319
X34.182 Y-1.255 Z-3.321
X34.244 Y-1.299 Z-3.324
X34.305 Y-1.338 Z-3.326
X34.307 Y-1.339
X34.428 Y-1.407 Z-3.331
X34.55 Y-1.462 Z-3.336
X34.551
X34.673 Y-1.507 Z-3.34
X34.796 Y-1.541 Z-3.345
X34.919 Y-1.565 Z-3.349
X35.042 Y-1.58 Z-3.354
X35.071 Y-1.583 Z-3.355
X35.088 Y-1.584
X35.071 Y-1.583 Z-3.356
X35.042 Y-1.58 Z-3.357
X34.919 Y-1.565 Z-3.361
X34.796 Y-1.541 Z-3.366
X34.673 Y-1.507 Z-3.37
X34.551 Y-1.462 Z-3.375
X34.55
X34.428 Y-1.407 Z-3.379
X34.307 Y-1.339 Z-3.384
X34.305 Y-1.338
X34.244 Y-1.299 Z-3.387
X34.182 Y-1.255 Z-3.389
X34.132 Y-1.216 Z-3.392
X34.096 Y-1.186 Z-3.393
X34.078 Y-1.17 Z-3.394
X34.073 Y-1.166
X34.071 Y-1.164
X34.069
X31.93 Z-3.469
X31.928 Y-1.165
X31.926 Y-1.167
X31.92 Y-1.172 Z-3.47
X31.868 Y-1.216 Z-3.472
X31.849 Y-1.231 Z-3.473
X31.788 Y-1.277 Z-3.475
X31.726 Y-1.318 Z-3.478
X31.693 Y-1.339 Z-3.479
X31.604 Y-1.39 Z-3.483
X31.481 Y-1.449 Z-3.488
X31.45 Y-1.462 Z-3.489
X31.358 Y-1.496 Z-3.492
X31.235 Y-1.533 Z-3.497
X31.113 Y-1.56 Z-3.501
X30.99 Y-1.577 Z-3.506
X30.949 Y-1.581 Z-3.507
X30.934 Y-1.582 Z-3.508
X30.921 Y-1.583
X30.934 Y-1.582
X30.949 Y-1.581
X30.99 Y-1.577
X31.113 Y-1.56
X31.235 Y-1.533
X31.358 Y-1.496
X31.45 Y-1.462
X31.481 Y-1.449
X31.604 Y-1.39
X31.693 Y-1.339
X31.726 Y-1.318
X31.788 Y-1.277
X31.849 Y-1.231
X31.868 Y-1.216
X31.92 Y-1.172
X31.926 Y-1.167
X31.928 Y-1.165
X31.93 Y-1.164
X34.069
X34.071
X34.073 Y-1.166
X34.078 Y-1.17
X34.096 Y-1.186
X34.132 Y-1.216
X34.182 Y-1.255
X34.244 Y-1.299
X34.305 Y-1.338
X34.307 Y-1.339
X34.428 Y-1.407
X34.55 Y-1.462
X34.551
X34.673 Y-1.507
X34.796 Y-1.541
X34.919 Y-1.565
X35.042 Y-1.58
X35.071 Y-1.583
X35.088 Y-1.584
G3 X34.742 Y-1.869 I-0.031 J-0.316
G1 X34.735 Y-1.939 Z-3.5
X34.728 Y-2.006 Z-3.477
X34.722 Y-2.066 Z-3.439
X34.718 Y-2.116 Z-3.388
X34.714 Y-2.154 Z-3.328
X34.712 Y-2.177 Z-3.261
X34.711 Y-2.185 Z-3.191
G0 Z5.08
X32.116 Y-1.358
Z0.25
G1 Z-2.949 F1025.6
X32.117 Y-1.357 Z-2.959
Y-1.351 Z-2.967
X32.116 Y-1.344 Z-2.972
X32.111 Y-1.335 Z-2.975
G3 X32.072 Y-1.368 Z-2.977 I-0.02 J-0.016
X32.111 Y-1.335 Z-2.98 I0.02 J0.016
X32.072 Y-1.368 Z-2.983 I-0.02 J-0.016
X32.111 Y-1.335 Z-2.986 I0.02 J0.016
X32.072 Y-1.368 Z-2.989 I-0.02 J-0.016
X32.111 Y-1.335 Z-2.991 I0.02 J0.016
X32.072 Y-1.368 Z-2.994 I-0.02 J-0.016
X32.111 Y-1.335 Z-2.997 I0.02 J0.016
X32.072 Y-1.368 Z-3 I-0.02 J-0.016
X32.111 Y-1.335 Z-3.003 I0.02 J0.016
X32.072 Y-1.368 Z-3.005 I-0.02 J-0.016
X32.111 Y-1.335 Z-3.008 I0.02 J0.016
X32.072 Y-1.368 Z-3.011 I-0.02 J-0.016
X32.111 Y-1.335 Z-3.014 I0.02 J0.016
X32.072 Y-1.368 Z-3.017 I-0.02 J-0.016
X32.111 Y-1.335 Z-3.019 I0.02 J0.016
X32.072 Y-1.368 Z-3.022 I-0.02 J-0.016
X32.111 Y-1.335 Z-3.025 I0.02 J0.016
X32.072 Y-1.368 Z-3.028 I-0.02 J-0.016
X32.111 Y-1.335 Z-3.031 I0.02 J0.016
X32.072 Y-1.368 Z-3.033 I-0.02 J-0.016
X32.111 Y-1.335 Z-3.036 I0.02 J0.016
X32.072 Y-1.368 Z-3.039 I-0.02 J-0.016
X32.111 Y-1.335 Z-3.042 I0.02 J0.016
X32.072 Y-1.368 Z-3.044 I-0.02 J-0.016
X32.111 Y-1.335 Z-3.047 I0.02 J0.016
X32.072 Y-1.368 Z-3.05 I-0.02 J-0.016
X32.111 Y-1.335 Z-3.053 I0.02 J0.016
X32.072 Y-1.368 Z-3.056 I-0.02 J-0.016
X32.111 Y-1.335 Z-3.058 I0.02 J0.016
X32.072 Y-1.368 Z-3.061 I-0.02 J-0.016
X32.111 Y-1.335 Z-3.064 I0.02 J0.016
X32.072 Y-1.368 Z-3.067 I-0.02 J-0.016
X32.111 Y-1.335 Z-3.07 I0.02 J0.016
X32.072 Y-1.368 Z-3.072 I-0.02 J-0.016
X32.111 Y-1.335 Z-3.075 I0.02 J0.016
X32.072 Y-1.368 Z-3.078 I-0.02 J-0.016
X32.111 Y-1.335 Z-3.081 I0.02 J0.016
X32.072 Y-1.368 Z-3.084 I-0.02 J-0.016
X32.111 Y-1.335 Z-3.086 I0.02 J0.016
X32.072 Y-1.368 Z-3.089 I-0.02 J-0.016
X32.111 Y-1.335 Z-3.092 I0.02 J0.016
X32.072 Y-1.368 Z-3.095 I-0.02 J-0.016
X32.111 Y-1.335 Z-3.098 I0.02 J0.016
X32.072 Y-1.368 Z-3.1 I-0.02 J-0.016
X32.111 Y-1.335 Z-3.103 I0.02 J0.016
X32.072 Y-1.368 Z-3.106 I-0.02 J-0.016
X32.111 Y-1.335 Z-3.109 I0.02 J0.016
X32.072 Y-1.368 Z-3.112 I-0.02 J-0.016
X32.111 Y-1.335 Z-3.114 I0.02 J0.016
X32.072 Y-1.368 Z-3.117 I-0.02 J-0.016
X32.111 Y-1.335 Z-3.12 I0.02 J0.016
X32.072 Y-1.368 Z-3.123 I-0.02 J-0.016
X32.111 Y-1.335 Z-3.126 I0.02 J0.016
X32.072 Y-1.368 Z-3.128 I-0.02 J-0.016
X32.111 Y-1.335 Z-3.131 I0.02 J0.016
X32.072 Y-1.368 Z-3.134 I-0.02 J-0.016
X32.111 Y-1.335 Z-3.137 I0.02 J0.016
X32.072 Y-1.368 Z-3.14 I-0.02 J-0.016
X32.111 Y-1.335 Z-3.142 I0.02 J0.016
X32.072 Y-1.368 Z-3.145 I-0.02 J-0.016
X32.111 Y-1.335 Z-3.148 I0.02 J0.016
X32.072 Y-1.368 Z-3.151 I-0.02 J-0.016
X32.111 Y-1.335 Z-3.154 I0.02 J0.016
X32.072 Y-1.368 Z-3.156 I-0.02 J-0.016
X32.111 Y-1.335 Z-3.159 I0.02 J0.016
X32.072 Y-1.368 Z-3.162 I-0.02 J-0.016
X32.111 Y-1.335 Z-3.165 I0.02 J0.016
X32.072 Y-1.368 Z-3.168 I-0.02 J-0.016
X32.111 Y-1.335 Z-3.17 I0.02 J0.016
X32.072 Y-1.368 Z-3.173 I-0.02 J-0.016
X32.111 Y-1.335 Z-3.176 I0.02 J0.016
X32.072 Y-1.368 Z-3.179 I-0.02 J-0.016
X32.111 Y-1.335 Z-3.182 I0.02 J0.016
X32.072 Y-1.368 Z-3.184 I-0.02 J-0.016
X32.111 Y-1.335 Z-3.187 I0.02 J0.016
X32.072 Y-1.368 Z-3.19 I-0.02 J-0.016
X32.111 Y-1.335 Z-3.193 I0.02 J0.016
X32.072 Y-1.368 Z-3.195 I-0.02 J-0.016
X32.111 Y-1.335 Z-3.198 I0.02 J0.016
X32.072 Y-1.368 Z-3.201 I-0.02 J-0.016
X32.111 Y-1.335 Z-3.204 I0.02 J0.016
X32.072 Y-1.368 Z-3.207 I-0.02 J-0.016
X32.111 Y-1.335 Z-3.209 I0.02 J0.016
X32.072 Y-1.368 Z-3.212 I-0.02 J-0.016
X32.111 Y-1.335 Z-3.215 I0.02 J0.016
X32.072 Y-1.368 Z-3.218 I-0.02 J-0.016
X32.111 Y-1.335 Z-3.221 I0.02 J0.016
X32.072 Y-1.368 Z-3.223 I-0.02 J-0.016
X32.111 Y-1.335 Z-3.226 I0.02 J0.016
X32.072 Y-1.368 Z-3.229 I-0.02 J-0.016
X32.111 Y-1.335 Z-3.232 I0.02 J0.016
X32.072 Y-1.368 Z-3.235 I-0.02 J-0.016
X32.111 Y-1.335 Z-3.237 I0.02 J0.016
X32.072 Y-1.368 Z-3.24 I-0.02 J-0.016
X32.111 Y-1.335 Z-3.243 I0.02 J0.016
X32.072 Y-1.368 Z-3.246 I-0.02 J-0.016
X32.111 Y-1.335 Z-3.249 I0.02 J0.016
X32.072 Y-1.368 Z-3.251 I-0.02 J-0.016
X32.111 Y-1.335 Z-3.254 I0.02 J0.016
X32.072 Y-1.368 Z-3.257 I-0.02 J-0.016
X32.111 Y-1.335 Z-3.26 I0.02 J0.016
X32.072 Y-1.368 Z-3.263 I-0.02 J-0.016
X32.111 Y-1.335 Z-3.265 I0.02 J0.016
X32.072 Y-1.368 Z-3.268 I-0.02 J-0.016
X32.111 Y-1.335 Z-3.271 I0.02 J0.016
X32.072 Y-1.368 Z-3.274 I-0.02 J-0.016
X32.111 Y-1.335 Z-3.277 I0.02 J0.016
X32.072 Y-1.368 Z-3.279 I-0.02 J-0.016
X32.111 Y-1.335 Z-3.282 I0.02 J0.016
X32.072 Y-1.368 Z-3.285 I-0.02 J-0.016
X32.111 Y-1.335 Z-3.288 I0.02 J0.016
X32.072 Y-1.368 Z-3.291 I-0.02 J-0.016
X32.111 Y-1.335 Z-3.293 I0.02 J0.016
X32.072 Y-1.368 Z-3.296 I-0.02 J-0.016
X32.111 Y-1.335 Z-3.299 I0.02 J0.016
X32.072 Y-1.368 Z-3.302 I-0.02 J-0.016
X32.111 Y-1.335 Z-3.305 I0.02 J0.016
X32.072 Y-1.368 Z-3.307 I-0.02 J-0.016
X32.111 Y-1.335 Z-3.31 I0.02 J0.016
X32.072 Y-1.368 Z-3.313 I-0.02 J-0.016
X32.111 Y-1.335 Z-3.316 I0.02 J0.016
X32.072 Y-1.368 Z-3.319 I-0.02 J-0.016
X32.111 Y-1.335 Z-3.321 I0.02 J0.016
X32.072 Y-1.368 Z-3.324 I-0.02 J-0.016
X32.111 Y-1.335 Z-3.327 I0.02 J0.016
X32.072 Y-1.368 Z-3.33 I-0.02 J-0.016
X32.111 Y-1.335 Z-3.332 I0.02 J0.016
X32.072 Y-1.368 Z-3.335 I-0.02 J-0.016
X32.111 Y-1.335 Z-3.338 I0.02 J0.016
X32.072 Y-1.368 Z-3.341 I-0.02 J-0.016
X32.111 Y-1.335 Z-3.344 I0.02 J0.016
X32.072 Y-1.368 Z-3.346 I-0.02 J-0.016
X32.111 Y-1.335 Z-3.349 I0.02 J0.016
X32.072 Y-1.368 Z-3.352 I-0.02 J-0.016
X32.111 Y-1.335 Z-3.355 I0.02 J0.016
X32.072 Y-1.368 Z-3.358 I-0.02 J-0.016
X32.111 Y-1.335 Z-3.36 I0.02 J0.016
X32.072 Y-1.368 Z-3.363 I-0.02 J-0.016
X32.111 Y-1.335 Z-3.366 I0.02 J0.016
X32.072 Y-1.368 Z-3.369 I-0.02 J-0.016
X32.111 Y-1.335 Z-3.372 I0.02 J0.016
X32.072 Y-1.368 Z-3.374 I-0.02 J-0.016
X32.111 Y-1.335 Z-3.377 I0.02 J0.016
X32.072 Y-1.368 Z-3.38 I-0.02 J-0.016
X32.111 Y-1.335 Z-3.383 I0.02 J0.016
X32.072 Y-1.368 Z-3.386 I-0.02 J-0.016
X32.111 Y-1.335 Z-3.388 I0.02 J0.016
X32.072 Y-1.368 Z-3.391 I-0.02 J-0.016
X32.111 Y-1.335 Z-3.394 I0.02 J0.016
X32.072 Y-1.368 Z-3.397 I-0.02 J-0.016
X32.111 Y-1.335 Z-3.4 I0.02 J0.016
X32.072 Y-1.368 Z-3.402 I-0.02 J-0.016
X32.111 Y-1.335 Z-3.405 I0.02 J0.016
X32.072 Y-1.368 Z-3.408 I-0.02 J-0.016
X32.111 Y-1.335 Z-3.411 I0.02 J0.016
X32.072 Y-1.368 Z-3.414 I-0.02 J-0.016
X32.111 Y-1.335 Z-3.416 I0.02 J0.016
X32.072 Y-1.368 Z-3.419 I-0.02 J-0.016
X32.111 Y-1.335 Z-3.422 I0.02 J0.016
X32.072 Y-1.368 Z-3.425 I-0.02 J-0.016
X32.111 Y-1.335 Z-3.428 I0.02 J0.016
X32.072 Y-1.368 Z-3.43 I-0.02 J-0.016
X32.111 Y-1.335 Z-3.433 I0.02 J0.016
X32.072 Y-1.368 Z-3.436 I-0.02 J-0.016
X32.111 Y-1.335 Z-3.439 I0.02 J0.016
X32.072 Y-1.368 Z-3.442 I-0.02 J-0.016
X32.111 Y-1.335 Z-3.444 I0.02 J0.016
X32.072 Y-1.368 Z-3.447 I-0.02 J-0.016
X32.111 Y-1.335 Z-3.45 I0.02 J0.016
X32.072 Y-1.368 Z-3.453 I-0.02 J-0.016
X32.111 Y-1.335 Z-3.456 I0.02 J0.016
X32.072 Y-1.368 Z-3.458 I-0.02 J-0.016
X32.111 Y-1.335 Z-3.461 I0.02 J0.016
X32.072 Y-1.368 Z-3.464 I-0.02 J-0.016
X32.111 Y-1.335 Z-3.467 I0.02 J0.016
X32.072 Y-1.368 Z-3.469 I-0.02 J-0.016
X32.111 Y-1.335 Z-3.472 I0.02 J0.016
X32.072 Y-1.368 Z-3.475 I-0.02 J-0.016
X32.111 Y-1.335 Z-3.478 I0.02 J0.016
X32.072 Y-1.368 Z-3.481 I-0.02 J-0.016
X32.111 Y-1.335 Z-3.483 I0.02 J0.016
X32.072 Y-1.368 Z-3.486 I-0.02 J-0.016
X32.111 Y-1.335 Z-3.489 I0.02 J0.016
X32.072 Y-1.368 Z-3.492 I-0.02 J-0.016
X32.111 Y-1.335 Z-3.495 I0.02 J0.016
X32.072 Y-1.368 Z-3.497 I-0.02 J-0.016
X32.111 Y-1.335 Z-3.5 I0.02 J0.016
X32.072 Y-1.368 Z-3.503 I-0.02 J-0.016
X32.111 Y-1.335 Z-3.506 I0.02 J0.016
X32.066 Y-1.351 Z-3.508 I-0.02 J-0.016
X32.196 Y-1.481 I0.13
G1 X34.478 Z-3.588
X34.48
X34.482 Y-1.482
X34.489 Y-1.485
X34.551 Y-1.506 Z-3.59
X34.673 Y-1.541 Z-3.595
X34.796 Y-1.566 Z-3.599
X34.919 Y-1.582 Z-3.604
X34.941 Y-1.583
X34.96 Y-1.584 Z-3.605
X34.941 Y-1.583 Z-3.606
X34.919 Y-1.582
X34.796 Y-1.566 Z-3.611
X34.673 Y-1.541 Z-3.615
X34.551 Y-1.506 Z-3.62
X34.489 Y-1.485 Z-3.622
X34.482 Y-1.482
X34.48 Y-1.481
X34.478
X31.521 Z-3.725
X31.519 Y-1.482 Z-3.726
X31.512 Y-1.485
X31.481 Y-1.496 Z-3.727
X31.358 Y-1.533 Z-3.731
X31.235 Y-1.561 Z-3.736
X31.113 Y-1.578 Z-3.74
X31.078 Y-1.582 Z-3.741
X31.062 Y-1.583 Z-3.742
X31.078 Y-1.582 Z-3.743
X31.113 Y-1.578 Z-3.744
X31.235 Y-1.561 Z-3.748
X31.358 Y-1.533 Z-3.752
X31.481 Y-1.496 Z-3.757
X31.512 Y-1.485 Z-3.758
X31.519 Y-1.482
X31.521 Y-1.481
X34.478 Z-3.862
X34.48
X34.482 Y-1.482
X34.489 Y-1.485
X34.551 Y-1.506 Z-3.864
X34.673 Y-1.541 Z-3.869
X34.796 Y-1.566 Z-3.873
X34.919 Y-1.582 Z-3.878
X34.941 Y-1.583
X34.96 Y-1.584 Z-3.879
X34.941 Y-1.583 Z-3.88
X34.919 Y-1.582
X34.796 Y-1.566 Z-3.885
X34.673 Y-1.541 Z-3.889
X34.551 Y-1.506 Z-3.894
X34.489 Y-1.485 Z-3.896
X34.482 Y-1.482
X34.48 Y-1.481
X34.478
X31.521 Z-4
X31.519 Y-1.482
X31.512 Y-1.485
X31.481 Y-1.496 Z-4.001
X31.358 Y-1.533 Z-4.005
X31.235 Y-1.561 Z-4.01
X31.113 Y-1.578 Z-4.014
X31.078 Y-1.582 Z-4.015
X31.062 Y-1.583 Z-4.016
X31.078 Y-1.582
X31.113 Y-1.578
X31.235 Y-1.561
X31.358 Y-1.533
X31.481 Y-1.496
X31.512 Y-1.485
X31.519 Y-1.482
X31.521 Y-1.481
X34.478
X34.48
X34.482 Y-1.482
X34.489 Y-1.485
X34.551 Y-1.506
X34.673 Y-1.541
X34.796 Y-1.566
X34.919 Y-1.582
X34.941 Y-1.583
X34.96 Y-1.584
G3 X34.613 Y-1.87 I-0.031 J-0.316
G1 X34.606 Y-1.94 Z-4.008
X34.6 Y-2.007 Z-3.985
X34.594 Y-2.067 Z-3.947
X34.589 Y-2.117 Z-3.896
X34.585 Y-2.154 Z-3.836
X34.583 Y-2.178 Z-3.769
X34.582 Y-2.186 Z-3.698
G0 Z5.08
X32.435 Y60.908
Z0.166
G1 Z-2.389 F1025.6
X32.433 Y60.907 Z-2.406
X32.429 Y60.903 Z-2.422
X32.423 Y60.897 Z-2.437
G3 X32.416 Y60.887 Z-2.449 I0.059 J-0.05
X32.41 Y60.875 Z-2.458 I0.066 J-0.041
X32.405 Y60.859 Z-2.464 I0.072 J-0.028
X32.404 Y60.843 Z-2.467 I0.076 J-0.013
X32.559 Y60.85 Z-2.475 I0.077 J0.004
X32.404 Y60.843 Z-2.484 I-0.077 J-0.004
X32.559 Y60.85 Z-2.492 I0.077 J0.004
X32.404 Y60.843 Z-2.5 I-0.077 J-0.004
X32.559 Y60.85 Z-2.509 I0.077 J0.004
X32.404 Y60.843 Z-2.517 I-0.077 J-0.004
X32.559 Y60.85 Z-2.526 I0.077 J0.004
X32.404 Y60.843 Z-2.534 I-0.077 J-0.004
X32.559 Y60.85 Z-2.543 I0.077 J0.004
X32.404 Y60.843 Z-2.551 I-0.077 J-0.004
X32.559 Y60.85 Z-2.56 I0.077 J0.004
X32.404 Y60.843 Z-2.568 I-0.077 J-0.004
